assets/luts/LUTs/AM __ Mavic2Pro D-Log LUT.CUBE
LUT_3D_SIZE 16
0.000000 0.000000 0.000000
0.000000 0.000000 0.000000
0.037987 0.000000 0.000000
0.105542 0.000000 0.000000
0.186308 0.000000 0.000000
0.271275 0.000000 0.000000
0.356592 0.000000 0.000000
0.443043 0.000000 0.000000
0.532687 0.000000 0.000000
0.616718 0.000000 0.000000
0.699357 0.000000 0.000000
0.784321 0.000000 0.000000
0.868466 0.000000 0.000000
0.940507 0.000000 0.000000
0.985801 0.000000 0.000000
1.000006 0.000000 0.000000
0.000000 0.000000 0.000000
0.000000 0.000000 0.000000
0.037987 0.000000 0.000000
0.105542 0.000000 0.000000
0.186308 0.000000 0.000000
0.271275 0.000000 0.000000
0.356592 0.000000 0.000000
0.443043 0.000000 0.000000
0.532687 0.000000 0.000000
0.616718 0.000000 0.000000
0.699357 0.000000 0.000000
0.784321 0.000000 0.000000
0.868466 0.000000 0.000000
0.940507 0.000000 0.000000
0.985801 0.000000 0.000000
1.000006 0.000000 0.000000
0.000000 0.037987 0.000000
0.000000 0.037988 0.000000
0.037988 0.037988 0.000000
0.105542 0.015152 0.000000
0.186308 0.060304 0.000000
0.271275 0.081781 0.000000
0.356592 0.095158 0.000000
0.443043 0.104829 0.000000
0.532687 0.112920 0.000000
0.616718 0.117547 0.000000
0.699357 0.120878 0.000000
0.784321 0.124115 0.000000
0.868466 0.126684 0.000000
0.940507 0.126503 0.000000
0.985801 0.121837 0.000000
1.000006 0.112416 0.000000
0.000000 0.105541 0.000000
0.000000 0.105541 0.000000
0.015149 0.105541 0.000000
0.105541 0.105541 0.000000
0.204576 0.123708 0.014032
0.275326 0.150678 0.003666
0.356592 0.167710 0.000000
0.443043 0.179547 0.000000
0.532687 0.189733 0.000000
0.616718 0.195683 0.000000
0.699357 0.200045 0.000000
0.784321 0.204328 0.000000
0.868466 0.207687 0.000000
0.940506 0.207492 0.000000
0.985800 0.201275 0.000000
1.000005 0.189155 0.000000
0.000000 0.186307 0.000000
0.000000 0.186307 0.000000
0.060301 0.186307 0.000000
0.130535 0.186307 0.000000
0.186306 0.186306 0.000000
0.299576 0.202734 0.018456
0.380319 0.223403 0.019328
0.449180 0.245021 0.005584
0.532714 0.260446 0.000000
0.616718 0.268100 0.000000
0.699357 0.273695 0.000000
0.784321 0.279182 0.000000
0.868466 0.283533 0.000000
0.940506 0.283255 0.000000
0.985800 0.275285 0.000000
1.000005 0.259723 0.000000
0.000000 0.271274 0.000000
0.000000 0.271274 0.000000
0.081768 0.271274 0.000000
0.152245 0.271274 0.000000
0.213039 0.271274 0.000000
0.271273 0.271273 0.000000
0.383693 0.285370 0.015581
0.487974 0.296503 0.034244
0.556311 0.320312 0.019955
0.623229 0.336170 0.006058
0.699655 0.345585 0.000230
0.784320 0.352392 0.000000
0.868465 0.357750 0.000000
0.940505 0.357464 0.000000
0.985799 0.347658 0.000000
1.000005 0.328391 0.000000
0.000000 0.356590 0.000000
0.000000 0.356590 0.000000
0.095163 0.356590 0.000000
0.167704 0.356589 0.000000
0.232426 0.356589 0.000000
0.294993 0.356589 0.000000
0.356589 0.356589 0.000000
0.465748 0.370405 0.011878
0.592737 0.375233 0.042942
0.662285 0.391337 0.036695
0.721180 0.408433 0.018979
0.790939 0.422378 0.006092
0.868796 0.431100 0.000400
0.940504 0.430881 0.000000
0.985799 0.419269 0.000000
1.000005 0.396402 0.000000
0.000000 0.443055 0.000000
0.000000 0.443055 0.000000
0.104822 0.443055 0.000000
0.179538 0.443054 0.000000
0.247449 0.443054 0.000000
0.313290 0.443054 0.000000
0.378350 0.443054 0.000000
0.443054 0.443054 0.000000
0.550241 0.459049 0.008567
0.683388 0.453823 0.044677
0.766599 0.462475 0.051938
0.826981 0.480893 0.035398
0.888843 0.496594 0.017990
0.946774 0.501599 0.005966
0.986290 0.490198 0.000503
1.000005 0.463883 0.000000
0.000000 0.532683 0.000000
0.000000 0.532683 0.000000
0.112892 0.532683 0.000000
0.189720 0.532683 0.000000
0.260472 0.532683 0.000000
0.329338 0.532683 0.000000
0.397434 0.532683 0.000000
0.465141 0.532682 0.000000
0.532682 0.532682 0.000000
0.629132 0.543237 0.005760
0.767378 0.533784 0.042770
0.869792 0.537239 0.063452
0.933926 0.552698 0.052637
0.979359 0.562090 0.033077
1.003792 0.554526 0.016169
1.005563 0.529074 0.005281
0.000000 0.616716 0.000000
0.000000 0.616716 0.000000
0.117506 0.616716 0.000000
0.195663 0.616716 0.000000
0.268100 0.616716 0.000000
0.338763 0.616716 0.000000
0.408670 0.616716 0.000000
0.478159 0.616716 0.000000
0.547453 0.616715 0.000000
0.616715 0.616715 0.000000
0.707528 0.626113 0.003582
0.850555 0.617303 0.039273
0.966409 0.614276 0.069670
1.027292 0.617207 0.067634
1.044447 0.610057 0.048307
1.032514 0.585847 0.028129
0.000000 0.699353 0.000000
0.000000 0.699353 0.000000
0.120844 0.699353 0.000000
0.200037 0.699353 0.000000
0.273706 0.699353 0.000000
0.345670 0.699352 0.000000
0.416846 0.699352 0.000000
0.487758 0.699352 0.000000
0.558388 0.699352 0.000000
0.628934 0.699352 0.000000
0.699351 0.699351 0.000000
0.789084 0.711008 0.002031
0.930518 0.701191 0.034950
1.044189 0.684458 0.070691
1.088510 0.664705 0.077698
1.075830 0.636698 0.060819
0.000000 0.784316 0.000000
0.000000 0.784316 0.000000
0.124090 0.784316 0.000000
0.204300 0.784316 0.000000
0.279184 0.784316 0.000000
0.352385 0.784316 0.000000
0.424978 0.784316 0.000000
0.497056 0.784316 0.000000
0.569091 0.784315 0.000000
0.640876 0.784315 0.000000
0.712534 0.784314 0.000000
0.784314 0.784314 0.000000
0.870699 0.795150 0.000929
0.996254 0.775533 0.030117
1.088694 0.736560 0.067170
1.110950 0.691241 0.081378
0.000000 0.868575 0.000000
0.000000 0.868575 0.000000
0.126629 0.868575 0.000000
0.207638 0.868575 0.000000
0.283531 0.868575 0.000000
0.357730 0.868575 0.000000
0.431293 0.868575 0.000000
0.504532 0.868574 0.000000
0.577544 0.868574 0.000000
0.650417 0.868574 0.000000
0.723173 0.868573 0.000000
0.795821 0.868573 0.000000
0.868572 0.868572 0.000000
0.941114 0.867500 0.000299
1.033828 0.827653 0.024906
1.096762 0.764429 0.060705
0.000000 0.940528 0.000000
0.000000 0.940528 0.000000
0.126454 0.940528 0.000000
0.207430 0.940528 0.000000
0.283225 0.940528 0.000000
0.357439 0.940528 0.000000
0.430867 0.940528 0.000000
0.504077 0.940528 0.000000
0.577014 0.940527 0.000000
0.649863 0.940527 0.000000
0.722385 0.940526 0.000000
0.795234 0.940526 0.000000
0.867766 0.940525 0.000000
0.940524 0.940524 0.000000
0.985900 0.915271 0.000000
1.039505 0.852480 0.019766
0.000000 0.985789 0.000000
0.000000 0.985789 0.000000
0.121765 0.985789 0.000000
0.201267 0.985789 0.000000
0.275251 0.985789 0.000000
0.347644 0.985789 0.000000
0.419234 0.985789 0.000000
0.490467 0.985789 0.000000
0.561517 0.985788 0.000000
0.632340 0.985788 0.000000
0.703138 0.985787 0.000000
0.773866 0.985787 0.000000
0.844500 0.985786 0.000000
0.915243 0.985786 0.000000
0.985785 0.985785 0.000000
1.000001 0.933124 0.000000
0.000000 1.000002 0.000000
0.000000 1.000002 0.000000
0.112364 1.000002 0.000000
0.189104 1.000002 0.000000
0.259698 1.000002 0.000000
0.328381 1.000002 0.000000
0.396399 1.000002 0.000000
0.463867 1.000002 0.000000
0.531242 1.000002 0.000000
0.598346 1.000002 0.000000
0.665414 1.000001 0.000000
0.732397 1.000001 0.000000
0.799275 1.000001 0.000000
0.866223 1.000001 0.000000
0.933123 1.000001 0.000000
1.000000 1.000001 0.000000
0.000000 0.000000 0.000000
0.000000 0.000000 0.000000
0.037987 0.000000 0.000000
0.105542 0.000000 0.000000
0.186308 0.000000 0.000000
0.271275 0.000000 0.000000
0.356592 0.000000 0.000000
0.443043 0.000000 0.000000
0.532687 0.000000 0.000000
0.616718 0.000000 0.000000
0.699357 0.000000 0.000000
0.784321 0.000000 0.000000
0.868466 0.000000 0.000000
0.940507 0.000000 0.000000
0.985801 0.000000 0.000000
1.000006 0.000000 0.000000
0.000000 0.000000 0.000000
0.000000 0.000000 0.000000
0.037988 0.000000 0.000000
0.105542 0.000000 0.000000
0.186308 0.000000 0.000000
0.271275 0.000000 0.000000
0.356592 0.000000 0.000000
0.443043 0.000000 0.000000
0.532687 0.000000 0.000000
0.616718 0.000000 0.000000
0.699357 0.000000 0.000000
0.784321 0.000000 0.000000
0.868466 0.000000 0.000000
0.940506 0.000000 0.000000
0.985801 0.000000 0.000000
1.000006 0.000000 0.000000
0.000000 0.037987 0.000000
0.000000 0.037988 0.000000
0.037988 0.037987 0.000000
0.105542 0.048686 0.000000
0.186308 0.072416 0.000000
0.271275 0.088169 0.000000
0.356592 0.098575 0.000000
0.443043 0.106264 0.000000
0.532687 0.112829 0.000000
0.616718 0.116609 0.000000
0.699357 0.119385 0.000000
0.784321 0.122084 0.000000
0.868466 0.124181 0.000000
0.940506 0.124034 0.000000
0.985801 0.120119 0.000000
1.000005 0.112415 0.000000
0.000000 0.105541 0.000000
0.000000 0.105541 0.000000
0.048683 0.105541 0.000000
0.105541 0.105541 0.000000
0.205934 0.126048 0.014788
0.276218 0.152560 0.004435
0.356592 0.169097 0.000000
0.443043 0.180169 0.000000
0.532686 0.189681 0.000000
0.616718 0.195279 0.000000
0.699357 0.199330 0.000000
0.784321 0.203358 0.000000
0.868466 0.206485 0.000000
0.940506 0.206296 0.000000
0.985801 0.200484 0.000000
1.000005 0.189155 0.000000
0.000000 0.186307 0.000000
0.000000 0.186307 0.000000
0.072415 0.186307 0.000000
0.133385 0.186307 0.000000
0.186306 0.186306 0.000000
0.299163 0.203744 0.018055
0.380795 0.223908 0.019658
0.449245 0.245354 0.005695
0.532713 0.260422 0.000073
0.616718 0.267858 0.000000
0.699357 0.273274 0.000000
0.784321 0.278573 0.000000
0.868466 0.282772 0.000000
0.940506 0.282498 0.000000
0.985800 0.274806 0.000000
1.000005 0.259723 0.000000
0.000000 0.271274 0.000000
0.000000 0.271274 0.000000
0.088145 0.271274 0.000000
0.154469 0.271274 0.000000
0.213846 0.271274 0.000000
0.271273 0.271273 0.000000
0.383465 0.285683 0.015404
0.488100 0.296665 0.034293
0.556297 0.320340 0.019949
0.623133 0.336073 0.006012
0.699588 0.345248 0.000218
0.784320 0.352024 0.000000
0.868465 0.357224 0.000000
0.940505 0.356926 0.000000
0.985799 0.347290 0.000000
1.000005 0.328391 0.000000
0.000000 0.356590 0.000000
0.000000 0.356590 0.000000
0.098574 0.356590 0.000000
0.169065 0.356589 0.000000
0.233092 0.356589 0.000000
0.295228 0.356589 0.000000
0.356589 0.356589 0.000000
0.465633 0.370526 0.011830
0.592736 0.375258 0.042946
0.662181 0.391313 0.036647
0.721168 0.408298 0.018892
0.790842 0.422135 0.006016
0.868754 0.430824 0.000380
0.940504 0.430542 0.000000
0.985799 0.418954 0.000000
1.000005 0.396402 0.000000
0.000000 0.443055 0.000000
0.000000 0.443055 0.000000
0.106264 0.443055 0.000000
0.180160 0.443054 0.000000
0.247750 0.443054 0.000000
0.313535 0.443054 0.000000
0.378438 0.443054 0.000000
0.443054 0.443053 0.000000
0.550246 0.459037 0.008568
0.683419 0.453750 0.044701
0.766597 0.462464 0.051903
0.826800 0.480696 0.035300
0.888650 0.496440 0.017885
0.946696 0.501327 0.005899
0.986267 0.490059 0.000490
1.000005 0.463883 0.000000
0.000000 0.532683 0.000000
0.000000 0.532683 0.000000
0.112807 0.532683 0.000000
0.189700 0.532683 0.000000
0.260442 0.532683 0.000000
0.329367 0.532683 0.000000
0.397410 0.532682 0.000000
0.465135 0.532682 0.000000
0.532682 0.532682 0.000000
0.629126 0.543136 0.005770
0.767438 0.533772 0.042810
0.869746 0.537083 0.063436
0.933988 0.552569 0.052547
0.979201 0.561972 0.032978
1.003727 0.554418 0.016114
1.005563 0.529074 0.005281
0.000000 0.616716 0.000000
0.000000 0.616716 0.000000
0.116585 0.616716 0.000000
0.195273 0.616716 0.000000
0.267850 0.616716 0.000000
0.338624 0.616716 0.000000
0.408506 0.616716 0.000000
0.478091 0.616715 0.000000
0.547399 0.616715 0.000000
0.616715 0.616715 0.000000
0.707506 0.626069 0.003593
0.850623 0.617203 0.039322
0.966411 0.614118 0.069690
1.027204 0.617093 0.067583
1.044372 0.609977 0.048247
1.032514 0.585847 0.028129
0.000000 0.699353 0.000000
0.000000 0.699353 0.000000
0.119349 0.699353 0.000000
0.199356 0.699353 0.000000
0.273260 0.699353 0.000000
0.345333 0.699352 0.000000
0.416725 0.699352 0.000000
0.487575 0.699352 0.000000
0.558320 0.699352 0.000000
0.628868 0.699351 0.000000
0.699351 0.699351 0.000000
0.788980 0.710997 0.002039
0.930526 0.701029 0.035003
1.044192 0.684363 0.070727
1.088477 0.664690 0.077674
1.075830 0.636698 0.060819
0.000000 0.784316 0.000000
0.000000 0.784316 0.000000
0.122028 0.784316 0.000000
0.203315 0.784316 0.000000
0.278568 0.784316 0.000000
0.352017 0.784316 0.000000
0.424689 0.784316 0.000000
0.496859 0.784316 0.000000
0.568928 0.784315 0.000000
0.640823 0.784315 0.000000
0.712539 0.784315 0.000000
0.784314 0.784314 0.000000
0.870725 0.795080 0.000934
0.996348 0.775477 0.030161
1.088763 0.736494 0.067200
1.110950 0.691241 0.081378
0.000000 0.868575 0.000000
0.000000 0.868575 0.000000
0.124124 0.868575 0.000000
0.206450 0.868575 0.000000
0.282770 0.868575 0.000000
0.357192 0.868575 0.000000
0.430902 0.868575 0.000000
0.504260 0.868574 0.000000
0.577371 0.868574 0.000000
0.650272 0.868574 0.000000
0.722978 0.868573 0.000000
0.795954 0.868573 0.000000
0.868572 0.868572 0.000000
0.941127 0.867532 0.000304
1.033861 0.827549 0.024928
1.096762 0.764429 0.060705
0.000000 0.940528 0.000000
0.000000 0.940528 0.000000
0.123977 0.940528 0.000000
0.206264 0.940528 0.000000
0.282491 0.940528 0.000000
0.356926 0.940528 0.000000
0.430528 0.940528 0.000000
0.503785 0.940527 0.000000
0.576825 0.940527 0.000000
0.649692 0.940527 0.000000
0.722288 0.940526 0.000000
0.795124 0.940526 0.000000
0.867741 0.940525 0.000000
0.940524 0.940524 0.000000
0.985903 0.915223 0.000000
1.039505 0.852480 0.019766
0.000000 0.985789 0.000000
0.000000 0.985790 0.000000
0.120053 0.985789 0.000000
0.200426 0.985789 0.000000
0.274765 0.985789 0.000000
0.347276 0.985789 0.000000
0.418952 0.985789 0.000000
0.490199 0.985789 0.000000
0.561378 0.985788 0.000000
0.632278 0.985788 0.000000
0.703170 0.985787 0.000000
0.773941 0.985787 0.000000
0.844457 0.985786 0.000000
0.915259 0.985786 0.000000
0.985785 0.985785 0.000000
1.000001 0.933124 0.000000
0.000000 1.000002 0.000000
0.000000 1.000002 0.000000
0.112364 1.000002 0.000000
0.189104 1.000002 0.000000
0.259698 1.000002 0.000000
0.328381 1.000002 0.000000
0.396399 1.000002 0.000000
0.463867 1.000002 0.000000
0.531242 1.000002 0.000000
0.598346 1.000002 0.000000
0.665414 1.000001 0.000000
0.732397 1.000001 0.000000
0.799275 1.000001 0.000000
0.866223 1.000001 0.000000
0.933123 1.000001 0.000000
1.000000 1.000001 0.000000
0.000000 0.000000 0.037988
0.000000 0.000000 0.037987
0.037987 0.000000 0.037987
0.105542 0.000000 0.015158
0.186308 0.000000 0.060306
0.271275 0.000000 0.081782
0.356592 0.000000 0.095161
0.443043 0.000000 0.104822
0.532687 0.000000 0.112921
0.616718 0.000000 0.117549
0.699357 0.000000 0.120881
0.784321 0.000000 0.124118
0.868466 0.000000 0.126686
0.940507 0.000000 0.126508
0.985801 0.000000 0.121806
1.000006 0.000000 0.112417
0.000000 0.000000 0.037987
0.000000 0.000000 0.037988
0.037988 0.000000 0.037988
0.105542 0.000000 0.048688
0.186308 0.000000 0.072417
0.271275 0.000000 0.088170
0.356592 0.000000 0.098577
0.443043 0.000000 0.106265
0.532687 0.000000 0.112830
0.616718 0.000000 0.116611
0.699357 0.000000 0.119387
0.784321 0.000000 0.122064
0.868466 0.000000 0.124183
0.940507 0.000000 0.124038
0.985801 0.000000 0.120120
1.000006 0.000000 0.112417
0.000000 0.037988 0.037988
0.000000 0.037988 0.037988
0.037987 0.037987 0.037987
0.116879 0.015877 0.015877
0.192207 0.009417 0.009417
0.274765 0.009270 0.009270
0.358892 0.010589 0.010589
0.444732 0.012347 0.012347
0.533922 0.014337 0.014337
0.617683 0.016277 0.016277
0.700081 0.018218 0.018218
0.785005 0.019331 0.019331
0.868950 0.019919 0.019919
0.940889 0.020289 0.020289
0.986127 0.020430 0.020430
1.000006 0.027973 0.027973
0.000000 0.105541 0.015151
0.000000 0.105541 0.048684
0.010115 0.106993 0.010115
0.105861 0.105861 0.009698
0.202161 0.120987 0.021046
0.273685 0.140939 0.011010
0.358043 0.151615 0.011741
0.444217 0.159703 0.013447
0.533619 0.166939 0.015352
0.617459 0.171093 0.017186
0.699877 0.174143 0.019034
0.784883 0.177208 0.019780
0.868951 0.179652 0.020332
0.940765 0.179341 0.020653
0.986039 0.174508 0.020747
1.000005 0.165624 0.027961
0.000000 0.186307 0.060301
0.000000 0.186307 0.072418
0.010017 0.187008 0.010017
0.125529 0.186753 0.010240
0.186456 0.186456 0.010597
0.300337 0.198954 0.031504
0.374975 0.218429 0.028457
0.446527 0.236318 0.017631
0.533329 0.248175 0.016806
0.617211 0.254391 0.018518
0.699783 0.258943 0.019842
0.784734 0.263493 0.020460
0.868757 0.267116 0.020956
0.940681 0.266655 0.021209
0.986006 0.259399 0.021245
1.000005 0.245669 0.027946
0.000000 0.271274 0.081768
0.000000 0.271274 0.088146
0.012560 0.271689 0.012560
0.140573 0.271594 0.012805
0.209050 0.271518 0.013186
0.271387 0.271387 0.013706
0.385196 0.282052 0.032266
0.483364 0.293039 0.048557
0.551324 0.315183 0.034698
0.620912 0.328781 0.023915
0.699597 0.336167 0.020815
0.784690 0.342167 0.021379
0.868667 0.346806 0.021814
0.940536 0.346223 0.021987
0.985844 0.336852 0.021925
1.000005 0.318794 0.027929
0.000000 0.356590 0.095164
0.000000 0.356590 0.098575
0.015762 0.356924 0.015762
0.151242 0.356851 0.015980
0.224901 0.356786 0.016321
0.292016 0.356682 0.016787
0.356671 0.356670 0.017380
0.466969 0.367831 0.031867
0.589847 0.372338 0.062842
0.656875 0.388115 0.054749
0.717175 0.403769 0.037938
0.788922 0.416150 0.026822
0.868681 0.423587 0.022944
0.940462 0.422898 0.022954
0.985908 0.411404 0.022775
1.000005 0.389307 0.027908
0.000000 0.443055 0.104822
0.000000 0.443055 0.106264
0.019197 0.443238 0.019197
0.159585 0.443216 0.019383
0.237177 0.443202 0.019681
0.307951 0.443161 0.020093
0.376215 0.443114 0.020620
0.443162 0.443162 0.021260
0.551245 0.457012 0.031522
0.681657 0.451394 0.067627
0.761631 0.460223 0.072752
0.822334 0.477810 0.056168
0.885835 0.492486 0.039687
0.945302 0.496341 0.028684
0.986021 0.484683 0.023973
1.000005 0.458577 0.027889
0.000000 0.532683 0.112892
0.000000 0.532683 0.112807
0.022234 0.532818 0.022234
0.166997 0.532806 0.022340
0.248072 0.532788 0.022521
0.322065 0.532764 0.022772
0.393413 0.532735 0.023087
0.463380 0.532704 0.023486
0.532692 0.532692 0.023960
0.629818 0.541650 0.030713
0.766063 0.531843 0.067983
0.865505 0.535521 0.086980
0.929143 0.550661 0.075333
0.975633 0.559292 0.055909
1.001477 0.551032 0.039354
1.004450 0.525383 0.032206
0.000000 0.616716 0.117507
0.000000 0.616716 0.116585
0.024233 0.616708 0.024233
0.171262 0.616705 0.024329
0.254350 0.616721 0.024491
0.330221 0.616714 0.024717
0.403370 0.616706 0.025007
0.475060 0.616697 0.025371
0.546135 0.616689 0.025808
0.616703 0.616703 0.026318
0.707884 0.624950 0.030547
0.849502 0.615667 0.066491
0.962838 0.612809 0.095619
1.022393 0.615783 0.092006
1.040312 0.608295 0.072147
1.029617 0.583833 0.054095
0.000000 0.699353 0.120843
0.000000 0.699353 0.119349
0.026125 0.699404 0.026125
0.174418 0.699401 0.026211
0.258988 0.699396 0.026357
0.336181 0.699390 0.026560
0.410628 0.699383 0.026826
0.483593 0.699375 0.027156
0.555976 0.699367 0.027555
0.627824 0.699360 0.028011
0.699354 0.699354 0.028537
0.789414 0.709964 0.030947
0.929657 0.699872 0.063866
1.041046 0.683395 0.098268
1.083974 0.664068 0.103331
1.071586 0.635880 0.086365
0.000000 0.784316 0.124090
0.000000 0.784316 0.122028
0.027918 0.784393 0.027918
0.177609 0.784391 0.028000
0.263622 0.784388 0.028125
0.342179 0.784385 0.028307
0.417877 0.784382 0.028546
0.492252 0.784378 0.028836
0.565868 0.784374 0.029194
0.638998 0.784371 0.029615
0.711744 0.784368 0.030087
0.784368 0.784368 0.030619
0.870891 0.794434 0.030748
0.995475 0.774412 0.058903
1.086058 0.735712 0.094502
1.106762 0.690954 0.107428
0.000000 0.868575 0.126619
0.000000 0.868575 0.124126
0.029433 0.868511 0.029433
0.180145 0.868509 0.029515
0.267297 0.868508 0.029628
0.346920 0.868506 0.029751
0.423642 0.868506 0.029749
0.499022 0.868505 0.029737
0.573673 0.868505 0.029727
0.647832 0.868505 0.029709
0.721687 0.868504 0.029694
0.795188 0.868503 0.029673
0.868502 0.868502 0.029648
0.941257 0.866793 0.028937
1.033343 0.826892 0.052812
1.094495 0.763982 0.087769
0.000000 0.940528 0.126454
0.000000 0.940528 0.123977
0.028645 0.940518 0.028645
0.179795 0.940518 0.028643
0.266850 0.940518 0.028635
0.346370 0.940518 0.028623
0.422938 0.940518 0.028625
0.498322 0.940518 0.028616
0.572760 0.940517 0.028595
0.646725 0.940517 0.028587
0.720354 0.940517 0.028570
0.793995 0.940516 0.028547
0.867192 0.940515 0.028522
0.940514 0.940514 0.028494
0.985681 0.914807 0.027795
1.039072 0.851998 0.047322
0.000000 0.985789 0.121765
0.000000 0.985790 0.120053
0.027832 0.985795 0.027832
0.174889 0.985795 0.027826
0.259566 0.985795 0.027831
0.336919 0.985795 0.027823
0.411491 0.985795 0.027809
0.484661 0.985794 0.027800
0.557142 0.985794 0.027787
0.629139 0.985793 0.027779
0.700845 0.985793 0.027764
0.772344 0.985792 0.027740
0.843522 0.985792 0.027721
0.914864 0.985791 0.027691
0.985790 0.985790 0.027663
1.000001 0.932624 0.027480
0.000000 1.000002 0.112364
0.000000 1.000002 0.112364
0.027554 1.000002 0.027554
0.165569 1.000002 0.027558
0.245634 1.000002 0.027549
0.318782 1.000002 0.027550
0.389296 1.000002 0.027542
0.458565 1.000002 0.027530
0.527114 1.000002 0.027528
0.595282 1.000002 0.027512
0.663088 1.000001 0.027498
0.730682 1.000001 0.027481
0.798146 1.000001 0.027464
0.865475 1.000001 0.027441
0.932622 1.000001 0.027414
1.000000 1.000000 0.027391
0.000000 0.000000 0.105543
0.000000 0.000000 0.105543
0.015161 0.000000 0.105542
0.105542 0.000000 0.105542
0.186308 0.000000 0.130538
0.271275 0.000000 0.152248
0.356592 0.000000 0.167711
0.443043 0.000000 0.179549
0.532687 0.000000 0.189735
0.616718 0.000000 0.195671
0.699357 0.000000 0.200054
0.784321 0.000000 0.204332
0.868466 0.000000 0.207689
0.940507 0.000000 0.207495
0.985801 0.000000 0.201278
1.000006 0.000000 0.189157
0.000000 0.000000 0.105543
0.000000 0.000000 0.105542
0.048689 0.000000 0.105542
0.105542 0.000000 0.105542
0.186308 0.000000 0.133386
0.271275 0.000000 0.154480
0.356592 0.000000 0.169098
0.443043 0.000000 0.180170
0.532687 0.000000 0.189682
0.616718 0.000000 0.195280
0.699357 0.000000 0.199332
0.784321 0.000000 0.203346
0.868466 0.000000 0.206487
0.940507 0.000000 0.206297
0.985801 0.000000 0.200486
1.000006 0.000000 0.189157
0.000000 0.015157 0.105542
0.000000 0.048687 0.105542
0.026080 0.026080 0.129452
0.113719 0.013809 0.113719
0.191364 0.009302 0.128593
0.274477 0.009368 0.141986
0.358834 0.010711 0.151941
0.444621 0.012462 0.159838
0.533855 0.014445 0.166996
0.617649 0.016372 0.171119
0.700058 0.018303 0.174169
0.784990 0.019372 0.177203
0.868998 0.019964 0.179640
0.940877 0.020320 0.179326
0.986116 0.020458 0.174490
1.000006 0.027972 0.165625
0.000000 0.105541 0.105541
0.000000 0.105541 0.105541
0.009934 0.106556 0.106556
0.105541 0.105541 0.105541
0.219743 0.075913 0.075913
0.304348 0.043257 0.043257
0.382034 0.030847 0.030847
0.462687 0.025877 0.025877
0.548063 0.023985 0.023985
0.629273 0.023629 0.023629
0.709928 0.023985 0.023985
0.793251 0.024794 0.024794
0.876091 0.025860 0.025860
0.947180 0.026921 0.026921
0.992042 0.027634 0.027634
1.000006 0.078600 0.078600
0.000000 0.186307 0.130536
0.000000 0.186307 0.133385
0.010094 0.186892 0.125615
0.043364 0.193780 0.043364
0.188582 0.188582 0.038428
0.304848 0.186947 0.048711
0.371809 0.200056 0.029049
0.454665 0.206558 0.024395
0.543154 0.212292 0.023887
0.625972 0.215194 0.024077
0.707652 0.217385 0.024671
0.791614 0.220029 0.025575
0.875001 0.222148 0.026673
0.946201 0.221228 0.027708
0.991465 0.214895 0.028344
1.000005 0.209654 0.078598
0.000000 0.271274 0.152246
0.000000 0.271274 0.154470
0.012643 0.271650 0.140588
0.026791 0.276211 0.026791
0.190397 0.274595 0.026156
0.272771 0.272771 0.025527
0.396116 0.272134 0.047544
0.478244 0.283604 0.048464
0.547258 0.301066 0.031976
0.623431 0.309092 0.025210
0.705583 0.312881 0.025707
0.790108 0.316947 0.026686
0.873848 0.320217 0.027796
0.945386 0.318912 0.028775
0.990595 0.309800 0.029331
1.000005 0.295903 0.078597
0.000000 0.356590 0.167705
0.000000 0.356590 0.169066
0.015837 0.356902 0.151245
0.024294 0.359920 0.024294
0.196037 0.359218 0.024306
0.282247 0.358425 0.024362
0.357506 0.357506 0.024496
0.475804 0.360822 0.042069
0.589831 0.364413 0.066761
0.651373 0.379615 0.052414
0.713965 0.392377 0.036803
0.789909 0.401341 0.029347
0.872663 0.406142 0.029206
0.944528 0.404658 0.030122
0.989808 0.393052 0.030563
1.000005 0.373108 0.078591
0.000000 0.443055 0.179538
0.000000 0.443055 0.180160
0.019261 0.443230 0.159589
0.025068 0.445473 0.025068
0.202290 0.445115 0.025221
0.291614 0.444734 0.025456
0.369906 0.444237 0.025770
0.443728 0.443728 0.026182
