assets/luts/LUTs/AM __ Mavic2Pro D-Log LUT.CUBE
LUT_3D_SIZE 6
0.000000 0.000000 0.000000
0.105542 0.000000 0.000000
0.356592 0.000000 0.000000
0.616718 0.000000 0.000000
0.868466 0.000000 0.000000
1.000006 0.000000 0.000000
0.000000 0.105541 0.000000
0.105541 0.105541 0.000000
0.356592 0.167710 0.000000
0.616718 0.195683 0.000000
0.868466 0.207687 0.000000
1.000005 0.189155 0.000000
0.000000 0.356590 0.000000
0.167704 0.356589 0.000000
0.356589 0.356589 0.000000
0.662285 0.391337 0.036695
0.868796 0.431100 0.000400
1.000005 0.396402 0.000000
0.000000 0.616716 0.000000
0.195663 0.616716 0.000000
0.408670 0.616716 0.000000
0.616715 0.616715 0.000000
0.966409 0.614276 0.069670
1.032514 0.585847 0.028129
0.000000 0.868575 0.000000
0.207638 0.868575 0.000000
0.431293 0.868575 0.000000
0.650417 0.868574 0.000000
0.868572 0.868572 0.000000
1.096762 0.764429 0.060705
0.000000 1.000002 0.000000
0.189104 1.000002 0.000000
0.396399 1.000002 0.000000
0.598346 1.000002 0.000000
0.799275 1.000001 0.000000
1.000000 1.000001 0.000000
0.000000 0.000000 0.105543
0.105542 0.000000 0.105542
0.356592 0.000000 0.167711
0.616718 0.000000 0.195671
0.868466 0.000000 0.207689
1.000006 0.000000 0.189157
0.000000 0.105541 0.105541
0.105541 0.105541 0.105541
0.382034 0.030847 0.030847
0.629273 0.023629 0.023629
0.876091 0.025860 0.025860
1.000006 0.078600 0.078600
0.000000 0.356590 0.167705
0.024294 0.359920 0.024294
0.357506 0.357506 0.024496
0.651373 0.379615 0.052414
0.872663 0.406142 0.029206
1.000005 0.373108 0.078591
0.000000 0.616716 0.195663
0.029545 0.618132 0.029545
0.389323 0.617724 0.030360
0.617106 0.617106 0.031949
0.962975 0.608004 0.103650
1.023681 0.579069 0.100713
0.000000 0.868575 0.207639
0.038141 0.869217 0.038141
0.404733 0.869137 0.038798
0.641786 0.868992 0.040083
0.868581 0.868582 0.042021
1.090514 0.762518 0.137893
0.000000 1.000002 0.189104
0.078237 1.000002 0.078237
0.373038 1.000002 0.078234
0.588323 1.000002 0.078229
0.795391 1.000001 0.078210
1.000000 1.000000 0.078196
0.000000 0.000000 0.356593
0.167713 0.000000 0.356593
0.356592 0.000000 0.356592
0.616718 0.000000 0.408685
0.868466 0.000000 0.431307
1.000005 0.000000 0.396408
0.000000 0.167712 0.356593
0.050166 0.050166 0.421859
0.374556 0.027799 0.374556
0.627685 0.023790 0.395481
0.875553 0.026216 0.407492
1.000006 0.078568 0.373104
0.000000 0.356589 0.356589
0.024315 0.358986 0.358986
0.356588 0.356588 0.356588
0.726938 0.241308 0.241308
0.972081 0.134712 0.134712
1.000005 0.291007 0.291007
0.000000 0.616716 0.408672
0.029827 0.618006 0.389558
0.130499 0.642551 0.130499
0.625546 0.625546 0.115917
0.969318 0.585923 0.145667
1.001733 0.557132 0.293154
0.000000 0.868575 0.431293
0.038362 0.869152 0.404801
0.081058 0.883762 0.081058
0.591539 0.878837 0.079399
0.872208 0.872208 0.077594
1.073867 0.755985 0.347182
0.000000 1.000002 0.396401
0.078236 1.000002 0.373038
0.278170 1.000002 0.278170
0.553897 1.000002 0.278167
0.782509 1.000001 0.278163
1.000000 1.000000 0.278158
0.000000 0.000000 0.616719
0.195676 0.000000 0.616719
0.408688 0.000000 0.616719
0.616718 0.000000 0.616718
0.868466 0.000000 0.650332
1.000005 0.000000 0.598354
0.000000 0.195675 0.616719
0.026470 0.026470 0.657095
0.401181 0.023638 0.636701
0.625251 0.024242 0.625251
0.874643 0.026927 0.646009
1.000005 0.078521 0.588338
0.000000 0.408683 0.616718
0.024499 0.393519 0.624429
0.283298 0.283299 0.748956
0.710433 0.200200 0.710433
0.962355 0.120352 0.649415
1.000005 0.288518 0.557131
0.000000 0.616716 0.616716
0.030388 0.617713 0.617712
0.124803 0.636121 0.636121
0.616715 0.616715 0.616715
0.966481 0.534285 0.534285
1.000004 0.575227 0.575227
0.000000 0.868575 0.650418
0.038819 0.869127 0.641958
0.080444 0.882037 0.593749
0.318601 0.910654 0.318601
0.881787 0.881787 0.281058
1.033724 0.776688 0.612275
0.000000 1.000002 0.598346
0.078234 1.000002 0.588324
0.278169 1.000002 0.553898
0.540111 1.000002 0.540110
0.777637 1.000001 0.540109
1.000000 1.000000 0.540105
0.000000 0.000000 0.868469
0.207708 0.000000 0.868469
0.431310 0.000000 0.868468
0.650333 0.000000 0.868467
0.868465 0.000000 0.868465
1.000005 0.000000 0.799285
0.000000 0.207706 0.868468
0.021938 0.021938 0.894339
0.412061 0.022585 0.885824
0.648444 0.024672 0.878233
0.873677 0.028023 0.873677
1.000005 0.078436 0.795404
0.000000 0.431308 0.868466
0.025025 0.408300 0.877399
0.247422 0.247422 0.983088
0.666658 0.182729 0.980901
0.946610 0.109442 0.946610
1.000005 0.284419 0.783105
0.000000 0.650330 0.868580
0.031590 0.643482 0.871373
0.100990 0.626891 0.930223
0.536112 0.536112 0.973597
0.964256 0.473389 0.964256
1.000004 0.562578 0.785674
0.000000 0.868574 0.868574
0.039519 0.869052 0.869052
0.079569 0.879322 0.879322
0.304402 0.900152 0.900152
0.868571 0.868571 0.868571
1.000002 0.862778 0.862778
0.000000 1.000002 0.799276
0.078232 1.000002 0.795393
0.278168 1.000002 0.782510
0.540110 1.000001 0.777638
0.851112 1.000001 0.851112
1.000000 1.000000 0.851110
0.000000 0.000000 1.000007
0.189179 0.000000 1.000007
0.396419 0.000000 1.000006
0.598355 0.000000 1.000006
0.799286 0.000000 1.000006
1.000005 0.000000 1.000005
0.000000 0.189178 1.000007
0.078366 0.078366 1.000006
0.373059 0.078361 1.000006
0.588331 0.078355 1.000006
0.795401 0.078347 1.000006
1.000005 0.078314 1.000005
0.000000 0.396414 1.000006
0.078354 0.373056 1.000006
0.278186 0.278186 1.000006
0.553914 0.278184 1.000006
0.782519 0.278180 1.000005
1.000005 0.278180 1.000005
0.000000 0.598353 1.000005
0.078316 0.588329 1.000005
0.278184 0.553911 1.000005
0.540131 0.540130 1.000005
0.777646 0.540128 1.000005
1.000004 0.540125 1.000004
0.000000 0.799281 1.000003
0.078282 0.795397 1.000003
0.278184 0.782515 1.000004
0.540119 0.777643 1.000003
0.851116 0.851115 1.000002
1.000002 0.851114 1.000002
0.000000 1.000001 1.000001
0.078228 1.000001 1.000001
0.278166 1.000002 1.000001
0.540109 1.000001 1.000001
0.851111 1.000000 1.000000
1.000000 1.000000 0.999757
