assets/luts/LUTs/AMBITION.CUBE
LUT_3D_SIZE 16
0.035568 0.045067 0.043121
0.058172 0.045320 0.039034
0.088283 0.045991 0.034870
0.126249 0.047520 0.031994
0.176562 0.048907 0.025028
0.248079 0.048256 0.009990
0.330120 0.049578 0.000007
0.418999 0.049226 0.000013
0.490214 0.047332 0.000020
0.559725 0.046133 0.000012
0.616060 0.047800 0.000003
0.663412 0.051511 0.000003
0.695337 0.051916 0.000000
0.723182 0.050116 0.000000
0.748533 0.049348 0.000000
0.767579 0.048980 0.000000
0.039964 0.064093 0.045344
0.057543 0.063092 0.043401
0.085685 0.064447 0.039037
0.122577 0.066320 0.034776
0.171705 0.067928 0.027002
0.241645 0.066768 0.010499
0.326796 0.067191 0.000010
0.418459 0.063113 0.000014
0.489585 0.061174 0.000021
0.558694 0.060266 0.000013
0.614920 0.062206 0.000004
0.662253 0.065872 0.000003
0.694447 0.066325 0.000000
0.719675 0.064314 0.000000
0.745198 0.063543 0.000000
0.764327 0.063146 0.000000
0.045213 0.089041 0.050300
0.060683 0.087644 0.049156
0.084427 0.085876 0.046281
0.119820 0.088962 0.042065
0.167861 0.091315 0.032340
0.233778 0.091468 0.013722
0.321713 0.094686 0.000022
0.418623 0.090736 0.000011
0.488989 0.076685 0.000021
0.557411 0.074525 0.000015
0.613488 0.076778 0.000005
0.660766 0.080380 0.000003
0.693309 0.080868 0.000000
0.715196 0.078578 0.000000
0.740942 0.077799 0.000000
0.760183 0.077372 0.000000
0.050682 0.120913 0.060651
0.064470 0.120353 0.060043
0.087858 0.117926 0.056929
0.118860 0.115837 0.053022
0.166387 0.118818 0.042426
0.231896 0.119949 0.019757
0.319559 0.125989 0.000014
0.421399 0.132253 0.000018
0.494892 0.119318 0.000009
0.555403 0.096697 0.000014
0.611331 0.091763 0.000008
0.658625 0.095318 0.000003
0.691509 0.095768 0.000000
0.711321 0.093264 0.000000
0.734224 0.092222 0.000000
0.753662 0.091762 0.000000
0.056828 0.162220 0.075726
0.069236 0.162015 0.075616
0.086458 0.161373 0.074499
0.118360 0.158025 0.070545
0.163626 0.153586 0.061879
0.231323 0.156117 0.034981
0.325399 0.161210 0.000049
0.427361 0.177716 0.000005
0.511775 0.181899 0.000003
0.570953 0.172751 0.000005
0.612102 0.144433 0.000020
0.655988 0.116630 0.000004
0.687891 0.112757 0.000000
0.707498 0.108987 0.000000
0.724557 0.107390 0.000000
0.741657 0.106658 0.000000
0.067259 0.218956 0.098702
0.079968 0.218785 0.098614
0.092666 0.218579 0.098506
0.110475 0.217973 0.097681
0.158416 0.212166 0.090969
0.225973 0.205735 0.073856
0.331373 0.207785 0.006486
0.445830 0.229602 0.000094
0.537053 0.246056 0.000018
0.598248 0.251873 0.000006
0.646641 0.249948 0.000008
0.685981 0.238313 0.000004
0.708905 0.219389 0.000014
0.717952 0.200885 0.000020
0.726202 0.185162 0.000022
0.735954 0.174030 0.000019
0.090678 0.301539 0.133422
0.103663 0.301438 0.133374
0.116641 0.301313 0.133314
0.129604 0.301141 0.133232
0.146622 0.300198 0.132747
0.207390 0.296588 0.123743
0.319063 0.287730 0.093066
0.460881 0.301265 0.005651
0.568522 0.325838 0.001692
0.639002 0.339590 0.000666
0.694154 0.347606 0.000320
0.738796 0.350371 0.000009
0.762413 0.347067 0.000006
0.773461 0.340646 0.000003
0.784930 0.335335 0.000001
0.796447 0.330947 0.000000
0.115680 0.395850 0.166084
0.128902 0.395792 0.166067
0.142120 0.395718 0.166046
0.155332 0.395616 0.166016
0.168515 0.395421 0.165961
0.186269 0.394594 0.164151
0.275697 0.398791 0.147709
0.437563 0.389245 0.073075
0.572250 0.407492 0.009957
0.660057 0.427026 0.005859
0.722245 0.438166 0.003386
0.767190 0.443890 0.003241
0.802092 0.446979 0.009281
0.815674 0.445215 0.008573
0.829057 0.443361 0.007880
0.841956 0.441120 0.007218
0.127691 0.483221 0.180588
0.141123 0.483187 0.180584
0.154554 0.483144 0.180579
0.167981 0.483082 0.180571
0.181412 0.482966 0.180558
0.194831 0.482730 0.180531
0.224935 0.486629 0.174834
0.391693 0.489395 0.145488
0.539394 0.488630 0.055290
0.656559 0.502941 0.021219
0.729261 0.516149 0.015144
0.776532 0.522639 0.010372
0.812764 0.531963 0.036769
0.828124 0.532382 0.039674
0.842078 0.531506 0.039301
0.855559 0.529896 0.038750
0.124277 0.562708 0.184187
0.137890 0.562684 0.184187
0.151502 0.562654 0.184186
0.165114 0.562611 0.184185
0.178737 0.562531 0.184184
0.192368 0.562364 0.184181
0.206445 0.562081 0.183966
0.284934 0.579761 0.162706
0.501391 0.570413 0.097776
0.630588 0.575306 0.038059
0.720860 0.585170 0.027335
0.774179 0.591322 0.028589
0.815543 0.599180 0.043866
0.833993 0.602444 0.055796
0.847947 0.602014 0.055851
0.861584 0.600647 0.055387
0.111875 0.631541 0.185278
0.125634 0.631526 0.185277
0.139395 0.631507 0.185277
0.153157 0.631479 0.185276
0.166926 0.631427 0.185275
0.180715 0.631318 0.185273
0.194536 0.631077 0.185268
0.216986 0.637252 0.179690
0.423131 0.662150 0.127663
0.600916 0.645691 0.056546
0.706831 0.650503 0.036079
0.766801 0.656745 0.034841
0.809268 0.662828 0.050172
0.831880 0.667155 0.070148
0.845938 0.666968 0.070169
0.859586 0.665594 0.070167
0.095667 0.691825 0.186937
0.109527 0.691814 0.186936
0.123388 0.691799 0.186936
0.137249 0.691776 0.186934
0.151124 0.691733 0.186932
0.165013 0.691644 0.186928
0.178943 0.691446 0.186918
0.192936 0.691094 0.186901
0.270380 0.716261 0.164840
0.554400 0.707843 0.100635
0.689865 0.711491 0.056654
0.759803 0.714893 0.054538
0.803329 0.719564 0.057553
0.832812 0.723597 0.072763
0.846863 0.723480 0.072701
0.860459 0.722305 0.072535
0.080353 0.741210 0.189818
0.094279 0.741204 0.189817
0.108204 0.741195 0.189816
0.122128 0.741183 0.189815
0.136065 0.741160 0.189812
0.150007 0.741111 0.189806
0.163979 0.741002 0.189794
0.177993 0.740809 0.189772
0.206803 0.749426 0.184723
0.498423 0.778880 0.139049
0.669356 0.761543 0.103034
0.756833 0.766181 0.091003
0.800528 0.767444 0.095477
0.833260 0.769399 0.098036
0.850825 0.769728 0.099479
0.864351 0.768771 0.098587
0.076584 0.763585 0.190910
0.090544 0.763585 0.190910
0.104503 0.763585 0.190910
0.118462 0.763585 0.190910
0.132425 0.763585 0.190910
0.146378 0.763585 0.190910
0.160340 0.763585 0.190910
0.174297 0.763585 0.190910
0.189622 0.765309 0.190269
0.412474 0.818379 0.154007
0.648100 0.785015 0.119325
0.751538 0.790597 0.100734
0.798239 0.792189 0.112301
0.830870 0.792877 0.112864
0.852423 0.793381 0.113296
0.866057 0.793070 0.113296
0.076584 0.777648 0.190910
0.090552 0.777648 0.190910
0.104518 0.777648 0.190910
0.118484 0.777648 0.190910
0.132452 0.777648 0.190910
0.146420 0.777648 0.190910
0.160388 0.777648 0.190910
0.174349 0.777648 0.190910
0.188323 0.777648 0.190910
0.324547 0.823456 0.163016
0.631051 0.798077 0.122798
0.746070 0.804380 0.101792
0.795003 0.806105 0.110962
0.828059 0.806821 0.112874
0.852410 0.807310 0.113296
0.866057 0.806980 0.113296
0.076584 0.791282 0.190910
0.090529 0.791282 0.190910
0.104473 0.791282 0.190910
0.118420 0.791282 0.190910
0.132359 0.791282 0.190910
0.146302 0.791282 0.190910
0.160242 0.791282 0.190910
0.174184 0.791282 0.190910
0.188137 0.791282 0.190910
0.284220 0.829962 0.169132
0.618271 0.811787 0.125356
0.741472 0.817779 0.102704
0.792441 0.819634 0.109944
0.825896 0.820380 0.112876
0.851043 0.820891 0.113225
0.866057 0.820945 0.113296
0.029898 0.046340 0.059093
0.053883 0.047067 0.057733
0.084717 0.048153 0.054001
0.121173 0.050468 0.053880
0.170447 0.052977 0.049986
0.240682 0.053215 0.038171
0.339356 0.047336 0.015316
0.421004 0.045488 0.013337
0.495500 0.043263 0.013443
0.568319 0.041227 0.013611
0.627897 0.042857 0.013762
0.675757 0.047418 0.013858
0.721169 0.049273 0.013922
0.752754 0.048105 0.013960
0.776816 0.047425 0.013968
0.795222 0.047100 0.013945
0.034038 0.062309 0.059858
0.052002 0.062676 0.059413
0.081767 0.062911 0.054757
0.118935 0.064111 0.051428
0.168161 0.065740 0.046233
0.238396 0.064989 0.032892
0.335718 0.059561 0.011506
0.419197 0.057326 0.010736
0.493304 0.055242 0.010712
0.565238 0.053392 0.010703
0.623805 0.054940 0.010702
0.670845 0.059288 0.010702
0.711077 0.060658 0.010699
0.743321 0.059445 0.010699
0.767761 0.058740 0.010699
0.786395 0.058400 0.010699
0.040679 0.086199 0.063845
0.054657 0.086128 0.062595
0.080226 0.084762 0.060434
0.116349 0.086830 0.055208
0.163970 0.089261 0.048523
0.230235 0.089682 0.033885
0.327164 0.087360 0.011277
0.416697 0.082087 0.010705
0.491942 0.071896 0.010715
0.563623 0.069683 0.010704
0.621883 0.071454 0.010701
0.668663 0.075838 0.010702
0.707009 0.077145 0.010699
0.738827 0.075913 0.010699
0.763461 0.075204 0.010699
0.782195 0.074818 0.010699
0.047272 0.117659 0.073147
0.059545 0.117886 0.071442
0.083813 0.116279 0.069438
0.115917 0.114028 0.064956
0.163026 0.116971 0.056104
0.227883 0.118513 0.037138
0.320460 0.120337 0.011235
0.416276 0.124466 0.010707
0.490397 0.109238 0.010716
0.560336 0.089244 0.010707
0.619306 0.086668 0.010701
0.666192 0.091001 0.010702
0.702384 0.092174 0.010699
0.732485 0.090781 0.010699
0.757397 0.090062 0.010699
0.776288 0.089639 0.010699
0.055035 0.159334 0.087766
0.066285 0.159887 0.085892
0.083898 0.159426 0.085218
0.116187 0.156302 0.081228
0.161748 0.152040 0.073123
0.229245 0.154468 0.047787
0.323690 0.158129 0.010935
0.422943 0.172865 0.010703
0.507665 0.175006 0.010713
0.567602 0.164315 0.010712
0.610049 0.133399 0.010708
0.662419 0.109377 0.010702
0.695391 0.108216 0.010699
0.720438 0.105832 0.010699
0.745466 0.105047 0.010699
0.764720 0.104571 0.010699
0.066914 0.217734 0.110810
0.077633 0.217806 0.108788
0.091753 0.217591 0.108672
0.109435 0.217012 0.107906
0.157126 0.211278 0.101280
0.225283 0.204759 0.084177
0.330612 0.206259 0.016764
0.444323 0.227607 0.010774
0.534572 0.242877 0.010714
0.595137 0.246761 0.010709
0.643904 0.243570 0.010703
0.683760 0.231023 0.010701
0.707882 0.211492 0.010715
0.717353 0.193024 0.010720
0.726340 0.176964 0.010720
0.738024 0.165411 0.010717
0.090437 0.300787 0.146080
0.101155 0.300847 0.143790
0.115708 0.300711 0.143725
0.129045 0.300536 0.143641
0.145923 0.299641 0.143186
0.206307 0.296031 0.134250
0.318778 0.287029 0.103240
0.460611 0.300257 0.016095
0.568084 0.324627 0.012320
0.638309 0.338062 0.011340
0.692798 0.345179 0.010988
0.737021 0.347134 0.010712
0.760622 0.342774 0.010702
0.771569 0.335766 0.010700
0.783034 0.330375 0.010699
0.794698 0.326021 0.010699
0.115566 0.395415 0.179197
0.126276 0.395457 0.176670
0.141212 0.395378 0.176647
0.154822 0.395274 0.176618
0.168191 0.395078 0.176562
0.185829 0.394269 0.174851
0.274505 0.398494 0.158433
0.437408 0.388825 0.083535
0.572263 0.406870 0.020427
0.659931 0.426306 0.016463
0.722019 0.437234 0.014030
0.766980 0.442867 0.013882
0.801762 0.445768 0.019601
0.815298 0.443909 0.018895
0.828757 0.441961 0.018222
0.841719 0.439635 0.017584
0.127677 0.482967 0.193992
0.138377 0.482994 0.191261
0.153656 0.482948 0.191255
0.167506 0.482886 0.191248
0.181124 0.482769 0.191235
0.194651 0.482534 0.191208
0.224260 0.486244 0.185723
0.390920 0.489184 0.156566
0.539319 0.488401 0.065942
0.656537 0.502593 0.031820
0.729245 0.515649 0.025702
0.776496 0.522072 0.020929
0.812714 0.531302 0.047288
0.828059 0.531655 0.050131
0.842007 0.530713 0.049738
0.855484 0.529082 0.049182
0.124303 0.562534 0.197793
0.134999 0.562555 0.194883
0.150578 0.562523 0.194883
0.164630 0.562480 0.194882
0.178450 0.562399 0.194880
0.192189 0.562233 0.194877
0.206310 0.561946 0.194677
0.283484 0.579546 0.173693
0.500895 0.570317 0.108723
0.630536 0.575165 0.048740
0.720861 0.584918 0.038008
0.774188 0.591012 0.039227
0.815567 0.598776 0.054409
0.833997 0.602006 0.066346
0.847953 0.601523 0.066377
0.861590 0.600117 0.065896
0.111907 0.631431 0.199031
0.122602 0.631445 0.195975
0.138427 0.631424 0.195974
0.152646 0.631397 0.195974
0.166616 0.631345 0.195972
0.180512 0.631236 0.195970
0.194410 0.630996 0.195965
0.216497 0.636872 0.190638
0.421963 0.662259 0.138764
0.600589 0.645588 0.067386
0.706796 0.650410 0.046773
0.766799 0.656512 0.045500
0.809265 0.662588 0.060841
0.831883 0.666808 0.080848
0.845942 0.666559 0.080868
0.859592 0.665170 0.080864
0.095702 0.691737 0.200787
0.106397 0.691750 0.197632
0.122390 0.691733 0.197631
0.136720 0.691710 0.197630
0.150797 0.691668 0.197628
0.164800 0.691579 0.197624
0.178805 0.691381 0.197614
0.192844 0.691030 0.197597
0.268304 0.715967 0.175957
0.553674 0.707897 0.111489
0.689570 0.711404 0.067354
0.759781 0.714821 0.065178
0.803317 0.719424 0.068165
0.832802 0.723382 0.083409
0.846856 0.723253 0.083367
0.860450 0.722039 0.083196
0.080375 0.741162 0.203735
0.091071 0.741169 0.200512
0.107174 0.741160 0.200511
0.121575 0.741148 0.200510
0.135714 0.741125 0.200507
0.149769 0.741077 0.200502
0.163814 0.740968 0.200489
0.177876 0.740775 0.200468
0.205990 0.748960 0.195663
0.497403 0.779040 0.149922
0.668949 0.761461 0.113765
0.756732 0.766116 0.101615
0.800504 0.767385 0.106085
0.833241 0.769275 0.108594
0.850805 0.769572 0.110024
0.864335 0.768647 0.109160
0.076584 0.763585 0.204870
0.087283 0.763585 0.201609
0.103445 0.763585 0.201609
0.117882 0.763585 0.201609
0.132048 0.763585 0.201609
0.146118 0.763585 0.201609
0.160148 0.763585 0.201609
0.174153 0.763585 0.201609
0.189449 0.765220 0.201001
0.410645 0.818683 0.164916
0.647353 0.785057 0.130171
0.751327 0.790590 0.111460
0.798156 0.792187 0.122992
0.830857 0.792876 0.123563
0.852423 0.793360 0.123996
0.866057 0.793053 0.123996
0.076584 0.777648 0.204878
0.087283 0.777648 0.201609
0.103455 0.777648 0.201609
0.117901 0.777648 0.201609
0.132075 0.777648 0.201609
0.146154 0.777648 0.201609
0.160188 0.777648 0.201609
0.174207 0.777648 0.201609
0.188209 0.777648 0.201609
0.321666 0.823542 0.174035
0.630070 0.798203 0.133683
0.745808 0.804369 0.112537
0.794883 0.806101 0.121633
0.828005 0.806820 0.123573
0.852410 0.807310 0.123995
0.866057 0.806973 0.123996
0.076584 0.791282 0.204855
0.087283 0.791282 0.201609
0.103415 0.791282 0.201609
0.117836 0.791282 0.201609
0.131981 0.791282 0.201609
0.146035 0.791282 0.201609
0.160050 0.791282 0.201609
0.174044 0.791282 0.201609
0.188019 0.791282 0.201609
0.281052 0.829922 0.180205
0.617199 0.811961 0.136253
0.741131 0.817763 0.113463
0.792354 0.819631 0.120614
0.825850 0.820379 0.123576
0.851018 0.820890 0.123923
0.866057 0.820945 0.123996
0.024525 0.048133 0.076673
0.048403 0.049844 0.078482
0.079399 0.050624 0.076040
0.118647 0.052361 0.074888
0.166652 0.055948 0.074415
0.233498 0.059548 0.068922
0.335657 0.055504 0.048783
0.433772 0.043322 0.030221
0.512146 0.038657 0.027014
0.585239 0.036781 0.027274
0.648517 0.038936 0.028101
0.708657 0.044670 0.028127
0.753614 0.047294 0.028900
0.777529 0.047215 0.031598
0.794893 0.047551 0.034211
0.810082 0.047710 0.035389
0.026969 0.063191 0.078156
0.043710 0.062680 0.078984
0.075686 0.063810 0.078003
0.114529 0.065144 0.074255
0.163156 0.067927 0.073326
0.230977 0.070462 0.066382
0.335130 0.065256 0.045103
0.431386 0.053775 0.028213
0.508159 0.049925 0.026077
0.582441 0.048020 0.026275
0.644228 0.050002 0.026898
0.703427 0.055683 0.027020
0.749756 0.058147 0.027350
0.775212 0.057832 0.029433
0.793201 0.058078 0.031817
0.808422 0.058240 0.033025
0.032955 0.082986 0.080013
0.045947 0.083102 0.080364
0.071824 0.084559 0.081403
0.110258 0.084994 0.074355
0.158117 0.086704 0.070960
0.224612 0.087292 0.060823
0.330059 0.081156 0.035134
0.425602 0.068025 0.023225
0.499517 0.063718 0.023093
0.576086 0.061849 0.023086
0.635076 0.063539 0.023099
0.690106 0.068923 0.023213
0.738049 0.071209 0.023085
0.768260 0.070151 0.023159
0.788429 0.070068 0.024696
0.803897 0.070217 0.025966
0.040651 0.113228 0.087658
0.052140 0.113224 0.087241
0.074886 0.114073 0.086833
0.109711 0.112241 0.082369
0.156621 0.114394 0.075594
0.221065 0.116317 0.063317
0.321570 0.113258 0.032682
0.416111 0.111350 0.023106
0.491198 0.095150 0.023093
0.572610 0.078271 0.023086
0.632532 0.080206 0.023097
0.683796 0.085438 0.023143
0.732102 0.087866 0.023085
0.762818 0.086822 0.023085
0.786146 0.086236 0.023232
0.801764 0.086317 0.024492
0.048884 0.153104 0.101128
0.059879 0.153175 0.100459
0.075542 0.153689 0.098976
0.109476 0.152294 0.096594
0.156063 0.148758 0.089316
0.221931 0.151607 0.070919
0.319383 0.151713 0.029577
0.415714 0.162839 0.023087
0.502116 0.163702 0.023098
0.563694 0.149305 0.023098
0.615285 0.118196 0.023086
0.674723 0.101167 0.023088
0.720721 0.103466 0.023085
0.752116 0.102418 0.023085
0.776176 0.101748 0.023085
0.794670 0.101334 0.023104
0.061966 0.211675 0.122956
0.072996 0.211956 0.122255
0.086362 0.212939 0.120402
0.104648 0.212536 0.120240
0.152305 0.207990 0.114624
0.221148 0.201798 0.099533
0.325787 0.202293 0.035485
0.436901 0.220207 0.023134
0.527156 0.233966 0.023094
0.589095 0.236741 0.023094
0.639830 0.232468 0.023091
0.680203 0.217464 0.023094
0.709008 0.195161 0.023091
0.725252 0.177365 0.023099
0.740194 0.161561 0.023096
0.754500 0.150231 0.023094
0.090135 0.299855 0.158654
0.100828 0.299835 0.157904
0.113238 0.299903 0.155724
0.127765 0.299718 0.155636
0.144561 0.298911 0.155228
0.203901 0.295456 0.146393
0.318328 0.286079 0.115017
0.460280 0.298415 0.027973
0.566968 0.321548 0.024515
0.635402 0.332671 0.023655
0.689049 0.338391 0.023318
0.732778 0.338816 0.023101
0.756690 0.334008 0.023085
0.767595 0.326548 0.023085
0.778834 0.320826 0.023086
0.790493 0.316184 0.023088
0.115425 0.394878 0.192280
0.126122 0.394870 0.191459
0.138521 0.394923 0.188902
0.153469 0.394815 0.188872
0.167387 0.394619 0.188815
0.184848 0.393851 0.187309
0.271897 0.398222 0.171004
0.437199 0.388255 0.095596
0.572387 0.405692 0.032343
0.659717 0.424532 0.028599
0.721527 0.434942 0.026277
0.766489 0.440224 0.026093
0.801031 0.442505 0.031022
0.814990 0.439812 0.030335
0.828493 0.437316 0.029683
0.841307 0.434583 0.029058
0.127658 0.482651 0.207390
0.138357 0.482648 0.206503
0.150745 0.482687 0.203611
0.166077 0.482623 0.203604
0.180281 0.482506 0.203590
0.194133 0.482274 0.203564
0.222324 0.485476 0.198640
0.389179 0.488907 0.169860
0.539217 0.488090 0.078263
0.656551 0.501793 0.043992
0.729248 0.514490 0.037780
0.776437 0.520621 0.032944
0.812616 0.529593 0.059280
0.827887 0.529666 0.061875
0.841821 0.528607 0.061450
0.855291 0.526905 0.060874
0.124335 0.562319 0.211397
0.135034 0.562317 0.210453
0.147415 0.562348 0.207265
0.163084 0.562305 0.207264
0.177525 0.562223 0.207262
0.191612 0.562060 0.207259
0.205891 0.561767 0.207088
0.279057 0.579225 0.186923
0.499377 0.570276 0.121811
0.630465 0.574975 0.061102
0.720916 0.584304 0.050328
0.774236 0.590117 0.051400
0.815664 0.597717 0.066487
0.834036 0.600766 0.078255
0.847993 0.600152 0.078227
0.861631 0.598652 0.077705
0.111947 0.631293 0.212783
0.122646 0.631293 0.211790
0.135025 0.631316 0.208357
0.150973 0.631287 0.208357
0.165604 0.631235 0.208356
0.179854 0.631128 0.208353
0.193979 0.630893 0.208348
0.215119 0.635937 0.203721
0.418924 0.662669 0.152216
0.599572 0.645422 0.080230
0.706747 0.650285 0.059153
0.766804 0.656110 0.057819
0.809282 0.661919 0.073183
0.831890 0.665956 0.093232
0.845952 0.665611 0.093250
0.859605 0.664049 0.093244
0.095747 0.691627 0.214637
0.106446 0.691627 0.213613
0.118823 0.691646 0.210013
0.134962 0.691624 0.210011
0.149720 0.691581 0.210010
0.164081 0.691494 0.210005
0.178314 0.691300 0.209996
0.192516 0.690950 0.209979
0.262033 0.715253 0.189576
0.551122 0.708272 0.124513
0.689024 0.711278 0.079771
0.759751 0.714724 0.077482
0.803313 0.719109 0.080391
0.832786 0.722922 0.095720
0.846837 0.722685 0.095673
0.860427 0.721332 0.095482
0.080403 0.741102 0.217650
0.091102 0.741103 0.216603
0.103482 0.741114 0.212891
0.119741 0.741101 0.212890
0.134572 0.741078 0.212887
0.148997 0.741031 0.212882
0.163269 0.740924 0.212870
0.177489 0.740733 0.212848
0.203568 0.747630 0.208771
0.494466 0.779572 0.162841
0.667618 0.761307 0.126380
0.756468 0.766023 0.113862
0.800471 0.767303 0.118347
0.833216 0.769097 0.120779
0.850772 0.769288 0.122136
0.864293 0.768282 0.121205
0.076584 0.763585 0.218829
0.087283 0.763585 0.217771
0.099669 0.763585 0.213995
0.115986 0.763585 0.213995
0.130854 0.763585 0.213995
0.145294 0.763585 0.213995
0.159551 0.763585 0.213995
0.173714 0.763585 0.213995
0.188919 0.764962 0.213481
0.405149 0.819635 0.177952
0.645367 0.785180 0.142947
0.750824 0.790574 0.123917
0.798033 0.792183 0.135367
0.830840 0.792876 0.135948
0.852423 0.793316 0.136381
0.866057 0.792967 0.136381
0.076584 0.777648 0.218844
0.087283 0.777648 0.217782
0.099669 0.777648 0.213995
0.115997 0.777648 0.213995
0.130864 0.777648 0.213995
0.145311 0.777648 0.213995
0.159575 0.777648 0.213995
0.173747 0.777648 0.213995
0.187862 0.777648 0.213995
0.313101 0.823922 0.187359
0.627648 0.798531 0.146527
0.745074 0.804337 0.125050
0.794649 0.806094 0.133965
0.827900 0.806818 0.135957
0.852409 0.807310 0.136380
0.866057 0.806934 0.136381
0.076584 0.791282 0.218799
0.087283 0.791282 0.217742
0.099669 0.791282 0.213995
0.115942 0.791282 0.213995
0.130777 0.791282 0.213995
0.145190 0.791282 0.213995
0.159422 0.791282 0.213995
0.173562 0.791282 0.213995
0.187661 0.791282 0.213995
0.271419 0.829908 0.193694
0.614160 0.812483 0.149199
0.740128 0.817714 0.126025
0.792037 0.819620 0.132905
0.825665 0.820376 0.135961
0.850936 0.820888 0.136306
0.866057 0.820945 0.136381
0.019708 0.050890 0.094764
0.040879 0.053416 0.098572
0.072367 0.055649 0.103514
0.111961 0.055807 0.100767
0.164740 0.058211 0.099701
0.232921 0.062757 0.096903
0.332043 0.065316 0.087264
0.450522 0.053312 0.064284
0.541527 0.039104 0.048614
0.614954 0.035744 0.047215
0.686143 0.036434 0.046287
0.740707 0.043429 0.049045
0.774270 0.048272 0.054295
0.793162 0.048380 0.058267
0.809815 0.048431 0.060529
0.824627 0.048466 0.061472
0.020869 0.064759 0.095872
0.035946 0.064007 0.097319
0.067335 0.066923 0.102343
0.108116 0.067360 0.100450
0.161605 0.069386 0.099061
0.230193 0.073672 0.096050
0.331044 0.075478 0.085420
0.449164 0.063400 0.062152
0.539942 0.048958 0.046202
0.612245 0.046365 0.045770
0.683551 0.047305 0.045020
0.739193 0.054097 0.047257
0.772732 0.058845 0.052487
0.791793 0.059066 0.056488
0.808533 0.059169 0.058775
0.823387 0.059227 0.059733
0.024760 0.084032 0.100110
0.037058 0.083610 0.100425
0.060657 0.084440 0.103069
0.101621 0.086318 0.101254
0.153370 0.087700 0.098873
0.218941 0.091540 0.095655
0.324423 0.090523 0.080990
0.445619 0.074236 0.057265
0.535878 0.060114 0.041534
0.605962 0.058581 0.042231
0.677469 0.060117 0.041558
0.735573 0.066434 0.042459
0.768906 0.070886 0.047577
0.788344 0.071364 0.051628
0.805344 0.071636 0.053977
0.820337 0.071774 0.054992
0.031118 0.109196 0.104992
0.042105 0.109056 0.105051
0.063209 0.110015 0.106670
0.098711 0.112007 0.107051
0.148721 0.113166 0.099444
0.213305 0.115364 0.094075
0.314692 0.112911 0.072341
0.431302 0.098227 0.044299
0.519001 0.079403 0.036948
0.596822 0.072006 0.038006
0.664379 0.073940 0.037820
0.724011 0.079991 0.037797
0.762606 0.083606 0.040620
0.783175 0.083986 0.044317
0.800348 0.084303 0.046765
0.815495 0.084458 0.047955
0.037869 0.146855 0.116834
0.048652 0.146767 0.116540
0.063301 0.146892 0.116176
0.097636 0.148468 0.116300
0.148306 0.146925 0.109781
0.213465 0.149789 0.098505
0.313300 0.150260 0.069162
0.422423 0.149062 0.038045
0.500632 0.147166 0.036201
0.569288 0.127574 0.036308
0.643239 0.101240 0.036895
0.715532 0.096252 0.036908
0.757056 0.099680 0.038801
0.779751 0.099808 0.041716
0.797104 0.100122 0.044212
0.812316 0.100220 0.045454
0.051539 0.201997 0.136503
0.062428 0.202059 0.136125
0.075429 0.202438 0.135193
0.092865 0.203084 0.134136
0.142889 0.201516 0.132027
0.212686 0.197006 0.120071
0.316605 0.198908 0.073259
0.428010 0.208346 0.036737
0.518613 0.221525 0.036202
0.582334 0.223600 0.036207
0.637588 0.216750 0.036209
0.684872 0.195716 0.036211
0.732346 0.170823 0.036454
0.750638 0.155282 0.037471
0.768577 0.141357 0.038458
0.785408 0.132797 0.039406
0.084843 0.293430 0.172118
0.095722 0.293589 0.171688
0.108707 0.294216 0.170539
0.122701 0.295143 0.168868
0.139223 0.294428 0.168575
0.197763 0.291382 0.161134
0.313191 0.281479 0.133215
0.453835 0.289540 0.040268
0.559761 0.310761 0.036924
0.627793 0.321060 0.036652
0.682497 0.326216 0.036312
0.726440 0.326692 0.036205
0.752080 0.321658 0.036198
0.764220 0.313229 0.036204
0.777211 0.306583 0.036204
0.789898 0.301675 0.036203
0.115158 0.394052 0.205322
0.125897 0.394082 0.204884
0.138311 0.394123 0.203650
0.151428 0.394146 0.201791
0.166207 0.393952 0.201735
0.183449 0.393242 0.200502
0.268108 0.397806 0.184390
0.436817 0.387349 0.108233
