assets/luts/LUTs/AMBITION.CUBE
LUT_3D_SIZE 6
0.035568 0.045067 0.043121
0.126249 0.047520 0.031994
0.330120 0.049578 0.000007
0.559725 0.046133 0.000012
0.695337 0.051916 0.000000
0.767579 0.048980 0.000000
0.050682 0.120913 0.060651
0.118860 0.115837 0.053022
0.319559 0.125989 0.000014
0.555403 0.096697 0.000014
0.691509 0.095768 0.000000
0.753662 0.091762 0.000000
0.090678 0.301539 0.133422
0.129604 0.301141 0.133232
0.319063 0.287730 0.093066
0.639002 0.339590 0.000666
0.762413 0.347067 0.000006
0.796447 0.330947 0.000000
0.124277 0.562708 0.184187
0.165114 0.562611 0.184185
0.206445 0.562081 0.183966
0.630588 0.575306 0.038059
0.815543 0.599180 0.043866
0.861584 0.600647 0.055387
0.080353 0.741210 0.189818
0.122128 0.741183 0.189815
0.163979 0.741002 0.189794
0.498423 0.778880 0.139049
0.800528 0.767444 0.095477
0.864351 0.768771 0.098587
0.076584 0.791282 0.190910
0.118420 0.791282 0.190910
0.160242 0.791282 0.190910
0.284220 0.829962 0.169132
0.792441 0.819634 0.109944
0.866057 0.820945 0.113296
0.019708 0.050890 0.094764
0.111961 0.055807 0.100767
0.332043 0.065316 0.087264
0.614954 0.035744 0.047215
0.774270 0.048272 0.054295
0.824627 0.048466 0.061472
0.031118 0.109196 0.104992
0.098711 0.112007 0.107051
0.314692 0.112911 0.072341
0.596822 0.072006 0.038006
0.762606 0.083606 0.040620
0.815495 0.084458 0.047955
0.084843 0.293430 0.172118
0.122701 0.295143 0.168868
0.313191 0.281479 0.133215
0.627793 0.321060 0.036652
0.752080 0.321658 0.036198
0.789898 0.301675 0.036203
0.124383 0.561998 0.224996
0.160571 0.562049 0.220370
0.205266 0.561508 0.220234
0.630361 0.574698 0.074179
0.815600 0.596056 0.079302
0.861494 0.596349 0.090277
0.080446 0.741011 0.231557
0.116631 0.741033 0.225993
0.162410 0.740862 0.225974
0.485515 0.779496 0.177109
0.800423 0.767186 0.131280
0.864232 0.767742 0.133815
0.076584 0.791282 0.232746
0.112779 0.791282 0.227106
0.158463 0.791282 0.227106
0.263832 0.828332 0.208134
0.791567 0.819604 0.145876
0.866057 0.820945 0.149492
0.000001 0.080932 0.180609
0.048542 0.092928 0.197961
0.295353 0.103035 0.255482
0.640637 0.070419 0.237478
0.804813 0.065800 0.244989
0.846532 0.066742 0.250717
0.000001 0.119548 0.180024
0.037890 0.121786 0.187207
0.290847 0.139007 0.254174
0.641235 0.103989 0.226705
0.805391 0.099850 0.230748
0.847264 0.100703 0.235704
0.000032 0.249250 0.238455
0.036226 0.248771 0.238239
0.236108 0.277643 0.286557
0.641824 0.286714 0.228508
0.808502 0.258678 0.223739
0.861514 0.224702 0.215301
0.093045 0.559909 0.316858
0.133611 0.559917 0.311374
0.184894 0.559619 0.299540
0.631145 0.589341 0.233957
0.830187 0.610876 0.233337
0.876636 0.609795 0.246937
0.081167 0.739468 0.273144
0.117291 0.739621 0.271529
0.159079 0.739872 0.267767
0.442278 0.777183 0.224168
0.799761 0.765547 0.170698
0.863829 0.764587 0.172524
0.076584 0.791282 0.274568
0.112779 0.791282 0.272789
0.154686 0.791282 0.269012
0.244639 0.818845 0.255004
0.789461 0.819527 0.187042
0.866057 0.820945 0.191398
0.012052 0.163419 0.335865
0.052885 0.163436 0.335887
0.249530 0.196421 0.472814
0.543504 0.143249 0.487210
0.705731 0.126998 0.510016
0.746977 0.127742 0.511537
0.011935 0.204056 0.335604
0.048160 0.199476 0.335670
0.227912 0.234678 0.462427
0.542866 0.179436 0.486868
0.706980 0.162202 0.507456
0.748640 0.162582 0.508085
0.007279 0.244149 0.330181
0.044705 0.242911 0.331403
0.149098 0.274646 0.401121
0.538731 0.221273 0.484678
0.710722 0.201454 0.500163
0.753107 0.201306 0.499233
0.000000 0.516635 0.508136
0.036195 0.516540 0.508120
0.078102 0.515938 0.508014
0.614042 0.617769 0.619705
0.879886 0.625296 0.595197
0.927759 0.620656 0.594870
0.000000 0.724907 0.530933
0.036195 0.725508 0.528204
0.078102 0.727133 0.521912
0.266256 0.797051 0.557526
0.850426 0.843684 0.622121
0.920092 0.842623 0.627089
0.000000 0.788360 0.523779
0.036195 0.789154 0.519723
0.078102 0.790857 0.511025
0.122658 0.810670 0.514810
0.828376 0.900617 0.603422
0.916512 0.903402 0.613644
0.062460 0.230199 0.485149
0.104228 0.230207 0.485163
0.206368 0.242507 0.557928
0.540107 0.194712 0.597182
0.682080 0.158989 0.638593
0.724203 0.159162 0.639303
0.062393 0.271874 0.484989
0.098607 0.266333 0.485035
0.184044 0.275517 0.534674
0.536367 0.232633 0.595650
0.682024 0.195172 0.638507
0.724211 0.195222 0.638667
0.061941 0.313053 0.483910
0.098182 0.311478 0.484017
0.140212 0.307846 0.484312
0.524632 0.280216 0.591048
0.681175 0.237119 0.637816
0.724233 0.236729 0.637049
0.000000 0.487240 0.610977
0.036746 0.483464 0.608286
0.081458 0.475288 0.602165
0.543153 0.531469 0.789103
0.792348 0.518159 0.754946
0.840893 0.513086 0.751912
0.000000 0.713876 0.696049
0.036195 0.713842 0.696055
0.078102 0.713629 0.696095
0.205288 0.759492 0.740362
0.859773 0.849873 0.834360
0.947857 0.852931 0.830562
0.000000 0.791200 0.695280
0.036195 0.791103 0.694425
0.078102 0.790911 0.692691
0.122478 0.791479 0.692875
0.837696 0.939709 0.834547
0.943893 0.935341 0.839143
0.073975 0.244743 0.554755
0.115811 0.244743 0.554755
0.185344 0.252029 0.592150
0.531530 0.215357 0.647427
0.681035 0.165371 0.693819
0.723784 0.165116 0.694144
0.073975 0.286579 0.554755
0.110170 0.280938 0.554755
0.172152 0.285698 0.577110
0.526978 0.253711 0.646224
0.680529 0.201626 0.693743
0.723784 0.201311 0.694144
0.073975 0.328401 0.554755
0.110170 0.326622 0.554755
0.152077 0.322845 0.554755
0.515162 0.299770 0.644751
0.678689 0.243880 0.693301
0.723784 0.243217 0.694144
0.030987 0.483688 0.669555
0.070640 0.477003 0.662448
0.119465 0.456939 0.637426
0.498570 0.475569 0.830477
0.751395 0.441214 0.781963
0.801030 0.429981 0.779100
0.000000 0.710296 0.770536
0.036195 0.709290 0.770428
0.078102 0.707014 0.770195
0.205958 0.747580 0.820822
0.851205 0.836746 0.909571
0.944384 0.836621 0.909489
0.000000 0.796580 0.774971
0.036195 0.796557 0.774977
0.078102 0.796413 0.775013
0.122478 0.795357 0.775211
0.827597 0.931680 0.909613
0.947446 0.935392 0.917677
