assets/luts/LUTs/APOLLO.CUBE
LUT_3D_SIZE 16
-0.023272 -0.023128 0.059250
0.001171 -0.023128 0.059231
0.006682 -0.023130 0.059231
0.023401 -0.023133 0.059230
0.062842 -0.023137 0.059229
0.140645 -0.023138 0.059228
0.252721 -0.023145 0.059226
0.378661 -0.023152 0.059224
0.503800 -0.023159 0.059221
0.616856 -0.023173 0.059218
0.712822 -0.023185 0.059216
0.787959 -0.023200 0.059212
0.841493 -0.023213 0.059207
0.879298 -0.023231 0.059203
0.906445 -0.023253 0.059197
0.932764 -0.023278 0.059191
-0.023273 0.008081 0.059231
0.001171 0.008081 0.059231
0.006681 0.010921 0.059230
0.023401 0.015663 0.059230
0.062842 0.022321 0.059229
0.140645 0.030899 0.059228
0.252721 0.040975 0.059226
0.378661 0.050540 0.059224
0.503800 0.058163 0.059221
0.616856 0.063249 0.059218
0.712822 0.065989 0.059216
0.787959 0.066577 0.059212
0.841493 0.065481 0.059207
0.879298 0.063430 0.059203
0.906445 0.060982 0.059197
0.932764 0.058498 0.059191
-0.023277 0.019243 0.059230
0.002349 0.019243 0.059230
0.006681 0.019243 0.059230
0.023401 0.029750 0.059229
0.062841 0.044497 0.059228
0.140645 0.063497 0.059227
0.252721 0.085795 0.059225
0.378660 0.106993 0.059223
0.503800 0.123881 0.059220
0.616856 0.135156 0.059217
0.712822 0.141233 0.059215
0.787959 0.142559 0.059211
0.841493 0.140129 0.059206
0.879298 0.135592 0.059202
0.906445 0.130165 0.059196
0.932764 0.124686 0.059190
-0.023285 0.043303 0.059228
0.004688 0.043303 0.059228
0.013375 0.043303 0.059228
0.023400 0.043303 0.059227
0.062841 0.065831 0.059226
0.140645 0.094859 0.059225
0.252721 0.128936 0.059223
0.378660 0.161310 0.059221
0.503800 0.187129 0.059218
0.616856 0.204353 0.059215
0.712822 0.213634 0.059213
0.787959 0.215677 0.059209
0.841493 0.211969 0.059204
0.879298 0.205028 0.059200
0.906445 0.196759 0.059195
0.932764 0.188378 0.059188
-0.023294 0.087007 0.059225
0.008524 0.087007 0.059225
0.024341 0.087007 0.059225
0.042590 0.087007 0.059224
0.062841 0.087007 0.059223
0.140644 0.125992 0.059222
0.252720 0.171746 0.059220
0.378659 0.215244 0.059218
0.503799 0.249901 0.059215
0.616856 0.273042 0.059214
0.712821 0.285514 0.059210
0.787959 0.288225 0.059206
0.841493 0.283243 0.059202
0.879298 0.273935 0.059197
0.906445 0.262828 0.059192
0.932764 0.251564 0.059185
-0.023308 0.157040 0.059220
0.014169 0.157040 0.059220
0.040475 0.157040 0.059220
0.070813 0.157040 0.059220
0.104502 0.157040 0.059219
0.140644 0.157040 0.059217
0.252719 0.214451 0.059216
0.378658 0.269029 0.059215
0.503798 0.312533 0.059213
0.616856 0.341540 0.059210
0.712821 0.357188 0.059206
0.787958 0.360604 0.059203
0.841492 0.354382 0.059198
0.879298 0.342677 0.059194
0.906445 0.328754 0.059188
0.932764 0.314588 0.059181
-0.023328 0.257129 0.059215
0.021579 0.257129 0.059215
0.061638 0.257129 0.059216
0.107843 0.257129 0.059216
0.157677 0.257129 0.059215
0.205888 0.257129 0.059213
0.252718 0.257128 0.059212
0.378657 0.322771 0.059210
0.503797 0.375039 0.059207
0.616855 0.409983 0.059204
0.712820 0.428831 0.059201
0.787958 0.432930 0.059197
0.841492 0.425406 0.059194
0.879298 0.411375 0.059188
0.906445 0.394563 0.059182
0.932764 0.377604 0.059175
-0.023354 0.376492 0.059209
0.029245 0.376492 0.059209
0.083563 0.376492 0.059209
0.145618 0.376492 0.059208
0.206775 0.376492 0.059207
0.265584 0.376491 0.059206
0.322727 0.376491 0.059204
0.378655 0.376490 0.059204
0.503796 0.437610 0.059201
0.616855 0.478437 0.059198
0.712820 0.500434 0.059195
0.787957 0.505231 0.059191
0.841492 0.496478 0.059186
0.879298 0.480031 0.059181
0.906444 0.460439 0.059175
0.932764 0.440575 0.059169
-0.023383 0.500230 0.059202
0.035733 0.500230 0.059202
0.102112 0.500230 0.059201
0.175234 0.500230 0.059201
0.244867 0.500230 0.059200
0.311962 0.500230 0.059198
0.377159 0.500230 0.059197
0.441051 0.500229 0.059196
0.503795 0.500229 0.059193
0.616854 0.546912 0.059190
0.712818 0.572110 0.059186
0.787957 0.577586 0.059182
0.841492 0.567569 0.059177
0.879297 0.548688 0.059174
0.906444 0.526329 0.059168
0.932763 0.503578 0.059160
-0.023420 0.615439 0.059192
0.040230 0.615439 0.059192
0.114984 0.615439 0.059192
0.194637 0.615439 0.059191
0.269893 0.615439 0.059191
0.342398 0.615439 0.059189
0.413010 0.615439 0.059187
0.482082 0.615439 0.059185
0.549954 0.615439 0.059183
0.616854 0.615439 0.059179
0.712817 0.643747 0.059176
0.787956 0.649943 0.059173
0.841491 0.638670 0.059169
0.879297 0.617474 0.059163
0.906444 0.592210 0.059157
0.932763 0.566605 0.059151
-0.023458 0.715307 0.059180
0.042699 0.715307 0.059180
0.122062 0.715307 0.059179
0.204985 0.715307 0.059179
0.283240 0.715307 0.059178
0.358711 0.715307 0.059177
0.432127 0.715306 0.059175
0.503994 0.715306 0.059175
0.574680 0.715306 0.059172
0.644276 0.715306 0.059169
0.712816 0.715305 0.059165
0.787955 0.722301 0.059161
0.841491 0.709869 0.059156
0.879297 0.686201 0.059152
0.906444 0.658090 0.059148
0.932763 0.629613 0.059140
-0.023506 0.794746 0.059167
0.043228 0.794746 0.059167
0.123621 0.794746 0.059167
0.207248 0.794746 0.059166
0.286173 0.794746 0.059166
0.362237 0.794746 0.059164
0.436287 0.794746 0.059162
0.508751 0.794746 0.059160
0.580037 0.794745 0.059158
0.650236 0.794745 0.059154
0.719441 0.794745 0.059152
0.787955 0.794745 0.059150
0.841491 0.780936 0.059145
0.879297 0.754933 0.059139
0.906444 0.724061 0.059133
0.932762 0.692720 0.059128
-0.023561 0.851905 0.059152
0.042219 0.851905 0.059152
0.120763 0.851905 0.059152
0.203106 0.851905 0.059152
0.280841 0.851905 0.059151
0.355746 0.851905 0.059151
0.428671 0.851905 0.059149
0.500048 0.851905 0.059147
0.570241 0.851905 0.059145
0.639364 0.851905 0.059141
0.707685 0.851904 0.059138
0.774966 0.851904 0.059133
0.841490 0.851904 0.059130
0.879296 0.823593 0.059125
0.906443 0.789945 0.059119
0.932762 0.755685 0.059111
-0.023621 0.892551 0.059136
0.040353 0.892551 0.059136
0.115478 0.892551 0.059135
0.195378 0.892551 0.059135
0.270856 0.892551 0.059134
0.343592 0.892551 0.059133
0.414386 0.892551 0.059133
0.483640 0.892551 0.059131
0.551758 0.892551 0.059128
0.618851 0.892551 0.059125
0.684992 0.892551 0.059121
0.750474 0.892551 0.059117
0.815041 0.892550 0.059112
0.879296 0.892550 0.059108
0.906443 0.855968 0.059102
0.932761 0.818925 0.059096
-0.023686 0.921773 0.059117
0.038161 0.921773 0.059117
0.109230 0.921773 0.059117
0.186080 0.921773 0.059116
0.258885 0.921773 0.059115
0.329021 0.921773 0.059114
0.397209 0.921773 0.059112
0.464036 0.921773 0.059112
0.529664 0.921773 0.059109
0.594333 0.921773 0.059106
0.658060 0.921773 0.059102
0.721138 0.921772 0.059098
0.783455 0.921772 0.059094
0.845299 0.921772 0.059090
0.906443 0.921772 0.059084
0.932761 0.881912 0.059077
-0.023805 0.979711 0.056366
0.035958 0.979711 0.056366
0.102987 0.979711 0.056365
0.176611 0.979711 0.056365
0.246668 0.979711 0.056364
0.314131 0.979711 0.056362
0.379776 0.979711 0.056361
0.444003 0.979711 0.056358
0.507148 0.979710 0.056356
0.569310 0.979710 0.056353
0.630617 0.979710 0.056349
0.691271 0.979710 0.056344
0.751180 0.979710 0.056342
0.810652 0.979710 0.056336
0.869419 0.979709 0.056330
0.932760 0.979709 0.056323
-0.023231 -0.349318 0.062659
0.001270 -0.349308 0.062667
0.006596 -0.349275 0.064718
0.023120 -0.349224 0.068610
0.062271 -0.349187 0.074174
0.139751 -0.349165 0.081484
0.251792 -0.349154 0.090229
0.377786 -0.349147 0.098684
0.503160 -0.349144 0.105546
0.616408 -0.349143 0.110178
0.712512 -0.349142 0.112684
0.787657 -0.349143 0.113222
0.841452 -0.349144 0.112224
0.879281 -0.349146 0.110350
0.906416 -0.349190 0.107819
0.932703 -0.349279 0.105018
-0.022093 0.008296 0.062519
0.001159 0.008080 0.062572
0.007874 0.007405 0.063262
0.027861 0.006262 0.065215
0.071526 0.005168 0.068216
0.153223 -0.017520 0.071265
0.265278 -0.024485 0.073868
0.389632 -0.027303 0.076166
0.512495 -0.028632 0.077909
0.623356 -0.029190 0.079090
0.717522 -0.029274 0.079822
0.790957 -0.029016 0.080125
0.843426 -0.028478 0.080088
0.880557 -0.027686 0.079863
0.907222 -0.030780 0.076673
0.932580 0.008225 0.083917
-0.018703 0.019209 0.064606
0.000442 0.019827 0.062718
0.006724 0.019378 0.061330
0.025166 0.029668 0.061136
0.067690 0.043666 0.060958
0.149053 0.061252 0.060819
0.262009 0.081410 0.060720
0.387332 0.100186 0.060657
0.510958 0.114945 0.060619
0.622400 0.124666 0.060601
0.716776 0.129747 0.060598
0.790444 0.130607 0.060606
0.843184 0.128191 0.060623
0.880348 0.123929 0.060648
0.907136 0.118944 0.060467
0.932527 0.113822 0.062622
-0.014906 0.043244 0.068430
-0.018475 0.044223 0.064265
0.012554 0.043907 0.060886
0.023517 0.043502 0.060833
0.064798 0.066298 0.060769
0.145435 0.095223 0.060709
0.258945 0.128500 0.060661
0.385199 0.159583 0.060627
0.509531 0.183948 0.060606
0.621519 0.200005 0.060597
0.716286 0.208409 0.060601
0.790235 0.209889 0.060611
0.842921 0.205985 0.060631
0.880286 0.199085 0.060658
0.907144 0.190952 0.060481
0.932542 0.182643 0.062622
-0.012894 0.086920 0.073852
-0.026918 0.088143 0.065914
0.022222 0.087895 0.060694
0.042045 0.087615 0.060677
0.063038 0.087238 0.060657
0.142670 0.126601 0.060634
0.256334 0.172338 0.060615
0.382909 0.215164 0.060603
0.507967 0.248897 0.060597
0.620536 0.271115 0.060599
0.715637 0.282768 0.060606
0.789861 0.284943 0.060624
0.842891 0.279707 0.060647
0.880137 0.270281 0.060673
0.907033 0.259220 0.060501
0.932564 0.247869 0.062620
-0.012112 0.156965 0.080925
-0.029091 0.158363 0.068268
0.036459 0.158117 0.060614
0.069180 0.157907 0.060609
0.104108 0.157649 0.060606
0.140896 0.157273 0.060601
0.254296 0.214992 0.060597
0.381157 0.269434 0.060597
0.506487 0.312338 0.060601
0.619511 0.340762 0.060609
0.715011 0.355776 0.060625
0.789544 0.358626 0.060645
0.842587 0.352076 0.060666
0.880043 0.340242 0.060698
0.906988 0.326301 0.060531
0.932589 0.311983 0.062618
-0.011930 0.257041 0.089370
-0.029459 0.258438 0.071386
0.055096 0.258235 0.060595
0.104699 0.258150 0.060595
0.156326 0.257890 0.060597
0.205632 0.257683 0.060599
0.252947 0.257349 0.060603
0.379798 0.323154 0.060608
0.505469 0.375301 0.060619
0.618640 0.409767 0.060633
0.714343 0.428048 0.060651
0.789120 0.431726 0.060672
0.842411 0.423908 0.060700
0.879905 0.409669 0.060729
0.906900 0.392838 0.060572
0.932618 0.375657 0.062616
-0.012075 0.376432 0.097518
-0.028886 0.377619 0.074812
0.074370 0.377456 0.060610
0.140988 0.377450 0.060613
0.204568 0.377336 0.060617
0.264609 0.377098 0.060622
0.322493 0.376883 0.060629
0.378860 0.376698 0.060641
0.504531 0.437821 0.060653
0.617954 0.478450 0.060668
0.713929 0.500052 0.060689
0.788833 0.504460 0.060712
0.842171 0.495453 0.060741
0.879787 0.478822 0.060770
0.906867 0.459169 0.060623
0.932645 0.439080 0.062613
-0.012424 0.500123 0.104093
-0.027608 0.501180 0.078148
0.090623 0.501045 0.060651
0.169516 0.500987 0.060654
0.241877 0.500942 0.060659
0.310307 0.500791 0.060666
0.376474 0.500722 0.060674
0.440851 0.500566 0.060687
0.503936 0.500402 0.060701
0.617404 0.547058 0.060718
0.713423 0.571950 0.060740
0.788527 0.577163 0.060765
0.842064 0.566895 0.060790
0.879701 0.547868 0.060822
0.906732 0.525377 0.060684
0.932670 0.502413 0.062612
-0.012910 0.615384 0.108510
-0.025616 0.616116 0.081094
0.101873 0.616067 0.060707
0.188214 0.616009 0.060711
0.266289 0.615983 0.060716
0.340285 0.615919 0.060724
0.411802 0.615862 0.060733
0.481467 0.615791 0.060747
0.549786 0.615658 0.060762
0.617022 0.615572 0.060779
0.713211 0.643768 0.060800
0.788296 0.649652 0.060825
0.841880 0.638192 0.060851
0.879628 0.616867 0.060883
0.906657 0.591543 0.060755
0.932692 0.565727 0.062608
-0.013495 0.715348 0.110872
-0.022734 0.715950 0.083552
0.108020 0.715813 0.060778
0.198106 0.715842 0.060782
0.279246 0.715745 0.060788
0.356167 0.715638 0.060794
0.430532 0.715682 0.060805
0.503065 0.715603 0.060817
0.574157 0.715551 0.060831
0.644091 0.715525 0.060849
0.712858 0.715443 0.060870
0.788121 0.722169 0.060894
0.841730 0.709423 0.060923
0.879492 0.685755 0.060952
0.906548 0.657634 0.060835
0.932711 0.628890 0.062603
-0.014155 0.794690 0.111346
-0.018402 0.794983 0.085398
0.109301 0.794917 0.060860
0.200191 0.794896 0.060864
0.281947 0.794864 0.060867
0.359446 0.794819 0.060876
0.434427 0.794885 0.060886
0.507552 0.794824 0.060898
0.579241 0.794870 0.060912
0.649677 0.794786 0.060930
0.719151 0.794722 0.060950
0.787988 0.794783 0.060974
0.841623 0.780817 0.061001
0.879379 0.754705 0.061029
0.906500 0.723720 0.060926
0.932727 0.692141 0.062596
-0.014871 0.851960 0.110318
-0.010045 0.852166 0.086612
0.106734 0.852135 0.060951
0.196087 0.852126 0.060954
0.276583 0.852113 0.060960
0.352946 0.852096 0.060968
0.426752 0.852073 0.060976
0.498693 0.852082 0.060987
0.569308 0.852050 0.061003
0.638774 0.852084 0.061020
0.707134 0.852046 0.061040
0.774797 0.852006 0.061063
0.841543 0.851966 0.061087
0.879324 0.823521 0.061116
0.906459 0.789679 0.061023
0.932739 0.755283 0.062592
-0.015634 0.892532 0.108455
0.000164 0.892630 0.086135
0.102026 0.892609 0.061050
0.188471 0.892604 0.061053
0.266653 0.892597 0.061059
0.340768 0.892586 0.061067
0.412398 0.892641 0.061075
0.482226 0.892624 0.061088
0.550695 0.892605 0.061100
0.618127 0.892584 0.061117
0.684486 0.892612 0.061136
0.750153 0.892587 0.061158
0.814957 0.892567 0.061185
0.879331 0.892592 0.061210
0.906431 0.855922 0.061127
0.932749 0.818684 0.062584
-0.018477 0.921761 0.106020
0.000196 0.921851 0.084993
0.096496 0.921839 0.061041
0.179404 0.921836 0.061044
0.254800 0.921831 0.061048
0.326226 0.921824 0.061057
0.395258 0.921875 0.061068
0.462584 0.921864 0.061080
0.528598 0.921852 0.061094
0.593508 0.921837 0.061111
0.657478 0.921822 0.061133
0.720728 0.921805 0.061157
0.783146 0.921788 0.061187
0.845211 0.921770 0.061215
0.906472 0.921805 0.061167
0.932756 0.881729 0.062555
-0.022307 0.979805 0.096060
0.010664 0.979794 0.061863
0.095252 0.979788 0.061890
0.172405 0.979789 0.061890
0.244071 0.979789 0.061890
0.312342 0.979790 0.061889
0.378479 0.979791 0.061888
0.443035 0.979793 0.061887
0.506376 0.979794 0.061886
0.568753 0.979796 0.061885
0.630156 0.979798 0.061883
0.690957 0.979800 0.061881
0.750889 0.979802 0.061879
0.810474 0.979804 0.061876
0.869306 0.979806 0.061853
0.932759 0.979708 0.061804
-0.023083 -0.349314 0.070876
0.002513 -0.349298 0.070824
0.007149 -0.349264 0.070823
0.023135 -0.349217 0.077879
0.062290 -0.349184 0.089058
0.139782 -0.349164 0.103900
0.251824 -0.349153 0.121894
0.377820 -0.349147 0.139507
0.503177 -0.349144 0.153904
0.616413 -0.349143 0.163657
0.712519 -0.349142 0.168977
0.787661 -0.349143 0.170138
0.841453 -0.349144 0.168056
0.879281 -0.349146 0.164104
0.906416 -0.349190 0.159296
0.932703 -0.349279 0.154351
-0.021705 0.011116 0.070206
0.001061 0.007925 0.072043
0.008045 0.007185 0.071593
0.027333 0.006217 0.079029
0.070422 0.005506 0.089477
0.151276 0.005133 0.102937
0.262930 0.005084 0.118879
0.387162 0.005185 0.134198
0.510393 0.005310 0.146549
0.621719 0.005427 0.154832
0.716108 0.005530 0.159211
0.790083 0.005625 0.159982
0.842901 0.005713 0.157900
0.880036 0.005797 0.154223
0.907033 0.005077 0.149932
0.932553 0.008430 0.145552
-0.018322 0.019689 0.070248
0.000425 0.020120 0.070566
0.006643 0.019255 0.070363
0.026767 0.018220 0.070936
0.075918 0.016558 0.072963
0.170096 0.014474 0.076955
0.290605 0.012627 0.082045
0.417129 0.011205 0.086643
0.537479 0.010120 0.090045
0.643965 0.009304 0.092105
0.733037 0.008674 0.092975
0.801472 0.008204 0.092783
0.850214 0.007817 0.091841
0.884948 0.007542 0.090514
0.910545 0.006309 0.088856
0.932193 0.019926 0.088726
-0.014751 0.043246 0.077523
0.000154 0.044042 0.077137
0.004674 0.044892 0.069428
0.023650 0.043687 0.067472
0.069891 0.064011 0.066711
0.159476 0.090284 0.065927
0.279107 0.119274 0.065208
0.407246 0.144720 0.064607
0.530091 0.163500 0.064121
0.638839 0.175106 0.063730
0.729788 0.180426 0.063429
0.799497 0.180139 0.063189
0.849069 0.175774 0.063006
0.884255 0.169308 0.062864
0.910205 0.162116 0.062088
0.932099 0.154615 0.070881
-0.012854 0.086926 0.088455
0.000162 0.087889 0.087215
0.002898 0.090652 0.070793
0.037956 0.089332 0.065498
0.063543 0.087809 0.065164
0.149539 0.127251 0.064788
0.268944 0.171822 0.064406
0.398627 0.211761 0.064049
0.523771 0.241699 0.063733
0.634440 0.260306 0.063469
0.726959 0.269140 0.063245
0.797792 0.269230 0.063064
0.848153 0.262987 0.062919
0.883691 0.253328 0.062802
0.909826 0.242532 0.062040
0.932104 0.231104 0.070885
-0.012103 0.156968 0.102899
0.000271 0.158001 0.100601
0.001955 0.162286 0.074571
0.059603 0.161062 0.064307
0.101384 0.159712 0.064159
0.141774 0.158114 0.063977
0.260296 0.216438 0.063774
0.390781 0.269875 0.063575
0.517543 0.310529 0.063383
0.629995 0.336150 0.063209
0.723749 0.348577 0.063058
0.796019 0.349469 0.062931
0.847152 0.341675 0.062822
0.883165 0.329278 0.062736
0.909458 0.315276 0.061986
0.932197 0.300425 0.070887
-0.011929 0.257045 0.120371
0.000333 0.258046 0.116736
0.001429 0.263042 0.079508
0.087753 0.262009 0.063591
0.149478 0.261030 0.063520
0.203943 0.259786 0.063429
0.253809 0.258209 0.063320
0.384454 0.324469 0.063207
0.512276 0.375572 0.063095
0.625902 0.408166 0.062989
0.721092 0.424448 0.062892
0.794227 0.426244 0.062803
0.845996 0.417130 0.062729
0.882429 0.402180 0.062671
0.908997 0.385171 0.061932
0.932342 0.367127 0.070887
-0.012077 0.376436 0.137446
0.000372 0.377330 0.132486
0.001136 0.382104 0.084266
0.116439 0.381333 0.063147
0.193652 0.380673 0.063111
0.259963 0.379837 0.063063
0.321323 0.378747 0.063007
0.379646 0.377579 0.062944
0.507930 0.438730 0.062881
0.622452 0.478304 0.062815
0.718468 0.498375 0.062754
0.792583 0.501219 0.062699
0.845019 0.491039 0.062650
0.881906 0.473653 0.062612
0.908610 0.453646 0.061883
0.932308 0.432624 0.070890
-0.012428 0.500125 0.151360
0.000403 0.500869 0.145289
0.000959 0.505032 0.088052
0.140039 0.504381 0.062873
0.227517 0.503995 0.062853
0.302929 0.503473 0.062827
0.373072 0.502797 0.062797
0.439916 0.501995 0.062762
0.504672 0.501150 0.062726
0.619696 0.547505 0.062689
0.716405 0.571421 0.062650
0.791262 0.575407 0.062618
0.844216 0.564037 0.062591
0.881336 0.544314 0.062566
0.908099 0.521397 0.061849
0.932442 0.497435 0.070893
-0.012915 0.615384 0.160789
0.000434 0.615912 0.153938
0.000842 0.619163 0.090534
0.155367 0.618758 0.062700
0.249388 0.618475 0.062688
0.330703 0.618183 0.062676
0.406432 0.617797 0.062660
0.478839 0.617328 0.062641
0.549035 0.616787 0.062621
0.617525 0.616120 0.062601
0.714695 0.643929 0.062582
0.790017 0.648905 0.062564
0.843453 0.636499 0.062550
0.880808 0.614408 0.062537
0.907838 0.588691 0.061829
0.932563 0.561890 0.070893
-0.013500 0.715349 0.165911
0.000501 0.715666 0.158613
0.000755 0.718155 0.091823
0.163235 0.717764 0.062597
0.260673 0.717629 0.062594
0.344982 0.717426 0.062586
0.423594 0.717205 0.062577
0.498920 0.716957 0.062569
0.572023 0.716682 0.062559
0.643354 0.716113 0.062551
0.713325 0.716008 0.062541
0.789055 0.721998 0.062536
0.842733 0.708636 0.062530
0.880446 0.684173 0.062528
0.907439 0.655620 0.061827
0.932568 0.625975 0.070893
-0.014159 0.794690 0.167006
0.000560 0.794833 0.159584
0.000717 0.796638 0.091981
0.164499 0.796330 0.062543
0.262508 0.796167 0.062541
0.347342 0.796131 0.062539
0.426502 0.795964 0.062535
0.502407 0.795884 0.062535
0.576059 0.795720 0.062532
0.647983 0.795466 0.062529
0.718534 0.795232 0.062528
0.788291 0.795022 0.062528
0.842172 0.780519 0.062530
0.879996 0.753856 0.062535
0.907176 0.722367 0.061842
0.932527 0.690060 0.070890
-0.014875 0.851960 0.164940
0.000613 0.852060 0.157648
0.000708 0.853043 0.091287
0.160623 0.853017 0.062527
0.257005 0.852941 0.062527
0.340429 0.852936 0.062527
0.418245 0.852828 0.062528
0.492878 0.852664 0.062528
0.565369 0.852649 0.062530
0.636229 0.852590 0.062533
0.705760 0.852393 0.062537
0.774241 0.852262 0.062540
0.841704 0.852159 0.062548
0.879725 0.823151 0.062555
0.906966 0.788909 0.061876
0.932606 0.753778 0.070887
-0.015637 0.892532 0.161068
0.000662 0.892594 0.154054
0.000712 0.893231 0.090095
0.153802 0.893275 0.062537
0.247300 0.893227 0.062539
0.328182 0.893163 0.062541
0.403680 0.893149 0.062543
0.476056 0.893103 0.062547
0.546326 0.892984 0.062552
0.615055 0.892958 0.062555
0.682549 0.892860 0.062563
0.749036 0.892904 0.062573
0.814432 0.892813 0.062582
0.879392 0.892676 0.062593
0.906742 0.855568 0.061924
0.932675 0.817680 0.070887
-0.018479 0.921761 0.156414
0.000589 0.921851 0.149824
0.000379 0.922298 0.088668
0.145807 0.922217 0.061883
0.235925 0.922185 0.061886
0.313871 0.922193 0.061890
0.386571 0.922155 0.061895
0.456273 0.922220 0.061898
0.523983 0.922202 0.061907
0.590134 0.922186 0.061915
0.655111 0.922079 0.061927
0.719198 0.922015 0.061939
0.782252 0.921892 0.061952
0.844829 0.921907 0.061973
0.906510 0.921915 0.061434
0.932726 0.881313 0.070723
-0.022308 0.979805 0.145925
0.001298 0.979805 0.139334
0.024883 0.979729 0.069478
0.143817 0.979798 0.069610
0.227556 0.979802 0.069610
0.301299 0.979807 0.069609
0.370603 0.979715 0.069608
0.437168 0.979723 0.069612
0.501950 0.979733 0.069609
0.565381 0.979745 0.069613
0.627633 0.979758 0.069612
0.689103 0.979772 0.069609
0.749643 0.979792 0.069608
0.809702 0.979808 0.069608
0.868995 0.979783 0.069454
0.932753 0.979801 0.069145
-0.022774 -0.349308 0.088916
0.004954 -0.349280 0.088731
0.014059 -0.349261 0.088677
0.024674 -0.349206 0.088792
0.062354 -0.349179 0.104461
0.139842 -0.349162 0.127346
0.251828 -0.349153 0.155319
0.377851 -0.349147 0.182927
0.503210 -0.349144 0.205629
0.616422 -0.349143 0.221023
0.712535 -0.349142 0.229421
0.787667 -0.349143 0.231269
0.841456 -0.349145 0.227968
0.879233 -0.349147 0.221732
0.906417 -0.349190 0.214279
0.932704 -0.349279 0.206676
-0.020904 0.015863 0.087261
0.000910 0.007762 0.093688
0.015960 0.006779 0.092495
0.027330 0.005999 0.090575
0.069618 0.005423 0.106949
0.150561 0.005116 0.128950
0.262446 0.005093 0.155191
0.386902 0.005196 0.180590
0.510232 0.005319 0.201193
0.621611 0.005433 0.215060
0.716065 0.005535 0.222443
0.790018 0.005629 0.223773
0.842875 0.005715 0.220326
0.880020 0.005800 0.214207
0.907022 0.005083 0.207087
0.932556 0.008430 0.199833
-0.017570 0.030102 0.087304
0.000391 0.031564 0.090274
0.006451 0.019054 0.091265
0.027003 0.017882 0.090438
0.075360 0.016238 0.105798
0.168605 0.014307 0.127119
0.288416 0.012662 0.150668
0.414665 0.011453 0.171445
0.534987 0.010584 0.186908
0.641809 0.009976 0.196542
0.731215 0.009540 0.200849
0.800109 0.009231 0.200414
0.849378 0.008999 0.196510
0.884350 0.008825 0.190749
0.910238 0.007548 0.184358
0.931933 0.020217 0.177797
-0.014471 0.043965 0.087470
0.000152 0.044570 0.087902
0.004521 0.045114 0.088441
0.023345 0.043304 0.087669
0.070320 0.041551 0.087678
0.164046 0.039063 0.088757
0.291741 0.035702 0.091344
0.428152 0.031807 0.094483
0.554397 0.028083 0.096995
0.662283 0.024858 0.098362
0.749240 0.022182 0.098588
0.813628 0.020009 0.097743
0.858902 0.018251 0.096251
0.891076 0.016833 0.094440
0.915515 0.013975 0.092004
0.931419 0.045176 0.099514
-0.012779 0.086937 0.103750
0.000164 0.087802 0.103661
0.002914 0.090149 0.101049
0.018728 0.089774 0.084790
0.063487 0.087679 0.082212
0.154966 0.118687 0.080543
0.281440 0.155374 0.078651
0.416719 0.187621 0.076749
0.543702 0.210364 0.074977
0.653704 0.223270 0.073402
0.743132 0.227913 0.072052
0.809679 0.225524 0.070903
0.856568 0.218638 0.069955
0.889504 0.209531 0.069166
0.914601 0.200032 0.067076
0.931330 0.191171 0.089187
-0.012084 0.156976 0.126197
0.000275 0.157923 0.125410
0.002126 0.161684 0.119147
0.013233 0.164182 0.083243
0.089941 0.161669 0.077365
0.142443 0.158709 0.076353
0.268069 0.213978 0.075220
0.404087 0.263135 0.074040
0.533311 0.298668 0.072899
0.645664 0.319449 0.071834
0.737484 0.327849 0.070876
0.806343 0.325619 0.070025
0.854518 0.316229 0.069298
0.888340 0.303350 0.068670
0.913670 0.289644 0.066683
0.931495 0.275236 0.089221
-0.011928 0.257053 0.153540
0.000335 0.257990 0.151930
0.001746 0.262430 0.141116
0.009328 0.267610 0.085513
0.126199 0.265152 0.073720
0.197324 0.262566 0.073164
0.254956 0.259334 0.072524
0.391594 0.324156 0.071823
0.522825 0.372018 0.071115
0.637509 0.400909 0.070416
0.731898 0.413579 0.069767
0.802778 0.412140 0.069168
0.852254 0.401088 0.068628
0.887017 0.385117 0.068150
0.912691 0.367870 0.066261
0.931654 0.349274 0.089251
-0.012084 0.376442 0.180445
0.000373 0.377324 0.178022
0.001550 0.381455 0.162387
