assets/luts/LUTs/APOLLO.CUBE
LUT_3D_SIZE 6
-0.023272 -0.023128 0.059250
0.023401 -0.023133 0.059230
0.252721 -0.023145 0.059226
0.616856 -0.023173 0.059218
0.841493 -0.023213 0.059207
0.932764 -0.023278 0.059191
-0.023285 0.043303 0.059228
0.023400 0.043303 0.059227
0.252721 0.128936 0.059223
0.616856 0.204353 0.059215
0.841493 0.211969 0.059204
0.932764 0.188378 0.059188
-0.023328 0.257129 0.059215
0.107843 0.257129 0.059216
0.252718 0.257128 0.059212
0.616855 0.409983 0.059204
0.841492 0.425406 0.059194
0.932764 0.377604 0.059175
-0.023420 0.615439 0.059192
0.194637 0.615439 0.059191
0.413010 0.615439 0.059187
0.616854 0.615439 0.059179
0.841491 0.638670 0.059169
0.932763 0.566605 0.059151
-0.023561 0.851905 0.059152
0.203106 0.851905 0.059152
0.428671 0.851905 0.059149
0.639364 0.851905 0.059141
0.841490 0.851904 0.059130
0.932762 0.755685 0.059111
-0.023805 0.979711 0.056366
0.176611 0.979711 0.056365
0.379776 0.979711 0.056361
0.569310 0.979710 0.056353
0.751180 0.979710 0.056342
0.932760 0.979709 0.056323
-0.022774 -0.349308 0.088916
0.024674 -0.349206 0.088792
0.251828 -0.349153 0.155319
0.616422 -0.349143 0.221023
0.841456 -0.349145 0.227968
0.932704 -0.349279 0.206676
-0.014471 0.043965 0.087470
0.023345 0.043304 0.087669
0.291741 0.035702 0.091344
0.662283 0.024858 0.098362
0.858902 0.018251 0.096251
0.931419 0.045176 0.099514
-0.011928 0.257053 0.153540
0.009328 0.267610 0.085513
0.254956 0.259334 0.072524
0.637509 0.400909 0.070416
0.852254 0.401088 0.068628
0.931654 0.349274 0.089251
-0.012924 0.615385 0.217513
0.004363 0.623779 0.094821
0.393407 0.621118 0.068082
0.618425 0.617130 0.067568
0.846227 0.632383 0.066993
0.932155 0.554067 0.089365
-0.014884 0.851960 0.224195
0.002906 0.854717 0.094650
0.399344 0.854184 0.066389
0.630719 0.853443 0.066250
0.842047 0.852503 0.066073
0.932589 0.750647 0.089421
-0.022307 0.979805 0.197981
0.043690 0.979611 0.086735
0.353287 0.979590 0.087045
0.558242 0.979671 0.087046
0.746916 0.979783 0.087049
0.932741 0.979789 0.085627
-0.021727 -0.349286 0.269898
0.110599 -0.349170 0.268926
0.258705 -0.349148 0.269847
0.616459 -0.349142 0.410591
0.841473 -0.349145 0.426253
0.932706 -0.349279 0.378794
-0.013300 0.129274 0.262357
0.021342 0.041576 0.301837
0.289242 0.033293 0.293122
0.658075 0.024262 0.411276
0.857452 0.018911 0.401202
0.931254 0.045578 0.348368
-0.011934 0.258302 0.263182
0.009020 0.265590 0.269755
0.252673 0.257089 0.263593
0.653395 0.237306 0.247858
0.866462 0.205025 0.219751
0.930431 0.261423 0.267241
-0.012986 0.615387 0.406135
0.005003 0.622559 0.389402
0.178056 0.629687 0.207782
0.620216 0.618999 0.190824
0.856678 0.588690 0.172536
0.930726 0.522619 0.271277
-0.014941 0.851962 0.421389
0.003815 0.854472 0.394461
0.100264 0.860325 0.154920
0.581107 0.857533 0.145224
0.843170 0.853887 0.137745
0.931886 0.738714 0.274496
-0.022319 0.979805 0.369127
0.025612 0.979535 0.342784
0.265370 0.979161 0.264940
0.528148 0.979251 0.266065
0.735764 0.979486 0.266486
0.932683 0.979765 0.257399
-0.021331 -0.349278 0.624203
0.195782 -0.349151 0.623231
0.414882 -0.349144 0.623900
0.619776 -0.349142 0.624263
0.841436 -0.349146 0.646004
0.932712 -0.349280 0.568982
-0.012370 0.204592 0.615165
0.017334 0.037747 0.687212
0.427409 0.029273 0.676826
0.652575 0.022608 0.655174
0.856018 0.018287 0.642423
0.931355 0.045626 0.550835
-0.011979 0.410242 0.615903
0.008147 0.409890 0.652088
0.245397 0.250392 0.663482
0.650291 0.230599 0.653181
0.865727 0.198361 0.600191
0.930478 0.261818 0.517343
-0.013114 0.615951 0.616190
0.004862 0.621414 0.621885
0.171192 0.626269 0.627558
0.616834 0.615391 0.616480
0.857593 0.597791 0.597331
0.930713 0.617502 0.617661
-0.015056 0.851965 0.640484
0.003781 0.854164 0.631814
0.099605 0.859264 0.579371
0.555566 0.858501 0.550287
0.843145 0.853740 0.529472
0.931517 0.777768 0.623479
-0.022340 0.979806 0.558384
0.025617 0.979567 0.545839
0.266399 0.979173 0.514143
0.620892 0.978991 0.615189
0.771524 0.979340 0.616597
0.932654 0.979734 0.609033
-0.021212 -0.349276 0.879988
0.202907 -0.349144 0.879689
0.427632 -0.349142 0.879804
0.637806 -0.349143 0.879972
0.839537 -0.349148 0.880006
0.932719 -0.349281 0.773075
-0.011931 0.212232 0.875734
0.012354 0.030494 0.913698
0.413110 0.024977 0.907570
0.644880 0.020673 0.899364
0.853839 0.017480 0.891165
0.931503 0.045687 0.761413
-0.012107 0.425376 0.875970
0.007135 0.406173 0.898236
0.233646 0.239646 0.909461
0.606461 0.219741 0.907158
0.863924 0.188117 0.902975
0.930530 0.262616 0.746905
-0.013317 0.638500 0.876083
0.004658 0.634929 0.885276
0.160648 0.595015 0.900590
0.611175 0.609554 0.898361
0.855948 0.591633 0.893752
0.930752 0.617944 0.789617
-0.015239 0.851755 0.876179
0.003731 0.853463 0.878103
0.095483 0.857628 0.882835
0.548685 0.856528 0.881848
0.841478 0.851891 0.876278
0.931602 0.852276 0.876348
-0.022381 0.979806 0.762033
0.025625 0.979615 0.756476
0.266643 0.979224 0.742848
0.625248 0.979100 0.788199
0.841343 0.979437 0.872933
0.932706 0.979796 0.871935
-0.023286 -0.349319 0.971574
0.176641 -0.349319 0.971574
0.379796 -0.349319 0.971574
0.569315 -0.349320 0.971574
0.751184 -0.349321 0.971574
0.932764 -0.349322 0.971573
-0.023334 0.188385 0.967802
0.023398 0.043302 0.967802
0.351804 0.043301 0.967802
0.557767 0.043301 0.967801
0.746766 0.043299 0.967801
0.932764 0.043297 0.967801
-0.023378 0.377607 0.967802
0.023399 0.350591 0.967802
0.252715 0.257125 0.967801
0.524876 0.257124 0.967801
0.734982 0.257121 0.967801
0.932764 0.257118 0.967800
-0.023468 0.566606 0.967801
0.023394 0.554916 0.967801
0.252709 0.521484 0.967801
0.616853 0.615438 0.967800
0.770049 0.615437 0.967800
0.932763 0.615436 0.967800
-0.023611 0.755686 0.967800
0.023392 0.751102 0.967800
0.252700 0.738706 0.967799
0.616850 0.775677 0.967799
0.841490 0.851904 0.967799
0.932761 0.851903 0.967799
-0.023817 0.950029 0.967798
0.023381 0.950029 0.967798
0.252696 0.950029 0.967798
0.616847 0.950029 0.967798
0.841488 0.950028 0.967797
0.932760 0.950028 0.967797
