assets/luts/LUTs/ARCTIC.CUBE
#Generated with IWLTBAP LUT Generator
#Website: https://luts.iwltbap.com
TITLE "Frozen dream"
LUT_3D_SIZE 8
0.000000 0.000000 0.000000
0.000000 0.000000 0.000000
0.172549 0.000000 0.000000
0.360784 0.003922 0.000000
0.588235 0.000000 0.003922
0.807843 0.003922 0.000000
0.980392 0.003922 0.003922
0.996078 0.098039 0.141176
0.050980 0.003922 0.003922
0.007843 0.054902 0.007843
0.180392 0.054902 0.003922
0.368627 0.074510 0.000000
0.576471 0.078431 0.003922
0.792157 0.074510 0.011765
0.968627 0.000000 0.003922
0.996078 0.274510 0.149020
0.113725 0.156863 0.000000
0.000000 0.215686 0.000000
0.176471 0.219608 0.000000
0.368627 0.254902 0.000000
0.596078 0.290196 0.000000
0.792157 0.294118 0.000000
0.972549 0.274510 0.000000
1.000000 0.419608 0.137255
0.113725 0.282353 0.000000
0.000000 0.396078 0.000000
0.039216 0.368627 0.000000
0.337255 0.403922 0.003922
0.556863 0.431373 0.000000
0.788235 0.474510 0.000000
0.976471 0.478431 0.003922
1.000000 0.603922 0.211765
0.000000 0.427451 0.000000
0.000000 0.568627 0.000000
0.000000 0.552941 0.003922
0.203922 0.545098 0.000000
0.494118 0.580392 0.003922
0.737255 0.619608 0.000000
0.941176 0.639216 0.000000
1.000000 0.729412 0.007843
0.000000 0.650980 0.007843
0.000000 0.733333 0.000000
0.000000 0.729412 0.003922
0.000000 0.717647 0.007843
0.396078 0.725490 0.000000
0.643137 0.760784 0.000000
0.905882 0.800000 0.003922
0.952941 0.878431 0.000000
0.000000 0.878431 0.000000
0.003922 0.917647 0.000000
0.000000 0.913725 0.000000
0.000000 0.913725 0.000000
0.258824 0.898039 0.000000
0.552941 0.913725 0.000000
0.800000 0.929412 0.000000
0.800000 0.976471 0.101961
0.749020 0.996078 0.639216
0.603922 1.000000 0.639216
0.670588 1.000000 0.654902
0.756863 1.000000 0.666667
0.839216 1.000000 0.682353
0.937255 0.992157 0.698039
1.000000 0.992157 0.729412
1.000000 0.976471 0.772549
0.000000 0.000000 0.000000
0.000000 0.000000 0.000000
0.078431 0.019608 0.000000
0.250980 0.086275 0.000000
0.388235 0.109804 0.000000
0.592157 0.137255 0.000000
0.835294 0.149020 0.003922
0.835294 0.462745 0.007843
0.109804 0.011765 0.000000
0.015686 0.054902 0.090196
0.196078 0.027451 0.094118
0.360784 0.000000 0.082353
0.541176 0.003922 0.074510
0.756863 0.000000 0.058824
0.956863 0.003922 0.043137
0.996078 0.109804 0.266667
0.152941 0.152941 0.011765
0.000000 0.223529 0.086275
0.164706 0.215686 0.098039
0.388235 0.235294 0.105882
0.592157 0.247059 0.098039
0.792157 0.243137 0.074510
0.976471 0.219608 0.058824
1.000000 0.368627 0.278431
0.172549 0.278431 0.007843
0.000000 0.396078 0.090196
0.050980 0.372549 0.121569
0.337255 0.388235 0.105882
0.576471 0.423529 0.050980
0.803922 0.462745 0.109804
0.984314 0.450980 0.121569
1.000000 0.572549 0.309804
0.062745 0.439216 0.007843
0.000000 0.576471 0.000000
0.003922 0.552941 0.054902
0.219608 0.545098 0.098039
0.505882 0.576471 0.000000
0.756863 0.615686 0.000000
0.964706 0.631373 0.035294
1.000000 0.709804 0.211765
0.003922 0.658824 0.003922
0.000000 0.745098 0.000000
0.000000 0.733333 0.000000
0.000000 0.721569 0.007843
0.407843 0.729412 0.000000
0.670588 0.760784 0.000000
0.925490 0.788235 0.000000
0.984314 0.874510 0.000000
0.007843 0.870588 0.000000
0.000000 0.917647 0.000000
0.000000 0.913725 0.000000
0.000000 0.917647 0.000000
0.266667 0.905882 0.109804
0.576471 0.913725 0.007843
0.819608 0.925490 0.000000
0.839216 0.972549 0.188235
0.780392 1.000000 0.650980
0.635294 1.000000 0.666667
0.690196 1.000000 0.674510
0.749020 1.000000 0.690196
0.839216 1.000000 0.701961
0.925490 0.992157 0.717647
0.996078 0.988235 0.749020
0.996078 0.980392 0.792157
0.000000 0.007843 0.082353
0.000000 0.019608 0.105882
0.066667 0.027451 0.129412
0.262745 0.023529 0.156863
0.403922 0.000000 0.117647
0.580392 0.007843 0.121569
0.843137 0.000000 0.133333
0.847059 0.443137 0.286275
0.149020 0.000000 0.152941
0.003922 0.058824 0.301961
0.156863 0.047059 0.286275
0.349020 0.003922 0.294118
0.541176 0.000000 0.301961
0.756863 0.003922 0.305882
0.952941 0.003922 0.274510
1.000000 0.003922 0.427451
0.164706 0.149020 0.207843
0.000000 0.266667 0.309804
0.133333 0.231373 0.301961
0.372549 0.207843 0.301961
0.560784 0.172549 0.286275
0.776471 0.137255 0.290196
0.972549 0.090196 0.286275
0.996078 0.321569 0.431373
0.164706 0.294118 0.211765
0.000000 0.411765 0.231373
0.003922 0.411765 0.266667
0.313725 0.400000 0.301961
0.572549 0.431373 0.305882
0.800000 0.450980 0.325490
0.976471 0.431373 0.317647
0.996078 0.560784 0.447059
0.090196 0.470588 0.192157
0.003922 0.600000 0.203922
0.000000 0.588235 0.247059
0.203922 0.560784 0.286275
0.490196 0.588235 0.262745
0.760784 0.615686 0.258824
0.960784 0.639216 0.313725
1.000000 0.717647 0.439216
0.000000 0.666667 0.074510
0.003922 0.752941 0.176471
0.007843 0.752941 0.203922
0.000000 0.733333 0.223529
0.376471 0.729412 0.235294
0.670588 0.760784 0.196078
0.933333 0.784314 0.152941
0.996078 0.866667 0.321569
0.000000 0.882353 0.000000
0.003922 0.921569 0.133333
0.003922 0.913725 0.160784
0.000000 0.913725 0.207843
0.266667 0.909804 0.266667
0.576471 0.913725 0.250980
0.815686 0.925490 0.211765
0.839216 0.972549 0.356863
0.823529 0.992157 0.709804
0.686275 0.996078 0.729412
0.729412 1.000000 0.745098
0.772549 1.000000 0.752941
0.854902 0.992157 0.756863
0.929412 0.984314 0.776471
1.000000 0.992157 0.803922
1.000000 0.984314 0.839216
0.000000 0.098039 0.309804
0.000000 0.101961 0.329412
0.000000 0.039216 0.352941
0.219608 0.054902 0.337255
0.400000 0.000000 0.325490
0.568627 0.003922 0.313725
0.827451 0.000000 0.333333
0.819608 0.352941 0.447059
0.176471 0.000000 0.356863
0.000000 0.058824 0.494118
0.066667 0.015686 0.466667
0.329412 0.007843 0.443137
0.521569 0.003922 0.443137
0.756863 0.000000 0.478431
0.964706 0.000000 0.490196
1.000000 0.000000 0.603922
0.137255 0.137255 0.380392
0.000000 0.282353 0.501961
0.000000 0.227451 0.478431
0.317647 0.203922 0.454902
0.549020 0.168627 0.478431
0.776471 0.078431 0.486275
0.968627 0.000000 0.478431
0.992157 0.278431 0.580392
0.164706 0.337255 0.388235
0.003922 0.478431 0.490196
0.000000 0.458824 0.490196
0.294118 0.415686 0.486275
0.560784 0.396078 0.482353
0.764706 0.380392 0.470588
0.956863 0.388235 0.470588
0.996078 0.533333 0.588235
0.047059 0.525490 0.341176
0.003922 0.607843 0.356863
0.003922 0.607843 0.364706
0.145098 0.600000 0.407843
0.478431 0.596078 0.454902
0.776471 0.639216 0.482353
0.960784 0.662745 0.537255
1.000000 0.752941 0.631373
0.003922 0.694118 0.290196
0.000000 0.776471 0.270588
0.007843 0.768627 0.321569
0.039216 0.764706 0.396078
0.380392 0.741176 0.407843
0.662745 0.768627 0.403922
0.941176 0.780392 0.419608
0.988235 0.862745 0.537255
0.000000 0.882353 0.145098
0.003922 0.929412 0.321569
0.000000 0.921569 0.349020
0.003922 0.921569 0.376471
0.345098 0.913725 0.400000
0.588235 0.909804 0.423529
0.839216 0.921569 0.407843
0.854902 0.972549 0.533333
0.839216 0.988235 0.788235
0.639216 1.000000 0.745098
0.749020 1.000000 0.792157
0.819608 1.000000 0.819608
0.862745 0.988235 0.827451
0.925490 0.988235 0.843137
1.000000 0.988235 0.858824
1.000000 0.984314 0.898039
0.000000 0.168627 0.517647
0.000000 0.156863 0.537255
0.000000 0.058824 0.549020
0.156863 0.035294 0.501961
0.345098 0.039216 0.447059
0.572549 0.000000 0.462745
0.831373 0.000000 0.505882
0.811765 0.337255 0.647059
0.168627 0.003922 0.498039
0.003922 0.054902 0.658824
0.000000 0.007843 0.643137
0.298039 0.000000 0.607843
0.474510 0.007843 0.580392
0.709804 0.000000 0.615686
0.949020 0.000000 0.635294
0.996078 0.003922 0.776471
0.090196 0.125490 0.529412
0.003922 0.301961 0.670588
0.000000 0.207843 0.631373
0.258824 0.192157 0.631373
0.498039 0.188235 0.607843
0.741176 0.105882 0.635294
0.964706 0.000000 0.639216
1.000000 0.254902 0.749020
0.094118 0.313725 0.552941
0.000000 0.478431 0.654902
0.000000 0.454902 0.654902
0.223529 0.403922 0.635294
0.494118 0.376471 0.619608
0.756863 0.380392 0.639216
0.964706 0.356863 0.631373
0.996078 0.462745 0.713725
0.007843 0.580392 0.576471
0.003922 0.694118 0.643137
0.000000 0.682353 0.639216
0.003922 0.654902 0.639216
0.498039 0.631373 0.639216
0.760784 0.615686 0.643137
0.933333 0.615686 0.635294
1.000000 0.701961 0.713725
0.000000 0.729412 0.431373
0.003922 0.780392 0.431373
0.003922 0.776471 0.454902
0.000000 0.772549 0.482353
0.470588 0.776471 0.572549
0.678431 0.768627 0.596078
0.941176 0.811765 0.650980
0.996078 0.870588 0.721569
0.003922 0.898039 0.384314
0.003922 0.945098 0.376471
0.007843 0.937255 0.403922
0.003922 0.937255 0.498039
0.466667 0.913725 0.560784
0.623529 0.905882 0.584314
0.854902 0.921569 0.603922
0.890196 0.956863 0.690196
0.866667 0.980392 0.870588
0.588235 1.000000 0.780392
0.678431 1.000000 0.803922
0.780392 1.000000 0.839216
0.886275 0.988235 0.890196
0.929412 0.980392 0.901961
1.000000 0.988235 0.921569
1.000000 0.992157 0.945098
0.000000 0.184314 0.678431
0.000000 0.172549 0.694118
0.000000 0.074510 0.737255
0.000000 0.027451 0.658824
0.325490 0.011765 0.588235
0.517647 0.007843 0.588235
0.800000 0.007843 0.658824
0.698039 0.352941 0.752941
0.125490 0.000000 0.670588
0.003922 0.047059 0.784314
0.003922 0.000000 0.768627
0.192157 0.000000 0.752941
0.450980 0.000000 0.741176
0.654902 0.003922 0.749020
0.886275 0.000000 0.768627
0.945098 0.113725 0.890196
0.000000 0.109804 0.682353
0.000000 0.274510 0.792157
0.003922 0.192157 0.764706
0.074510 0.180392 0.764706
0.454902 0.184314 0.780392
0.670588 0.192157 0.760784
0.913725 0.050980 0.788235
1.000000 0.294118 0.878431
0.000000 0.298039 0.674510
0.000000 0.478431 0.796078
0.000000 0.458824 0.800000
0.000000 0.392157 0.776471
0.431373 0.364706 0.780392
0.662745 0.388235 0.772549
0.921569 0.356863 0.800000
0.992157 0.474510 0.874510
0.000000 0.552941 0.733333
0.003922 0.654902 0.788235
0.000000 0.643137 0.788235
0.000000 0.619608 0.792157
0.490196 0.615686 0.800000
0.690196 0.600000 0.772549
0.941176 0.600000 0.803922
1.000000 0.678431 0.858824
0.003922 0.803922 0.729412
0.000000 0.866667 0.776471
0.003922 0.862745 0.776471
0.000000 0.847059 0.784314
0.376471 0.831373 0.788235
0.725490 0.800000 0.792157
0.921569 0.800000 0.788235
0.980392 0.858824 0.847059
0.000000 0.917647 0.513725
0.003922 0.941176 0.564706
0.003922 0.949020 0.576471
0.007843 0.945098 0.607843
0.380392 0.933333 0.654902
0.717647 0.929412 0.737255
0.878431 0.925490 0.784314
0.905882 0.960784 0.831373
0.847059 0.992157 0.964706
0.623529 1.000000 0.945098
0.694118 1.000000 0.945098
0.776471 1.000000 0.933333
0.854902 0.988235 0.921569
0.937255 0.988235 0.949020
0.992157 0.988235 0.968627
0.996078 0.992157 0.984314
0.000000 0.172549 0.827451
0.000000 0.164706 0.847059
0.003922 0.086275 0.890196
0.007843 0.047059 0.811765
0.223529 0.035294 0.741176
0.478431 0.070588 0.756863
0.717647 0.086275 0.796078
0.658824 0.364706 0.878431
0.003922 0.000000 0.807843
0.007843 0.039216 0.901961
0.000000 0.003922 0.898039
0.000000 0.007843 0.890196
0.380392 0.000000 0.898039
0.600000 0.023529 0.894118
0.807843 0.035294 0.901961
0.847059 0.305882 0.984314
0.000000 0.101961 0.811765
0.000000 0.239216 0.901961
0.000000 0.188235 0.894118
0.000000 0.188235 0.909804
0.356863 0.200000 0.921569
0.611765 0.223529 0.921569
0.827451 0.250980 0.913725
0.862745 0.400000 0.988235
0.000000 0.282353 0.792157
0.003922 0.482353 0.949020
0.000000 0.439216 0.941176
0.011765 0.352941 0.913725
0.329412 0.372549 0.925490
0.615686 0.396078 0.925490
0.827451 0.427451 0.917647
0.870588 0.545098 0.960784
0.003922 0.580392 0.894118
0.003922 0.619608 0.929412
0.000000 0.619608 0.937255
0.007843 0.623529 0.933333
0.407843 0.588235 0.925490
0.643137 0.588235 0.921569
0.847059 0.619608 0.917647
0.894118 0.701961 0.956863
0.000000 0.776471 0.890196
0.003922 0.803922 0.929412
0.000000 0.800000 0.929412
0.000000 0.792157 0.929412
0.474510 0.784314 0.941176
0.717647 0.796078 0.941176
0.870588 0.788235 0.925490
0.925490 0.835294 0.952941
0.003922 0.976471 0.901961
0.000000 0.996078 0.925490
0.003922 1.000000 0.937255
0.000000 1.000000 0.937255
0.345098 0.984314 0.941176
0.682353 0.960784 0.937255
0.905882 0.941176 0.937255
0.925490 0.968627 0.952941
0.870588 0.976471 1.000000
0.717647 0.996078 0.996078
0.768627 0.996078 1.000000
0.827451 0.988235 0.996078
0.882353 0.980392 0.996078
0.929412 0.984314 0.996078
0.992157 0.992157 1.000000
0.996078 1.000000 1.000000
0.000000 0.184314 0.937255
0.000000 0.180392 0.941176
0.000000 0.129412 0.988235
0.000000 0.101961 0.917647
0.003922 0.113725 0.854902
0.388235 0.168627 0.894118
0.670588 0.270588 0.952941
0.639216 0.447059 1.000000
0.000000 0.000000 0.913725
0.000000 0.058824 0.996078
0.000000 0.035294 1.000000
0.000000 0.039216 1.000000
0.223529 0.101961 0.996078
0.533333 0.184314 0.992157
0.749020 0.298039 1.000000
0.843137 0.443137 1.000000
0.003922 0.105882 0.933333
0.003922 0.211765 0.996078
0.011765 0.200000 1.000000
0.000000 0.200000 0.992157
0.223529 0.235294 0.992157
0.545098 0.298039 0.992157
0.764706 0.384314 1.000000
0.835294 0.513725 1.000000
0.003922 0.254902 0.878431
0.000000 0.439216 1.000000
0.000000 0.403922 0.996078
0.000000 0.352941 1.000000
0.235294 0.364706 1.000000
0.572549 0.435294 1.000000
0.788235 0.513725 1.000000
0.858824 0.619608 0.996078
0.094118 0.592157 0.996078
0.003922 0.631373 1.000000
0.007843 0.635294 1.000000
0.172549 0.619608 0.996078
0.329412 0.568627 0.992157
0.600000 0.596078 0.996078
0.807843 0.650980 0.996078
0.874510 0.737255 1.000000
0.380392 0.772549 1.000000
0.000000 0.760784 1.000000
0.000000 0.760784 1.000000
0.266667 0.768627 0.996078
0.541176 0.796078 1.000000
0.686275 0.784314 1.000000
0.843137 0.792157 1.000000
0.901961 0.858824 0.992157
0.325490 0.941176 1.000000
0.000000 0.949020 0.996078
0.003922 0.941176 0.992157
0.176471 0.937255 1.000000
0.533333 0.929412 1.000000
0.756863 0.925490 1.000000
0.909804 0.929412 1.000000
0.960784 0.960784 1.000000
0.596078 0.992157 0.992157
0.250980 1.000000 1.000000
0.419608 0.996078 0.996078
0.568627 1.000000 1.000000
0.725490 1.000000 1.000000
0.874510 1.000000 0.996078
0.996078 1.000000 1.000000
0.996078 1.000000 1.000000
