assets/luts/LUTs/ARCTIC.CUBE
#Generated with IWLTBAP LUT Generator
#Website: https://luts.iwltbap.com
TITLE "Frozen dream"
LUT_3D_SIZE 4
0.000000 0.000000 0.000000
0.223529 0.007843 0.000000
0.745098 0.000000 0.000000
0.996078 0.098039 0.141176
0.129412 0.192157 0.000000
0.231373 0.282353 0.000000
0.733333 0.360784 0.000000
1.000000 0.486275 0.164706
0.000000 0.580392 0.007843
0.003922 0.666667 0.003922
0.588235 0.709804 0.000000
0.976471 0.831373 0.000000
0.749020 0.996078 0.639216
0.686275 1.000000 0.658824
0.909804 0.992157 0.682353
1.000000 0.976471 0.772549
0.003922 0.019608 0.164706
0.117647 0.043137 0.219608
0.505882 0.000000 0.180392
0.843137 0.419608 0.341176
0.168627 0.203922 0.262745
0.184314 0.290196 0.364706
0.705882 0.223529 0.345098
0.996078 0.388235 0.474510
0.003922 0.619608 0.192157
0.000000 0.713725 0.282353
0.607843 0.705882 0.298039
1.000000 0.815686 0.431373
0.827451 0.984314 0.741176
0.760784 0.992157 0.764706
0.909804 0.988235 0.788235
1.000000 0.984314 0.858824
0.000000 0.180392 0.627451
0.000000 0.054902 0.674510
0.450980 0.015686 0.529412
0.737255 0.345098 0.729412
0.000000 0.168627 0.619608
0.000000 0.243137 0.709804
0.607843 0.254902 0.709804
1.000000 0.329412 0.870588
0.000000 0.741176 0.686275
0.007843 0.800000 0.737255
0.650980 0.752941 0.741176
0.992157 0.800000 0.811765
0.854902 0.984314 0.909804
0.709804 1.000000 0.882353
0.929412 0.984314 0.925490
0.996078 0.992157 0.976471
0.000000 0.184314 0.937255
0.000000 0.117647 0.956863
0.274510 0.149020 0.874510
0.639216 0.447059 1.000000
0.000000 0.160784 0.905882
0.000000 0.247059 1.000000
0.466667 0.317647 0.996078
0.843137 0.552941 0.996078
0.384314 0.737255 1.000000
0.000000 0.721569 1.000000
0.592157 0.721569 0.992157
0.886275 0.819608 0.996078
0.596078 0.992157 0.992157
0.470588 1.000000 1.000000
0.827451 1.000000 1.000000
0.996078 1.000000 1.000000
