assets/luts/LUTs/AURORA.CUBE
LUT_3D_SIZE 16
0.009287 0.007336 0.000000
0.016389 0.012286 0.000000
0.037703 0.025157 0.000000
0.063476 0.038563 0.000000
0.107163 0.055507 0.000000
0.171492 0.073320 0.000000
0.279784 0.093761 0.000000
0.406467 0.102425 0.000000
0.487026 0.091626 0.000000
0.539745 0.082645 0.004899
0.583673 0.078088 0.013387
0.620803 0.062266 0.023740
0.626772 0.031698 0.038065
0.628382 0.031898 0.063473
0.629981 0.032003 0.072770
0.631300 0.032070 0.076627
0.009077 0.007779 0.000000
0.017201 0.013579 0.000000
0.039423 0.026709 0.000000
0.062077 0.039802 0.000000
0.104291 0.057979 0.000000
0.168881 0.076544 0.000000
0.278607 0.095880 0.000000
0.405963 0.103443 0.000000
0.486859 0.092988 0.000000
0.539591 0.084463 0.004524
0.583549 0.080204 0.012996
0.620692 0.065702 0.023231
0.626769 0.035173 0.031909
0.628362 0.032524 0.059576
0.629951 0.032631 0.069595
0.631290 0.032691 0.073716
0.011349 0.012621 0.000000
0.012093 0.012195 0.000000
0.037467 0.028971 0.000000
0.066491 0.044846 0.000000
0.101493 0.064186 0.000000
0.166939 0.086856 0.000000
0.276444 0.109246 0.000000
0.401721 0.115686 0.000000
0.486289 0.094445 0.000000
0.539205 0.087526 0.003546
0.583168 0.084622 0.012011
0.620418 0.072561 0.021964
0.626509 0.050612 0.030321
0.628159 0.033792 0.048661
0.629669 0.033927 0.061345
0.631199 0.033964 0.066234
0.019449 0.033920 0.000000
0.020763 0.033803 0.000000
0.029975 0.032123 0.000000
0.065442 0.049759 0.000000
0.101768 0.070114 0.000000
0.165102 0.098623 0.000000
0.282478 0.131749 0.000000
0.406620 0.149825 0.000000
0.484914 0.134333 0.000000
0.538603 0.096413 0.002349
0.582232 0.086294 0.010305
0.619810 0.078260 0.020165
0.626106 0.064628 0.027539
0.627891 0.043788 0.033622
0.629482 0.035259 0.045575
0.630808 0.035289 0.052770
0.030552 0.062695 0.000000
0.030671 0.062607 0.000000
0.032868 0.063416 0.000000
0.056739 0.061760 0.000000
0.109916 0.080709 0.000000
0.149794 0.105559 0.000000
0.277532 0.150091 0.000000
0.419492 0.182718 0.000000
0.500161 0.198081 0.000000
0.550738 0.186903 0.000000
0.588455 0.143195 0.010872
0.621360 0.095103 0.018262
0.623663 0.060562 0.023305
0.625707 0.050303 0.028282
0.627552 0.040411 0.031585
0.629146 0.033837 0.033201
0.032064 0.106505 0.000000
0.032997 0.106442 0.000000
0.033843 0.106282 0.000000
0.044545 0.106119 0.000000
0.093977 0.107088 0.000000
0.174107 0.124373 0.000000
0.247835 0.164664 0.000000
0.407272 0.208923 0.000000
0.516030 0.235179 0.000000
0.579860 0.256003 0.000000
0.630329 0.264843 0.000000
0.665625 0.254413 0.009510
0.667972 0.228917 0.014972
0.661019 0.202697 0.020175
0.656387 0.182669 0.024868
0.654101 0.170998 0.027455
0.000000 0.184681 0.024251
0.000000 0.184633 0.021168
0.000431 0.184516 0.011444
0.000910 0.184244 0.010255
0.041391 0.183976 0.000000
0.149717 0.184192 0.000000
0.269199 0.199449 0.000000
0.371542 0.241495 0.000000
0.505229 0.282639 0.000000
0.585014 0.303736 0.000000
0.666389 0.323336 0.000000
0.727558 0.338263 0.000000
0.740963 0.340426 0.000000
0.739830 0.339673 0.000000
0.739781 0.339967 0.000000
0.740138 0.339826 0.000000
0.000000 0.299445 0.042722
0.000000 0.299439 0.040748
0.000000 0.299323 0.035975
0.000000 0.299171 0.030230
0.000000 0.298900 0.035233
0.060577 0.297473 0.000000
0.252384 0.297427 0.002500
0.384831 0.305634 0.000000
0.476855 0.336131 0.000000
0.563134 0.373479 0.000000
0.648571 0.398243 0.000000
0.728300 0.415181 0.000000
0.749635 0.417258 0.000000
0.750415 0.414792 0.000000
0.751900 0.413363 0.000000
0.753334 0.412125 0.000000
0.056522 0.412483 0.000000
0.058206 0.412472 0.000000
0.061590 0.412346 0.000000
0.064975 0.412332 0.000000
0.067591 0.412178 0.000000
0.054151 0.411738 0.000000
0.172409 0.408513 0.000000
0.397295 0.409406 0.004969
0.487257 0.408581 0.000000
0.544129 0.423943 0.000000
0.611061 0.453357 0.000000
0.692881 0.480887 0.000000
0.724687 0.487498 0.000000
0.725488 0.486261 0.000000
0.727008 0.485669 0.000000
0.728700 0.485019 0.000000
0.099852 0.495690 0.000964
0.100780 0.495676 0.000964
0.102743 0.495667 0.000964
0.104783 0.495617 0.000964
0.106768 0.495518 0.000957
0.106967 0.495349 0.001043
0.074922 0.494981 0.000682
0.333913 0.494709 0.022850
0.496603 0.494209 0.029030
0.565572 0.487283 0.000000
0.614034 0.497491 0.000000
0.659482 0.515145 0.000000
0.700585 0.528144 0.000000
0.700642 0.527484 0.000000
0.702102 0.527275 0.000000
0.703506 0.527013 0.000000
0.154013 0.558275 0.013809
0.154659 0.558259 0.013806
0.156038 0.558278 0.013799
0.157493 0.558280 0.013784
0.158914 0.558211 0.013756
0.160295 0.558037 0.013736
0.155523 0.557725 0.013350
0.219150 0.556168 0.013941
0.475092 0.556708 0.087428
0.575889 0.558438 0.058064
0.633940 0.548612 0.000964
0.707708 0.556791 0.000000
0.727063 0.562800 0.004006
0.722716 0.563718 0.002986
0.722822 0.563424 0.002778
0.722538 0.562984 0.003600
0.183494 0.620842 0.039772
0.184097 0.620835 0.039762
0.185396 0.620797 0.039766
0.186803 0.620764 0.039732
0.188197 0.620768 0.039675
0.189508 0.620570 0.039566
0.189918 0.620276 0.039295
0.172096 0.619908 0.037526
0.408633 0.615201 0.057984
0.575425 0.618400 0.139080
0.638534 0.618078 0.107398
0.707904 0.600817 0.062726
0.789673 0.608547 0.000000
0.812844 0.609672 0.000000
0.813349 0.609358 0.000000
0.814400 0.608867 0.000000
0.216928 0.656270 0.068418
0.217519 0.656270 0.068419
0.218795 0.656272 0.068419
0.220144 0.656274 0.068421
0.221480 0.656278 0.068425
0.222875 0.656287 0.068433
0.224243 0.656306 0.068421
0.218885 0.656352 0.068054
0.329694 0.654131 0.073530
0.546794 0.655683 0.168040
0.654688 0.658159 0.141831
0.685207 0.644065 0.146555
0.783158 0.632243 0.101538
0.832783 0.637221 0.021547
0.833153 0.637249 0.020538
0.834054 0.637261 0.019649
0.215772 0.656157 0.067402
0.216374 0.656157 0.067402
0.217658 0.656157 0.067402
0.218970 0.656157 0.067402
0.220339 0.656157 0.067402
0.221725 0.656157 0.067402
0.223057 0.656157 0.067402
0.222808 0.656156 0.067308
0.202156 0.656119 0.063795
0.528138 0.653424 0.145286
0.641291 0.657822 0.161424
0.682603 0.650170 0.144670
0.751310 0.634775 0.129096
0.827933 0.637728 0.046653
0.835780 0.639144 0.034040
0.836716 0.639214 0.034695
0.215830 0.657315 0.067402
0.216425 0.657315 0.067402
0.217693 0.657315 0.067402
0.219030 0.657315 0.067402
0.220413 0.657315 0.067402
0.221800 0.657315 0.067402
0.223158 0.657315 0.067402
0.224449 0.657317 0.067396
0.202938 0.657433 0.064397
0.503546 0.655792 0.129547
0.630738 0.658703 0.176426
0.682290 0.653921 0.143136
0.732839 0.636275 0.140093
0.822351 0.637771 0.056093
0.835532 0.640025 0.033453
0.836643 0.640154 0.034086
0.220046 0.672399 0.070304
0.220453 0.672376 0.070276
0.221311 0.672439 0.070261
0.221877 0.672384 0.070209
0.221729 0.672355 0.070146
0.219956 0.672273 0.070040
0.215067 0.672204 0.069906
0.207514 0.672240 0.069735
0.180997 0.672284 0.067635
0.486074 0.671144 0.124430
0.627259 0.673213 0.187568
0.684670 0.668164 0.146356
0.727606 0.649350 0.147825
0.824839 0.649890 0.063139
0.841857 0.652470 0.034247
0.843681 0.652800 0.033508
0.000000 -0.107319 0.000000
0.006901 -0.104171 0.005575
0.029202 -0.093309 0.021557
0.059277 -0.081434 0.039377
0.104396 -0.063211 0.059991
0.171201 0.000000 0.082459
0.284110 0.000000 0.103148
0.414026 0.000000 0.121931
0.494543 0.000000 0.138301
0.543618 0.000000 0.145356
0.583775 0.000000 0.149131
0.618700 0.000000 0.157213
0.622374 0.000000 0.162724
0.621165 0.000000 0.166382
0.621120 0.000000 0.169363
0.622177 0.000000 0.170766
0.008053 0.006910 0.000000
0.015451 0.012457 0.000000
0.034974 0.024890 0.000000
0.062029 0.038919 0.000000
0.104436 0.056234 0.000000
0.167778 0.074527 0.000000
0.278672 0.092794 0.000000
0.406754 0.099630 0.000000
0.487486 0.087907 0.001110
0.540263 0.078583 0.008106
0.584221 0.073068 0.016610
0.621275 0.051297 0.027808
0.627228 0.032397 0.058470
0.628739 0.032586 0.075227
0.630393 0.032716 0.082598
0.631720 0.032771 0.085820
0.011029 0.012010 0.000000
0.012211 0.012297 0.000000
0.034684 0.027725 0.000000
0.063094 0.043724 0.000000
0.102158 0.063449 0.000000
0.165098 0.084804 0.000000
0.275044 0.106621 0.000000
0.402752 0.111166 0.000000
0.486897 0.089735 0.000000
0.539854 0.082204 0.007115
0.583845 0.078150 0.015679
0.620944 0.062267 0.026064
0.626995 0.033724 0.046767
0.628620 0.033924 0.067779
0.630146 0.034050 0.076249
0.631667 0.034115 0.079862
0.021030 0.033082 0.000000
0.021648 0.033131 0.000000
0.029878 0.032581 0.000000
0.060596 0.048416 0.000000
0.101525 0.070043 0.000000
0.166237 0.098293 0.000000
0.281480 0.130101 0.000000
0.406247 0.146805 0.000000
0.485374 0.128620 0.001442
0.539210 0.090534 0.005852
0.582848 0.080330 0.013970
0.620324 0.070221 0.023959
0.626757 0.045259 0.033143
0.628367 0.035272 0.054798
0.629993 0.035401 0.065840
0.631313 0.035458 0.070273
0.029701 0.062421 0.000000
0.029914 0.062347 0.000000
0.032132 0.063273 0.000000
0.055791 0.062154 0.000000
0.106063 0.079755 0.000000
0.150874 0.105764 0.000000
0.280840 0.150532 0.000000
0.421048 0.182593 0.000000
0.500024 0.196345 0.000000
0.550805 0.183203 0.003215
0.588578 0.137198 0.014447
0.621593 0.086797 0.021953
0.624347 0.046056 0.027618
0.626335 0.032040 0.043304
0.628186 0.033075 0.054651
0.629694 0.033576 0.058977
0.031316 0.106088 0.000000
0.032239 0.106065 0.000000
0.033255 0.105906 0.000000
0.043685 0.105727 0.000000
0.093273 0.106746 0.000000
0.173905 0.123930 0.000000
0.248015 0.164372 0.000000
0.407912 0.208674 0.000000
0.517125 0.235344 0.000000
0.580401 0.255854 0.000000
0.630288 0.263698 0.000000
0.665643 0.251451 0.014687
0.667617 0.224301 0.021047
0.660386 0.196641 0.026596
0.655417 0.174860 0.031995
0.653224 0.162486 0.034366
0.000000 0.184297 0.026774
0.000000 0.184298 0.024177
0.000411 0.184165 0.016862
0.000931 0.183937 0.015821
0.039200 0.183647 0.000000
0.149175 0.183832 0.000000
0.269012 0.199153 0.000000
0.371478 0.241164 0.000000
0.505228 0.282175 0.000000
0.584990 0.303222 0.000000
0.666494 0.322786 0.000000
0.728933 0.338508 0.000000
0.741902 0.341277 0.000000
0.740539 0.341380 0.000000
0.740464 0.341683 0.000000
0.741016 0.341408 0.000000
0.000000 0.299172 0.044738
0.000000 0.299184 0.042887
0.000000 0.299044 0.038345
0.000000 0.298940 0.033122
0.000000 0.298652 0.037441
0.056946 0.297299 0.000000
0.251857 0.297185 0.003040
0.384735 0.305380 0.000000
0.476814 0.335899 0.000000
0.563195 0.373062 0.000000
0.648589 0.397746 0.000000
0.728325 0.414653 0.000000
0.749647 0.416607 0.000000
0.750444 0.414274 0.000000
0.751895 0.412808 0.000000
0.753322 0.411578 0.000000
0.054780 0.412348 0.000000
0.056527 0.412306 0.000000
0.060167 0.412292 0.000000
0.063683 0.412120 0.000000
0.066409 0.411968 0.000000
0.052705 0.411643 0.000000
0.171206 0.408419 0.000000
0.397095 0.409206 0.005537
0.487170 0.408389 0.000000
0.544068 0.423776 0.000000
0.611202 0.453200 0.000000
0.693031 0.480629 0.000000
0.724771 0.487145 0.000000
0.725602 0.485929 0.000000
0.727073 0.485307 0.000000
0.728779 0.484636 0.000000
0.098916 0.495621 0.001442
0.099855 0.495626 0.001295
0.101913 0.495589 0.001295
0.104002 0.495539 0.001295
0.106012 0.495451 0.001291
0.106246 0.495281 0.001502
0.073925 0.494889 0.001131
0.332909 0.494629 0.023215
0.496443 0.494124 0.029588
0.565519 0.487179 0.000000
0.613933 0.497415 0.000000
0.659518 0.515040 0.000000
0.700582 0.527989 0.000000
0.700797 0.527345 0.000000
0.702273 0.527152 0.000000
0.703594 0.526895 0.000000
0.153479 0.558284 0.014452
0.154108 0.558288 0.014373
0.155535 0.558251 0.014369
0.157014 0.558240 0.014355
0.158453 0.558170 0.014324
0.159832 0.557933 0.014262
0.155105 0.557691 0.013896
0.218270 0.556201 0.014497
0.474750 0.556639 0.087613
0.575846 0.558353 0.058530
0.633965 0.548588 0.001260
0.707710 0.556756 0.000000
0.727001 0.562681 0.004663
0.722378 0.563545 0.003707
0.722343 0.563233 0.003515
0.722278 0.562824 0.004459
0.183043 0.620767 0.040340
0.183622 0.620770 0.040253
0.184999 0.620749 0.040259
0.186464 0.620786 0.040227
0.187832 0.620785 0.040171
0.189149 0.620520 0.040038
0.189566 0.620253 0.039804
0.171764 0.619906 0.038046
0.407699 0.615235 0.058352
0.575229 0.618465 0.139623
0.638512 0.618082 0.107833
0.707936 0.600788 0.063126
0.789633 0.608469 0.000000
0.812882 0.609632 0.000000
0.813282 0.609140 0.000000
0.814414 0.608807 0.000000
0.216627 0.656274 0.069006
0.217185 0.656274 0.068926
0.218482 0.656275 0.068907
0.219859 0.656276 0.068908
0.221220 0.656279 0.068912
0.222608 0.656289 0.068915
0.223991 0.656309 0.068930
0.218671 0.656352 0.068574
0.328658 0.654152 0.073956
0.546616 0.655668 0.168220
0.654590 0.658111 0.142274
0.685167 0.644011 0.146979
0.783116 0.632183 0.101929
0.832722 0.637157 0.021958
0.833089 0.637216 0.020896
0.833985 0.637214 0.020021
0.215462 0.656157 0.068013
0.216021 0.656157 0.067913
0.217331 0.656157 0.067921
0.218720 0.656157 0.067921
0.220064 0.656157 0.067921
0.221471 0.656157 0.067921
0.222827 0.656157 0.067921
0.222560 0.656156 0.067804
0.201844 0.656124 0.064311
0.527777 0.653403 0.145383
0.641257 0.657914 0.162067
0.682602 0.650190 0.145122
0.751123 0.634770 0.129647
0.827912 0.637687 0.047221
0.835784 0.639108 0.034586
0.836718 0.639180 0.035232
0.215535 0.657315 0.068012
0.216086 0.657315 0.067913
0.217404 0.657315 0.067921
0.218776 0.657315 0.067921
0.220136 0.657315 0.067921
0.221523 0.657315 0.067921
0.222891 0.657315 0.067921
0.224200 0.657317 0.067913
0.202704 0.657435 0.064915
0.503018 0.655777 0.129602
0.630600 0.658665 0.177143
0.682225 0.653952 0.143589
0.732651 0.636264 0.140643
0.822204 0.637727 0.056683
0.835529 0.639988 0.033997
0.836643 0.640117 0.034627
0.219905 0.672395 0.070756
0.220279 0.672381 0.070633
0.221150 0.672491 0.070581
0.221733 0.672391 0.070487
0.221608 0.672346 0.070349
0.219845 0.672249 0.070224
0.214897 0.672232 0.070086
0.207222 0.672226 0.069983
0.180640 0.672277 0.067892
0.485341 0.670997 0.124286
0.626849 0.673068 0.188127
0.684495 0.668167 0.146473
0.727398 0.649316 0.148050
0.824833 0.649877 0.063166
0.841779 0.652447 0.034281
0.843616 0.652781 0.033528
0.000000 -0.105904 0.000000
0.001442 -0.105401 0.001242
0.025473 -0.096563 0.020003
0.059435 -0.084314 0.041806
0.103979 -0.060365 0.064301
0.169867 0.000000 0.087986
0.284717 0.000000 0.110060
0.415689 0.000000 0.129546
0.496173 0.000000 0.145556
0.545156 0.000000 0.152749
0.585274 0.000000 0.159034
0.620272 0.000000 0.169594
0.623873 0.000000 0.174578
0.622600 0.000000 0.177730
0.622500 0.000000 0.180372
0.623615 0.000000 0.181632
0.004988 0.004328 0.000000
0.011416 0.009124 0.000000
0.032083 0.021389 0.000000
0.062535 0.034826 0.000000
0.104044 0.049613 0.000000
0.166775 0.066221 0.000000
0.279366 0.083889 0.001798
0.408392 0.088468 0.005847
0.489188 0.072186 0.011286
0.541816 0.057106 0.018062
0.585785 0.032895 0.028540
0.622836 0.032086 0.076536
0.628658 0.032900 0.095332
0.630281 0.033048 0.104458
0.631769 0.033150 0.109155
0.633224 0.033193 0.111269
0.006613 0.006738 0.000000
0.010826 0.010550 0.000000
0.031977 0.025851 0.000000
0.060939 0.041439 0.000000
0.101650 0.058664 0.000000
0.161307 0.078204 0.000000
0.272151 0.098852 0.000000
0.405834 0.097492 0.004812
0.488545 0.076175 0.009466
0.541340 0.064844 0.016252
0.585263 0.051493 0.026081
0.622428 0.033210 0.065382
0.628346 0.034051 0.087304
0.630022 0.034210 0.097542
0.631501 0.034296 0.102741
0.632975 0.034351 0.105135
0.019900 0.029064 0.000000
0.020420 0.029217 0.000000
0.030681 0.033392 0.000000
0.057858 0.047549 0.000000
0.100717 0.069128 0.000000
0.163446 0.095284 0.000000
0.276473 0.124585 0.000000
0.404949 0.137967 0.000000
0.486878 0.112779 0.010208
0.540592 0.071958 0.014905
0.584568 0.058055 0.024078
0.621870 0.034169 0.053340
0.628103 0.035415 0.079079
0.629707 0.035654 0.090665
0.631282 0.035743 0.096405
0.632610 0.035808 0.099013
0.026622 0.062421 0.001596
0.027028 0.062304 0.001464
0.032212 0.063081 0.000000
0.052783 0.064689 0.000000
0.095847 0.077837 0.000000
0.154983 0.106526 0.000000
0.287094 0.150773 0.000000
0.423276 0.181901 0.000000
0.499419 0.190710 0.000000
0.550531 0.170890 0.015063
0.588583 0.118077 0.023591
0.622093 0.048136 0.033478
0.625915 0.031168 0.075665
0.627795 0.032891 0.085113
0.629598 0.033929 0.089762
0.631297 0.034459 0.091944
0.031734 0.106355 0.001233
0.032631 0.106282 0.001077
0.033848 0.106049 0.000000
0.040187 0.106501 0.000000
0.090093 0.108416 0.000000
0.175719 0.123013 0.000000
0.253893 0.165706 0.000000
0.415930 0.211002 0.000000
0.520482 0.237210 0.000000
0.582118 0.255277 0.000000
0.629318 0.259044 0.000000
0.664823 0.241285 0.030196
0.666117 0.209352 0.038273
0.657966 0.175299 0.046614
0.652675 0.150105 0.049263
0.650231 0.134957 0.050204
0.000000 0.183319 0.031194
0.000000 0.183321 0.029297
0.000000 0.183201 0.024121
0.000827 0.182992 0.022255
0.032938 0.182754 0.000000
0.147632 0.182935 0.000000
0.268522 0.198361 0.000000
0.371731 0.240478 0.000000
0.505465 0.281057 0.000000
0.585996 0.302653 0.000000
0.669570 0.323153 0.000000
0.733706 0.340416 0.000000
0.744625 0.346059 0.000000
0.743425 0.345089 0.000000
0.743770 0.343826 0.000000
0.744395 0.342712 0.000000
0.000000 0.298506 0.048646
0.000000 0.298503 0.047143
0.000000 0.298505 0.043215
0.000000 0.298273 0.038697
0.000000 0.298022 0.041812
0.044543 0.296671 0.000000
0.250151 0.296485 0.003893
0.384389 0.304678 0.000000
0.476771 0.335119 0.000000
0.563369 0.372014 0.000000
0.648754 0.396437 0.000000
0.728513 0.413066 0.000000
0.749779 0.415112 0.000000
0.751018 0.412967 0.000000
0.752720 0.411421 0.000000
0.754256 0.410215 0.000000
0.050804 0.411861 0.000000
0.052600 0.411839 0.000000
0.056602 0.411849 0.000000
0.060544 0.411758 0.000000
0.063602 0.411591 0.000000
0.049330 0.411224 0.000000
0.167783 0.408044 0.000000
0.396200 0.408753 0.006743
0.486995 0.407955 0.000000
0.543962 0.423323 0.000000
0.611315 0.452620 0.000000
0.693389 0.479901 0.000000
0.725187 0.486308 0.000000
0.725935 0.485083 0.000000
0.727622 0.484362 0.000000
0.729295 0.483714 0.000000
0.096883 0.495400 0.002904
0.097793 0.495395 0.002859
0.099899 0.495390 0.002686
0.102120 0.495366 0.002691
0.104235 0.495268 0.002685
0.104550 0.495119 0.002847
0.071664 0.494711 0.002386
0.330319 0.494445 0.023959
0.495962 0.493886 0.030898
0.565444 0.487017 0.000000
0.613546 0.497028 0.000000
0.659610 0.514716 0.000000
0.700824 0.527650 0.000000
0.700932 0.526940 0.000000
0.702317 0.526740 0.000000
0.703869 0.526494 0.000000
0.152309 0.558124 0.015787
0.152909 0.558119 0.015768
0.154341 0.558117 0.015593
0.155896 0.558109 0.015584
0.157366 0.557947 0.015593
0.158784 0.557806 0.015533
0.154127 0.557499 0.015168
0.215809 0.555995 0.015723
0.473605 0.556525 0.087867
0.575724 0.558233 0.059550
0.633851 0.548341 0.002386
0.707101 0.556412 0.000000
0.726240 0.562360 0.006388
0.721740 0.563191 0.005559
0.721804 0.562878 0.005427
0.721261 0.562331 0.006411
0.182145 0.620757 0.041522
0.182721 0.620754 0.041480
0.184050 0.620754 0.041337
0.185540 0.620698 0.041321
0.186922 0.620533 0.041257
0.188295 0.620428 0.041169
0.188740 0.620193 0.040913
0.171160 0.619704 0.039180
0.404284 0.615183 0.059039
0.574622 0.618358 0.140855
0.638403 0.617975 0.108808
0.707847 0.600630 0.063976
0.789585 0.608236 0.000000
0.812945 0.609241 0.000000
0.813195 0.608827 0.000000
0.814290 0.608396 0.000000
0.215998 0.656278 0.070214
0.216546 0.656278 0.070185
0.217791 0.656279 0.070054
0.219199 0.656282 0.070059
0.220619 0.656287 0.070063
0.222006 0.656296 0.070071
0.223406 0.656315 0.070071
0.218253 0.656355 0.069721
0.325396 0.654252 0.074864
0.545876 0.655614 0.168241
0.654416 0.658059 0.143186
0.685165 0.644069 0.147919
0.782985 0.632016 0.102754
0.832530 0.637018 0.022800
0.833003 0.637089 0.021683
0.833799 0.637119 0.020735
0.214834 0.656157 0.069198
0.215378 0.656157 0.069164
0.216625 0.656157 0.069032
0.218051 0.656157 0.069041
0.219463 0.656157 0.069041
0.220857 0.656157 0.069041
0.222251 0.656157 0.069041
0.222022 0.656154 0.068928
0.201221 0.656135 0.065503
0.526774 0.653395 0.145288
0.640779 0.657802 0.163504
0.682496 0.650246 0.146120
0.751001 0.634764 0.130868
0.827837 0.637591 0.048506
0.835793 0.639031 0.035836
0.836728 0.639128 0.036469
0.214883 0.657315 0.069197
0.215427 0.657315 0.069164
0.216681 0.657315 0.069032
0.218111 0.657315 0.069041
0.219536 0.657315 0.069041
0.220902 0.657315 0.069041
0.222306 0.657315 0.069041
0.223606 0.657317 0.069036
0.202181 0.657440 0.066110
0.501579 0.655709 0.129530
0.630032 0.658680 0.178867
0.682460 0.654074 0.144546
0.732159 0.636260 0.142000
0.822308 0.637632 0.057750
0.835516 0.639936 0.035231
0.836644 0.640067 0.035854
0.219568 0.672501 0.071505
0.219956 0.672507 0.071496
0.220801 0.672492 0.071438
0.221426 0.672406 0.071371
0.221255 0.672357 0.071204
0.219359 0.672247 0.071044
0.214336 0.672218 0.070889
0.206557 0.672209 0.070759
0.179972 0.672266 0.068643
0.483454 0.670917 0.123839
0.626159 0.673075 0.189587
0.684480 0.668337 0.146978
0.726739 0.649373 0.148958
0.824597 0.649779 0.063979
0.841788 0.652563 0.034693
0.843581 0.652725 0.033920
0.000000 -0.097002 0.000000
0.000000 -0.100996 0.000000
0.015509 -0.098066 0.013543
0.047954 -0.087934 0.037448
0.101686 -0.066258 0.067984
0.170409 0.000000 0.094116
0.285925 0.000000 0.117930
0.417792 0.000000 0.138838
0.498132 0.000000 0.154836
0.547095 0.000000 0.166440
0.587530 0.000000 0.175601
0.622680 0.000000 0.187173
0.626208 0.000000 0.191434
0.624868 0.000000 0.194032
0.624707 0.000000 0.196271
0.625869 0.000000 0.197373
0.003192 0.002956 0.000000
0.008232 0.003389 0.000000
0.022699 0.012355 0.000000
0.052363 0.022274 0.000000
0.102543 0.033844 0.004126
0.168281 0.052313 0.009345
0.280829 0.070739 0.014467
0.410511 0.071022 0.019124
0.491093 0.038670 0.024575
0.543639 0.024963 0.069570
0.587860 0.029585 0.093491
0.625128 0.032850 0.117743
0.630914 0.033645 0.128818
0.632451 0.033855 0.134757
0.633933 0.033975 0.137952
0.635264 0.034041 0.139399
0.005919 0.008288 0.000000
0.008442 0.009710 0.000000
0.025385 0.019750 0.000000
0.054775 0.032801 0.000000
0.100060 0.048467 0.005523
0.161863 0.066893 0.009587
0.274632 0.084023 0.014086
0.409076 0.076484 0.017942
0.490596 0.047260 0.023210
0.543244 0.026040 0.060636
0.587504 0.030729 0.086371
0.624766 0.034013 0.112256
0.630699 0.034781 0.124058
0.632181 0.034990 0.130302
0.633646 0.035096 0.133644
0.634975 0.035158 0.135159
0.011796 0.015695 0.000000
0.012119 0.015767 0.000000
0.026414 0.027973 0.000835
0.058470 0.047182 0.003451
0.101290 0.066238 0.007251
0.160948 0.088698 0.011089
0.270361 0.114566 0.013506
0.404393 0.120584 0.017414
0.489004 0.082698 0.022489
0.542391 0.025477 0.050514
0.586666 0.030866 0.076549
0.624150 0.034982 0.103570
0.630290 0.035970 0.116479
0.631735 0.036181 0.123216
0.633240 0.036284 0.126862
0.634675 0.036342 0.128583
0.013764 0.053147 0.010000
0.014797 0.052996 0.009911
0.023035 0.054947 0.010428
0.054195 0.065772 0.008589
0.096326 0.078875 0.007257
0.160108 0.107669 0.008969
0.285703 0.148424 0.000000
0.420858 0.175787 0.000000
0.497700 0.178039 0.015267
0.549657 0.146418 0.033211
0.588358 0.063141 0.041064
0.623177 0.033368 0.098484
0.628369 0.032467 0.113892
0.630189 0.034198 0.119080
0.631963 0.035301 0.121912
0.633576 0.035853 0.123302
0.018998 0.106154 0.031940
0.019573 0.106114 0.030781
0.020470 0.105922 0.028301
0.030969 0.107175 0.021429
0.082179 0.114581 0.003450
0.157879 0.123239 0.007985
0.264619 0.168706 0.003412
0.428662 0.215953 0.000000
0.523337 0.243132 0.000000
0.583144 0.250767 0.000000
0.626448 0.245846 0.033039
0.662851 0.221168 0.058521
0.662574 0.179665 0.067382
0.653817 0.135824 0.069879
0.648017 0.097151 0.069995
0.645652 0.069172 0.071436
0.012357 0.183565 0.031394
0.012588 0.183503 0.029539
0.012765 0.183241 0.024575
0.012098 0.182856 0.021335
0.019291 0.183219 0.009623
0.143469 0.184358 0.000000
0.272530 0.199414 0.000000
0.377477 0.243421 0.000000
0.511770 0.285435 0.000000
0.593227 0.308173 0.000000
0.678686 0.328511 0.000000
0.737344 0.348340 0.000000
0.748969 0.349009 0.000000
0.747321 0.344048 0.000000
0.746503 0.340242 0.000000
0.746246 0.337696 0.000000
0.000000 0.297342 0.052692
0.000000 0.297324 0.051383
0.000000 0.297321 0.048120
0.000000 0.297252 0.044145
0.000000 0.296891 0.045766
0.000000 0.295659 0.016061
0.247569 0.295201 0.004449
