assets/luts/LUTs/AURORA.CUBE
LUT_3D_SIZE 6
0.009287 0.007336 0.000000
0.063476 0.038563 0.000000
0.279784 0.093761 0.000000
0.539745 0.082645 0.004899
0.626772 0.031698 0.038065
0.631300 0.032070 0.076627
0.019449 0.033920 0.000000
0.065442 0.049759 0.000000
0.282478 0.131749 0.000000
0.538603 0.096413 0.002349
0.626106 0.064628 0.027539
0.630808 0.035289 0.052770
0.000000 0.184681 0.024251
0.000910 0.184244 0.010255
0.269199 0.199449 0.000000
0.585014 0.303736 0.000000
0.740963 0.340426 0.000000
0.740138 0.339826 0.000000
0.099852 0.495690 0.000964
0.104783 0.495617 0.000964
0.074922 0.494981 0.000682
0.565572 0.487283 0.000000
0.700585 0.528144 0.000000
0.703506 0.527013 0.000000
0.216928 0.656270 0.068418
0.220144 0.656274 0.068421
0.224243 0.656306 0.068421
0.546794 0.655683 0.168040
0.783158 0.632243 0.101538
0.834054 0.637261 0.019649
0.220046 0.672399 0.070304
0.221877 0.672384 0.070209
0.215067 0.672204 0.069906
0.486074 0.671144 0.124430
0.727606 0.649350 0.147825
0.843681 0.652800 0.033508
0.000000 -0.097002 0.000000
0.047954 -0.087934 0.037448
0.285925 0.000000 0.117930
0.547095 0.000000 0.166440
0.626208 0.000000 0.191434
0.625869 0.000000 0.197373
0.011796 0.015695 0.000000
0.058470 0.047182 0.003451
0.270361 0.114566 0.013506
0.542391 0.025477 0.050514
0.630290 0.035970 0.116479
0.634675 0.036342 0.128583
0.012357 0.183565 0.031394
0.012098 0.182856 0.021335
0.272530 0.199414 0.000000
0.593227 0.308173 0.000000
0.748969 0.349009 0.000000
0.746246 0.337696 0.000000
0.094478 0.495087 0.004438
0.099816 0.495066 0.004217
0.069175 0.494418 0.003947
0.565183 0.486616 0.000000
0.700876 0.527121 0.000000
0.703848 0.525752 0.000000
0.215308 0.656295 0.071527
0.218437 0.656297 0.071319
0.222728 0.656328 0.071349
0.544695 0.655512 0.167818
0.782800 0.631813 0.103560
0.833676 0.637005 0.021357
0.219141 0.672392 0.072262
0.221183 0.672404 0.072283
0.213856 0.672234 0.071628
0.480586 0.670904 0.122398
0.725990 0.649344 0.149482
0.843571 0.652785 0.033716
0.071562 0.000000 0.142819
0.095899 0.000000 0.150942
0.174312 -0.020587 0.132344
0.530341 -0.095521 0.275263
0.622409 -0.063089 0.313450
0.619271 -0.029755 0.316563
0.011015 0.075772 0.138995
0.027225 0.059454 0.142981
0.167687 0.021961 0.104896
0.528618 0.003438 0.247692
0.629927 0.007858 0.285781
0.631647 0.007982 0.288006
0.000000 0.070452 0.067661
0.000000 0.069723 0.066976
0.261384 0.227348 0.182197
0.590975 0.296065 0.231780
0.718561 0.259053 0.254588
0.717873 0.227237 0.250577
0.172461 0.517643 0.345444
0.171073 0.516973 0.335927
0.161030 0.514180 0.321209
0.591737 0.514389 0.181233
0.741574 0.556922 0.204560
0.746386 0.556277 0.210337
0.209085 0.657121 0.085541
0.215353 0.655461 0.074666
0.219383 0.655248 0.074531
0.539121 0.652680 0.161113
0.780624 0.629702 0.100462
0.830545 0.635142 0.013036
0.222688 0.671934 0.064623
0.225677 0.671980 0.063928
0.221999 0.672383 0.069876
0.467816 0.670668 0.111549
0.723118 0.649995 0.146824
0.845035 0.653735 0.024357
0.020394 0.080529 0.420377
0.023801 0.074921 0.420501
0.258854 -0.114885 0.421770
0.371240 -0.149372 0.296326
0.473665 -0.143312 0.361909
0.474522 -0.137099 0.361662
0.044964 0.164690 0.426097
0.047994 0.162860 0.426144
0.241454 0.008449 0.435225
0.374083 0.000000 0.299042
0.488810 0.000000 0.362609
0.491789 0.000000 0.362889
0.039185 0.215948 0.439349
0.042796 0.211409 0.438261
0.190135 0.071180 0.479308
0.362673 0.000000 0.289768
0.487277 0.000000 0.358758
0.491011 0.000000 0.359435
0.102059 0.289631 0.347347
0.104694 0.289217 0.347239
0.100105 0.283688 0.342970
0.587827 0.579082 0.568619
0.817763 0.608828 0.590845
0.819101 0.604860 0.590854
0.327244 0.597908 0.562161
0.329616 0.598882 0.562445
0.332518 0.600552 0.562795
0.521068 0.754185 0.643293
0.798248 0.791824 0.588137
0.811971 0.776167 0.590179
0.350121 0.642297 0.581818
0.352448 0.643822 0.582080
0.353087 0.647318 0.582484
0.467489 0.740071 0.633608
0.789642 0.822152 0.584804
0.837323 0.822351 0.589739
0.044403 0.231842 0.541957
0.047801 0.230504 0.541976
0.181799 0.070513 0.590539
0.396404 0.000000 0.389330
0.479322 -0.067714 0.427913
0.477397 -0.072230 0.428497
0.067756 0.250070 0.542291
0.070673 0.248929 0.542274
0.147294 0.121460 0.585559
0.397652 0.073491 0.396686
0.492517 0.070594 0.439152
0.495824 0.070656 0.439669
0.067491 0.252580 0.541353
0.070422 0.251581 0.541379
0.112393 0.230098 0.554948
0.389464 0.077141 0.393430
0.492213 0.073608 0.437990
0.495282 0.073368 0.438309
0.000000 0.326118 0.509653
0.001002 0.325283 0.509949
0.000000 0.322803 0.509524
0.564177 0.554201 0.741444
0.670796 0.538881 0.628804
0.673466 0.535472 0.626590
0.310537 0.494785 0.531122
0.312988 0.494715 0.531101
0.315932 0.494236 0.530960
0.491616 0.575736 0.597954
0.791490 0.823651 0.795494
0.842692 0.822380 0.785276
0.373160 0.547279 0.557426
0.375644 0.547283 0.557427
0.377298 0.548210 0.556273
0.433271 0.583413 0.591154
0.778648 0.899200 0.833887
0.830103 0.908863 0.791422
0.048799 0.251743 0.561066
0.052131 0.250579 0.561066
0.136498 0.147237 0.596914
0.402802 0.027455 0.410467
0.484824 0.000000 0.442026
0.483289 0.000000 0.440045
0.072116 0.266796 0.561164
0.075038 0.265690 0.561164
0.141682 0.207118 0.589766
0.404359 0.087438 0.418661
0.498538 0.085908 0.457053
0.501808 0.085908 0.457614
0.072116 0.270247 0.561164
0.075045 0.269284 0.561164
0.069756 0.274020 0.558728
0.399990 0.091457 0.421693
0.498658 0.089839 0.457019
0.501808 0.089839 0.457503
0.000000 0.350279 0.549838
0.000000 0.349467 0.550087
0.000000 0.348241 0.550465
0.551062 0.523791 0.766073
0.647590 0.504856 0.620883
0.651742 0.498464 0.619054
0.296824 0.483790 0.543224
0.298895 0.483370 0.543093
0.301098 0.482265 0.542648
0.470236 0.554560 0.603356
0.788196 0.797787 0.814597
0.841037 0.819582 0.825301
0.368606 0.531983 0.566913
0.371137 0.531951 0.566909
0.374449 0.531774 0.566874
0.427463 0.557256 0.589290
0.771763 0.834556 0.819224
0.839958 0.894023 0.859685
