assets/luts/LUTs/BALI.CUBE
#Generated with IWLTBAP LUT Generator
#Website: https://luts.iwltbap.com
TITLE "BALI"
LUT_3D_SIZE 64
0.000000 0.000000 0.000000
0.000000 0.000000 0.000000
0.000000 0.007843 0.003922
0.000000 0.007843 0.003922
0.007843 0.007843 0.007843
0.023529 0.007843 0.003922
0.027451 0.003922 0.003922
0.035294 0.003922 0.000000
0.054902 0.000000 0.000000
0.058824 0.003922 0.000000
0.078431 0.007843 0.007843
0.082353 0.003922 0.000000
0.098039 0.003922 0.000000
0.117647 0.007843 0.000000
0.129412 0.007843 0.000000
0.137255 0.003922 0.000000
0.152941 0.003922 0.003922
0.160784 0.003922 0.003922
0.180392 0.000000 0.000000
0.196078 0.000000 0.000000
0.203922 0.003922 0.000000
0.227451 0.000000 0.000000
0.243137 0.003922 0.000000
0.258824 0.000000 0.000000
0.270588 0.003922 0.003922
0.294118 0.003922 0.000000
0.294118 0.000000 0.000000
0.329412 0.000000 0.000000
0.345098 0.000000 0.011765
0.345098 0.000000 0.003922
0.388235 0.000000 0.003922
0.396078 0.000000 0.000000
0.407843 0.000000 0.000000
0.427451 0.000000 0.000000
0.439216 0.003922 0.000000
0.466667 0.003922 0.000000
0.494118 0.000000 0.003922
0.513725 0.000000 0.000000
0.533333 0.003922 0.000000
0.552941 0.000000 0.000000
0.576471 0.000000 0.000000
0.607843 0.000000 0.000000
0.627451 0.000000 0.000000
0.650980 0.003922 0.000000
0.674510 0.003922 0.003922
0.698039 0.003922 0.003922
0.721569 0.000000 0.000000
0.749020 0.000000 0.000000
0.768627 0.003922 0.000000
0.792157 0.003922 0.003922
0.811765 0.000000 0.000000
0.839216 0.003922 0.000000
0.862745 0.003922 0.000000
0.886275 0.003922 0.000000
0.909804 0.003922 0.000000
0.929412 0.000000 0.000000
0.956863 0.000000 0.000000
0.972549 0.007843 0.000000
0.996078 0.003922 0.000000
1.000000 0.003922 0.003922
0.996078 0.000000 0.000000
0.996078 0.000000 0.000000
1.000000 0.003922 0.011765
1.000000 0.125490 0.066667
0.058824 0.000000 0.000000
0.000000 0.019608 0.000000
0.003922 0.011765 0.007843
0.003922 0.003922 0.000000
0.000000 0.015686 0.000000
0.015686 0.011765 0.000000
0.027451 0.011765 0.000000
0.043137 0.015686 0.000000
0.047059 0.011765 0.000000
0.066667 0.011765 0.000000
0.074510 0.015686 0.003922
0.082353 0.011765 0.000000
0.090196 0.015686 0.000000
0.101961 0.019608 0.000000
0.113725 0.015686 0.000000
0.129412 0.015686 0.000000
0.149020 0.019608 0.000000
0.152941 0.015686 0.000000
0.176471 0.015686 0.000000
0.196078 0.007843 0.000000
0.203922 0.007843 0.003922
0.215686 0.015686 0.003922
0.235294 0.007843 0.000000
0.258824 0.000000 0.000000
0.262745 0.003922 0.003922
0.294118 0.000000 0.000000
0.309804 0.003922 0.000000
0.313725 0.000000 0.000000
0.345098 0.000000 0.000000
0.356863 0.000000 0.000000
0.368627 0.000000 0.000000
0.388235 0.003922 0.007843
0.407843 0.000000 0.000000
0.427451 0.003922 0.003922
0.447059 0.000000 0.000000
0.470588 0.000000 0.003922
0.482353 0.007843 0.003922
0.509804 0.000000 0.000000
0.533333 0.000000 0.000000
0.552941 0.003922 0.000000
0.576471 0.007843 0.003922
0.603922 0.000000 0.007843
0.615686 0.000000 0.000000
0.643137 0.000000 0.000000
0.670588 0.000000 0.000000
0.694118 0.000000 0.000000
0.721569 0.000000 0.000000
0.745098 0.000000 0.000000
0.772549 0.000000 0.000000
0.788235 0.000000 0.000000
0.819608 0.000000 0.000000
0.843137 0.000000 0.000000
0.866667 0.000000 0.000000
0.890196 0.000000 0.000000
0.917647 0.003922 0.000000
0.929412 0.000000 0.000000
0.952941 0.000000 0.003922
0.968627 0.003922 0.000000
0.996078 0.003922 0.000000
0.996078 0.000000 0.007843
0.996078 0.000000 0.000000
1.000000 0.003922 0.003922
0.992157 0.000000 0.000000
1.000000 0.145098 0.039216
0.054902 0.000000 0.000000
0.000000 0.023529 0.000000
0.000000 0.019608 0.000000
0.011765 0.019608 0.007843
0.000000 0.031373 0.000000
0.011765 0.023529 0.000000
0.023529 0.019608 0.000000
0.039216 0.027451 0.007843
0.054902 0.015686 0.007843
0.062745 0.019608 0.003922
0.074510 0.019608 0.007843
0.078431 0.019608 0.000000
0.094118 0.019608 0.003922
0.109804 0.019608 0.000000
0.113725 0.023529 0.000000
0.117647 0.027451 0.000000
0.137255 0.023529 0.000000
0.152941 0.023529 0.003922
0.172549 0.027451 0.003922
0.180392 0.019608 0.003922
0.196078 0.019608 0.000000
0.215686 0.023529 0.000000
0.235294 0.019608 0.000000
0.247059 0.023529 0.003922
0.270588 0.015686 0.007843
0.278431 0.011765 0.000000
0.294118 0.015686 0.000000
0.313725 0.007843 0.000000
0.329412 0.011765 0.000000
0.345098 0.011765 0.003922
0.372549 0.003922 0.003922
0.384314 0.015686 0.007843
0.400000 0.003922 0.003922
0.419608 0.007843 0.003922
0.447059 0.000000 0.000000
0.470588 0.000000 0.003922
0.486275 0.000000 0.000000
0.501961 0.000000 0.000000
0.529412 0.003922 0.000000
0.560784 0.000000 0.000000
0.572549 0.003922 0.000000
0.592157 0.000000 0.000000
0.615686 0.000000 0.000000
0.643137 0.000000 0.000000
0.670588 0.000000 0.000000
0.701961 0.000000 0.000000
0.721569 0.000000 0.000000
0.745098 0.000000 0.000000
0.764706 0.000000 0.000000
0.796078 0.000000 0.000000
0.819608 0.000000 0.000000
0.843137 0.000000 0.000000
0.866667 0.000000 0.000000
0.886275 0.003922 0.003922
0.905882 0.000000 0.000000
0.929412 0.000000 0.000000
0.960784 0.000000 0.007843
0.972549 0.003922 0.003922
0.996078 0.000000 0.000000
0.996078 0.003922 0.000000
0.992157 0.000000 0.000000
0.996078 0.000000 0.011765
0.988235 0.007843 0.000000
1.000000 0.152941 0.039216
0.062745 0.000000 0.011765
0.000000 0.023529 0.000000
0.003922 0.023529 0.000000
0.000000 0.027451 0.000000
0.000000 0.027451 0.000000
0.003922 0.031373 0.000000
0.011765 0.031373 0.003922
0.039216 0.027451 0.000000
0.054902 0.019608 0.000000
0.062745 0.027451 0.000000
0.078431 0.027451 0.003922
0.082353 0.023529 0.000000
0.094118 0.027451 0.000000
0.105882 0.027451 0.000000
0.117647 0.027451 0.003922
0.129412 0.023529 0.000000
0.141176 0.035294 0.000000
0.152941 0.035294 0.003922
0.176471 0.031373 0.000000
0.184314 0.027451 0.000000
0.192157 0.035294 0.000000
0.207843 0.035294 0.000000
0.231373 0.035294 0.000000
0.243137 0.031373 0.000000
0.258824 0.027451 0.000000
0.274510 0.027451 0.000000
0.290196 0.027451 0.000000
0.313725 0.027451 0.003922
0.329412 0.027451 0.003922
0.349020 0.023529 0.007843
0.368627 0.019608 0.003922
0.384314 0.015686 0.007843
0.403922 0.015686 0.003922
0.411765 0.015686 0.000000
0.439216 0.015686 0.003922
0.462745 0.011765 0.007843
0.474510 0.007843 0.000000
0.501961 0.000000 0.000000
0.529412 0.003922 0.000000
0.552941 0.000000 0.000000
0.572549 0.003922 0.000000
0.592157 0.000000 0.000000
0.611765 0.003922 0.000000
0.635294 0.003922 0.000000
0.666667 0.000000 0.003922
0.694118 0.000000 0.000000
0.717647 0.000000 0.000000
0.749020 0.000000 0.000000
0.772549 0.000000 0.000000
0.800000 0.000000 0.003922
0.819608 0.000000 0.000000
0.843137 0.000000 0.000000
0.866667 0.007843 0.003922
0.886275 0.003922 0.003922
0.913725 0.000000 0.000000
0.929412 0.000000 0.000000
0.956863 0.000000 0.007843
0.972549 0.007843 0.000000
1.000000 0.003922 0.011765
0.996078 0.003922 0.000000
0.996078 0.000000 0.007843
0.996078 0.000000 0.000000
0.992157 0.007843 0.011765
1.000000 0.160784 0.019608
0.078431 0.007843 0.007843
0.000000 0.031373 0.000000
0.000000 0.043137 0.000000
0.000000 0.035294 0.000000
0.000000 0.050980 0.000000
0.000000 0.043137 0.000000
0.015686 0.039216 0.000000
0.035294 0.035294 0.003922
0.050980 0.035294 0.000000
0.054902 0.039216 0.003922
0.066667 0.039216 0.000000
0.074510 0.035294 0.000000
0.090196 0.035294 0.000000
0.109804 0.039216 0.000000
0.117647 0.039216 0.003922
0.125490 0.039216 0.000000
0.133333 0.039216 0.000000
0.145098 0.039216 0.003922
0.156863 0.039216 0.000000
0.176471 0.043137 0.000000
0.192157 0.043137 0.000000
0.207843 0.043137 0.000000
0.223529 0.039216 0.000000
0.235294 0.039216 0.000000
0.250980 0.039216 0.000000
0.270588 0.043137 0.000000
0.286275 0.035294 0.000000
0.305882 0.039216 0.003922
0.317647 0.043137 0.003922
0.341176 0.039216 0.000000
0.360784 0.035294 0.003922
0.380392 0.035294 0.000000
0.384314 0.031373 0.000000
0.419608 0.027451 0.003922
0.447059 0.027451 0.003922
0.458824 0.027451 0.000000
0.478431 0.019608 0.000000
0.490196 0.019608 0.000000
0.521569 0.015686 0.003922
0.545098 0.007843 0.000000
0.568627 0.003922 0.000000
0.592157 0.000000 0.003922
0.623529 0.000000 0.000000
0.647059 0.000000 0.000000
0.670588 0.000000 0.000000
0.686275 0.000000 0.000000
0.709804 0.000000 0.000000
0.733333 0.000000 0.000000
0.764706 0.000000 0.000000
0.788235 0.000000 0.000000
0.811765 0.000000 0.000000
0.843137 0.007843 0.000000
0.866667 0.000000 0.000000
0.890196 0.000000 0.003922
0.905882 0.000000 0.000000
0.929412 0.000000 0.000000
0.956863 0.000000 0.000000
0.964706 0.000000 0.000000
0.996078 0.000000 0.000000
0.988235 0.003922 0.000000
0.996078 0.003922 0.000000
1.000000 0.003922 0.003922
0.988235 0.003922 0.000000
1.000000 0.176471 0.015686
0.074510 0.015686 0.003922
0.000000 0.050980 0.000000
0.000000 0.043137 0.000000
0.000000 0.054902 0.000000
0.000000 0.050980 0.000000
0.000000 0.054902 0.003922
0.015686 0.047059 0.000000
0.023529 0.054902 0.000000
0.043137 0.043137 0.000000
0.054902 0.047059 0.000000
0.070588 0.047059 0.000000
0.078431 0.047059 0.003922
0.090196 0.043137 0.000000
0.105882 0.039216 0.000000
0.113725 0.043137 0.000000
0.117647 0.047059 0.000000
0.137255 0.054902 0.000000
0.152941 0.050980 0.000000
0.164706 0.047059 0.000000
0.176471 0.050980 0.003922
0.196078 0.050980 0.011765
0.203922 0.054902 0.011765
0.215686 0.050980 0.000000
0.235294 0.054902 0.003922
0.243137 0.058824 0.000000
0.262745 0.054902 0.000000
0.286275 0.054902 0.000000
0.301961 0.050980 0.003922
0.317647 0.050980 0.000000
0.337255 0.054902 0.000000
0.352941 0.054902 0.003922
0.364706 0.054902 0.003922
0.392157 0.047059 0.007843
0.415686 0.047059 0.007843
0.435294 0.047059 0.000000
0.454902 0.047059 0.003922
0.478431 0.039216 0.000000
0.501961 0.039216 0.000000
0.505882 0.043137 0.000000
0.545098 0.023529 0.000000
0.556863 0.023529 0.000000
0.588235 0.019608 0.000000
0.611765 0.011765 0.000000
0.635294 0.003922 0.000000
0.662745 0.000000 0.000000
0.690196 0.000000 0.007843
0.709804 0.000000 0.003922
0.733333 0.000000 0.003922
0.764706 0.000000 0.000000
0.788235 0.000000 0.003922
0.811765 0.000000 0.000000
0.839216 0.000000 0.000000
0.862745 0.003922 0.000000
0.886275 0.003922 0.000000
0.905882 0.000000 0.000000
0.925490 0.003922 0.000000
0.952941 0.000000 0.000000
0.968627 0.000000 0.000000
0.988235 0.003922 0.000000
0.996078 0.000000 0.007843
0.996078 0.000000 0.000000
0.996078 0.000000 0.000000
1.000000 0.003922 0.003922
1.000000 0.180392 0.003922
0.078431 0.019608 0.000000
0.000000 0.062745 0.000000
0.000000 0.058824 0.007843
0.000000 0.058824 0.000000
0.000000 0.066667 0.003922
0.007843 0.062745 0.000000
0.007843 0.058824 0.000000
0.011765 0.062745 0.000000
0.043137 0.050980 0.000000
0.050980 0.054902 0.000000
0.062745 0.054902 0.003922
0.078431 0.054902 0.000000
0.090196 0.054902 0.000000
0.109804 0.054902 0.003922
0.117647 0.054902 0.000000
0.125490 0.054902 0.000000
0.141176 0.058824 0.000000
0.149020 0.058824 0.000000
0.160784 0.058824 0.000000
0.168627 0.058824 0.003922
0.176471 0.062745 0.000000
0.196078 0.066667 0.000000
0.215686 0.062745 0.000000
0.227451 0.066667 0.000000
0.250980 0.066667 0.003922
0.258824 0.066667 0.007843
0.274510 0.066667 0.003922
0.298039 0.066667 0.003922
0.309804 0.070588 0.000000
0.337255 0.066667 0.003922
0.349020 0.070588 0.000000
0.368627 0.066667 0.000000
0.388235 0.070588 0.000000
0.407843 0.066667 0.000000
0.431373 0.066667 0.000000
0.447059 0.066667 0.000000
0.462745 0.058824 0.000000
0.494118 0.054902 0.000000
0.513725 0.054902 0.000000
0.537255 0.054902 0.000000
0.564706 0.047059 0.000000
0.580392 0.039216 0.000000
0.603922 0.039216 0.000000
0.623529 0.035294 0.000000
0.666667 0.027451 0.000000
0.686275 0.019608 0.000000
0.705882 0.011765 0.003922
0.729412 0.003922 0.000000
0.760784 0.000000 0.000000
0.788235 0.000000 0.000000
0.811765 0.000000 0.000000
0.827451 0.000000 0.000000
0.858824 0.000000 0.000000
0.882353 0.000000 0.000000
0.905882 0.000000 0.000000
0.929412 0.000000 0.007843
0.949020 0.003922 0.007843
0.968627 0.000000 0.000000
0.996078 0.000000 0.007843
1.000000 0.003922 0.003922
1.000000 0.003922 0.003922
0.996078 0.000000 0.011765
0.996078 0.000000 0.007843
1.000000 0.200000 0.000000
0.074510 0.035294 0.000000
0.000000 0.070588 0.000000
0.000000 0.066667 0.000000
0.000000 0.066667 0.003922
0.007843 0.074510 0.003922
0.000000 0.074510 0.000000
0.000000 0.066667 0.000000
0.007843 0.074510 0.003922
0.027451 0.074510 0.000000
0.043137 0.070588 0.000000
0.058824 0.070588 0.003922
0.078431 0.066667 0.000000
0.094118 0.058824 0.000000
0.105882 0.058824 0.000000
0.113725 0.062745 0.000000
0.117647 0.066667 0.000000
0.141176 0.066667 0.000000
0.145098 0.070588 0.003922
0.156863 0.066667 0.000000
0.176471 0.070588 0.003922
0.188235 0.074510 0.003922
0.200000 0.078431 0.000000
0.215686 0.070588 0.000000
0.219608 0.074510 0.000000
0.247059 0.070588 0.000000
0.258824 0.082353 0.000000
0.274510 0.074510 0.000000
0.298039 0.078431 0.000000
0.305882 0.078431 0.000000
0.321569 0.082353 0.000000
0.345098 0.078431 0.003922
0.372549 0.078431 0.003922
0.372549 0.078431 0.000000
0.403922 0.082353 0.000000
0.419608 0.090196 0.000000
0.435294 0.082353 0.000000
0.466667 0.078431 0.015686
0.482353 0.082353 0.000000
0.498039 0.074510 0.000000
0.521569 0.078431 0.007843
0.552941 0.074510 0.000000
0.572549 0.074510 0.000000
0.588235 0.074510 0.000000
0.607843 0.070588 0.000000
0.635294 0.070588 0.000000
0.658824 0.066667 0.003922
0.682353 0.058824 0.000000
0.705882 0.058824 0.003922
0.725490 0.066667 0.000000
0.752941 0.058824 0.000000
0.776471 0.050980 0.000000
0.803922 0.047059 0.000000
0.831373 0.039216 0.000000
0.847059 0.031373 0.000000
0.870588 0.023529 0.003922
0.898039 0.015686 0.000000
0.917647 0.011765 0.003922
0.929412 0.007843 0.000000
0.956863 0.003922 0.000000
0.972549 0.003922 0.003922
0.996078 0.000000 0.000000
0.996078 0.000000 0.000000
0.996078 0.000000 0.000000
0.996078 0.000000 0.000000
0.000000 0.082353 0.000000
0.000000 0.082353 0.000000
0.000000 0.082353 0.000000
0.000000 0.082353 0.000000
0.003922 0.078431 0.000000
0.007843 0.078431 0.000000
0.019608 0.078431 0.000000
0.027451 0.082353 0.000000
0.058824 0.078431 0.000000
0.070588 0.078431 0.000000
0.090196 0.082353 0.000000
0.109804 0.078431 0.000000
0.125490 0.074510 0.003922
0.133333 0.074510 0.000000
0.141176 0.074510 0.003922
0.149020 0.074510 0.007843
0.172549 0.074510 0.003922
0.176471 0.070588 0.000000
0.184314 0.074510 0.000000
0.203922 0.074510 0.000000
0.219608 0.074510 0.000000
0.231373 0.070588 0.000000
0.247059 0.070588 0.000000
0.258824 0.070588 0.000000
0.274510 0.074510 0.000000
0.301961 0.078431 0.003922
0.309804 0.078431 0.007843
0.325490 0.078431 0.007843
0.337255 0.082353 0.003922
0.345098 0.086275 0.000000
0.368627 0.086275 0.000000
0.384314 0.082353 0.003922
0.407843 0.086275 0.003922
0.423529 0.086275 0.003922
0.443137 0.090196 0.003922
0.454902 0.094118 0.003922
0.486275 0.094118 0.003922
0.498039 0.090196 0.000000
0.509804 0.090196 0.000000
0.549020 0.101961 0.000000
0.560784 0.090196 0.000000
0.584314 0.090196 0.000000
0.607843 0.090196 0.000000
0.631373 0.094118 0.000000
0.662745 0.090196 0.007843
0.682353 0.086275 0.003922
0.709804 0.078431 0.000000
0.729412 0.078431 0.000000
0.752941 0.078431 0.000000
0.780392 0.070588 0.003922
0.803922 0.062745 0.007843
0.827451 0.054902 0.000000
0.858824 0.043137 0.003922
0.878431 0.031373 0.003922
0.894118 0.019608 0.000000
0.913725 0.007843 0.000000
0.933333 0.003922 0.011765
0.956863 0.003922 0.000000
0.996078 0.000000 0.011765
0.996078 0.000000 0.000000
0.996078 0.000000 0.000000
0.996078 0.000000 0.000000
1.000000 0.003922 0.003922
1.000000 0.231373 0.003922
0.101961 0.054902 0.000000
0.000000 0.094118 0.000000
0.011765 0.086275 0.011765
0.003922 0.090196 0.000000
0.000000 0.094118 0.007843
0.003922 0.098039 0.003922
0.000000 0.094118 0.000000
0.015686 0.090196 0.003922
0.035294 0.098039 0.000000
0.058824 0.098039 0.003922
0.078431 0.094118 0.000000
0.094118 0.086275 0.000000
0.109804 0.086275 0.000000
0.117647 0.086275 0.000000
0.133333 0.090196 0.003922
0.149020 0.090196 0.000000
0.168627 0.086275 0.003922
0.172549 0.086275 0.000000
0.188235 0.082353 0.000000
0.203922 0.082353 0.000000
0.211765 0.086275 0.000000
0.223529 0.086275 0.000000
0.235294 0.086275 0.000000
0.250980 0.086275 0.000000
0.274510 0.094118 0.000000
0.286275 0.090196 0.000000
0.305882 0.090196 0.007843
0.317647 0.098039 0.000000
0.337255 0.094118 0.003922
0.352941 0.094118 0.000000
0.368627 0.094118 0.003922
0.388235 0.098039 0.000000
0.415686 0.094118 0.000000
0.427451 0.098039 0.003922
0.450980 0.098039 0.003922
0.458824 0.109804 0.000000
0.494118 0.098039 0.000000
0.505882 0.098039 0.000000
0.533333 0.101961 0.003922
0.537255 0.098039 0.003922
0.560784 0.109804 0.000000
0.588235 0.101961 0.000000
0.611765 0.101961 0.000000
0.631373 0.101961 0.000000
0.654902 0.098039 0.003922
0.686275 0.098039 0.003922
0.705882 0.094118 0.003922
0.725490 0.090196 0.000000
0.752941 0.098039 0.000000
0.772549 0.094118 0.000000
0.800000 0.086275 0.000000
0.827451 0.078431 0.003922
0.850980 0.074510 0.000000
0.870588 0.070588 0.003922
0.898039 0.062745 0.007843
0.913725 0.054902 0.007843
0.937255 0.039216 0.000000
0.960784 0.027451 0.000000
0.984314 0.019608 0.007843
1.000000 0.007843 0.000000
1.000000 0.007843 0.000000
0.996078 0.000000 0.007843
1.000000 0.003922 0.003922
0.988235 0.247059 0.000000
0.109804 0.062745 0.000000
0.003922 0.105882 0.000000
0.003922 0.101961 0.015686
0.003922 0.101961 0.015686
0.003922 0.105882 0.000000
0.011765 0.109804 0.000000
0.007843 0.109804 0.000000
0.000000 0.105882 0.007843
0.015686 0.113725 0.000000
0.039216 0.113725 0.000000
0.074510 0.109804 0.003922
0.094118 0.101961 0.007843
0.101961 0.101961 0.000000
0.117647 0.101961 0.003922
0.141176 0.101961 0.003922
0.152941 0.098039 0.000000
0.168627 0.101961 0.000000
0.176471 0.098039 0.000000
0.184314 0.101961 0.000000
0.196078 0.094118 0.000000
0.207843 0.101961 0.000000
0.223529 0.101961 0.000000
0.243137 0.098039 0.000000
0.258824 0.098039 0.000000
0.266667 0.105882 0.000000
0.286275 0.101961 0.000000
0.305882 0.101961 0.007843
0.321569 0.105882 0.000000
0.333333 0.098039 0.000000
0.360784 0.101961 0.000000
0.372549 0.109804 0.003922
0.388235 0.109804 0.000000
0.411765 0.109804 0.000000
0.435294 0.105882 0.000000
0.447059 0.113725 0.000000
0.466667 0.117647 0.000000
0.490196 0.117647 0.007843
0.498039 0.117647 0.003922
0.529412 0.117647 0.003922
0.533333 0.117647 0.000000
0.564706 0.121569 0.003922
0.592157 0.117647 0.003922
0.611765 0.113725 0.000000
0.631373 0.117647 0.000000
0.654902 0.121569 0.003922
0.678431 0.121569 0.003922
0.701961 0.117647 0.000000
0.729412 0.117647 0.000000
0.752941 0.117647 0.003922
0.780392 0.109804 0.000000
0.803922 0.109804 0.000000
0.823529 0.109804 0.000000
0.850980 0.101961 0.000000
0.882353 0.098039 0.007843
0.898039 0.090196 0.000000
0.913725 0.082353 0.000000
0.941176 0.078431 0.000000
0.964706 0.058824 0.000000
0.980392 0.062745 0.003922
0.996078 0.039216 0.000000
1.000000 0.043137 0.000000
0.992157 0.007843 0.003922
1.000000 0.007843 0.000000
0.996078 0.254902 0.007843
0.121569 0.070588 0.000000
0.000000 0.125490 0.000000
0.000000 0.121569 0.000000
0.003922 0.125490 0.003922
0.003922 0.117647 0.000000
0.000000 0.121569 0.007843
0.000000 0.121569 0.000000
0.003922 0.117647 0.000000
0.007843 0.121569 0.000000
0.039216 0.121569 0.000000
0.066667 0.117647 0.000000
0.082353 0.117647 0.003922
0.098039 0.117647 0.000000
0.117647 0.113725 0.000000
0.133333 0.113725 0.000000
0.141176 0.121569 0.003922
0.164706 0.109804 0.003922
0.176471 0.117647 0.003922
0.188235 0.109804 0.003922
0.192157 0.109804 0.000000
0.215686 0.109804 0.000000
0.227451 0.109804 0.000000
0.243137 0.101961 0.000000
0.250980 0.105882 0.003922
0.274510 0.113725 0.003922
0.286275 0.113725 0.007843
0.298039 0.113725 0.003922
0.309804 0.117647 0.000000
0.329412 0.121569 0.000000
0.337255 0.125490 0.000000
0.368627 0.121569 0.000000
0.392157 0.121569 0.000000
0.403922 0.129412 0.000000
0.423529 0.133333 0.003922
0.450980 0.125490 0.000000
0.458824 0.121569 0.000000
0.490196 0.125490 0.003922
0.494118 0.129412 0.000000
0.521569 0.129412 0.000000
0.549020 0.133333 0.000000
0.576471 0.133333 0.000000
0.596078 0.133333 0.000000
0.615686 0.129412 0.000000
0.635294 0.129412 0.003922
0.658824 0.133333 0.003922
0.682353 0.133333 0.003922
0.701961 0.129412 0.000000
0.725490 0.129412 0.003922
0.756863 0.129412 0.000000
0.776471 0.125490 0.000000
0.800000 0.125490 0.000000
0.831373 0.125490 0.000000
0.850980 0.121569 0.000000
0.878431 0.113725 0.000000
0.901961 0.109804 0.000000
0.917647 0.105882 0.000000
0.933333 0.098039 0.000000
0.968627 0.094118 0.000000
0.976471 0.086275 0.000000
0.996078 0.082353 0.000000
1.000000 0.074510 0.000000
1.000000 0.054902 0.007843
0.992157 0.007843 0.003922
1.000000 0.266667 0.000000
0.117647 0.086275 0.003922
0.000000 0.133333 0.000000
0.000000 0.133333 0.007843
0.000000 0.129412 0.000000
0.011765 0.133333 0.003922
0.003922 0.133333 0.011765
0.000000 0.141176 0.000000
0.000000 0.133333 0.000000
0.003922 0.137255 0.000000
0.027451 0.133333 0.000000
0.054902 0.133333 0.000000
0.078431 0.133333 0.003922
0.098039 0.137255 0.003922
0.109804 0.133333 0.000000
0.129412 0.129412 0.000000
0.149020 0.125490 0.000000
0.164706 0.129412 0.000000
0.180392 0.129412 0.003922
0.188235 0.125490 0.000000
0.203922 0.125490 0.000000
0.207843 0.129412 0.000000
0.223529 0.129412 0.000000
0.239216 0.125490 0.000000
0.258824 0.121569 0.003922
0.262745 0.125490 0.000000
0.282353 0.129412 0.000000
0.301961 0.125490 0.000000
0.313725 0.133333 0.000000
0.337255 0.129412 0.000000
0.349020 0.129412 0.000000
0.376471 0.129412 0.000000
0.388235 0.137255 0.000000
0.403922 0.137255 0.000000
0.423529 0.141176 0.000000
0.435294 0.137255 0.003922
0.462745 0.137255 0.003922
0.486275 0.141176 0.003922
0.509804 0.141176 0.000000
0.529412 0.145098 0.000000
0.545098 0.145098 0.000000
0.560784 0.149020 0.000000
0.588235 0.149020 0.000000
0.615686 0.149020 0.000000
0.635294 0.152941 0.000000
0.658824 0.152941 0.000000
0.682353 0.152941 0.003922
0.701961 0.149020 0.000000
0.733333 0.149020 0.000000
0.764706 0.145098 0.000000
0.788235 0.145098 0.000000
0.807843 0.145098 0.000000
0.831373 0.145098 0.000000
0.858824 0.137255 0.003922
0.882353 0.137255 0.003922
0.898039 0.129412 0.000000
0.921569 0.129412 0.003922
0.933333 0.125490 0.003922
0.964706 0.117647 0.003922
0.980392 0.117647 0.000000
1.000000 0.109804 0.003922
1.000000 0.098039 0.003922
0.992157 0.090196 0.000000
1.000000 0.050980 0.007843
1.000000 0.270588 0.000000
0.117647 0.101961 0.003922
0.003922 0.152941 0.000000
0.003922 0.145098 0.003922
0.007843 0.149020 0.007843
0.003922 0.152941 0.000000
0.003922 0.152941 0.007843
0.003922 0.152941 0.000000
0.000000 0.149020 0.000000
0.000000 0.149020 0.003922
0.007843 0.149020 0.007843
0.031373 0.149020 0.007843
0.062745 0.149020 0.007843
0.082353 0.145098 0.000000
0.113725 0.145098 0.000000
0.133333 0.141176 0.000000
0.145098 0.145098 0.003922
0.164706 0.141176 0.007843
0.176471 0.145098 0.003922
0.188235 0.137255 0.000000
0.200000 0.137255 0.000000
0.215686 0.137255 0.000000
0.227451 0.141176 0.000000
0.239216 0.137255 0.000000
0.250980 0.141176 0.000000
0.270588 0.145098 0.000000
0.278431 0.137255 0.000000
0.290196 0.141176 0.000000
0.317647 0.145098 0.000000
0.317647 0.149020 0.000000
0.352941 0.149020 0.000000
0.364706 0.149020 0.000000
0.384314 0.141176 0.000000
0.403922 0.156863 0.000000
0.419608 0.152941 0.000000
0.439216 0.149020 0.003922
0.450980 0.145098 0.000000
0.482353 0.152941 0.003922
0.494118 0.149020 0.000000
0.533333 0.149020 0.003922
0.545098 0.156863 0.000000
0.560784 0.156863 0.000000
0.588235 0.160784 0.000000
0.611765 0.160784 0.000000
0.631373 0.164706 0.000000
0.654902 0.168627 0.003922
0.678431 0.168627 0.003922
0.709804 0.168627 0.000000
0.737255 0.160784 0.000000
0.752941 0.164706 0.000000
0.780392 0.164706 0.000000
0.807843 0.160784 0.003922
0.827451 0.160784 0.000000
0.854902 0.152941 0.000000
