assets/luts/LUTs/BALI.CUBE
#Generated with IWLTBAP LUT Generator
#Website: https://luts.iwltbap.com
TITLE "BALI"
LUT_3D_SIZE 8
0.000000 0.000000 0.000000
0.058824 0.003922 0.000000
0.180392 0.000000 0.000000
0.329412 0.000000 0.000000
0.494118 0.000000 0.003922
0.698039 0.003922 0.003922
0.909804 0.003922 0.000000
1.000000 0.125490 0.066667
0.101961 0.054902 0.000000
0.058824 0.098039 0.003922
0.188235 0.082353 0.000000
0.317647 0.098039 0.000000
0.494118 0.098039 0.000000
0.686275 0.098039 0.003922
0.898039 0.062745 0.007843
0.988235 0.247059 0.000000
0.137255 0.172549 0.000000
0.007843 0.247059 0.011765
0.188235 0.223529 0.000000
0.321569 0.215686 0.000000
0.470588 0.227451 0.003922
0.670588 0.247059 0.000000
0.886275 0.254902 0.003922
0.980392 0.368627 0.007843
0.121569 0.356863 0.011765
0.007843 0.470588 0.000000
0.000000 0.458824 0.000000
0.356863 0.419608 0.000000
0.509804 0.403922 0.000000
0.670588 0.400000 0.003922
0.870588 0.403922 0.000000
0.949020 0.501961 0.000000
0.000000 0.647059 0.003922
0.003922 0.725490 0.003922
0.007843 0.729412 0.000000
0.125490 0.701961 0.000000
0.556863 0.654902 0.003922
0.749020 0.603922 0.003922
0.886275 0.584314 0.003922
0.960784 0.670588 0.007843
0.000000 0.882353 0.000000
0.000000 0.894118 0.000000
0.003922 0.901961 0.000000
0.000000 0.894118 0.003922
0.396078 0.862745 0.007843
0.705882 0.835294 0.000000
0.929412 0.784314 0.000000
0.964706 0.866667 0.000000
0.003922 0.996078 0.000000
0.000000 0.996078 0.000000
0.000000 1.000000 0.000000
0.011765 0.996078 0.027451
0.000000 0.988235 0.011765
0.533333 0.972549 0.000000
0.819608 0.949020 0.003922
0.827451 0.976471 0.196078
0.760784 1.000000 0.776471
0.725490 0.996078 0.811765
0.756863 1.000000 0.815686
0.803922 1.000000 0.800000
0.850980 0.996078 0.792157
0.937255 0.984314 0.796078
1.000000 0.976471 0.780392
1.000000 0.956863 0.780392
0.000000 0.027451 0.000000
0.000000 0.047059 0.007843
0.113725 0.058824 0.007843
0.227451 0.090196 0.003922
0.356863 0.105882 0.000000
0.517647 0.129412 0.000000
0.772549 0.149020 0.000000
0.713725 0.364706 0.000000
0.129412 0.058824 0.011765
0.070588 0.086275 0.090196
0.196078 0.078431 0.086275
0.329412 0.070588 0.086275
0.490196 0.031373 0.066667
0.694118 0.003922 0.054902
0.909804 0.003922 0.011765
0.992157 0.137255 0.164706
0.168627 0.156863 0.019608
0.007843 0.223529 0.098039
0.192157 0.211765 0.086275
0.333333 0.200000 0.062745
0.490196 0.211765 0.043137
0.698039 0.219608 0.003922
0.917647 0.207843 0.007843
0.988235 0.325490 0.125490
0.180392 0.333333 0.007843
0.003922 0.443137 0.050980
0.000000 0.439216 0.047059
0.364706 0.396078 0.058824
0.517647 0.376471 0.007843
0.674510 0.376471 0.000000
0.894118 0.392157 0.003922
0.980392 0.482353 0.007843
0.000000 0.635294 0.003922
0.003922 0.713725 0.003922
0.007843 0.717647 0.000000
0.176471 0.694118 0.011765
0.568627 0.639216 0.000000
0.752941 0.592157 0.003922
0.905882 0.564706 0.003922
0.984314 0.639216 0.003922
0.003922 0.874510 0.000000
0.003922 0.890196 0.003922
0.003922 0.898039 0.000000
0.000000 0.894118 0.000000
0.415686 0.862745 0.000000
0.745098 0.823529 0.003922
0.937255 0.764706 0.000000
0.976471 0.843137 0.078431
0.000000 1.000000 0.003922
0.003922 1.000000 0.176471
0.000000 1.000000 0.184314
0.003922 1.000000 0.200000
0.000000 0.996078 0.180392
0.572549 0.972549 0.098039
0.850980 0.945098 0.000000
0.847059 0.972549 0.294118
0.803922 1.000000 0.800000
0.760784 1.000000 0.839216
0.772549 1.000000 0.835294
0.803922 1.000000 0.827451
0.874510 0.996078 0.823529
0.929412 0.992157 0.815686
1.000000 0.976471 0.803922
0.996078 0.960784 0.800000
0.000000 0.054902 0.074510
0.007843 0.066667 0.094118
0.129412 0.066667 0.109804
0.250980 0.074510 0.101961
0.384314 0.066667 0.086275
0.537255 0.086275 0.074510
0.800000 0.066667 0.062745
0.772549 0.349020 0.098039
0.164706 0.043137 0.113725
0.011765 0.086275 0.203922
0.203922 0.070588 0.203922
0.345098 0.050980 0.219608
0.509804 0.000000 0.219608
0.729412 0.003922 0.227451
0.941176 0.000000 0.207843
1.000000 0.003922 0.341176
0.184314 0.145098 0.137255
0.000000 0.227451 0.211765
0.207843 0.207843 0.215686
0.352941 0.203922 0.203922
0.525490 0.196078 0.203922
0.737255 0.168627 0.203922
0.937255 0.129412 0.188235
1.000000 0.290196 0.325490
0.207843 0.333333 0.149020
0.000000 0.411765 0.250980
0.007843 0.415686 0.215686
0.352941 0.400000 0.211765
0.525490 0.368627 0.176471
0.709804 0.368627 0.156863
0.913725 0.376471 0.133333
1.000000 0.462745 0.250980
0.007843 0.623529 0.101961
0.003922 0.686275 0.274510
0.007843 0.694118 0.219608
0.058824 0.705882 0.203922
0.568627 0.639216 0.200000
0.756863 0.588235 0.149020
0.901961 0.549020 0.027451
0.980392 0.627451 0.196078
0.003922 0.870588 0.011765
0.003922 0.886275 0.282353
0.000000 0.890196 0.262745
0.000000 0.886275 0.270588
0.411765 0.858824 0.231373
0.745098 0.819608 0.164706
0.933333 0.760784 0.039216
0.980392 0.831373 0.301961
0.003922 0.996078 0.000000
0.003922 0.992157 0.376471
0.000000 0.996078 0.384314
0.000000 0.996078 0.396078
0.184314 0.984314 0.392157
0.603922 0.980392 0.352941
0.854902 0.941176 0.270588
0.862745 0.968627 0.454902
0.843137 0.992157 0.839216
0.800000 1.000000 0.870588
0.803922 0.996078 0.870588
0.827451 1.000000 0.862745
0.878431 0.996078 0.862745
0.929412 0.984314 0.847059
0.996078 0.980392 0.835294
0.996078 0.960784 0.831373
0.003922 0.113725 0.200000
0.000000 0.109804 0.219608
0.086275 0.078431 0.235294
0.250980 0.074510 0.235294
0.388235 0.043137 0.231373
0.588235 0.000000 0.247059
0.843137 0.003922 0.254902
0.843137 0.309804 0.356863
0.219608 0.019608 0.243137
0.000000 0.090196 0.356863
0.188235 0.070588 0.352941
0.356863 0.031373 0.352941
0.521569 0.000000 0.368627
0.729412 0.000000 0.396078
0.949020 0.000000 0.407843
1.000000 0.007843 0.537255
0.219608 0.141176 0.278431
0.000000 0.266667 0.368627
0.133333 0.207843 0.364706
0.360784 0.200000 0.364706
0.552941 0.184314 0.388235
0.760784 0.129412 0.396078
0.960784 0.035294 0.396078
0.992157 0.309804 0.521569
0.258824 0.301961 0.278431
0.003922 0.415686 0.396078
0.141176 0.400000 0.392157
0.360784 0.376471 0.380392
0.560784 0.368627 0.380392
0.756863 0.364706 0.372549
0.945098 0.356863 0.364706
1.000000 0.486275 0.498039
0.007843 0.600000 0.321569
0.000000 0.674510 0.423529
0.000000 0.658824 0.435294
0.247059 0.662745 0.419608
0.560784 0.635294 0.407843
0.749020 0.568627 0.337255
0.913725 0.529412 0.290196
0.976471 0.596078 0.396078
0.003922 0.854902 0.333333
0.007843 0.862745 0.521569
0.003922 0.858824 0.517647
0.082353 0.870588 0.486275
0.454902 0.862745 0.482353
0.741176 0.823529 0.419608
0.937255 0.749020 0.333333
0.976471 0.819608 0.486275
0.003922 0.984314 0.290196
0.000000 0.976471 0.600000
0.000000 0.980392 0.588235
0.235294 0.984314 0.576471
0.423529 0.988235 0.584314
0.658824 0.968627 0.549020
0.870588 0.937255 0.482353
0.886275 0.968627 0.611765
0.870588 0.992157 0.870588
0.835294 0.992157 0.898039
0.847059 0.996078 0.898039
0.866667 0.992157 0.901961
0.894118 0.988235 0.901961
0.933333 0.980392 0.886275
0.996078 0.972549 0.870588
1.000000 0.964706 0.866667
0.000000 0.156863 0.364706
0.000000 0.149020 0.364706
0.003922 0.094118 0.407843
0.235294 0.074510 0.388235
0.407843 0.039216 0.384314
0.603922 0.000000 0.415686
0.847059 0.000000 0.458824
0.862745 0.313725 0.592157
0.239216 0.007843 0.376471
0.000000 0.098039 0.541176
0.078431 0.062745 0.533333
0.360784 0.000000 0.529412
0.549020 0.000000 0.545098
0.745098 0.003922 0.576471
0.937255 0.007843 0.580392
1.000000 0.019608 0.713725
0.203922 0.129412 0.439216
0.000000 0.298039 0.560784
0.000000 0.211765 0.552941
0.341176 0.200000 0.552941
0.572549 0.172549 0.568627
0.764706 0.125490 0.584314
0.960784 0.035294 0.580392
0.996078 0.305882 0.694118
0.203922 0.294118 0.466667
0.000000 0.466667 0.576471
0.000000 0.450980 0.572549
0.290196 0.376471 0.572549
0.568627 0.380392 0.576471
0.780392 0.376471 0.584314
0.960784 0.372549 0.580392
1.000000 0.494118 0.682353
0.270588 0.545098 0.505882
0.007843 0.650980 0.588235
0.000000 0.643137 0.580392
0.341176 0.619608 0.588235
0.564706 0.600000 0.580392
0.756863 0.580392 0.568627
0.933333 0.564706 0.556863
0.984314 0.650980 0.643137
0.376471 0.811765 0.584314
0.003922 0.854902 0.615686
0.133333 0.850980 0.631373
0.439216 0.835294 0.662745
0.560784 0.843137 0.654902
0.760784 0.807843 0.619608
0.913725 0.729412 0.517647
0.960784 0.792157 0.623529
0.003922 0.976471 0.560784
0.325490 0.972549 0.705882
0.458824 0.968627 0.725490
0.556863 0.968627 0.737255
0.607843 0.964706 0.725490
0.721569 0.964706 0.717647
0.882353 0.933333 0.654902
0.909804 0.960784 0.752941
0.898039 0.968627 0.905882
0.811765 0.988235 0.909804
0.839216 0.984314 0.913725
0.890196 0.984314 0.929412
0.917647 0.988235 0.933333
0.941176 0.984314 0.921569
0.996078 0.972549 0.909804
0.996078 0.968627 0.905882
0.000000 0.203922 0.568627
0.000000 0.192157 0.580392
0.000000 0.101961 0.615686
0.141176 0.062745 0.584314
0.423529 0.000000 0.576471
0.647059 0.000000 0.611765
0.862745 0.000000 0.635294
0.858824 0.321569 0.776471
0.207843 0.003922 0.580392
0.000000 0.101961 0.717647
0.007843 0.062745 0.725490
0.309804 0.003922 0.725490
0.564706 0.000000 0.729412
0.764706 0.000000 0.745098
0.945098 0.003922 0.745098
1.000000 0.000000 0.878431
0.098039 0.129412 0.654902
0.000000 0.309804 0.741176
0.000000 0.211765 0.717647
0.250980 0.196078 0.733333
0.560784 0.156863 0.749020
0.772549 0.113725 0.752941
0.952941 0.031373 0.749020
1.000000 0.305882 0.854902
0.003922 0.305882 0.643137
0.000000 0.509804 0.752941
0.000000 0.482353 0.752941
0.098039 0.384314 0.745098
0.533333 0.376471 0.756863
0.772549 0.380392 0.772549
0.952941 0.364706 0.756863
1.000000 0.494118 0.827451
0.101961 0.592157 0.709804
0.003922 0.678431 0.764706
0.000000 0.666667 0.756863
0.203922 0.654902 0.768627
0.529412 0.600000 0.756863
0.776471 0.600000 0.760784
0.933333 0.596078 0.756863
0.988235 0.670588 0.800000
0.337255 0.772549 0.705882
0.003922 0.835294 0.768627
0.000000 0.831373 0.768627
0.364706 0.819608 0.760784
0.596078 0.803922 0.772549
0.772549 0.780392 0.768627
0.909804 0.745098 0.749020
0.960784 0.796078 0.800000
0.580392 0.945098 0.772549
0.317647 0.956863 0.772549
0.462745 0.960784 0.792157
0.588235 0.956863 0.815686
0.725490 0.945098 0.831373
0.800000 0.960784 0.843137
0.905882 0.929412 0.796078
0.937255 0.952941 0.858824
0.901961 0.960784 0.949020
0.796078 0.980392 0.941176
0.835294 0.980392 0.949020
0.866667 0.984314 0.952941
0.913725 0.980392 0.949020
0.945098 0.984314 0.952941
0.988235 0.976471 0.949020
1.000000 0.964706 0.937255
0.000000 0.227451 0.756863
0.003922 0.203922 0.756863
0.000000 0.121569 0.788235
0.000000 0.078431 0.760784
0.360784 0.007843 0.745098
0.639216 0.003922 0.788235
0.858824 0.000000 0.815686
0.831373 0.301961 0.878431
0.000000 0.000000 0.768627
0.000000 0.117647 0.878431
0.000000 0.082353 0.870588
0.156863 0.000000 0.866667
0.498039 0.000000 0.878431
0.733333 0.000000 0.890196
0.929412 0.000000 0.894118
0.952941 0.149020 0.968627
0.000000 0.141176 0.803922
0.003922 0.309804 0.882353
0.003922 0.219608 0.866667
0.003922 0.207843 0.882353
0.486275 0.180392 0.894118
0.737255 0.137255 0.898039
0.937255 0.047059 0.905882
0.960784 0.321569 0.952941
0.007843 0.325490 0.815686
0.000000 0.525490 0.905882
0.003922 0.482353 0.901961
0.000000 0.380392 0.882353
0.454902 0.388235 0.905882
0.721569 0.380392 0.894118
0.925490 0.376471 0.905882
0.952941 0.505882 0.949020
0.066667 0.611765 0.866667
0.000000 0.686275 0.894118
0.003922 0.678431 0.898039
0.196078 0.654902 0.898039
0.470588 0.596078 0.898039
0.713725 0.592157 0.894118
0.917647 0.596078 0.898039
0.952941 0.686275 0.917647
0.262745 0.800000 0.862745
0.000000 0.839216 0.901961
0.000000 0.831373 0.894118
0.290196 0.827451 0.898039
0.537255 0.811765 0.901961
0.729412 0.772549 0.890196
0.909804 0.772549 0.890196
0.952941 0.827451 0.921569
0.525490 0.933333 0.874510
0.149020 0.964706 0.901961
0.364706 0.968627 0.905882
0.545098 0.949020 0.901961
0.682353 0.945098 0.917647
0.803922 0.929412 0.909804
0.905882 0.913725 0.909804
0.941176 0.937255 0.929412
0.894118 0.960784 0.988235
0.784314 0.984314 0.996078
0.823529 0.984314 0.992157
0.854902 0.976471 0.984314
0.894118 0.976471 0.988235
0.929412 0.972549 0.980392
0.984314 0.976471 0.988235
1.000000 0.988235 0.992157
0.003922 0.258824 0.886275
0.000000 0.247059 0.886275
0.007843 0.180392 0.901961
0.000000 0.129412 0.878431
0.172549 0.101961 0.870588
0.533333 0.019608 0.913725
0.811765 0.003922 0.952941
0.784314 0.364706 0.992157
0.000000 0.003922 0.905882
0.000000 0.141176 0.988235
0.007843 0.117647 0.992157
0.000000 0.066667 0.976471
0.392157 0.000000 0.984314
0.658824 0.003922 1.000000
0.886275 0.003922 1.000000
0.913725 0.223529 0.996078
0.000000 0.149020 0.913725
0.000000 0.309804 0.996078
0.000000 0.235294 0.976471
0.007843 0.215686 1.000000
0.372549 0.203922 1.000000
0.658824 0.172549 1.000000
0.886275 0.117647 0.996078
0.925490 0.349020 1.000000
0.000000 0.317647 0.917647
0.003922 0.509804 1.000000
0.000000 0.462745 0.996078
0.007843 0.376471 0.992157
0.352941 0.376471 1.000000
0.662745 0.372549 1.000000
0.894118 0.368627 1.000000
0.909804 0.525490 1.000000
0.078431 0.627451 0.992157
0.000000 0.674510 0.996078
0.003922 0.670588 1.000000
0.156863 0.635294 0.992157
0.372549 0.576471 1.000000
0.654902 0.580392 1.000000
0.878431 0.584314 0.996078
0.913725 0.690196 0.992157
0.341176 0.811765 0.988235
0.000000 0.823529 1.000000
0.003922 0.819608 1.000000
0.247059 0.811765 0.996078
0.549020 0.807843 1.000000
0.678431 0.764706 0.996078
0.866667 0.764706 1.000000
0.929412 0.823529 1.000000
0.494118 0.933333 0.988235
0.000000 0.952941 0.996078
0.223529 0.941176 1.000000
0.443137 0.941176 1.000000
0.600000 0.933333 1.000000
0.741176 0.925490 1.000000
0.878431 0.894118 1.000000
0.945098 0.929412 0.996078
0.709804 0.996078 1.000000
0.572549 1.000000 1.000000
0.631373 1.000000 1.000000
0.694118 1.000000 1.000000
0.784314 1.000000 1.000000
0.862745 1.000000 1.000000
0.941176 1.000000 1.000000
1.000000 0.992157 0.996078
