assets/luts/LUTs/BALI.CUBE
#Generated with IWLTBAP LUT Generator
#Website: https://luts.iwltbap.com
TITLE "BALI"
LUT_3D_SIZE 4
0.000000 0.000000 0.000000
0.227451 0.000000 0.000000
0.627451 0.000000 0.000000
1.000000 0.125490 0.066667
0.141176 0.215686 0.000000
0.235294 0.282353 0.000000
0.584314 0.278431 0.000000
0.972549 0.407843 0.000000
0.000000 0.815686 0.000000
0.003922 0.850980 0.000000
0.662745 0.792157 0.003922
0.968627 0.800000 0.003922
0.760784 1.000000 0.776471
0.764706 0.996078 0.815686
0.909804 0.988235 0.788235
1.000000 0.956863 0.780392
0.000000 0.074510 0.109804
0.168627 0.078431 0.156863
0.486275 0.035294 0.125490
0.784314 0.337255 0.196078
0.207843 0.196078 0.176471
0.243137 0.258824 0.262745
0.686275 0.235294 0.262745
1.000000 0.349020 0.364706
0.000000 0.803922 0.125490
0.000000 0.831373 0.325490
0.686275 0.776471 0.266667
0.984314 0.764706 0.329412
0.854902 0.988235 0.854902
0.827451 0.996078 0.878431
0.913725 0.988235 0.862745
1.000000 0.952941 0.850980
0.000000 0.192157 0.494118
0.000000 0.090196 0.529412
0.552941 0.000000 0.521569
0.862745 0.321569 0.725490
0.145098 0.176471 0.572549
0.000000 0.250980 0.670588
0.721569 0.219608 0.709804
1.000000 0.356863 0.819608
0.309804 0.721569 0.643137
0.003922 0.780392 0.713725
0.709804 0.733333 0.717647
0.960784 0.760784 0.749020
0.905882 0.968627 0.929412
0.847059 0.976471 0.933333
0.941176 0.984314 0.952941
1.000000 0.968627 0.929412
0.003922 0.258824 0.886275
0.000000 0.152941 0.901961
0.439216 0.066667 0.905882
0.784314 0.364706 0.992157
0.007843 0.188235 0.905882
0.000000 0.274510 0.984314
0.568627 0.243137 0.996078
0.909804 0.403922 1.000000
0.333333 0.756863 1.000000
0.000000 0.772549 0.996078
0.600000 0.709804 0.988235
0.925490 0.796078 1.000000
0.709804 0.996078 1.000000
0.654902 1.000000 1.000000
0.835294 1.000000 0.996078
1.000000 0.992157 0.996078
