assets/luts/LUTs/BLACKOUT.CUBE
LUT_3D_SIZE 16
0.000000 0.000000 0.000000
0.000000 0.000000 0.000000
0.000000 0.000000 0.000000
0.000000 0.000000 0.000000
0.000129 0.000000 0.000000
0.042445 0.037678 0.037730
0.123305 0.117183 0.117230
0.234225 0.226773 0.226820
0.347686 0.338829 0.338873
0.450672 0.440504 0.440557
0.535877 0.524278 0.524302
0.599103 0.586093 0.586161
0.605819 0.591533 0.591581
0.607939 0.592380 0.592429
0.609915 0.593059 0.593096
0.611391 0.593335 0.593383
0.000000 0.000000 0.000000
0.000000 0.000000 0.000000
0.000000 0.000000 0.000000
0.000000 0.000000 0.000000
0.000097 0.000000 0.000000
0.042321 0.038093 0.037623
0.122842 0.117287 0.116790
0.233622 0.226735 0.226209
0.347248 0.339001 0.338480
0.450436 0.440840 0.440289
0.535604 0.524595 0.524011
0.598871 0.586486 0.585882
0.605716 0.591999 0.591413
0.607830 0.592845 0.592237
0.609679 0.593510 0.592917
0.611244 0.593738 0.593193
0.000000 0.000000 0.000000
0.000000 0.000000 0.000000
0.000000 0.000000 0.000000
0.000000 0.000000 0.000000
0.000153 0.000097 0.000000
0.041870 0.038711 0.037166
0.123328 0.118867 0.117278
0.233479 0.227677 0.226090
0.346020 0.338806 0.337195
0.449549 0.441102 0.439312
0.534920 0.525039 0.523328
0.598417 0.587204 0.585397
0.605230 0.592751 0.591050
0.607392 0.593662 0.591867
0.609351 0.594287 0.592606
0.610922 0.594653 0.592874
0.000000 0.000000 0.000000
0.000000 0.000000 0.000000
0.000000 0.000000 0.000000
0.000000 0.000000 0.000000
0.007444 0.006699 0.004046
0.044789 0.042727 0.040095
0.123620 0.120284 0.117564
0.235036 0.230403 0.227618
0.346907 0.340974 0.338123
0.448167 0.440888 0.437996
0.533439 0.524799 0.521868
0.597422 0.587455 0.584510
0.604545 0.593268 0.590324
0.606763 0.594252 0.591221
0.608682 0.594924 0.591920
0.610270 0.595254 0.592221
0.000000 0.000000 0.000000
0.000000 0.000000 0.000000
0.000000 0.000000 0.000000
0.000000 0.000000 0.000000
0.014668 0.014727 0.011234
0.059907 0.058894 0.055195
0.129856 0.127624 0.123782
0.236148 0.232669 0.228697
0.350204 0.345464 0.341467
0.451924 0.445897 0.441756
0.533878 0.526487 0.522294
0.595668 0.586966 0.582747
0.602273 0.592217 0.588004
0.604494 0.593207 0.588963
0.606648 0.594142 0.589883
0.608290 0.594485 0.590249
0.000000 0.000000 0.000000
0.000000 0.000000 0.000000
0.000000 0.000000 0.000000
0.000000 0.000000 0.000000
0.020777 0.021811 0.017086
0.072374 0.072457 0.067651
0.158523 0.157448 0.152427
0.257776 0.255458 0.250335
0.354099 0.350444 0.345133
0.456295 0.451260 0.445990
0.540633 0.534441 0.529078
0.604206 0.596717 0.591220
0.610443 0.601668 0.596149
0.610603 0.600555 0.595129
0.611359 0.600061 0.594659
0.612038 0.599420 0.594059
0.038021 0.043999 0.038071
0.038524 0.043972 0.038027
0.039539 0.043868 0.037920
0.040095 0.043282 0.037326
0.038647 0.040778 0.034793
0.083001 0.084187 0.078076
0.184220 0.184278 0.178090
0.307867 0.306766 0.300407
0.419169 0.416790 0.410437
0.508202 0.504527 0.498013
0.575189 0.570197 0.563587
0.625198 0.618962 0.612272
0.631348 0.623716 0.617117
0.631823 0.622965 0.616267
0.632231 0.622178 0.615529
0.631384 0.619927 0.613338
0.101331 0.108676 0.101371
0.101853 0.108671 0.101337
0.102925 0.108601 0.101296
0.103994 0.108528 0.101205
0.104143 0.107536 0.100197
0.097810 0.100141 0.092733
0.210012 0.211279 0.203745
0.338759 0.338813 0.331349
0.468787 0.467632 0.459920
0.586676 0.584260 0.576460
0.665764 0.661991 0.654084
0.723888 0.718707 0.710749
0.731241 0.725010 0.717178
0.729742 0.722058 0.713966
0.728416 0.719639 0.711663
0.726346 0.716121 0.708237
0.167060 0.175808 0.167111
0.167597 0.175798 0.167100
0.168702 0.175729 0.167049
0.169866 0.175728 0.166952
0.170849 0.175598 0.166843
0.169100 0.172620 0.163935
0.164183 0.166695 0.157636
0.392543 0.393959 0.384877
0.496348 0.496399 0.487523
0.614521 0.613293 0.604265
0.734103 0.731633 0.722381
0.800281 0.796586 0.787271
0.816789 0.811669 0.802540
0.815614 0.809078 0.799853
0.815077 0.807650 0.798292
0.813300 0.804462 0.795315
0.228014 0.238210 0.228061
0.228613 0.238182 0.228045
0.229738 0.238147 0.228032
0.230901 0.238126 0.227981
0.232041 0.238022 0.227927
0.232859 0.237652 0.227528
0.222705 0.226376 0.216185
0.319103 0.321661 0.311258
0.577554 0.578856 0.568555
0.634896 0.634928 0.624684
0.732906 0.731664 0.721171
0.842255 0.839872 0.829471
0.886315 0.882422 0.871935
0.884886 0.879971 0.869373
0.884983 0.878711 0.868130
0.883426 0.875850 0.865386
0.278633 0.290175 0.278689
0.279234 0.290167 0.278678
0.280417 0.290149 0.278657
0.281590 0.290109 0.278678
0.282768 0.290085 0.278626
0.283885 0.289970 0.278461
0.282419 0.287324 0.275793
0.266090 0.270000 0.258154
0.528698 0.531288 0.519518
0.735234 0.736376 0.724872
0.750888 0.750900 0.739262
0.821448 0.820210 0.808399
0.888628 0.886117 0.874247
0.892726 0.888862 0.877296
0.893406 0.888424 0.876592
0.894490 0.888137 0.876373
0.318240 0.331133 0.318283
0.318795 0.331122 0.318240
0.320010 0.331098 0.318223
0.321143 0.331062 0.318193
0.322335 0.331046 0.318173
0.323544 0.330955 0.318146
0.324357 0.330526 0.317755
0.313781 0.318827 0.305814
0.400549 0.404435 0.391200
0.728926 0.731544 0.718463
0.842175 0.843567 0.830535
0.840596 0.840582 0.827585
0.875400 0.874117 0.861168
0.897124 0.894595 0.881332
0.897382 0.893558 0.880507
0.898475 0.893266 0.880266
0.337095 0.351376 0.337161
0.337777 0.351377 0.337186
0.338936 0.351379 0.337187
0.340203 0.351382 0.337190
0.341448 0.351388 0.337194
0.342664 0.351401 0.337194
0.343890 0.351409 0.337201
0.341876 0.348128 0.333903
0.329255 0.334590 0.319828
0.679106 0.683029 0.668515
0.877305 0.880111 0.865616
0.892518 0.893830 0.879625
0.894089 0.894071 0.879786
0.898855 0.897831 0.883430
0.899677 0.897325 0.882909
0.901035 0.897250 0.882928
0.335679 0.351239 0.335739
0.336306 0.351239 0.335730
0.337449 0.351239 0.335730
0.338757 0.351239 0.335730
0.339984 0.351239 0.335730
0.341183 0.351239 0.335730
0.342430 0.351239 0.335730
0.343231 0.350701 0.335206
0.307010 0.313581 0.297522
0.624933 0.630190 0.614390
0.868512 0.872219 0.856675
0.891913 0.894400 0.879000
0.894988 0.896336 0.880579
0.898450 0.898434 0.882662
0.899907 0.898463 0.883106
0.900870 0.898324 0.883048
0.335647 0.352344 0.335687
0.336302 0.352344 0.335730
0.337438 0.352344 0.335730
0.338740 0.352344 0.335730
0.339967 0.352344 0.335730
0.341151 0.352344 0.335730
0.342389 0.352344 0.335730
0.343681 0.352342 0.335728
0.314425 0.322162 0.305036
0.585742 0.592215 0.575185
0.853507 0.858661 0.841909
0.892084 0.895984 0.879094
0.894424 0.896913 0.880053
0.897972 0.899205 0.882487
0.899925 0.899891 0.883104
0.900853 0.899702 0.883007
0.349499 0.368138 0.349533
0.350120 0.368107 0.349530
0.351250 0.368051 0.349484
0.352448 0.367931 0.349341
0.353522 0.367753 0.349146
0.353880 0.366994 0.348344
0.353094 0.365001 0.346231
0.349847 0.360865 0.341791
0.323656 0.334198 0.314272
0.564824 0.573674 0.554220
0.854947 0.862080 0.843196
0.910159 0.916218 0.897199
0.912524 0.917064 0.898123
0.916067 0.919406 0.900372
0.918015 0.920093 0.901278
0.919177 0.920092 0.901236
-0.134946 -0.140692 -0.134828
-0.134470 -0.140128 -0.134219
-0.132566 -0.138227 -0.132159
-0.128449 -0.134394 -0.128029
-0.116518 -0.123937 -0.116628
-0.065016 -0.083959 -0.069869
0.092482 0.080624 0.086780
0.226398 0.216625 0.219648
0.344422 0.333870 0.336219
0.437444 0.425165 0.427820
0.510139 0.495931 0.499146
0.570161 0.554552 0.557771
0.576429 0.559515 0.562716
0.578389 0.560123 0.563445
0.580356 0.560798 0.564096
0.581929 0.560997 0.564313
0.000000 0.000000 0.000000
0.000000 0.000000 0.000000
0.000000 0.000000 0.000000
0.000000 0.000000 0.000000
0.000482 0.000000 0.000097
0.043248 0.038877 0.038934
0.123916 0.118172 0.118222
0.234951 0.227890 0.227948
0.348598 0.340110 0.340187
0.451844 0.441874 0.441931
0.536855 0.525616 0.525649
0.599981 0.587412 0.587463
0.606797 0.592884 0.592937
0.608815 0.593542 0.593595
0.610666 0.594244 0.594295
0.612189 0.594592 0.594668
0.000000 0.000000 0.000000
0.000000 0.000000 0.000000
0.000000 0.000000 0.000000
0.000000 0.000000 0.000000
0.000153 0.000097 0.000000
0.042851 0.039666 0.038572
0.124269 0.119743 0.118617
0.234492 0.228641 0.227452
0.347349 0.340191 0.338966
0.450803 0.442349 0.441024
0.536112 0.526239 0.524978
0.599455 0.588205 0.586909
0.606337 0.593783 0.592573
0.608405 0.594636 0.593299
0.610330 0.595246 0.594043
0.611924 0.595571 0.594243
0.000000 0.000000 0.000000
0.000000 0.000000 0.000000
0.000000 0.000000 0.000000
0.000000 0.000000 0.000000
0.006597 0.005839 0.003595
0.044264 0.042172 0.039951
0.124585 0.121231 0.118937
0.236010 0.231384 0.228996
0.347869 0.341858 0.339464
0.449386 0.442077 0.439681
0.534759 0.526064 0.523594
0.598541 0.588551 0.586023
0.605763 0.594393 0.591876
0.607862 0.595271 0.592665
0.609746 0.595889 0.593322
0.611284 0.596214 0.593692
0.000000 0.000000 0.000000
0.000000 0.000000 0.000000
0.000000 0.000000 0.000000
0.000000 0.000000 0.000000
0.014213 0.014272 0.011182
0.059261 0.058273 0.054964
0.128985 0.126734 0.123316
0.237074 0.233579 0.230047
0.351241 0.346531 0.342949
0.452953 0.446821 0.443114
0.534900 0.527482 0.523735
0.596730 0.588004 0.584198
0.603368 0.593384 0.589575
0.605682 0.594372 0.590541
0.607838 0.595172 0.591421
0.609522 0.595644 0.591840
0.000000 0.000000 0.000000
0.000000 0.000000 0.000000
0.000000 0.000000 0.000000
0.000000 0.000000 0.000000
0.020035 0.021084 0.016757
0.071927 0.072009 0.067618
0.157971 0.156893 0.152288
0.256963 0.254644 0.249939
0.353771 0.350141 0.345408
0.456993 0.452150 0.447168
0.541859 0.535684 0.530741
0.605373 0.597824 0.592850
0.611297 0.602540 0.597536
0.611434 0.601333 0.596319
0.612078 0.600766 0.595724
0.612724 0.600166 0.595173
0.037759 0.043754 0.038370
0.038204 0.043777 0.038258
0.039301 0.043686 0.038146
0.039876 0.043088 0.037581
0.038392 0.040527 0.034954
0.082234 0.083444 0.077728
0.183849 0.183943 0.178170
0.307535 0.306366 0.300438
0.418351 0.416081 0.410100
0.507280 0.503608 0.497487
0.573835 0.568851 0.562653
0.623942 0.617682 0.611338
0.631177 0.623566 0.617337
0.631678 0.622849 0.616552
0.632223 0.622044 0.615788
0.631452 0.619994 0.613808
0.101153 0.108501 0.101753
0.101590 0.108550 0.101635
0.102722 0.108500 0.101564
0.103813 0.108400 0.101466
0.104025 0.107423 0.100524
0.097678 0.100039 0.093006
0.209076 0.210354 0.203236
0.338611 0.338665 0.331586
0.468608 0.467458 0.460111
0.586164 0.583735 0.576370
0.665056 0.661463 0.653954
0.723013 0.718030 0.710556
0.730463 0.724171 0.716565
0.728748 0.721164 0.713538
0.727520 0.718563 0.711023
0.725339 0.715115 0.707615
0.166925 0.175715 0.167564
0.167355 0.175753 0.167403
0.168571 0.175689 0.167372
0.169762 0.175624 0.167309
0.170757 0.175475 0.167202
0.169064 0.172605 0.164255
0.163825 0.166406 0.157749
0.391707 0.393031 0.384531
0.496278 0.496331 0.487848
0.614525 0.613222 0.604779
0.733869 0.731405 0.722559
0.799954 0.796142 0.787264
0.816257 0.811064 0.802278
0.814989 0.808666 0.799681
0.814310 0.806865 0.798162
0.812710 0.803657 0.794845
0.227957 0.238117 0.228604
0.228363 0.238134 0.228417
0.229614 0.238107 0.228399
0.230785 0.238051 0.228356
0.231941 0.237993 0.228257
0.232790 0.237605 0.227909
0.222772 0.226438 0.216660
0.317704 0.320306 0.310274
0.577022 0.578344 0.568470
0.634861 0.634886 0.625040
0.732878 0.731612 0.721703
0.842187 0.839749 0.829759
0.886169 0.882249 0.872245
0.884600 0.879441 0.869493
0.884394 0.878128 0.868136
0.883154 0.875622 0.865528
0.278635 0.290105 0.279247
0.279008 0.290131 0.279063
0.280285 0.290100 0.279053
0.281540 0.290107 0.279023
0.282694 0.290105 0.278949
0.283824 0.289944 0.278870
0.282408 0.287327 0.276225
0.266121 0.269979 0.258557
0.527275 0.529868 0.518575
0.734905 0.736338 0.725060
0.750793 0.750809 0.739678
0.821458 0.820196 0.808985
0.888655 0.886160 0.874693
0.892700 0.888842 0.877606
0.893393 0.888391 0.876834
0.894457 0.888070 0.876931
0.318199 0.331059 0.318860
0.318575 0.331074 0.318620
0.319890 0.331051 0.318653
0.321065 0.331034 0.318610
0.322327 0.330972 0.318560
0.323522 0.330963 0.318512
0.324345 0.330518 0.318095
0.313680 0.318707 0.306201
0.399360 0.403383 0.390552
0.728091 0.730704 0.718143
0.842311 0.843531 0.830875
0.840543 0.840547 0.828023
0.875335 0.874049 0.861510
0.897088 0.894640 0.881954
0.897345 0.893519 0.880926
0.898488 0.893209 0.880545
0.337137 0.351381 0.337805
0.337558 0.351381 0.337596
0.338827 0.351382 0.337587
0.340075 0.351385 0.337590
0.341358 0.351391 0.337596
0.342579 0.351403 0.337608
0.343910 0.351416 0.337619
0.341964 0.348208 0.334399
0.329152 0.334462 0.320201
0.677476 0.681405 0.667400
0.877140 0.879765 0.865884
0.892511 0.893777 0.879941
0.893994 0.893976 0.880036
0.898856 0.897833 0.883881
0.899673 0.897317 0.883376
0.901029 0.897224 0.883258
0.335665 0.351239 0.336339
0.336127 0.351239 0.336164
0.337415 0.351239 0.336172
0.338678 0.351239 0.336172
0.339969 0.351239 0.336172
0.341147 0.351239 0.336172
0.342496 0.351239 0.336172
0.343231 0.350715 0.335691
0.307267 0.313846 0.298272
0.622764 0.627983 0.612656
0.867987 0.871914 0.856437
0.891905 0.894416 0.879318
0.894990 0.896339 0.881234
0.898450 0.898435 0.883269
0.899908 0.898454 0.883453
0.900870 0.898318 0.883410
0.335665 0.352344 0.336334
0.336128 0.352344 0.336164
0.337406 0.352344 0.336172
0.338662 0.352344 0.336172
0.339926 0.352344 0.336172
0.341117 0.352344 0.336172
0.342437 0.352344 0.336172
0.343680 0.352344 0.336172
0.314785 0.322495 0.305876
0.583046 0.589648 0.573022
0.853007 0.858008 0.841567
0.892136 0.896013 0.879504
0.894423 0.896904 0.880502
0.897964 0.899198 0.882840
0.899925 0.899892 0.883464
0.900853 0.899619 0.883444
0.349520 0.368150 0.350193
0.349942 0.368116 0.349974
0.351231 0.368055 0.349941
0.352399 0.367931 0.349850
0.353461 0.367755 0.349603
0.353824 0.366992 0.348794
0.352947 0.364902 0.346577
0.349592 0.360601 0.342022
0.323528 0.334084 0.314592
0.562209 0.571079 0.552029
0.853930 0.861200 0.842382
0.909969 0.916145 0.897361
0.912348 0.916911 0.898303
0.915863 0.919161 0.900446
0.917782 0.919892 0.901433
0.918977 0.919888 0.901315
-0.135223 -0.140966 -0.135159
-0.134774 -0.140441 -0.134567
-0.132549 -0.138233 -0.132128
-0.128627 -0.134570 -0.128073
-0.116279 -0.123740 -0.116029
-0.056818 -0.078822 -0.060798
0.097454 0.085841 0.093070
0.230815 0.221078 0.225200
0.348811 0.338266 0.341788
0.441665 0.429365 0.433439
0.514426 0.500227 0.504664
0.574130 0.558483 0.563016
0.580370 0.563356 0.567949
0.582355 0.564122 0.568627
0.584208 0.564693 0.569294
0.585821 0.564966 0.569437
0.000000 0.000000 0.000000
0.000000 0.000000 0.000000
0.000000 0.000000 0.000000
0.000000 0.000000 0.000000
0.001756 0.000000 0.001120
0.046265 0.041930 0.043087
0.127597 0.121888 0.123107
0.239182 0.232098 0.233327
0.352918 0.344445 0.345678
0.455888 0.446060 0.447337
0.540803 0.529568 0.530891
0.603834 0.591278 0.592626
0.610570 0.596599 0.597893
0.612597 0.597374 0.598721
0.614407 0.597999 0.599365
0.615923 0.598309 0.599556
0.000000 0.000000 0.000000
0.000000 0.000000 0.000000
0.000000 0.000000 0.000000
0.000000 0.000000 0.000000
0.001951 0.000129 0.000263
0.045572 0.042181 0.042196
0.126878 0.122141 0.122155
0.237283 0.231194 0.231205
0.350824 0.343419 0.343428
0.454201 0.445320 0.445329
0.539162 0.528906 0.528919
0.602435 0.590822 0.590834
0.609084 0.596179 0.596193
0.611025 0.596825 0.596836
0.613003 0.597618 0.597628
0.614591 0.597828 0.597864
0.000000 0.000000 0.000000
0.000000 0.000000 0.000000
0.000000 0.000000 0.000000
0.000000 0.000000 0.000000
0.004357 0.003562 0.002252
0.045321 0.043181 0.041968
0.127478 0.124018 0.122781
0.238726 0.233959 0.232679
0.350472 0.344354 0.343038
0.452760 0.445182 0.443938
0.537971 0.529141 0.527739
0.601618 0.591445 0.589979
0.608493 0.597070 0.595677
0.610526 0.597797 0.596327
0.612470 0.598378 0.597020
0.614052 0.598811 0.597403
0.000000 0.000000 0.000000
0.000000 0.000000 0.000000
0.000000 0.000000 0.000000
0.000000 0.000000 0.000000
0.012087 0.012148 0.009962
0.057049 0.056035 0.053668
0.128524 0.126257 0.123811
0.239977 0.236437 0.233902
0.354248 0.349381 0.346746
0.455515 0.449443 0.446719
0.537117 0.529603 0.526930
0.599482 0.590680 0.587961
0.606608 0.596397 0.593603
0.608683 0.597299 0.594537
0.610676 0.598007 0.595293
0.612372 0.598399 0.595678
0.000000 0.000000 0.000000
0.000000 0.000000 0.000000
0.000000 0.000000 0.000000
0.000000 0.000000 0.000000
0.017746 0.018824 0.015442
0.071141 0.071227 0.067764
0.156217 0.155139 0.151527
0.254361 0.252005 0.248266
0.354309 0.350628 0.346858
0.459795 0.454676 0.450768
0.545045 0.538787 0.534812
0.607805 0.600275 0.596331
0.613293 0.604348 0.600384
0.613070 0.602886 0.598899
0.613520 0.602132 0.598161
0.614147 0.601513 0.597463
0.037111 0.043094 0.038790
0.037512 0.043088 0.038741
0.038505 0.043135 0.038517
0.039245 0.042611 0.037975
0.037761 0.039981 0.035339
0.079792 0.081013 0.076250
0.183212 0.183298 0.178500
0.306374 0.305242 0.300342
0.415880 0.413410 0.408503
0.503974 0.500258 0.495143
0.568761 0.563802 0.558583
0.621118 0.614772 0.609547
0.629961 0.622214 0.616906
0.630871 0.621989 0.616618
0.631434 0.621251 0.616085
0.631113 0.619663 0.614378
0.100805 0.108152 0.102473
0.101212 0.108158 0.102423
0.102180 0.108194 0.102193
0.103414 0.108087 0.102122
0.103714 0.107167 0.101215
0.097309 0.099701 0.093632
0.205719 0.207010 0.200851
0.338255 0.338314 0.332183
0.468208 0.467030 0.460773
0.584555 0.582108 0.575746
0.662764 0.658984 0.652450
0.720424 0.715293 0.708849
0.727273 0.720847 0.714192
0.725047 0.717455 0.710788
0.723946 0.714951 0.708415
0.721533 0.711197 0.704623
0.166687 0.175474 0.168422
0.167090 0.175467 0.168355
0.168129 0.175522 0.168143
0.169415 0.175430 0.168069
0.170483 0.175330 0.167954
0.168946 0.172491 0.165142
0.162826 0.165382 0.157753
0.389026 0.390338 0.382803
0.496042 0.496066 0.488592
0.614536 0.613398 0.605724
0.732880 0.730385 0.722381
0.798266 0.794673 0.786617
0.814176 0.809149 0.801388
0.812890 0.806534 0.798684
0.812240 0.804686 0.796807
0.810223 0.801409 0.793582
0.227798 0.237936 0.229541
0.228200 0.237940 0.229489
0.229200 0.237965 0.229192
0.230558 0.237927 0.229166
0.231747 0.237849 0.229093
0.232634 0.237490 0.228753
0.222931 0.226648 0.217815
0.313299 0.315871 0.306881
0.575381 0.576692 0.567750
0.634746 0.634769 0.625855
0.732983 0.731628 0.722839
0.842181 0.839406 0.830413
0.885113 0.881419 0.872249
0.883431 0.878254 0.869234
0.883268 0.876834 0.867748
0.881738 0.874161 0.864973
0.278486 0.290044 0.280235
0.278873 0.290046 0.280226
0.279885 0.290095 0.279897
0.281251 0.290042 0.279888
0.282517 0.289960 0.279826
0.283671 0.289841 0.279712
0.282370 0.287344 0.277176
0.266077 0.270006 0.259575
0.522010 0.524622 0.514252
0.734196 0.735561 0.725218
0.750654 0.750664 0.740438
0.821601 0.820314 0.809967
0.888757 0.886280 0.875689
0.892736 0.889003 0.878452
0.893296 0.888367 0.878046
0.894415 0.887998 0.877834
0.318171 0.330972 0.319918
0.318532 0.330978 0.319835
0.319482 0.330967 0.319494
0.320907 0.330971 0.319484
0.322178 0.330955 0.319533
0.323373 0.330875 0.319361
0.324302 0.330543 0.319065
0.313546 0.318593 0.307010
0.395139 0.399012 0.387123
0.725214 0.727816 0.716043
0.842146 0.843564 0.831861
0.840258 0.840265 0.828906
0.875384 0.874014 0.862597
0.897048 0.894536 0.882881
0.897287 0.893424 0.881732
0.898351 0.893057 0.881472
0.337143 0.351394 0.338945
0.337595 0.351393 0.338899
0.338519 0.351392 0.338553
0.339985 0.351394 0.338562
0.341325 0.351399 0.338565
0.342603 0.351408 0.338575
0.343887 0.351429 0.338597
0.342040 0.348306 0.335470
0.328614 0.334035 0.320664
0.672306 0.676120 0.663167
0.876146 0.878617 0.865697
0.892601 0.893703 0.880990
0.893858 0.893851 0.881082
0.898848 0.897816 0.884703
0.899677 0.897302 0.884185
0.901000 0.897181 0.884136
0.335665 0.351239 0.337447
0.336155 0.351239 0.337444
0.337038 0.351239 0.337052
0.338555 0.351239 0.337090
0.339871 0.351239 0.337090
0.341152 0.351239 0.337090
0.342400 0.351239 0.337090
0.343179 0.350707 0.336619
0.308409 0.315026 0.300430
0.615311 0.620608 0.606255
0.865981 0.869696 0.855334
0.892026 0.894469 0.880316
0.894956 0.896393 0.882116
0.898451 0.898438 0.884211
0.899905 0.898450 0.884399
0.900871 0.898304 0.884358
0.335665 0.352344 0.337436
0.336155 0.352344 0.337435
0.337038 0.352344 0.337052
0.338524 0.352344 0.337090
0.339859 0.352344 0.337090
0.341124 0.352344 0.337090
0.342383 0.352344 0.337090
0.343632 0.352344 0.337090
0.315998 0.323791 0.308062
0.574174 0.580666 0.565082
0.850243 0.855455 0.839921
0.892130 0.895983 0.880566
0.894409 0.896945 0.881521
0.898012 0.899168 0.883728
0.899926 0.899894 0.884399
0.900853 0.899693 0.884315
0.349534 0.368088 0.351353
0.350007 0.368138 0.351322
0.350840 0.368039 0.350848
0.352284 0.367936 0.350799
0.353298 0.367760 0.350471
0.353832 0.366968 0.349695
0.352724 0.364732 0.347348
0.349213 0.360324 0.342572
0.323930 0.334565 0.315920
0.551859 0.560847 0.542617
0.850496 0.858018 0.840088
0.909745 0.915932 0.898031
0.911990 0.916807 0.898844
0.915642 0.918989 0.901327
0.917566 0.919701 0.902083
0.918845 0.919704 0.902035
-0.135624 -0.141347 -0.135778
-0.135496 -0.141150 -0.135524
-0.132953 -0.138671 -0.132702
-0.128101 -0.134154 -0.127595
-0.117313 -0.124689 -0.116823
-0.055792 -0.078200 -0.057829
0.104017 0.092706 0.100860
0.236995 0.227335 0.232553
0.355232 0.344748 0.349492
0.448779 0.436468 0.441603
0.521363 0.507235 0.512879
0.580789 0.565167 0.570949
0.586796 0.569849 0.575669
0.588718 0.570512 0.576262
0.590547 0.571084 0.576810
0.591993 0.571310 0.577000
0.000000 0.000000 0.000000
0.000000 0.000000 0.000000
0.000000 0.000000 0.000000
0.000000 0.000000 0.000000
0.000000 0.000000 0.000000
0.046251 0.041885 0.044200
0.132611 0.126916 0.129254
0.244756 0.237678 0.240088
0.358635 0.350103 0.352589
0.461669 0.451918 0.454361
0.546482 0.535353 0.537866
0.609524 0.596915 0.599482
0.616116 0.602205 0.604780
0.618115 0.602893 0.605500
0.619955 0.603539 0.606107
0.621392 0.603635 0.606295
0.000000 0.000000 0.000000
0.000000 0.000000 0.000000
0.000000 0.000000 0.000000
0.000000 0.000000 0.000000
0.001946 0.000129 0.001496
0.049053 0.045665 0.046907
0.131762 0.127002 0.128306
0.243033 0.236934 0.238250
0.356989 0.349583 0.350933
0.460299 0.451354 0.452753
0.545085 0.534892 0.536315
0.608213 0.596704 0.598077
0.614916 0.602075 0.603465
0.616816 0.602692 0.604141
0.618745 0.603263 0.604778
0.620133 0.603491 0.604891
0.000000 0.000000 0.000000
0.000000 0.000000 0.000000
0.000000 0.000000 0.000000
0.000000 0.000000 0.000000
0.004630 0.003580 0.003598
0.049242 0.046947 0.046954
0.131766 0.128135 0.128140
0.242510 0.237513 0.237517
0.354406 0.348040 0.348027
0.457533 0.449702 0.449705
0.542557 0.533476 0.533477
0.605976 0.595463 0.595464
0.612789 0.600945 0.600948
0.614622 0.601617 0.601620
0.616570 0.602208 0.602210
0.618122 0.602450 0.602457
0.000000 0.000000 0.000000
0.000000 0.000000 0.000000
0.000000 0.000000 0.000000
0.000000 0.000000 0.000000
0.009732 0.009803 0.008679
0.053575 0.052514 0.051317
0.130832 0.128522 0.127225
0.244814 0.241195 0.239878
0.358330 0.353282 0.351916
0.458658 0.452551 0.451094
0.540171 0.532499 0.531096
0.603856 0.594778 0.593348
0.611171 0.600888 0.599444
0.613344 0.601754 0.600193
0.615307 0.602463 0.601024
0.616911 0.602854 0.601373
0.000000 0.001895 0.001472
0.000000 0.001801 0.001352
0.000000 0.001179 0.000759
0.000000 0.001114 0.000189
0.016449 0.017603 0.015286
0.069202 0.069298 0.066924
0.152817 0.151658 0.149162
0.251538 0.249172 0.246583
0.359475 0.355750 0.353124
0.464479 0.459494 0.456736
0.549123 0.542758 0.540052
0.610917 0.603203 0.600413
0.615556 0.606600 0.603739
0.614880 0.604629 0.601824
0.615133 0.603624 0.600932
0.615669 0.602877 0.600106
0.038770 0.044754 0.041582
0.039051 0.044633 0.041413
0.039521 0.044141 0.040818
0.039626 0.043165 0.039637
0.039845 0.042169 0.038587
0.074868 0.076138 0.072463
0.182599 0.182673 0.179029
0.304221 0.303059 0.299192
0.410890 0.408458 0.404540
0.498286 0.494544 0.490575
0.563182 0.558133 0.554061
0.619328 0.612872 0.608850
0.629159 0.621411 0.617331
0.630349 0.621365 0.617342
0.631394 0.621099 0.617094
0.632341 0.620805 0.616692
0.100076 0.107413 0.102873
0.100492 0.107426 0.102884
0.101488 0.107458 0.102789
0.102632 0.107544 0.102636
0.103121 0.106691 0.101812
0.096752 0.099188 0.094236
