assets/luts/LUTs/BLACKOUT.CUBE
LUT_3D_SIZE 6
0.000000 0.000000 0.000000
0.000000 0.000000 0.000000
0.123305 0.117183 0.117230
0.450672 0.440504 0.440557
0.605819 0.591533 0.591581
0.611391 0.593335 0.593383
0.000000 0.000000 0.000000
0.000000 0.000000 0.000000
0.123620 0.120284 0.117564
0.448167 0.440888 0.437996
0.604545 0.593268 0.590324
0.610270 0.595254 0.592221
0.038021 0.043999 0.038071
0.040095 0.043282 0.037326
0.184220 0.184278 0.178090
0.508202 0.504527 0.498013
0.631348 0.623716 0.617117
0.631384 0.619927 0.613338
0.228014 0.238210 0.228061
0.230901 0.238126 0.227981
0.222705 0.226376 0.216185
0.634896 0.634928 0.624684
0.886315 0.882422 0.871935
0.883426 0.875850 0.865386
0.337095 0.351376 0.337161
0.340203 0.351382 0.337190
0.343890 0.351409 0.337201
0.679106 0.683029 0.668515
0.894089 0.894071 0.879786
0.901035 0.897250 0.882928
0.349499 0.368138 0.349533
0.352448 0.367931 0.349341
0.353094 0.365001 0.346231
0.564824 0.573674 0.554220
0.912524 0.917064 0.898123
0.919177 0.920092 0.901236
-0.135624 -0.141347 -0.135778
-0.128101 -0.134154 -0.127595
0.104017 0.092706 0.100860
0.448779 0.436468 0.441603
0.586796 0.569849 0.575669
0.591993 0.571310 0.577000
0.000000 0.000000 0.000000
0.000000 0.000000 0.000000
0.131766 0.128135 0.128140
0.457533 0.449702 0.449705
0.612789 0.600945 0.600948
0.618122 0.602450 0.602457
0.038770 0.044754 0.041582
0.039626 0.043165 0.039637
0.182599 0.182673 0.179029
0.498286 0.494544 0.490575
0.629159 0.621411 0.617331
0.632341 0.620805 0.616692
0.227489 0.237663 0.230420
0.230047 0.237758 0.230051
0.223241 0.227019 0.219289
0.634554 0.634557 0.626885
0.883607 0.879902 0.871876
0.879417 0.871768 0.863924
0.337162 0.351409 0.340206
0.339676 0.351404 0.339674
0.343716 0.351397 0.339689
0.663574 0.667532 0.655685
0.893707 0.893693 0.882088
0.900962 0.897095 0.885320
0.349536 0.368092 0.352666
0.351938 0.367952 0.351931
0.352443 0.364625 0.348345
0.535032 0.544092 0.526977
0.911344 0.916273 0.899408
0.918262 0.919142 0.902753
-0.134825 -0.140590 -0.135500
-0.134628 -0.140115 -0.134866
0.114384 0.103497 0.114791
0.466989 0.454983 0.463555
0.614593 0.597814 0.607221
0.617185 0.596566 0.606057
0.000000 0.000000 0.000000
0.000000 0.000000 0.000000
0.138371 0.134756 0.138494
0.476097 0.468416 0.472376
0.642588 0.630872 0.634926
0.645603 0.630078 0.634165
0.064414 0.070452 0.070564
0.066644 0.070202 0.070325
0.166821 0.166912 0.166937
0.521628 0.517581 0.517605
0.675241 0.667127 0.667141
0.674026 0.662307 0.662311
0.256001 0.266149 0.262543
0.255317 0.263029 0.259299
0.244276 0.248315 0.244306
0.641933 0.641968 0.637821
0.872576 0.868514 0.864402
0.866326 0.858293 0.854384
0.339274 0.353434 0.346007
0.339495 0.351233 0.343633
0.343177 0.351240 0.343173
0.621229 0.625442 0.617167
0.891336 0.891355 0.883411
0.900629 0.896905 0.888936
0.349493 0.368110 0.356433
0.352109 0.368092 0.356232
0.351805 0.364363 0.351772
0.471105 0.480568 0.466983
0.910734 0.915752 0.902741
0.918126 0.919028 0.906255
-0.159441 -0.165287 -0.160496
-0.158624 -0.164215 -0.159345
-0.129988 -0.139959 -0.127617
0.508382 0.496574 0.508559
0.602676 0.585659 0.598975
0.605179 0.584229 0.597625
0.000000 0.000000 0.000000
0.000000 0.000000 0.000000
0.000000 0.000000 0.000000
0.512725 0.504932 0.512765
0.634426 0.622668 0.630605
0.638099 0.622460 0.630372
-0.014523 0.000000 0.000000
0.000000 0.000000 0.000000
-0.059951 -0.059417 -0.055835
0.502103 0.498089 0.502109
0.631373 0.623254 0.627445
0.635510 0.623653 0.627616
0.329909 0.340046 0.340085
0.332589 0.340244 0.340288
0.333724 0.337748 0.337783
0.631707 0.631748 0.631770
0.856439 0.852301 0.852253
0.856938 0.849026 0.849047
0.454713 0.468877 0.465129
0.456020 0.467726 0.464045
0.456828 0.464856 0.460941
0.640596 0.644629 0.640660
0.935750 0.935739 0.931890
0.959270 0.955237 0.951376
0.471934 0.490492 0.482649
0.472656 0.488571 0.480577
0.471372 0.483631 0.475369
0.574155 0.583388 0.574123
0.970545 0.975496 0.966577
0.976280 0.977179 0.968373
-0.186060 -0.191943 -0.187571
-0.186155 -0.191755 -0.187366
-0.185843 -0.191213 -0.186057
0.575582 0.563417 0.579526
0.701378 0.685037 0.701562
0.698182 0.677645 0.694478
0.000000 0.000000 0.000000
0.000000 0.000000 0.000000
0.000000 0.000000 0.000000
0.573192 0.565233 0.577123
0.721879 0.709985 0.721878
0.724030 0.708480 0.720086
0.000000 0.000000 0.000000
0.000000 0.000000 0.000000
0.000000 0.000000 0.000000
0.540819 0.536747 0.544810
0.721388 0.713288 0.721399
0.722287 0.710746 0.718336
0.258757 0.269368 0.273308
0.250624 0.258658 0.262655
0.226696 0.230795 0.235023
0.513343 0.513418 0.517493
0.849845 0.845726 0.849866
0.850653 0.842829 0.846586
0.497942 0.512227 0.512241
0.500485 0.512255 0.512270
0.504078 0.512181 0.512194
0.647521 0.651637 0.651634
0.928458 0.928468 0.928479
0.972172 0.968410 0.968426
0.536944 0.555593 0.551536
0.539305 0.555313 0.551321
0.542255 0.554579 0.550416
0.589312 0.598622 0.593248
0.954455 0.959223 0.954370
1.006336 1.007217 1.002817
-0.194056 -0.199941 -0.196130
-0.194336 -0.199934 -0.196128
-0.195327 -0.200420 -0.196290
0.555034 0.542764 0.562791
0.713390 0.697085 0.717335
0.711410 0.690842 0.711405
0.000000 0.000000 0.000000
0.000000 0.000000 0.000000
0.000000 0.000000 0.000000
0.548936 0.541035 0.556582
0.733979 0.722214 0.737714
0.736454 0.720822 0.736273
0.000000 0.000000 0.000000
0.000000 0.000000 0.000000
0.000000 0.000000 0.000000
0.499978 0.495991 0.507839
0.734471 0.726449 0.738274
0.736457 0.724512 0.736274
0.181134 0.191977 0.199895
0.169406 0.177572 0.185588
0.140418 0.144578 0.152940
0.474090 0.474127 0.481958
0.847193 0.843424 0.851165
0.851232 0.843546 0.851158
0.503846 0.518068 0.521838
0.505948 0.517612 0.521373
0.508506 0.516421 0.520257
0.643091 0.647088 0.650894
0.912919 0.912940 0.916653
0.977078 0.973313 0.976938
0.530884 0.548856 0.548773
0.533363 0.548867 0.548783
0.537126 0.548938 0.548797
0.588808 0.596699 0.596572
0.949012 0.952985 0.952922
0.990135 0.990153 0.989935
