assets/luts/LUTs/BOOM.CUBE
LUT_3D_SIZE 6
0.000000 0.000000 0.000000
0.070079 -0.000881 -0.000881
0.313286 -0.002062 -0.002062
0.722292 -0.003366 -0.003366
0.930538 -0.004544 -0.004544
1.000038 -0.005419 -0.005419
-0.001460 0.070078 -0.001460
0.070078 0.070078 -0.001628
0.313284 0.156634 -0.002535
0.722292 0.240767 -0.003684
0.930538 0.232631 -0.004769
1.000034 0.199984 -0.005579
-0.003421 0.313281 -0.003421
0.156638 0.313281 -0.003503
0.313279 0.313279 -0.003812
0.722289 0.481535 -0.004731
0.930537 0.465298 -0.005580
1.000033 0.399997 -0.006188
-0.005577 0.722287 -0.005577
0.240755 0.722287 -0.005629
0.481531 0.722286 -0.005833
0.722284 0.722284 -0.006217
0.930536 0.697970 -0.006867
1.000032 0.600015 -0.007224
-0.007538 0.930535 -0.007538
0.232629 0.930535 -0.007566
0.465290 0.930535 -0.007705
0.697967 0.930534 -0.007975
0.930534 0.930534 -0.008390
1.000030 0.799987 -0.008536
-0.008991 1.000029 -0.008991
0.199940 1.000029 -0.009020
0.399979 1.000029 -0.009106
0.600010 1.000029 -0.009310
0.799985 1.000029 -0.009613
1.000029 1.000029 -0.010027
-0.000562 -0.000562 0.070079
0.070078 -0.000995 0.070078
0.313286 -0.002120 0.156635
0.722292 -0.003400 0.240768
0.930538 -0.004567 0.232633
1.000038 -0.005436 0.199985
-0.001522 0.070078 0.070078
0.070078 0.070078 0.070078
0.387609 0.040072 0.040072
0.767771 0.020312 0.020312
0.942872 0.015564 0.015564
1.000038 0.064264 0.064264
-0.003452 0.313281 0.156631
0.021082 0.326069 0.021082
0.316568 0.316568 0.018839
0.739363 0.465816 0.015812
0.937700 0.436215 0.014757
1.000033 0.371799 0.064259
-0.005594 0.722287 0.240755
0.014904 0.728141 0.014904
0.457646 0.726364 0.014868
0.723620 0.723620 0.014911
0.933425 0.689175 0.015062
1.000032 0.587768 0.064252
-0.007543 0.930535 0.232629
0.015629 0.932018 0.015629
0.433473 0.931781 0.015767
0.687736 0.931417 0.016051
0.930861 0.930861 0.016512
1.000030 0.795195 0.064179
-0.008995 1.000029 0.199940
0.064035 1.000029 0.064035
0.371772 1.000029 0.064034
0.587760 1.000029 0.064031
0.795192 1.000029 0.064031
1.000030 1.000030 0.064025
-0.001316 -0.001316 0.313287
0.156636 -0.001583 0.313287
0.313285 -0.002331 0.313285
0.722292 -0.003539 0.481538
0.930538 -0.004662 0.465300
1.000038 -0.005507 0.400000
-0.002043 0.156636 0.313286
0.057072 0.057072 0.414582
0.372265 0.034107 0.372265
0.762859 0.019380 0.480616
0.942116 0.015409 0.438277
1.000034 0.064247 0.371798
-0.003559 0.313281 0.313281
0.020180 0.322352 0.322352
0.313279 0.313279 0.313279
0.808858 0.242619 0.242619
0.976318 0.148672 0.148672
1.000034 0.289158 0.289158
-0.005666 0.722287 0.481532
0.014887 0.727517 0.458391
0.122341 0.753693 0.122341
0.731903 0.731903 0.100877
0.952604 0.641068 0.080667
1.000032 0.557286 0.289147
-0.007591 0.930535 0.465291
0.015675 0.931933 0.433521
0.061062 0.940405 0.061062
0.630110 0.937193 0.057190
0.932875 0.932875 0.052541
1.000030 0.783719 0.288287
-0.009030 1.000029 0.399980
0.064035 1.000030 0.371772
0.281685 1.000029 0.281685
0.554969 1.000029 0.281682
0.782954 1.000029 0.281678
1.000029 1.000029 0.281671
-0.002146 -0.002146 0.722294
0.240771 -0.002323 0.722294
0.481539 -0.002931 0.722293
0.722292 -0.003798 0.722292
0.930538 -0.004856 0.697973
1.000034 -0.005645 0.600018
-0.002680 0.240770 0.722293
0.035363 0.035363 0.824263
0.496625 0.024655 0.788185
0.754919 0.017986 0.754919
0.940840 0.015154 0.694722
1.000034 0.064207 0.587767
-0.004101 0.481537 0.722291
0.017498 0.473694 0.751813
0.275280 0.275280 0.822285
0.803879 0.210800 0.803879
0.973689 0.134489 0.657809
1.000033 0.287765 0.556875
-0.005803 0.722286 0.722286
0.014868 0.726365 0.726365
0.114006 0.745893 0.745893
0.722284 0.722284 0.722284
0.963860 0.671185 0.671185
1.000032 0.711435 0.711435
-0.007696 0.930535 0.697968
0.015771 0.931770 0.688017
0.059643 0.939243 0.631555
0.507677 0.945123 0.507677
0.935235 0.935235 0.444712
1.000030 0.847504 0.711427
-0.009100 1.000029 0.600011
0.064034 1.000029 0.587760
0.281684 1.000030 0.554970
0.694711 1.000029 0.694711
0.839912 1.000029 0.694709
1.000029 1.000029 0.694707
-0.002899 -0.002899 0.930539
0.232642 -0.003020 0.930539
0.465282 -0.003488 0.930539
0.697973 -0.004231 0.930538
0.930538 -0.005131 0.930538
1.000034 -0.005842 0.799991
-0.003292 0.232641 0.930539
0.023258 0.023258 0.964397
0.444470 0.019411 0.955321
0.698385 0.016282 0.945870
0.939165 0.014892 0.939165
1.000034 0.064149 0.795197
-0.004498 0.465301 0.930538
0.016020 0.439516 0.944783
0.242043 0.242043 0.980154
0.665106 0.186040 0.978087
0.969105 0.117093 0.969105
1.000033 0.285304 0.783335
-0.006098 0.697971 0.930537
0.014723 0.690697 0.935469
0.101239 0.649048 0.963252
0.688298 0.688298 0.968817
0.962285 0.635792 0.962285
1.000031 0.705473 0.844768
-0.007839 0.930535 0.930535
0.015922 0.931570 0.931570
0.057603 0.937493 0.937493
0.485573 0.941832 0.941832
0.930533 0.930533 0.930533
1.000029 0.930018 0.930018
-0.009207 1.000029 0.799986
0.064032 1.000029 0.795192
0.281683 1.000029 0.782955
0.694710 1.000029 0.839912
0.926956 1.000029 0.926956
1.000029 1.000029 0.926955
-0.003457 -0.003457 1.000001
0.199997 -0.003543 1.000001
0.400005 -0.003888 1.000001
0.600019 -0.004488 1.000000
0.799992 -0.005247 1.000038
1.000033 -0.006125 1.000033
-0.003738 0.199996 1.000001
0.064070 0.064070 1.000001
0.371779 0.064069 1.000000
0.587763 0.064070 1.000000
0.795196 0.064065 1.000038
1.000033 0.064059 1.000033
-0.004706 0.400003 1.000000
0.064070 0.371778 1.000000
0.281729 0.281729 1.000000
0.554987 0.281726 1.000038
0.782962 0.281722 1.000034
1.000033 0.281715 1.000033
-0.006098 0.600017 1.000034
0.064060 0.587763 1.000033
0.281719 0.554984 1.000034
0.694722 0.694722 1.000033
0.839918 0.694720 1.000032
1.000031 0.694718 1.000031
-0.007681 0.799988 1.000031
0.064045 0.795193 1.000031
0.281703 0.782958 1.000031
0.694717 0.839916 1.000031
0.926958 0.926958 1.000029
1.000029 0.926957 1.000029
-0.009351 1.000029 1.000029
0.064034 1.000029 1.000029
0.281680 1.000029 1.000029
0.694709 1.000029 1.000029
0.926956 1.000029 1.000029
1.000029 1.000029 1.000029
