assets/luts/LUTs/BOOM.CUBE
LUT_3D_SIZE 16
0.000000 0.000000 0.000000
0.014623 -0.000229 -0.000229
0.036948 -0.000536 -0.000536
0.070079 -0.000881 -0.000881
0.121317 -0.001255 -0.001255
0.200365 -0.001651 -0.001651
0.313286 -0.002062 -0.002062
0.450361 -0.002494 -0.002494
0.594801 -0.002933 -0.002933
0.722292 -0.003366 -0.003366
0.818533 -0.003779 -0.003779
0.885108 -0.004176 -0.004176
0.930538 -0.004544 -0.004544
0.962211 -0.004896 -0.004896
0.984889 -0.005201 -0.005201
1.000038 -0.005419 -0.005419
-0.000379 0.014623 -0.000379
0.014623 0.014623 -0.000423
0.036948 0.018474 -0.000658
0.070078 0.023362 -0.000964
0.121317 0.030328 -0.001316
0.200365 0.040071 -0.001699
0.313286 0.052213 -0.002103
0.450361 0.064332 -0.002524
0.594801 0.074337 -0.002964
0.722292 0.080241 -0.003387
0.818533 0.081827 -0.003797
0.885108 0.080425 -0.004192
0.930538 0.077505 -0.004564
0.962211 0.073956 -0.004903
0.984889 0.070294 -0.005208
1.000038 0.066602 -0.005434
-0.000888 0.036948 -0.000888
0.018474 0.036948 -0.000909
0.036948 0.036948 -0.000990
0.070078 0.046723 -0.001241
0.121317 0.060659 -0.001542
0.200365 0.080143 -0.001881
0.313285 0.104429 -0.002260
0.450361 0.128676 -0.002662
0.594801 0.148693 -0.003079
0.722292 0.160514 -0.003489
0.818533 0.163686 -0.003886
0.885108 0.160907 -0.004270
0.930538 0.155085 -0.004633
0.962211 0.147998 -0.004966
0.984889 0.140684 -0.005264
1.000038 0.133307 -0.005485
-0.001460 0.070078 -0.001460
0.023360 0.070078 -0.001474
0.046722 0.070078 -0.001529
0.070078 0.070078 -0.001628
0.121316 0.090986 -0.001892
0.200376 0.120212 -0.002197
0.313284 0.156634 -0.002535
0.450360 0.193019 -0.002901
0.594800 0.223038 -0.003294
0.722292 0.240767 -0.003684
0.818532 0.245550 -0.004057
0.885108 0.241360 -0.004421
0.930538 0.232631 -0.004769
0.962211 0.222000 -0.005088
0.984889 0.211039 -0.005376
1.000034 0.199984 -0.005579
-0.002079 0.121316 -0.002079
0.030327 0.121316 -0.002088
0.060657 0.121315 -0.002129
0.090985 0.121315 -0.002204
0.121315 0.121315 -0.002316
0.200375 0.160287 -0.002599
0.313283 0.208857 -0.002902
0.450359 0.257360 -0.003245
0.594800 0.297394 -0.003605
0.722291 0.321036 -0.003960
0.818532 0.327401 -0.004310
0.885107 0.321840 -0.004654
0.930538 0.310176 -0.004969
0.962211 0.296028 -0.005280
0.984889 0.281397 -0.005542
1.000034 0.266650 -0.005732
-0.002737 0.200375 -0.002737
0.040066 0.200375 -0.002740
0.080143 0.200375 -0.002773
0.120210 0.200375 -0.002832
0.160286 0.200374 -0.002923
0.200374 0.200374 -0.003049
0.313282 0.261068 -0.003335
0.450358 0.321702 -0.003654
0.594799 0.371693 -0.003987
0.722290 0.401273 -0.004320
0.818532 0.409273 -0.004637
0.885107 0.402284 -0.004947
0.930538 0.387724 -0.005246
0.962211 0.370003 -0.005525
0.984889 0.351755 -0.005768
1.000034 0.333321 -0.005934
-0.003421 0.313281 -0.003421
0.052197 0.313281 -0.003424
0.104426 0.313281 -0.003453
0.156638 0.313281 -0.003503
0.208855 0.313281 -0.003575
0.261066 0.313280 -0.003684
0.313279 0.313279 -0.003812
0.450357 0.386043 -0.004112
0.594798 0.446068 -0.004425
0.722289 0.481535 -0.004731
0.818531 0.491120 -0.005027
0.885107 0.482738 -0.005317
0.930537 0.465298 -0.005580
0.962210 0.444036 -0.005835
0.984889 0.422108 -0.006057
1.000033 0.399997 -0.006188
-0.004136 0.450357 -0.004136
0.064309 0.450357 -0.004139
0.128663 0.450357 -0.004162
0.193013 0.450357 -0.004202
0.257356 0.450356 -0.004267
0.321700 0.450356 -0.004350
0.386042 0.450356 -0.004469
0.450355 0.450355 -0.004610
0.594796 0.520431 -0.004906
0.722288 0.561782 -0.005202
0.818530 0.572966 -0.005469
0.885106 0.563193 -0.005730
0.930537 0.542839 -0.005968
0.962210 0.518045 -0.006190
0.984888 0.492440 -0.006390
1.000033 0.466621 -0.006488
-0.004861 0.594797 -0.004861
0.074294 0.594796 -0.004873
0.148684 0.594796 -0.004883
0.223025 0.594796 -0.004922
0.297387 0.594796 -0.004980
0.371722 0.594796 -0.005050
0.446065 0.594796 -0.005150
0.520429 0.594795 -0.005280
0.594795 0.594795 -0.005418
0.722286 0.642073 -0.005697
0.818530 0.654815 -0.005940
0.885105 0.643708 -0.006184
0.930536 0.620441 -0.006398
0.962210 0.592055 -0.006596
0.984888 0.562814 -0.006761
1.000033 0.533310 -0.006840
-0.005577 0.722287 -0.005577
0.080183 0.722287 -0.005579
0.160490 0.722287 -0.005595
0.240755 0.722287 -0.005629
0.321029 0.722286 -0.005679
0.401266 0.722286 -0.005739
0.481531 0.722286 -0.005833
0.561780 0.722286 -0.005936
0.642072 0.722285 -0.006065
0.722284 0.722284 -0.006217
0.818529 0.736719 -0.006453
0.885105 0.724137 -0.006660
0.930536 0.697970 -0.006867
0.962210 0.666091 -0.007031
0.984888 0.633217 -0.007175
1.000032 0.600015 -0.007224
-0.006256 0.818529 -0.006256
0.081754 0.818529 -0.006272
0.163664 0.818529 -0.006279
0.245534 0.818529 -0.006307
0.327393 0.818529 -0.006343
0.409261 0.818529 -0.006402
0.491115 0.818529 -0.006484
0.572963 0.818528 -0.006575
0.654813 0.818528 -0.006702
0.736717 0.818528 -0.006823
0.818527 0.818527 -0.006978
0.885104 0.804604 -0.007178
0.930535 0.775462 -0.007352
0.962209 0.740060 -0.007498
0.984887 0.703492 -0.007611
1.000031 0.666652 -0.007632
-0.006921 0.885104 -0.006921
0.080334 0.885104 -0.006922
0.160869 0.885104 -0.006927
0.241343 0.885104 -0.006952
0.321829 0.885104 -0.006997
0.402272 0.885104 -0.007049
0.482731 0.885104 -0.007109
0.563189 0.885104 -0.007202
0.643705 0.885104 -0.007302
0.724135 0.885103 -0.007422
0.804604 0.885103 -0.007560
0.885103 0.885103 -0.007705
0.930535 0.853134 -0.007873
0.962209 0.814147 -0.008002
0.984887 0.773919 -0.008088
1.000031 0.733366 -0.008083
-0.007538 0.930535 -0.007538
0.077401 0.930535 -0.007539
0.155050 0.930535 -0.007544
0.232629 0.930535 -0.007566
0.310214 0.930535 -0.007606
0.387709 0.930535 -0.007652
0.465290 0.930535 -0.007705
0.542833 0.930535 -0.007788
0.620438 0.930535 -0.007878
0.697967 0.930534 -0.007975
0.775461 0.930534 -0.008101
0.853133 0.930534 -0.008253
0.930534 0.930534 -0.008390
0.962208 0.888046 -0.008504
0.984886 0.844230 -0.008576
1.000030 0.799987 -0.008536
-0.008101 0.962208 -0.008101
0.073832 0.962208 -0.008102
0.147950 0.962208 -0.008127
0.221981 0.962208 -0.008137
0.296006 0.962208 -0.008172
0.369986 0.962208 -0.008214
0.444027 0.962208 -0.008261
0.518038 0.962208 -0.008336
0.592051 0.962208 -0.008418
0.666088 0.962208 -0.008505
0.740057 0.962208 -0.008619
0.814146 0.962208 -0.008739
0.888045 0.962207 -0.008884
0.962207 0.962207 -0.009033
0.984886 0.914655 -0.009090
1.000029 0.866763 -0.009022
-0.008616 0.984886 -0.008616
0.070153 0.984886 -0.008617
0.140634 0.984886 -0.008622
0.210999 0.984886 -0.008649
0.281374 0.984886 -0.008662
0.351742 0.984886 -0.008699
0.422098 0.984886 -0.008762
0.492432 0.984886 -0.008811
0.562809 0.984886 -0.008885
0.633214 0.984886 -0.008983
0.703489 0.984886 -0.009069
0.773917 0.984886 -0.009180
0.844229 0.984886 -0.009312
0.914654 0.984885 -0.009450
0.984885 0.984885 -0.009609
1.000029 0.933250 -0.009513
-0.008991 1.000029 -0.008991
0.066441 1.000029 -0.008992
0.133246 1.000029 -0.008996
0.199940 1.000029 -0.009020
0.266639 1.000029 -0.009032
0.333307 1.000029 -0.009067
0.399979 1.000029 -0.009106
0.466633 1.000029 -0.009169
0.533346 1.000029 -0.009237
0.600010 1.000029 -0.009310
0.666648 1.000029 -0.009406
0.733362 1.000029 -0.009507
0.799985 1.000029 -0.009613
0.866762 1.000029 -0.009742
0.933250 1.000029 -0.009874
1.000029 1.000029 -0.010027
-0.000146 -0.000146 0.014623
0.014623 -0.000258 0.014623
0.036948 -0.000550 0.018474
0.070079 -0.000889 0.023362
0.121317 -0.001260 0.030328
0.200365 -0.001653 0.040071
0.313286 -0.002069 0.052214
0.450361 -0.002496 0.064333
0.594801 -0.002935 0.074337
0.722292 -0.003367 0.080241
0.818533 -0.003780 0.081827
0.885108 -0.004177 0.080425
0.930538 -0.004545 0.077506
0.962211 -0.004897 0.073956
0.984889 -0.005202 0.070294
1.000038 -0.005429 0.066602
-0.000394 0.014623 0.014623
0.014623 0.014623 0.014623
0.042052 0.009698 0.009698
0.075487 0.005258 0.005258
0.126377 0.003991 0.003991
0.205372 0.003853 0.003853
0.317949 0.004140 0.004140
0.454171 0.004613 0.004613
0.597597 0.005191 0.005191
0.724314 0.005797 0.005797
0.819728 0.006404 0.006404
0.885832 0.006999 0.006999
0.930972 0.007571 0.007571
0.962416 0.008106 0.008106
0.985107 0.008582 0.008582
1.000038 0.013618 0.013618
-0.000895 0.036948 0.018474
0.005496 0.037789 0.005496
0.037128 0.037128 0.004929
0.071980 0.045388 0.004129
0.124148 0.057778 0.003854
0.203866 0.075398 0.003956
0.316978 0.097380 0.004302
0.453608 0.119239 0.004787
0.597294 0.137221 0.005350
0.724091 0.147766 0.005945
0.819659 0.150472 0.006540
0.885846 0.147786 0.007120
0.931003 0.142369 0.007677
0.962387 0.135829 0.008204
0.985088 0.129111 0.008669
1.000038 0.122492 0.013617
-0.001466 0.070078 0.023360
0.003893 0.070710 0.003893
0.044470 0.070524 0.003883
0.070215 0.070215 0.003890
0.122418 0.090389 0.003990
0.202255 0.118708 0.004248
0.315796 0.153965 0.004634
0.452735 0.188881 0.005118
0.596718 0.217565 0.005663
0.723810 0.234433 0.006234
0.819502 0.238764 0.006802
0.885722 0.234499 0.007356
0.930929 0.225917 0.007894
0.962432 0.215520 0.008395
0.985054 0.204854 0.008843
1.000034 0.194152 0.013618
-0.002085 0.121316 0.030327
0.004166 0.121863 0.004166
0.056682 0.121777 0.004205
0.089802 0.121632 0.004282
0.121425 0.121425 0.004412
0.201172 0.159914 0.004728
0.314680 0.207817 0.005132
0.451924 0.255350 0.005601
0.596196 0.294446 0.006127
0.723487 0.317390 0.006659
0.819212 0.323301 0.007194
0.885613 0.317575 0.007715
0.930864 0.305942 0.008220
0.962420 0.291884 0.008691
0.985005 0.277440 0.009111
1.000034 0.262881 0.013613
-0.002738 0.200375 0.040066
0.004922 0.200858 0.004922
0.074294 0.200832 0.004961
0.117822 0.200728 0.005043
0.159455 0.200592 0.005173
0.200450 0.200450 0.005344
0.313956 0.260805 0.005753
0.451242 0.320748 0.006211
0.595638 0.370029 0.006710
0.723199 0.399067 0.007214
0.819066 0.406602 0.007706
0.885457 0.399415 0.008192
0.930755 0.384855 0.008655
0.962342 0.367187 0.009091
0.984996 0.349000 0.009475
1.000034 0.330640 0.013608
-0.003422 0.313281 0.052197
0.005884 0.313847 0.005884
0.096454 0.313880 0.005921
0.152997 0.313773 0.005991
0.207140 0.313680 0.006108
0.260487 0.313592 0.006265
0.313437 0.313437 0.006466
0.450755 0.385680 0.006915
0.595295 0.445188 0.007395
0.722877 0.480213 0.007867
0.818941 0.489355 0.008322
0.885302 0.480791 0.008768
0.930774 0.463237 0.009193
0.962292 0.441969 0.009587
0.984937 0.420076 0.009931
1.000033 0.398002 0.013602
-0.004137 0.450357 0.064309
0.006953 0.450749 0.006953
0.118510 0.450746 0.006984
0.188036 0.450738 0.007047
0.254653 0.450678 0.007149
0.320328 0.450636 0.007288
0.385530 0.450560 0.007467
0.450464 0.450464 0.007683
0.595047 0.520104 0.008154
0.722688 0.561055 0.008600
0.818751 0.571836 0.009023
0.885325 0.561881 0.009429
0.930715 0.541380 0.009813
0.962259 0.516511 0.010168
0.984987 0.490930 0.010384
1.000033 0.465151 0.013594
-0.004862 0.594796 0.074295
0.008086 0.594991 0.008086
0.136751 0.595062 0.008114
0.216968 0.595041 0.008171
0.293864 0.595009 0.008259
0.369644 0.594984 0.008380
0.444898 0.594934 0.008542
0.519928 0.594857 0.008736
0.594801 0.594801 0.008968
0.722575 0.641807 0.009395
0.818668 0.654169 0.009793
0.885222 0.642772 0.010165
0.930639 0.619364 0.010511
0.962203 0.590944 0.010711
0.984989 0.561689 0.010862
1.000033 0.532198 0.013584
-0.005578 0.722287 0.080183
0.009214 0.722543 0.009214
0.147511 0.722536 0.009239
0.234036 0.722523 0.009287
0.316984 0.722583 0.009364
0.398767 0.722556 0.009475
0.479968 0.722525 0.009617
0.560938 0.722489 0.009791
0.641696 0.722392 0.009999
0.722355 0.722355 0.010241
0.818559 0.736335 0.010614
0.885148 0.723566 0.010919
0.930584 0.697268 0.011115
0.962158 0.665253 0.011280
0.984948 0.632330 0.011397
1.000032 0.599124 0.013574
-0.006271 0.818529 0.081751
0.010312 0.818646 0.010312
0.150361 0.818644 0.010333
0.238540 0.818639 0.010375
0.323069 0.818632 0.010445
0.406372 0.818565 0.010543
0.489169 0.818554 0.010670
0.571685 0.818541 0.010826
0.654069 0.818527 0.011010
0.736279 0.818513 0.011187
0.818500 0.818500 0.011386
0.885148 0.804336 0.011594
0.930545 0.775044 0.011763
0.962126 0.739484 0.011901
0.984918 0.702895 0.011983
1.000031 0.665968 0.013559
-0.006921 0.885104 0.080334
0.011251 0.885169 0.011251
0.147763 0.885168 0.011266
0.234402 0.885166 0.011297
0.317443 0.885162 0.011345
0.399335 0.885158 0.011414
0.480669 0.885153 0.011507
0.561754 0.885147 0.011621
0.642734 0.885140 0.011757
0.723504 0.885133 0.011919
0.804319 0.885127 0.012101
0.885121 0.885121 0.012310
0.930555 0.852945 0.012458
0.962139 0.813761 0.012564
0.984908 0.773533 0.012616
1.000031 0.732864 0.013544
-0.007538 0.930535 0.077401
0.012011 0.930535 0.012011
0.142414 0.930534 0.012027
0.225872 0.930533 0.012054
0.305885 0.930531 0.012097
0.384781 0.930529 0.012161
0.463194 0.930526 0.012245
0.541350 0.930558 0.012348
0.619328 0.930554 0.012471
0.697251 0.930551 0.012619
0.775047 0.930548 0.012787
0.852937 0.930545 0.012978
0.930543 0.930543 0.013187
0.962126 0.887911 0.013271
0.984891 0.843934 0.013284
1.000030 0.799589 0.013526
-0.008101 0.962208 0.073832
0.012723 0.962135 0.012723
0.135923 0.962135 0.012735
0.215544 0.962134 0.012757
0.291886 0.962133 0.012798
0.367142 0.962132 0.012855
0.441929 0.962131 0.012932
0.516497 0.962129 0.013026
0.590930 0.962127 0.013137
0.665240 0.962126 0.013271
0.739487 0.962124 0.013425
0.813792 0.962212 0.013598
0.887908 0.962211 0.013642
0.962211 0.962211 0.013638
0.984887 0.914543 0.013560
1.000029 0.866481 0.013505
-0.008616 0.984886 0.070153
0.013349 0.984891 0.013349
0.129244 0.984890 0.013360
0.204889 0.984890 0.013381
0.277446 0.984890 0.013418
0.348981 0.984889 0.013466
0.420037 0.984888 0.013536
0.490907 0.984888 0.013572
0.561662 0.984888 0.013569
0.632310 0.984887 0.013565
0.702883 0.984887 0.013560
0.773523 0.984887 0.013555
0.843931 0.984887 0.013550
0.914543 0.984887 0.013545
0.984887 0.984887 0.013537
1.000029 0.933180 0.013484
-0.008991 1.000029 0.066441
0.013506 1.000029 0.013506
0.122485 1.000029 0.013505
0.194148 1.000029 0.013505
0.262878 1.000029 0.013503
0.330638 1.000029 0.013502
0.397999 1.000029 0.013500
0.465149 1.000029 0.013499
0.532196 1.000029 0.013496
0.599122 1.000029 0.013494
0.665967 1.000029 0.013489
0.732863 1.000029 0.013484
0.799588 1.000029 0.013477
0.866481 1.000029 0.013471
0.933180 1.000029 0.013466
1.000029 1.000029 0.013460
-0.000341 -0.000341 0.036949
0.018474 -0.000411 0.036949
0.036948 -0.000605 0.036948
0.070078 -0.000927 0.046723
0.121317 -0.001287 0.060659
0.200365 -0.001676 0.080144
0.313286 -0.002086 0.104430
0.450361 -0.002510 0.128677
0.594801 -0.002952 0.148694
0.722292 -0.003381 0.160514
0.818533 -0.003792 0.163687
0.885108 -0.004181 0.160908
0.930538 -0.004560 0.155085
0.962211 -0.004900 0.147999
0.984889 -0.005205 0.140684
1.000038 -0.005431 0.133308
-0.000530 0.018474 0.036948
0.012926 0.012926 0.043828
0.041009 0.008540 0.041009
0.074844 0.005029 0.047215
0.126055 0.003961 0.058665
0.205166 0.003862 0.075883
0.317870 0.004157 0.097654
0.454134 0.004630 0.119364
0.597521 0.005207 0.137277
0.724360 0.005813 0.147815
0.819714 0.006418 0.150479
0.885824 0.007010 0.147792
0.930968 0.007582 0.142371
0.962414 0.008116 0.135830
0.985105 0.008591 0.129111
1.000038 0.013618 0.122492
-0.000924 0.036948 0.036948
0.005269 0.037532 0.037532
0.036948 0.036948 0.036948
0.081407 0.032092 0.032092
0.146793 0.023029 0.023029
0.233750 0.015976 0.015976
0.346700 0.012123 0.012123
0.479112 0.010176 0.010176
0.617090 0.009271 0.009271
0.737920 0.008951 0.008951
0.828187 0.008945 0.008945
0.891169 0.009110 0.009110
0.934526 0.009371 0.009371
0.964928 0.009678 0.009678
0.987135 0.009989 0.009989
1.000038 0.034246 0.034246
-0.001483 0.070078 0.046722
0.003889 0.070647 0.044545
0.021801 0.073568 0.021801
0.070989 0.070989 0.019253
0.131370 0.088577 0.015361
0.218088 0.112950 0.012393
0.334808 0.141778 0.010579
0.471360 0.169378 0.009551
0.612474 0.191386 0.009062
0.735368 0.203469 0.008934
0.826944 0.205417 0.009015
0.890546 0.200709 0.009224
0.934135 0.192773 0.009500
0.964744 0.183579 0.009811
0.986936 0.174292 0.010116
1.000038 0.166185 0.034244
-0.002096 0.121316 0.060657
0.004179 0.121844 0.056710
0.012706 0.125514 0.012706
0.083559 0.124093 0.012118
0.122315 0.122315 0.011395
0.207577 0.159827 0.010261
0.325152 0.204895 0.009531
0.463980 0.248141 0.009114
0.607482 0.282586 0.008960
0.732444 0.301689 0.009001
0.825360 0.305220 0.009170
0.889708 0.298501 0.009416
0.933630 0.286818 0.009711
0.964406 0.273157 0.010022
0.986722 0.259380 0.010321
1.000034 0.246002 0.034242
-0.002749 0.200375 0.080143
0.004935 0.200873 0.074314
0.009746 0.204690 0.009746
0.105506 0.203847 0.009619
0.156069 0.202696 0.009452
0.201381 0.201381 0.009280
0.318593 0.260772 0.009057
0.458173 0.318298 0.008982
0.603113 0.364433 0.009040
0.729606 0.390371 0.009206
0.823766 0.395718 0.009436
0.888760 0.387402 0.009712
0.933196 0.372372 0.010016
0.964129 0.354718 0.010321
0.986495 0.336850 0.010608
1.000034 0.319030 0.034239
-0.003435 0.313281 0.104426
0.005898 0.313814 0.096434
0.009012 0.317421 0.009012
0.134184 0.316920 0.009001
0.199218 0.316162 0.008993
0.258081 0.315315 0.008998
0.314320 0.314320 0.009024
0.454034 0.385390 0.009130
0.599789 0.442819 0.009318
0.727225 0.475396 0.009555
0.822312 0.482604 0.009825
0.887937 0.472829 0.010116
0.932596 0.454717 0.010415
0.963721 0.433244 0.010710
0.986215 0.411437 0.010979
1.000033 0.389513 0.034240
-0.004140 0.450357 0.128663
0.006964 0.450742 0.118514
0.009156 0.453686 0.009156
0.162927 0.453442 0.009182
0.242282 0.453031 0.009225
0.314332 0.452466 0.009287
0.383500 0.451824 0.009376
0.451136 0.451136 0.009496
0.597174 0.519456 0.009758
0.725312 0.558703 0.010039
0.821148 0.567751 0.010329
0.887197 0.556631 0.010621
0.932154 0.535440 0.010913
0.963432 0.510261 0.011189
0.986055 0.484627 0.011431
1.000033 0.458726 0.034236
-0.004875 0.594796 0.148684
0.008096 0.594987 0.136727
0.009732 0.597328 0.009732
0.186618 0.597113 0.009769
0.277646 0.596859 0.009828
0.360521 0.596593 0.009910
0.440212 0.596244 0.010020
0.518225 0.595818 0.010162
0.595347 0.595347 0.010331
0.723879 0.641044 0.010637
0.820127 0.651931 0.010933
0.886540 0.639433 0.011221
0.931712 0.615306 0.011495
0.963100 0.586470 0.011747
0.985833 0.557025 0.011961
1.000033 0.527288 0.034238
-0.005581 0.722287 0.160490
0.009223 0.722541 0.147511
0.010513 0.724089 0.010513
0.200366 0.724095 0.010553
0.298222 0.723964 0.010612
0.387294 0.723746 0.010697
0.473049 0.723471 0.010809
0.557102 0.723337 0.010952
0.640301 0.723022 0.011123
0.722775 0.722775 0.011323
0.819302 0.735536 0.011620
0.885987 0.721750 0.011898
0.931391 0.694593 0.012152
0.962854 0.662132 0.012380
0.985606 0.628887 0.012561
1.000032 0.595363 0.034234
-0.006273 0.818529 0.163664
0.010320 0.818645 0.150361
0.011380 0.819662 0.011380
0.203619 0.819608 0.011416
0.303059 0.819524 0.011476
0.393645 0.819467 0.011560
0.480812 0.819241 0.011667
0.566421 0.819163 0.011799
0.651120 0.819059 0.011966
0.735124 0.818906 0.012155
0.818746 0.818746 0.012374
0.885617 0.803541 0.012638
0.931090 0.773518 0.012873
0.962635 0.737411 0.013074
0.985399 0.700423 0.013225
1.000032 0.663104 0.034228
-0.006923 0.885104 0.160869
0.011257 0.885169 0.147763
0.012278 0.885860 0.012278
0.199708 0.885830 0.012312
0.297225 0.885784 0.012367
0.386081 0.885721 0.012442
0.471627 0.885640 0.012542
0.555592 0.885594 0.012670
0.638727 0.885497 0.012820
0.721184 0.885377 0.013001
0.803326 0.885335 0.013204
0.885271 0.885271 0.013437
0.930816 0.852248 0.013654
0.962496 0.812517 0.013828
0.985179 0.771808 0.013943
1.000031 0.730755 0.034224
-0.007540 0.930535 0.155050
0.012017 0.930534 0.142413
0.013166 0.930955 0.013166
0.192190 0.931010 0.013198
0.286035 0.930983 0.013248
0.371511 0.930946 0.013319
0.453885 0.930899 0.013412
0.534723 0.930875 0.013527
0.614695 0.930809 0.013669
0.694198 0.930736 0.013834
0.773214 0.930711 0.014024
0.852170 0.930733 0.014238
0.930647 0.930647 0.014476
0.962355 0.887320 0.014626
0.985152 0.842872 0.014707
1.000030 0.798160 0.034208
-0.008103 0.962208 0.147950
0.012726 0.962135 0.135923
0.014019 0.962422 0.014019
0.183225 0.962411 0.014049
0.272657 0.962391 0.014095
0.354138 0.962368 0.014158
0.432668 0.962431 0.014243
0.509733 0.962355 0.014349
0.585994 0.962402 0.014477
0.661781 0.962354 0.014629
0.737130 0.962302 0.014803
0.812349 0.962308 0.015003
0.887280 0.962250 0.015221
0.962190 0.962190 0.015468
0.984985 0.914131 0.015515
1.000029 0.865562 0.034184
-0.008618 0.984886 0.140634
0.013353 0.984890 0.129243
0.014792 0.985127 0.014792
0.174087 0.985119 0.014816
0.259010 0.985108 0.014858
0.336388 0.985091 0.014915
0.410944 0.985070 0.014993
0.484187 0.985043 0.015090
0.556632 0.985012 0.015206
0.628561 0.985026 0.015344
0.700167 0.984987 0.015504
0.771665 0.984946 0.015686
0.842802 0.985006 0.015886
0.914063 0.985009 0.016112
0.984961 0.984961 0.016356
1.000029 0.932745 0.034174
-0.008993 1.000029 0.133246
0.013506 1.000029 0.122484
0.034178 1.000029 0.034178
0.166187 1.000029 0.034177
0.245997 1.000029 0.034177
0.319027 1.000029 0.034176
0.389508 1.000029 0.034175
0.458723 1.000029 0.034177
0.527285 1.000029 0.034177
0.595361 1.000029 0.034174
0.663102 1.000029 0.034173
0.730753 1.000029 0.034174
0.798159 1.000029 0.034171
0.865562 1.000029 0.034169
0.932745 1.000029 0.034169
1.000029 1.000029 0.034164
-0.000562 -0.000562 0.070079
0.023363 -0.000608 0.070079
0.046723 -0.000768 0.070079
0.070078 -0.000995 0.070078
0.121317 -0.001340 0.090987
0.200365 -0.001717 0.120213
0.313286 -0.002120 0.156635
0.450361 -0.002537 0.193021
0.594801 -0.002974 0.223040
0.722292 -0.003400 0.240768
0.818533 -0.003809 0.245551
0.885108 -0.004202 0.241361
0.930538 -0.004567 0.232633
0.962211 -0.004917 0.222001
0.984889 -0.005211 0.211040
1.000038 -0.005436 0.199985
-0.000702 0.023363 0.070079
0.008748 0.008748 0.084029
0.049433 0.006320 0.078298
0.073854 0.004684 0.073854
0.125490 0.003915 0.092655
0.204820 0.003880 0.120208
0.317610 0.004190 0.154850
0.453976 0.004664 0.189375
0.597505 0.005241 0.217878
0.724225 0.005843 0.234559
0.819686 0.006447 0.238806
0.885819 0.007036 0.234521
0.930960 0.007605 0.225939
0.962405 0.008136 0.215531
0.985101 0.008609 0.204859
1.000034 0.013618 0.194152
-0.001076 0.046723 0.070078
0.004563 0.046340 0.073476
0.035009 0.035009 0.083507
0.080490 0.030087 0.080490
0.144595 0.021737 0.097813
0.231486 0.015424 0.119981
0.345173 0.011907 0.146197
0.478187 0.010090 0.171824
0.616491 0.009243 0.192647
0.737581 0.008947 0.204102
0.828044 0.008950 0.205688
0.891134 0.009122 0.200846
0.934459 0.009383 0.192838
0.964922 0.009692 0.183620
0.987046 0.010001 0.174307
1.000038 0.034245 0.166185
-0.001522 0.070078 0.070078
0.003882 0.070514 0.070514
0.020846 0.072613 0.072613
0.070078 0.070078 0.070078
0.141339 0.063751 0.063751
0.251577 0.052569 0.052569
0.387609 0.040072 0.040072
0.526253 0.030525 0.030525
0.658231 0.024193 0.024193
0.767771 0.020312 0.020312
0.847526 0.017939 0.017939
0.903697 0.016469 0.016469
0.942872 0.015564 0.015564
0.970926 0.015019 0.015019
0.992012 0.014711 0.014711
1.000038 0.064264 0.064264
-0.002122 0.121315 0.090986
0.004206 0.121772 0.089915
0.012492 0.125004 0.084181
0.047883 0.129231 0.047883
0.123934 0.123934 0.042980
0.225707 0.157296 0.036169
0.356610 0.194859 0.029580
0.499965 0.227044 0.024498
0.640398 0.250031 0.020856
0.757532 0.260039 0.018454
0.842176 0.258320 0.016893
0.900868 0.249919 0.015881
0.941292 0.238541 0.015239
0.969983 0.226284 0.014850
0.991355 0.214346 0.014633
1.000034 0.206523 0.064263
-0.002771 0.200375 0.120210
0.004962 0.200829 0.117878
0.009700 0.204406 0.105794
0.029543 0.212964 0.029543
0.145120 0.208773 0.027749
0.203923 0.203923 0.025682
0.332426 0.261751 0.022812
0.478667 0.313770 0.020258
0.624648 0.352211 0.018275
0.747693 0.370764 0.016901
0.836676 0.370808 0.015968
0.897795 0.359831 0.015345
0.939484 0.343992 0.014947
0.968839 0.326533 0.014708
0.990551 0.309388 0.014583
1.000034 0.294030 0.064261
-0.003452 0.313281 0.156631
0.005921 0.313878 0.153039
0.009008 0.317221 0.134311
0.021082 0.326069 0.021082
0.176447 0.323464 0.020448
0.252118 0.320215 0.019675
0.316568 0.316568 0.018839
0.463462 0.385884 0.017573
0.612413 0.438720 0.016554
0.739363 0.465816 0.015812
