assets/luts/LUTs/CinePacks_MVP2_400 ft.CUBE
TITLE "Generate by Resolve"
LUT_3D_SIZE 33
0 0.00965896 0.0583505
0 0.00874342 0.064744
0 0.00846876 0.0698711
0 0.00833143 0.0716411
0.00915541 0.00808728 0.0728008
0.0246281 0.0077821 0.0738842
0.0403296 0.00727855 0.0748608
0.0567178 0.00648508 0.0756542
0.0743572 0.00531014 0.0762646
0.0939651 0.00369268 0.0766918
0.116106 0.00114443 0.0766155
0.142138 0 0.0759442
0.173587 0 0.0745098
0.210407 0 0.072343
0.252369 0 0.0694896
0.299763 0 0.0659342
0.352026 0 0.0616159
0.407935 0 0.0567941
0.465202 0 0.0517739
0.521096 0 0.046952
0.573632 0 0.0426795
0.621042 0 0.0390021
0.663096 0 0.0360571
0.70103 0 0.0336614
0.736339 0 0.0316472
0.769818 0 0.0299382
0.801953 0 0.0284733
0.833021 0 0.0271153
0.863584 0 0.0258183
0.893843 0 0.0246128
0.924025 0 0.0234836
0.954559 0 0.022446
0.985107 0 0.0213931
0 0.0243687 0.0460059
0 0.0233921 0.052842
0 0.0230411 0.0604715
0 0.0229953 0.0675212
0.00915541 0.0227207 0.0704967
0.0244144 0.0222171 0.0714122
0.0399481 0.0215915 0.0722667
0.0563363 0.0207828 0.0730602
0.0737926 0.0194553 0.073518
0.0930953 0.0175784 0.0737163
0.115099 0.0149233 0.0735485
0.141054 0.0111238 0.0728161
0.172442 0.00576791 0.0713359
0.209308 0 0.0691997
0.251148 0 0.0662547
0.298405 0 0.0625925
0.350652 0 0.0582589
0.406561 0 0.0534371
0.463859 0 0.0484474
0.51986 0 0.0437018
0.57229 0 0.039353
0.61973 0 0.0357061
0.66186 0 0.0328222
0.699901 0 0.0305028
0.735348 0 0.0285801
0.768933 0 0.0269627
0.801099 0 0.0255283
0.832334 0 0.0242771
0.863096 0 0.0231479
0.893538 0 0.0220645
0.923919 0 0.0211032
0.954635 0 0.0201877
0.985397 0 0.0193179
0 0.0386969 0.0347906
0 0.0372015 0.0398413
0 0.0361791 0.0460365
0.00062562 0.0357366 0.0537423
0.0122377 0.0358587 0.0630198
0.0243992 0.0359197 0.0692607
0.0398871 0.0352331 0.0700694
0.0560464 0.0342412 0.0706798
0.0734417 0.0328527 0.071107
0.0926833 0.0309148 0.0712444
0.114595 0.0281834 0.0710002
0.140475 0.0243229 0.070222
0.171939 0.019028 0.0687877
0.208667 0.0121004 0.0665599
0.250523 0.00373846 0.0636301
0.297795 0 0.059968
0.350042 0 0.0556497
0.405997 0 0.0508431
0.463432 0 0.0459602
0.519417 0 0.0411994
0.571954 0 0.0369421
0.619471 0 0.0333562
0.661692 0 0.030518
0.699977 0 0.028397
0.735561 0 0.0265812
0.769268 0 0.0250553
0.801587 0 0.023743
0.832975 0 0.0226139
0.863981 0 0.0216678
0.89482 0 0.0209049
0.925444 0 0.0201267
0.956329 0 0.0193332
0.987335 0 0.0186465
0 0.0522621 0.0265965
0 0.05037 0.0297093
0 0.0488289 0.033341
0.00741588 0.047715 0.0379492
0.0212558 0.0470588 0.0445106
0.0321202 0.047303 0.0551919
0.0401465 0.0482643 0.0682078
0.056199 0.0471962 0.0687724
0.0735332 0.0457465 0.0691539
0.0927443 0.0437934 0.069276
0.114748 0.0411383 0.0691081
0.140658 0.0373083 0.0683452
0.172015 0.0319219 0.0668345
0.208759 0.0250095 0.0646067
0.250645 0.0166781 0.0616922
0.297978 0.00683604 0.0580911
0.350454 0 0.0539254
0.40647 0 0.0491951
0.463874 0 0.0442817
0.519966 0 0.0396124
0.572656 0 0.0354467
0.620371 0 0.0320134
0.662898 0 0.0294194
0.701198 0 0.0273136
0.736965 0 0.0256352
0.770916 0 0.0243076
0.80354 0 0.0232242
0.835248 0 0.0223239
0.86656 0 0.021622
0.897566 0 0.0209812
0.928588 0 0.0205081
0.959945 0 0.0200809
0.991333 0 0.0196841
0 0.0653544 0.0219577
0 0.0633402 0.024155
0 0.0615854 0.0263371
0.0113069 0.0601511 0.0285954
0.0276036 0.058854 0.0310369
0.0434272 0.0576028 0.0340887
0.0575265 0.0567788 0.0401617
0.0565652 0.0599527 0.0670939
0.0738994 0.0585184 0.0674754
0.0932021 0.0566415 0.0676738
0.11516 0.0539406 0.0674601
0.1411 0.0501411 0.0667277
0.172534 0.0448157 0.0652781
0.209384 0.037995 0.0631266
0.251347 0.0297246 0.0602731
0.298863 0.0200656 0.0568246
0.351339 0.00895705 0.0526589
0.407538 0 0.0480507
0.465156 0 0.0433051
0.521385 0 0.0387427
0.574228 0 0.034699
0.622278 0 0.0315251
0.664958 0 0.0290532
0.703578 0 0.0271763
0.73959 0 0.0256809
0.773754 0 0.0245212
0.806851 0 0.0238041
0.838972 0 0.0232242
0.870619 0 0.0227817
0.901991 0 0.0224155
0.933333 0 0.0221866
0.965179 0 0.0221408
0.997421 0 0.022385
0 0.0782635 0.018265
0 0.0761883 0.0204013
0 0.0744488 0.0225986
0.0124666 0.0729992 0.0248112
0.0288396 0.0716259 0.0269932
0.0451972 0.0702678 0.02916
0.0619059 0.0687877 0.031342
0.0795148 0.0670787 0.0335241
0.0744945 0.071458 0.06598
0.0937972 0.0695811 0.0661784
0.115831 0.0669566 0.0660258
0.141848 0.0632029 0.0653391
0.173373 0.0579538 0.0639506
0.210422 0.0513161 0.0619669
0.252628 0.0432593 0.0593118
0.300237 0.0336767 0.0559091
0.35285 0.0226749 0.0518502
0.409201 0.0107271 0.047364
0.467033 0 0.0427863
0.523705 0 0.0385595
0.576852 0 0.0347601
0.624994 0 0.0316472
0.667918 0 0.0293736
0.706905 0 0.0277714
0.743374 0 0.0266423
0.778134 0 0.0259251
0.811414 0 0.0253452
0.8439 0 0.0250401
0.876097 0 0.0250248
0.908156 0 0.0251774
0.940093 0 0.0254063
0.97261 0 0.025864
1 0 0.0264286
0 0.0912032 0.0141909
0 0.0892042 0.0164034
0 0.0874342 0.0185702
0.0133364 0.0859388 0.0207523
0.0297398 0.084596 0.0229496
0.0461738 0.083299 0.0251774
0.063035 0.0819409 0.0274662
0.0808118 0.0803693 0.0297704
0.0999313 0.0783398 0.0320134
0.114031 0.0776379 0.0424048
0.119615 0.07953 0.0616922
0.142824 0.0767987 0.0640726
0.174594 0.0717784 0.0628824
0.211765 0.0652476 0.0609751
0.254093 0.0572976 0.0584268
0.301961 0.0479286 0.0552224
0.354894 0.0372168 0.0514229
0.411521 0.0254978 0.0471351
0.469673 0.0135348 0.0428016
0.526543 0.00205997 0.0387274
0.580087 0 0.0352178
0.628702 0 0.0324865
0.672007 0 0.0304875
0.711315 0 0.0291295
0.748394 0 0.0284581
0.783612 0 0.0281071
0.817563 0 0.0280461
0.850584 0 0.0281529
0.883268 0 0.0284886
0.916182 0 0.0293278
0.949126 0 0.0303044
0.982437 0 0.0313725
1 0 0.032517
0 0.104494 0.00943008
0 0.102464 0.0116121
0 0.100771 0.0138399
0.0138247 0.0993668 0.0160983
0.0303349 0.098085 0.0183566
0.0468757 0.0968795 0.020676
0.0638895 0.0956741 0.0230869
0.0817731 0.0941787 0.0254673
0.101122 0.0923171 0.0278782
0.122545 0.0898451 0.0302586
0.137133 0.0892042 0.042771
0.149615 0.0896468 0.0578164
0.176516 0.086244 0.0612497
0.213275 0.0801251 0.0599985
0.255848 0.0723888 0.0576333
0.303944 0.0632181 0.054612
0.357259 0.052842 0.0510872
0.41442 0.0415961 0.0472267
0.472923 0.0299382 0.0431525
0.530098 0.0187228 0.0393225
0.583978 0.00862135 0.0360723
0.633097 0.000183108 0.0337072
0.677195 0 0.0323186
0.717205 0 0.0315099
0.754604 0 0.0310826
0.790341 0 0.0311284
0.825086 0 0.0316625
0.859113 0 0.0325475
0.892912 0 0.033753
0.92639 0 0.0349889
0.960052 0 0.0365454
0.994446 0 0.0384527
1 0 0.0406195
0 0.118379 0.00357061
0 0.116411 0.00581369
0 0.114778 0.0081178
0.0136873 0.113497 0.0104677
0.0305028 0.112505 0.0129854
0.0472114 0.111421 0.0154116
0.0643015 0.110262 0.0178683
0.0823377 0.108919 0.0203708
0.101915 0.107256 0.0229648
0.12369 0.105074 0.0256199
0.148608 0.102098 0.028336
0.164385 0.101457 0.0431373
0.183932 0.100206 0.055024
0.216129 0.0958267 0.0579538
0.25774 0.0889296 0.056733
0.306294 0.0801709 0.0540627
0.359991 0.0700999 0.0508431
0.417441 0.0591135 0.0471962
0.476524 0.0479438 0.0435645
0.534386 0.0373236 0.0402533
0.588846 0.0277409 0.0374456
0.638544 0.019791 0.035523
0.683223 0.0136568 0.0345922
0.724056 0.00891127 0.0344091
0.762478 0.00512703 0.0347753
0.799039 0.0019379 0.0354467
0.834455 0 0.0364843
0.869612 0 0.0382391
0.904448 0 0.040238
0.939208 0 0.0424659
0.973877 0 0.0447852
1 0 0.0472572
1 0 0.0502327
0 0.133211 0
0 0.131426 0
0 0.129946 0.0010071
0.0128023 0.128893 0.00357061
0.0296788 0.127947 0.00613413
0.0466621 0.127092 0.00877394
0.0640726 0.126207 0.0114748
0.0823987 0.125093 0.0141756
0.102205 0.123629 0.0169375
0.124392 0.121782 0.0198978
0.149615 0.119066 0.022858
0.177844 0.115526 0.0272831
0.197238 0.114427 0.0428779
0.223804 0.111833 0.0521859
0.261738 0.106706 0.0545052
0.308721 0.0991073 0.0532692
0.362982 0.0895399 0.0504768
0.420951 0.078996 0.0472267
0.480507 0.0682536 0.0439765
0.539132 0.0582895 0.0412451
0.594751 0.0496986 0.0393225
0.645319 0.0425116 0.0380713
0.690623 0.0369268 0.0376135
0.732174 0.0327916 0.0379797
0.771572 0.0298619 0.0390784
0.809598 0.0279393 0.0408637
0.846418 0.0265812 0.0429999
0.882185 0.0254673 0.0452277
0.917754 0.0247959 0.047776
0.953429 0.0245975 0.0507057
0.989258 0.0247349 0.0539101
1 0.0251011 0.0573434
1 0.0255131 0.0608225
0 0.149462 0
0 0.147951 0
0 0.146746 0
0.0105745 0.145861 0
0.0276951 0.145113 0
0.0449073 0.144457 0.000183108
0.0626688 0.143862 0.0031281
0.0816205 0.143267 0.00631724
0.101869 0.142168 0.00941482
0.124269 0.140505 0.0125277
0.149859 0.138094 0.0157473
0.180102 0.134585 0.0191196
0.211597 0.130816 0.0268864
0.236927 0.129168 0.0413825
0.270054 0.125597 0.0489052
0.310719 0.1205 0.0517128
0.365789 0.111635 0.0495308
0.424796 0.101976 0.0470741
0.485298 0.0920577 0.0445411
0.544747 0.0828107 0.0424353
0.600961 0.0747539 0.0409857
0.652659 0.0685435 0.0406043
0.699336 0.0641337 0.0411841
0.741985 0.0609751 0.0424048
0.782284 0.0588083 0.0441901
0.821164 0.0576181 0.0466316
0.858839 0.057023 0.049424
0.895781 0.0569162 0.0525368
0.932265 0.0570382 0.055787
0.968643 0.0574502 0.059266
1 0.0586252 0.063386
1 0.0597848 0.0675212
1 0.0611582 0.0718547
0 0.167956 0
0 0.166552 0
0 0.16556 0
0.00621042 0.164996 0
0.0238193 0.164645 0
0.0414588 0.164355 0
0.0597086 0.164157 0
0.0789044 0.163775 0
0.0997787 0.163195 0
0.122881 0.162112 0.00268559
0.149035 0.160189 0.00633249
0.179782 0.157092 0.010071
0.217182 0.152682 0.0141756
0.252003 0.148989 0.0248417
0.283589 0.146685 0.0379797
0.312459 0.145815 0.0493019
0.368215 0.13753 0.0476387
0.428367 0.128878 0.046067
0.490089 0.120012 0.0444648
0.550668 0.111742 0.0432288
0.607858 0.104509 0.0425116
0.660288 0.0989395 0.0426947
0.70782 0.0952773 0.0439307
0.751904 0.0933547 0.0462501
0.79321 0.0920729 0.0488136
0.832685 0.0914015 0.0517128
0.871077 0.0914168 0.0550393
0.908949 0.0921187 0.0588693
0.946761 0.0933852 0.0631418
0.984573 0.0950484 0.0677195
1 0.0966201 0.0721904
1 0.0984207 0.0768902
1 0.100649 0.0819715
0 0.189456 0.022034
0 0.189151 0.0233768
0 0.187427 0
0 0.187137 0
0.0171359 0.187289 0
0.0355077 0.18761 0
0.0542763 0.187854 0
0.073991 0.1879 0
0.0953689 0.187732 0
0.119219 0.187274 0
0.146609 0.186374 0
0.178378 0.184146 0
0.216297 0.180163 0.00260929
0.260487 0.174746 0.00740063
0.299611 0.17116 0.019913
0.313054 0.175799 0.0451209
0.370306 0.168826 0.0446174
0.431052 0.160678 0.0434882
0.493507 0.152453 0.0424506
0.555032 0.144991 0.0419318
0.613382 0.138781 0.0421149
0.666819 0.134081 0.043061
0.715434 0.13135 0.0451209
0.75996 0.129824 0.047776
0.802335 0.129442 0.0511482
0.843061 0.12987 0.0550088
0.882475 0.13077 0.0591287
0.921172 0.132189 0.0635843
0.960037 0.134371 0.0686656
0.998672 0.136751 0.0738689
1 0.139406 0.0793011
1 0.142046 0.0847639
1 0.144884 0.0903792
0 0.213275 0.00657664
0 0.213443 0.00833143
0 0.214023 0.0103609
0 0.215 0.0126345
0 0.216159 0.0150454
0.0271458 0.214191 0
0.0467689 0.215152 0
0.0675517 0.216083 0
0.0898146 0.216678 0
0.114549 0.216968 0
0.142641 0.216632 0
0.17557 0.215366 0
0.214878 0.212558 0
0.260243 0.208042 0
0.310842 0.202152 0.000244144
0.312673 0.210544 0.0393072
0.370703 0.204242 0.0393988
0.432609 0.197086 0.0391546
0.495949 0.189624 0.0387884
0.55816 0.182788 0.038819
0.617716 0.1776 0.0399023
0.672358 0.173953 0.0417792
0.721828 0.171969 0.0444953
0.767254 0.171206 0.047837
0.810346 0.171466 0.0517739
0.851972 0.172671 0.0563211
0.89305 0.175006 0.0617075
0.93286 0.177401 0.0670329
0.972229 0.180011 0.0724804
1 0.182971 0.0782025
1 0.186328 0.0842603
1 0.189929 0.090547
1 0.194003 0.097261
0 0.240543 0
0 0.241108 0
0 0.242451 0
0 0.244144 0
0 0.246113 0
0 0.248157 0.00263981
0.00637827 0.250355 0.00598154
0.0265965 0.252888 0.00972
0.0485695 0.255467 0.0136416
0.109651 0.251545 0
0.138628 0.251972 0
0.172305 0.251316 0
0.212512 0.249241 0
0.259266 0.245899 0
0.311757 0.240879 0
0.311177 0.249638 0.0318151
0.369909 0.243946 0.0324407
0.432776 0.237629 0.032929
0.497353 0.23125 0.0335241
0.561028 0.225666 0.0346532
0.621103 0.220935 0.0361486
0.676478 0.217914 0.0385748
0.72697 0.216815 0.0420844
0.773663 0.217151 0.0463874
0.817823 0.218341 0.0511482
0.86067 0.2206 0.0566262
0.901991 0.223148 0.0621958
0.942718 0.226337 0.0682231
0.983169 0.229877 0.0744945
1 0.233585 0.0808728
1 0.23743 0.0873579
1 0.241825 0.0943618
1 0.245991 0.101152
0 0.271748 0
0 0.273289 0
0 0.275059 0
0 0.277394 0
0 0.280278 0
0 0.283497 0
0 0.286824 0
0.0164492 0.290105 0
0.0390173 0.293202 0
0.0638895 0.296147 0.00354009
0.0917525 0.298573 0.0078584
0.12369 0.299962 0.0117189
0.161471 0.300145 0.0151217
0.20502 0.299123 0.0180972
0.253971 0.296925 0.0206149
0.308614 0.293431 0.0226139
0.368338 0.288609 0.0239872
0.431937 0.282933 0.0250553
0.49778 0.277638 0.0265965
0.562264 0.272755 0.0283665
0.623514 0.269047 0.0307622
0.67982 0.266835 0.0339055
0.730999 0.266331 0.0379339
0.778805 0.267628 0.0430915
0.824109 0.26981 0.0487068
0.867521 0.272557 0.0546273
0.909575 0.275746 0.0607767
0.950805 0.279362 0.0671702
0.991714 0.283314 0.0738079
1 0.287968 0.0810254
1 0.292363 0.0879835
1 0.296651 0.0948806
1 0.300923 0.101778
0 0.307103 0
0 0.309529 0
0 0.312459 0
0 0.315694 0
0 0.319234 0
0 0.323415 0
0 0.327581 0
0.00535592 0.331716 0
0.0287785 0.335546 0
0.0543526 0.339101 0
0.0832074 0.342382 0
0.116609 0.345052 0
0.155383 0.346075 0.00239567
0.199634 0.345678 0.0059205
0.249317 0.344121 0.00898756
0.304891 0.341436 0.0117037
0.366064 0.33785 0.0141909
0.431067 0.333394 0.0163272
0.497307 0.32845 0.0181888
0.562463 0.324147 0.0204471
0.624552 0.321172 0.0234989
0.681926 0.319875 0.027451
0.734371 0.32047 0.0324559
0.78262 0.322164 0.0379644
0.82826 0.32462 0.0438392
0.87219 0.327825 0.0501564
0.914885 0.331563 0.0567788
0.956634 0.335637 0.0635691
0.998276 0.340215 0.0707713
1 0.344579 0.0777295
1 0.348913 0.0846418
1 0.353155 0.0915084
1 0.357397 0.0983597
0 0.346883 0
0 0.349935 0
0 0.353628 0
0 0.35787 0
0 0.362615 0
0 0.367193 0
0 0.372 0
0 0.376989 0
0.0187839 0.381903 0
0.0455177 0.386465 0
0.0753643 0.390616 0
0.10927 0.393713 0
0.149096 0.395651 0
0.194629 0.396368 0
0.24535 0.395697 0
0.301839 0.39379 0.000701915
0.36379 0.390906 0.0037995
0.429496 0.38706 0.00646983
0.496803 0.383032 0.00914015
0.562783 0.379446 0.0120394
0.625406 0.376928 0.0154879
0.683757 0.376486 0.0202029
0.736461 0.37731 0.025391
0.785153 0.37937 0.0312352
0.83122 0.382223 0.0374456
0.875349 0.385595 0.0439155
0.918349 0.389593 0.0507668
0.960296 0.39382 0.0577096
1 0.397986 0.0645457
1 0.402228 0.0713817
1 0.406363 0.0781262
1 0.410208 0.0846418
1 0.414176 0.0912642
0 0.389868 0
0 0.393744 0
0 0.398062 0
0 0.403311 0
0 0.408743 0
0 0.414389 0
0 0.42002 0
0 0.425635 0
0.0110933 0.431662 0
0.0389258 0.437186 0
0.0696727 0.442115 0
0.104479 0.445991 0
0.144991 0.448524 0
0.191333 0.449943 0
0.243519 0.450538 0
0.300847 0.449378 0
0.363226 0.446845 0
0.429404 0.443412 0
0.4972 0.439811 0.000564584
0.563943 0.436881 0.0040589
0.627527 0.435203 0.00823987
0.68571 0.434607 0.0128176
0.738521 0.435523 0.0180972
0.787198 0.437583 0.0239261
0.833219 0.440391 0.0301061
0.877562 0.443931 0.0367285
0.920439 0.447837 0.0434882
0.961837 0.451591 0.0500191
1 0.455283 0.0564279
1 0.458915 0.0627451
1 0.462562 0.0690471
1 0.466255 0.0754253
1 0.46952 0.0814221
0 0.434852 0
0 0.440085 0
0 0.445457 0
0 0.451118 0
0 0.457191 0
0 0.463676 0
0 0.470375 0
0 0.477378 0
0.00769055 0.483726 0
0.0361944 0.48983 0
0.0678264 0.495506 0
0.1037 0.500313 0
0.145144 0.503655 0
0.192523 0.505974 0
0.244739 0.5066 0
0.302602 0.505898 0
0.365606 0.503914 0
0.432288 0.500908 0
0.50045 0.497627 0
0.567514 0.494987 0
0.630686 0.492943 0.00199893
0.688823 0.492317 0.00654612
0.741588 0.493187 0.0117952
0.790097 0.495094 0.0175021
0.83624 0.497993 0.0237583
0.879698 0.500801 0.0297093
0.92163 0.503868 0.0357519
0.962524 0.507179 0.041886
1 0.510445 0.0479133
1 0.513588 0.0537881
1 0.516564 0.0595102
1 0.519066 0.0648356
1 0.521508 0.0701152
0 0.482017 0
0 0.487724 0
0 0.493996 0
0 0.500755 0
0 0.507683 0
0 0.514794 0
0 0.52253 0
0 0.529976 0
0.0101472 0.537255 0
0.0394446 0.54403 0
0.0715801 0.550164 0
0.108415 0.555795 0
0.150454 0.55967 0
0.197971 0.562097 0
0.250584 0.563073 0
0.308629 0.562509 0
0.371633 0.56054 0
0.438804 0.557961 0
0.506813 0.554543 0
0.573388 0.551461 0
0.636316 0.549218 0
0.693965 0.548165 0.00239567
0.746105 0.548501 0.00717174
0.794446 0.550271 0.0127413
0.839582 0.5523 0.0182345
0.882475 0.554604 0.0237583
0.923552 0.556939 0.0291295
0.963333 0.559289 0.0344244
1 0.561822 0.0398108
1 0.564477 0.0452583
1 0.566552 0.0501869
1 0.568154 0.0547189
1 0.569497 0.0590219
0 0.530449 0
0 0.536812 0
0 0.543679 0
0 0.55111 0
0 0.559243 0
0 0.567346 0
0 0.575265 0
0 0.583124 0
0.0186923 0.590829 0
0.0486152 0.598154 0
0.0817731 0.605158 0
0.118517 0.610712 0
0.160616 0.614649 0
0.208103 0.617044 0
0.260685 0.61799 0
0.318669 0.617395 0
0.382086 0.615763 0
0.448402 0.612436 0
0.515831 0.60853 0
0.58172 0.604868 0
0.644099 0.602121 0
0.701274 0.600671 0.000732433
0.75317 0.600793 0.00531014
0.800076 0.601312 0.00978103
0.844129 0.602396 0.0144503
0.886168 0.603967 0.0193179
0.926558 0.605707 0.0241855
0.965927 0.607706 0.02916
1 0.609125 0.0335393
1 0.610437 0.0378119
1 0.611734 0.0420386
1 0.612741 0.0460517
1 0.613474 0.0498207
0 0.57937 0
0 0.586664 0
0 0.594293 0
0 0.602502 0
0 0.610925 0
0 0.619364 0
0 0.627832 0
0.00508125 0.636103 0
0.0332036 0.644007 0
0.0636912 0.65182 0
0.0963607 0.658396 0
0.132982 0.663859 0
0.175036 0.667735 0
0.222339 0.669978 0
0.274891 0.670893 0
0.332357 0.669841 0
0.394583 0.667201 0
0.460395 0.663432 0
0.527306 0.659068 0
0.592432 0.654749 0
0.654169 0.651453 0
0.710323 0.649119 0.0012665
0.760998 0.648173 0.00491341
0.807202 0.648096 0.00885023
0.850309 0.648356 0.0127871
0.891112 0.648844 0.0167086
0.93077 0.649958 0.0210117
0.968917 0.650889 0.0250553
1 0.651713 0.0289158
1 0.652262 0.032517
1 0.652613 0.0359197
1 0.652857 0.0392309
1 0.653254 0.0426947
0 0.629282 0
0 0.63714 0
0 0.645594 0
0 0.654063 0
0 0.662638 0
0 0.671214 0
0 0.679683 0
0.0232242 0.688136 0
0.0515602 0.696239 0
0.0814374 0.703517 0
0.113832 0.70988 0
0.14995 0.714885 0
0.191333 0.718181 0
0.238361 0.720195 0
0.290196 0.720485 0
0.34696 0.718822 0
0.408286 0.715389 0
0.472999 0.710674 0
0.538979 0.705501 0
0.603784 0.700893 0
0.664378 0.69662 0.000350958
0.719432 0.693324 0.002533
0.768841 0.691295 0.00521859
0.814054 0.690349 0.0083772
0.856443 0.689998 0.01178
0.896895 0.690181 0.0154269
0.935164 0.690089 0.0186618
0.972229 0.690089 0.0218814
1 0.690211 0.0251316
1 0.690303 0.0283055
1 0.690517 0.0315862
1 0.690181 0.0344091
1 0.689754 0.0371405
0 0.680049 0
0 0.688365 0
0 0.69659 0
0 0.705028 0
0 0.713573 0
0 0.722103 0
0.0162203 0.730632 0
0.0429847 0.738827 0
0.0704509 0.746181 0
0.0996567 0.75288 0
0.131518 0.758755 0
0.167132 0.763348 0
0.208301 0.766461 0
0.253986 0.7673 0
0.304585 0.766522 0
0.360525 0.764141 0
0.42118 0.760128 0
0.485267 0.754879 0
0.550225 0.748821 0
0.613443 0.74284 0.000564584
0.673106 0.737758 0.00173953
0.727474 0.733867 0.00340276
0.776089 0.731151 0.00547799
0.820508 0.729503 0.0080415
0.861967 0.728344 0.0107271
0.901335 0.727596 0.01355
0.939132 0.727092 0.0164187
0.975677 0.72665 0.0192416
1 0.726192 0.021973
1 0.726024 0.0249332
1 0.725612 0.0276646
1 0.725002 0.0302434
1 0.724239 0.0326696
0 0.730709 0
0 0.738643 0
0 0.746822 0
0 0.755077 0
0 0.763302 0
0.0108492 0.771649 0
0.0360876 0.779431 0
0.0620584 0.786923 0
0.0890059 0.79382 0
0.117403 0.799817 0
0.148318 0.804883 0
0.183246 0.808865 0
0.223194 0.810925 0
0.268162 0.811154 0
0.317784 0.809522 0
0.372457 0.806058 0
0.432212 0.801251 0.000946059
0.495491 0.7953 0.00175479
0.559579 0.788495 0.00198367
0.621897 0.781735 0.00207523
0.680461 0.775692 0.00241093
0.733928 0.771023 0.0033875
0.782177 0.767987 0.00517281
0.825956 0.765805 0.00724804
0.866743 0.764065 0.00941482
0.90547 0.762737 0.0117342
0.942733 0.761776 0.0142061
0.978927 0.761028 0.0167544
1 0.76054 0.0194705
1 0.759731 0.0218662
1 0.758907 0.0242161
1 0.757977 0.0265202
1 0.757 0.0287633
0 0.780194 0
0 0.787655 0
0 0.795239 0
0 0.803021 0
0.00585946 0.811154 0
0.0302739 0.818586 0
0.0545968 0.825574 0
0.0794537 0.832105 0
0.105501 0.838224 0
0.133318 0.843717 0
0.163622 0.848264 0
0.197131 0.851011 0
0.235828 0.851987 0
0.279835 0.851377 0
0.328756 0.849134 0.0011902
0.383062 0.84535 0.00292973
0.441611 0.839506 0.00340276
0.503609 0.832456 0.00325017
0.566934 0.824964 0.0028687
0.628717 0.817746 0.00256352
0.686931 0.811414 0.00263981
0.739956 0.806363 0.00326543
0.78735 0.802563 0.0043946
0.830564 0.799893 0.00604257
0.871031 0.797864 0.00796521
0.909377 0.796231 0.00999466
0.946349 0.79501 0.0122377
0.982223 0.793988 0.0145418
1 0.792966 0.0167849
1 0.791959 0.0190127
1 0.79089 0.021149
1 0.78967 0.0231937
1 0.788602 0.0253605
0 0.827604 0
0 0.834653 0
0 0.842008 0
0 0.848875 0
0.0236973 0.855695 0
0.0473182 0.862425 0
0.0709697 0.868818 0
0.0949416 0.874601 0
0.120165 0.880003 0
