assets/luts/LUTs/CinePacks_MVP2_400 ft.CUBE
TITLE "Generate by Resolve"
LUT_3D_SIZE 5
0 0.00965896 0.0583505
0.0743572 0.00531014 0.0762646
0.352026 0 0.0616159
0.736339 0 0.0316472
0.985107 0 0.0213931
0 0.118379 0.00357061
0.101915 0.107256 0.0229648
0.359991 0.0700999 0.0508431
0.762478 0.00512703 0.0347753
1 0 0.0502327
0 0.307103 0
0.0287785 0.335546 0
0.366064 0.33785 0.0141909
0.82826 0.32462 0.0438392
1 0.357397 0.0983597
0 0.680049 0
0.0704509 0.746181 0
0.42118 0.760128 0
0.861967 0.728344 0.0107271
1 0.724239 0.0326696
0 1 0
0.157641 1 0
0.46923 1 0
0.88571 0.980758 0
1 0.965423 0.00447089
0 0.0138399 0.171237
0.0647135 0.00820935 0.178622
0.341772 0 0.1635
0.726345 0 0.13373
0.976013 0 0.124178
0 0.12462 0.115572
0.0706035 0.116732 0.154055
0.354376 0.0765087 0.156283
0.761746 0.0157626 0.143954
1 0.0100099 0.164446
0 0.320119 0.0575113
0.0370642 0.353994 0.0992752
0.380255 0.361425 0.134798
0.847349 0.352438 0.168185
1 0.384512 0.222095
0 0.707927 0.0103456
0.0874037 0.772137 0.0789044
0.431846 0.780652 0.115373
0.867567 0.744472 0.124758
1 0.738003 0.144625
0 1 0.0635843
0.159594 1 0.0976883
0.470161 1 0.108248
0.885756 0.992065 0.102205
1 0.976944 0.114427
0 0.0105592 0.413016
0.027924 0.00389105 0.418982
0.304601 0 0.403571
0.689738 0 0.374228
0.94081 0 0.365743
0 0.118242 0.396521
0.0327001 0.115297 0.405753
0.323186 0.0770428 0.400931
0.737118 0.0219883 0.393622
1 0.0213169 0.418616
0 0.327962 0.308614
0.0205539 0.367269 0.355169
0.37174 0.379797 0.393179
0.839353 0.373083 0.430594
1 0.403601 0.483131
0 0.728878 0.27303
0.0749676 0.788922 0.337896
0.41416 0.792889 0.370367
0.845075 0.752544 0.376059
1 0.744259 0.394324
0 1 0.314336
0.134432 1 0.34696
0.443946 1 0.356695
0.85919 0.996612 0.350393
1 0.981369 0.362524
0 0.00166323 0.753552
0 0 0.758999
0.248249 0 0.743557
0.634195 0 0.714824
0.887037 0 0.707713
0 0.109865 0.737499
0 0.108736 0.748333
0.274861 0.0744945 0.747066
0.69453 0.0243992 0.744137
0.995987 0.0295262 0.774243
0 0.332723 0.661204
0 0.377371 0.712474
0.341787 0.39498 0.757
0.812345 0.389013 0.793057
1 0.41593 0.84242
0 0.743862 0.634638
0.0420386 0.799725 0.695827
0.374777 0.798093 0.723339
0.802594 0.755062 0.726665
1 0.744854 0.743236
0 1 0.66421
0.0894636 1 0.695659
0.397986 1 0.704631
0.813245 0.996124 0.698344
1 0.981247 0.710781
0 0 0.966857
0 0 0.971771
0.216754 0 0.956619
0.603616 0 0.928588
0.858747 0 0.923217
0 0.10837 0.951843
0 0.109697 0.964843
0.252766 0.0796979 0.967315
0.679179 0.0354467 0.969558
0.987015 0.0460975 1
0 0.345754 0.88838
0 0.395621 0.944259
0.339178 0.417075 0.992172
0.809018 0.410483 1
1 0.432822 1
0 0.763912 0.868025
0.0310674 0.814572 0.924605
0.358663 0.808469 0.94818
0.783932 0.763241 0.949554
1 0.751614 0.964874
0 1 0.886397
0.0688792 1 0.917067
0.376745 1 0.925536
0.792004 1 0.919249
1 0.987106 0.931624
