assets/luts/LUTs/CinePacks_MVP2_Take off.CUBE
TITLE "Generate by Resolve"
LUT_3D_SIZE 9
0.0124819 0.028748 0.0289464
0.0345159 0.0296178 0.0288243
0.143343 0.0382849 0.0305791
0.299321 0.0119478 0.00727855
0.446403 0 0
0.545754 0 0
0.615808 0 0
0.675807 0 0
0.725216 0 0
0.0175479 0.0633402 0.0499886
0.0363165 0.0657664 0.0450294
0.151766 0.0764019 0.0350042
0.323827 0.058793 0
0.478172 0.027863 0
0.576883 0.00282292 0
0.649027 0 0
0.709773 0 0
0.758923 0 0
0.0227665 0.102007 0.0720989
0.0393378 0.103914 0.0669871
0.161273 0.120089 0.0339666
0.354421 0.113512 0.000274662
0.50927 0.0945449 0
0.609598 0.0813306 0
0.684092 0.0771801 0
0.750713 0.0744793 0
0.803784 0.0717632 0
0.0247654 0.151919 0.100465
0.0429694 0.154803 0.0954147
0.127535 0.194415 0
0.389441 0.192599 0.0255436
0.54995 0.190295 0.0065919
0.654078 0.187747 0
0.733516 0.191821 0
0.805402 0.201205 0
0.863355 0.202777 0
0.0187076 0.220996 0.13106
0.0397955 0.226093 0.127306
0.0694743 0.291554 0.0736858
0.43508 0.336843 0.0146487
0.631342 0.337469 0.0449226
0.736904 0.34287 0.0534981
0.80705 0.346578 0.0465095
0.870726 0.360433 0.054551
0.925093 0.364736 0.0538338
0.00903334 0.295293 0.157702
0.0300755 0.302251 0.155993
0.0643931 0.398581 0.116487
0.449989 0.504723 0
0.697734 0.505196 0.0407874
0.819791 0.508629 0.0684215
0.895796 0.510475 0.0774701
0.955291 0.516716 0.091249
1 0.523598 0.101839
0.00328069 0.363821 0.183032
0.0268711 0.372412 0.182223
0.0733959 0.49012 0.156847
0.443946 0.63801 0
0.733501 0.632883 0.0349279
0.865385 0.637659 0.0729381
0.944854 0.63888 0.089189
1 0.641611 0.105196
1 0.641367 0.112673
0.00207523 0.42974 0.209766
0.0285801 0.440787 0.211154
0.0868086 0.571878 0.20087
0.435904 0.735607 0.0281376
0.74519 0.727337 0.0301061
0.889921 0.730434 0.0706645
0.973465 0.730175 0.0928511
1 0.730999 0.108034
1 0.731441 0.116991
0.00842298 0.509667 0.253681
0.0354772 0.519005 0.253269
0.10898 0.66125 0.255268
0.436942 0.812253 0.0589914
0.745556 0.804288 0.0243381
0.90251 0.804807 0.0645762
0.9935 0.806043 0.0874189
1 0.804929 0.104616
1 0.802869 0.114992
0.00828565 0.0339361 0.0614023
0.031632 0.0330968 0.0678111
0.128801 0.0395056 0.0757305
0.2934 0.0161135 0.0611276
0.445975 0 0.0414282
0.548074 0 0.0292058
0.619944 0 0.024445
0.679637 0 0.0233158
0.72958 0 0.0211795
0.0205997 0.0675364 0.0691386
0.0422065 0.068101 0.069688
0.132525 0.0810559 0.0747692
0.31606 0.0637827 0.0563363
0.482673 0.0250706 0.0321508
0.587152 0 0.0174716
0.655848 0 0.0162051
0.714809 0 0.01944
0.764767 0 0.019791
0.0278782 0.105241 0.0913405
0.049546 0.106325 0.0924544
0.134371 0.127779 0.0727855
0.343923 0.121675 0.0531472
0.523507 0.0947127 0.0251926
0.628901 0.0773175 0.01178
0.700359 0.0745098 0.0168002
0.763302 0.0809186 0.0266117
0.817624 0.0823682 0.0326543
0.0323491 0.157168 0.123171
0.0520333 0.158953 0.121904
0.0908064 0.194629 0.105455
0.395331 0.206622 0.0620127
0.576806 0.199344 0.0338598
0.687419 0.190433 0.0179141
0.764706 0.193301 0.0167086
0.831312 0.20499 0.0286107
0.887388 0.21033 0.0360266
0.0297856 0.229023 0.155917
0.0487068 0.233173 0.154849
0.0514534 0.284123 0.136522
0.444663 0.362158 0.0395361
0.65658 0.358938 0.071809
0.769238 0.363714 0.0757916
0.839017 0.366995 0.0741283
0.904555 0.378683 0.0756085
0.963409 0.385443 0.0758068
0.0157626 0.303517 0.185031
0.038056 0.310979 0.185016
0.044419 0.382452 0.180804
0.441779 0.535424 0.0159152
0.715434 0.530632 0.0677043
0.843259 0.535546 0.0967117
0.916945 0.536309 0.117098
0.979217 0.540505 0.123735
1 0.54641 0.124544
0.0162814 0.372976 0.211521
0.0417487 0.383032 0.213352
0.0457618 0.465187 0.211002
0.424247 0.658091 0.0349584
0.742763 0.652918 0.0635538
0.879362 0.657435 0.104402
0.962722 0.659785 0.126482
1 0.661311 0.137087
1 0.662394 0.1458
0.018555 0.438422 0.238361
0.0396277 0.448615 0.241337
0.0586862 0.544778 0.252827
0.41532 0.745922 0.0732586
0.744656 0.741238 0.0582284
0.897169 0.745144 0.101579
0.985351 0.745449 0.121904
1 0.746715 0.135805
1 0.747417 0.148791
0.0239719 0.517998 0.284169
0.0518654 0.52694 0.284306
0.0957198 0.63679 0.308156
0.412863 0.820813 0.120073
0.735088 0.816129 0.0498054
0.902785 0.815122 0.0907912
1 0.815915 0.116548
1 0.816419 0.133135
1 0.815854 0.145434
0.00323491 0.0421149 0.10779
0.0291752 0.0406806 0.113573
0.107179 0.0402533 0.133791
0.279789 0.0229953 0.126467
0.438178 0 0.107805
0.553475 0 0.0938888
0.623652 0 0.0913405
0.684321 0 0.0927291
0.737972 0 0.0954604
0.0181125 0.0748913 0.105043
0.0387579 0.0758068 0.108949
0.106615 0.0830854 0.133913
0.303502 0.0710918 0.125048
0.477623 0.0344854 0.1037
0.590906 0.0015259 0.0909285
0.66038 0 0.0902419
0.720439 0 0.0966659
0.773068 0 0.101717
0.0305638 0.113436 0.117357
0.0514687 0.115023 0.1187
0.0961166 0.129595 0.129931
0.327138 0.135576 0.12311
0.518685 0.108141 0.103456
0.637064 0.0895705 0.0963149
0.708125 0.0855421 0.0991684
0.772931 0.0937514 0.112139
0.830808 0.0991226 0.122072
0.0382086 0.166476 0.145922
0.0601968 0.168643 0.148928
0.0855268 0.18558 0.159319
0.369497 0.232227 0.134508
0.574105 0.224674 0.113115
0.696635 0.216831 0.108553
0.773129 0.216007 0.115938
0.840726 0.230884 0.130526
0.90103 0.241154 0.142199
0.0369421 0.241505 0.187304
0.0582589 0.246403 0.190494
0.078233 0.27599 0.200717
0.415335 0.401404 0.0897536
0.670802 0.392218 0.128405
0.790631 0.395621 0.133349
0.860334 0.396201 0.137194
0.924041 0.410376 0.149325
0.980972 0.423209 0.160189
0.0324102 0.31986 0.2215
0.0564584 0.328099 0.225177
0.072755 0.373236 0.241459
0.389822 0.579843 0.0540475
0.737224 0.565881 0.0968185
0.878141 0.567498 0.13225
0.956573 0.564996 0.149783
1 0.569024 0.161517
1 0.576303 0.170809
0.0274052 0.386435 0.249821
0.0564431 0.398733 0.254994
0.0778515 0.456245 0.27747
0.365667 0.693004 0.112428
0.750912 0.681926 0.0836652
0.907866 0.683787 0.123033
1 0.684428 0.139681
1 0.684367 0.148836
1 0.686503 0.160983
0.0329747 0.45507 0.282765
0.0632029 0.468757 0.288396
0.0849317 0.530419 0.315297
0.361395 0.771542 0.186465
0.744396 0.767758 0.0694438
0.917021 0.76733 0.116732
1 0.768734 0.141146
1 0.770108 0.160021
1 0.773037 0.183749
0.0527199 0.540719 0.336385
0.077348 0.548394 0.337301
0.110811 0.620005 0.369665
0.36405 0.83473 0.24686
0.72784 0.842039 0.0622721
0.924956 0.837003 0.0955825
1 0.836362 0.12285
1 0.836835 0.146502
1 0.838865 0.171939
0.00198367 0.0554818 0.178195
0.0284733 0.0545205 0.182803
0.0702373 0.0357519 0.24007
0.257862 0.0185092 0.25658
0.424399 0 0.241093
0.549783 0 0.230137
0.62504 0 0.232349
0.686061 0 0.245441
0.741726 0 0.261372
0.0115663 0.0884108 0.168414
0.0330663 0.0893416 0.178286
0.0599832 0.0872206 0.220859
0.280903 0.0757153 0.255085
0.461753 0.0389868 0.241825
0.587701 0.00430304 0.238254
0.661463 0 0.24686
0.721721 0 0.268223
0.776974 0 0.290028
0.0301518 0.126085 0.166003
0.0529641 0.128008 0.170504
0.067628 0.134447 0.192813
0.300649 0.145953 0.243549
0.50544 0.121706 0.234989
0.635081 0.102983 0.235996
0.713527 0.0967422 0.250004
0.779782 0.103517 0.276844
0.84181 0.113878 0.307698
0.0406653 0.180423 0.182544
0.0631571 0.183108 0.186313
0.0865187 0.193057 0.197299
0.31458 0.260334 0.23093
0.550454 0.250568 0.223102
0.694316 0.242969 0.233066
0.780392 0.242741 0.247196
0.848325 0.253346 0.268177
0.912703 0.269459 0.29633
0.0445258 0.261112 0.223758
0.071397 0.265614 0.230442
0.0953078 0.281773 0.244755
0.301488 0.447272 0.249058
0.638102 0.439567 0.245853
0.773617 0.442863 0.247898
0.851408 0.441215 0.251286
0.915084 0.450904 0.264546
0.973266 0.463294 0.278691
0.051545 0.340856 0.268742
0.079057 0.349432 0.276875
0.0986801 0.375128 0.294667
0.302968 0.59736 0.321736
0.694255 0.614176 0.211139
0.8645 0.610727 0.242664
0.948928 0.606775 0.260975
1 0.609583 0.275731
1 0.615274 0.286442
0.0470436 0.407614 0.303624
0.075349 0.418875 0.312596
0.104936 0.455665 0.335256
0.311498 0.697459 0.372335
0.700343 0.729061 0.178668
0.900572 0.722469 0.2121
1 0.721416 0.232563
1 0.722148 0.25275
1 0.72372 0.277913
0.0567178 0.477653 0.342275
0.0831617 0.488945 0.350011
0.120439 0.532204 0.379202
0.316777 0.76849 0.41442
0.679896 0.811566 0.157122
0.908766 0.802655 0.191608
1 0.802258 0.219577
1 0.804547 0.252827
1 0.804623 0.279301
0.0716259 0.560311 0.401144
0.0992142 0.568826 0.40415
0.14052 0.617914 0.434943
0.329747 0.832532 0.459815
0.650111 0.885954 0.177142
0.904173 0.872511 0.172992
1 0.869154 0.199695
1 0.87071 0.242237
1 0.871778 0.284306
0 0.0695506 0.286397
0.0248264 0.0680705 0.289326
0.0509957 0.0662852 0.310124
0.223774 0.00755322 0.454368
0.399176 0 0.440864
0.53991 0 0.422293
0.622263 0 0.417868
0.684932 0 0.424949
0.741604 0 0.438361
0.00262455 0.104784 0.289372
0.0270695 0.104921 0.298238
0.0513008 0.103441 0.32845
0.242771 0.0725261 0.474739
0.433219 0.0357977 0.46363
0.576089 3.0518e-05 0.456474
0.65684 0 0.456321
0.719112 0 0.467903
0.777462 0 0.48368
0.0161898 0.14728 0.280247
0.0360571 0.149416 0.29395
0.0559091 0.151354 0.325216
0.252659 0.152438 0.480171
0.478416 0.130343 0.484611
0.628885 0.110124 0.484413
0.714107 0.101076 0.493019
0.781888 0.107378 0.514336
0.847562 0.121431 0.541909
0.0352636 0.204837 0.273884
0.0562295 0.209354 0.286687
0.0771649 0.215198 0.304799
0.246647 0.282887 0.459998
0.521401 0.27953 0.480064
0.687114 0.270191 0.493812
0.782513 0.267536 0.514153
0.854688 0.278111 0.538354
0.919249 0.294591 0.564553
0.045594 0.290364 0.294194
0.072282 0.297185 0.306279
0.0985428 0.308156 0.322637
0.263798 0.451698 0.438514
0.559792 0.493477 0.445411
0.727718 0.49865 0.459068
0.828397 0.49102 0.476997
0.899413 0.490349 0.496849
0.958419 0.499763 0.521324
0.0523537 0.367636 0.328649
0.0816663 0.379232 0.342382
0.116747 0.398795 0.361929
0.262211 0.582666 0.50164
0.578973 0.669978 0.396948
0.801373 0.658457 0.437522
0.898268 0.656062 0.457679
0.954498 0.657526 0.467948
1 0.662394 0.480293
0.0613718 0.435203 0.3682
0.0914626 0.447028 0.38117
0.1234 0.469673 0.403189
0.258061 0.666987 0.535088
0.568276 0.775937 0.397543
0.835065 0.764233 0.3888
0.954711 0.761654 0.418372
1 0.763745 0.441581
1 0.764126 0.46186
0.0746471 0.500313 0.410681
0.105364 0.512139 0.423163
0.143618 0.541451 0.449882
0.257862 0.732616 0.564019
0.559075 0.847074 0.424018
0.837064 0.843244 0.351431
0.980362 0.83917 0.378408
1 0.8392 0.409735
1 0.839963 0.445304
0.100191 0.583322 0.472984
0.128557 0.590585 0.479713
0.168658 0.62295 0.506142
0.275822 0.796918 0.602197
0.557397 0.905547 0.465736
0.820142 0.911635 0.334447
0.986145 0.904372 0.360601
1 0.903243 0.395087
1 0.902083 0.44123
0 0.0747539 0.390265
0.0202029 0.073106 0.388739
0.0469215 0.0713512 0.397894
0.191714 0.00781262 0.580652
0.376287 0 0.570001
0.529274 0 0.550347
0.622919 0 0.540536
0.688396 0 0.541329
0.747265 0 0.547875
0 0.111849 0.404196
0.0207675 0.110948 0.411032
0.0467842 0.109926 0.424781
0.206332 0.0729686 0.609369
0.41178 0.0409552 0.599924
0.566552 0.004654 0.58526
0.655573 0 0.580346
0.722469 0 0.585229
0.783566 0 0.594629
0 0.159457 0.410864
0.0241093 0.160006 0.421439
0.0485847 0.160082 0.438682
0.206546 0.153933 0.638148
0.449775 0.137926 0.640467
0.619486 0.119112 0.637949
0.713252 0.109148 0.638712
0.784848 0.112139 0.650965
0.850828 0.127703 0.668345
0.0240024 0.23267 0.409903
0.0425727 0.235904 0.422538
0.0662394 0.238148 0.440269
0.174487 0.291478 0.641413
0.486809 0.29955 0.67628
0.676081 0.294118 0.686671
0.781384 0.285664 0.696056
0.856413 0.290608 0.710063
0.921386 0.306554 0.726406
0.0456703 0.328496 0.421958
0.0717784 0.336339 0.434989
0.0941329 0.34168 0.448524
0.168612 0.451667 0.580392
0.497398 0.529656 0.67364
0.702113 0.526665 0.687266
0.819883 0.515663 0.69929
0.894102 0.512413 0.711818
0.9561 0.516579 0.723873
0.0593729 0.411612 0.445869
0.0890974 0.422583 0.460014
0.119295 0.434974 0.474037
0.194965 0.573663 0.60296
0.545525 0.685145 0.675334
0.721828 0.704341 0.668391
0.83444 0.702159 0.673167
0.908064 0.695277 0.681132
0.968277 0.694377 0.690669
0.0753643 0.479011 0.470161
0.106966 0.49221 0.48481
0.13843 0.508736 0.502297
0.21648 0.655894 0.633799
0.560861 0.77615 0.721599
0.714199 0.812421 0.658412
0.879622 0.806378 0.662638
0.955413 0.806485 0.677089
1 0.809552 0.68513
0.095079 0.540917 0.501015
0.127062 0.55436 0.514916
0.16022 0.573892 0.535637
0.237949 0.716976 0.662272
0.561502 0.840894 0.741863
0.715114 0.88452 0.663279
0.895201 0.882918 0.621759
0.989075 0.879973 0.648005
1 0.882094 0.675914
0.123552 0.619348 0.556023
0.153597 0.627665 0.564752
0.185626 0.644495 0.581094
0.256214 0.776059 0.69575
0.562631 0.897246 0.756039
0.713802 0.942443 0.674968
0.889647 0.94873 0.58822
1 0.942946 0.616327
1 0.941497 0.65005
0 0.0768139 0.478462
0.0156863 0.075349 0.479561
0.0427253 0.0741131 0.48481
0.164889 0.0251469 0.669734
0.35938 0 0.665202
0.527031 0 0.648081
0.629648 0 0.636698
0.700603 0 0.637461
0.760967 0 0.644724
0 0.114366 0.497536
0.0161288 0.113664 0.50045
0.0429084 0.113207 0.507546
0.177111 0.0806439 0.696208
0.390433 0.0579232 0.695018
0.5635 0.0314031 0.681941
0.664256 0.0138552 0.67599
0.736767 0.0155337 0.680812
0.805753 0.0343175 0.69575
0 0.16582 0.51603
0.0170901 0.165682 0.521691
0.0434424 0.164416 0.53138
0.167773 0.15874 0.729473
0.424689 0.149767 0.739101
0.612146 0.135027 0.736385
0.717021 0.125948 0.737636
0.794263 0.132509 0.746288
0.863264 0.150652 0.762036
0.0134737 0.249531 0.521309
0.0404822 0.252476 0.533623
0.057496 0.249882 0.543709
0.102922 0.286839 0.724651
0.450935 0.314687 0.789212
0.658518 0.307042 0.796551
0.779309 0.300526 0.805417
0.857267 0.301503 0.813138
0.923491 0.312596 0.822278
0.0326085 0.355154 0.52604
0.0587167 0.360708 0.537072
0.0842908 0.364096 0.547601
0.127184 0.449592 0.658808
0.443244 0.542962 0.798962
0.679423 0.542184 0.817304
0.80766 0.533913 0.825483
0.889632 0.523857 0.83357
0.953384 0.529397 0.840726
0.063798 0.442512 0.547265
0.0980392 0.454765 0.56112
0.13135 0.466316 0.574792
0.180636 0.571527 0.682994
0.489967 0.699428 0.788312
0.680949 0.719066 0.809583
0.817075 0.717647 0.818189
0.901946 0.708812 0.823636
0.963729 0.706035 0.829969
0.0863966 0.511391 0.571496
0.117174 0.524102 0.583993
0.146075 0.535515 0.595071
0.216312 0.656336 0.714778
0.513268 0.789197 0.8121
0.713329 0.81651 0.814084
0.823728 0.833631 0.809918
0.913191 0.833356 0.813397
0.976257 0.832425 0.81912
0.108293 0.576669 0.600168
0.1402 0.589441 0.611673
0.171969 0.602975 0.624216
0.239689 0.720317 0.741039
0.52639 0.85417 0.837415
0.725643 0.88333 0.848997
0.827054 0.909895 0.832547
0.941375 0.908736 0.807874
1 0.909239 0.821729
0.142977 0.656733 0.650828
0.170001 0.664851 0.657374
0.196536 0.670695 0.661631
0.259586 0.780209 0.768856
0.537316 0.905104 0.860273
0.729015 0.938827 0.874846
0.829953 0.969955 0.852583
0.937285 0.978912 0.789502
1 0.973327 0.810056
0 0.0812848 0.565652
0.0117647 0.0797131 0.564309
0.0390021 0.0774243 0.563989
0.138567 0.0400549 0.743008
0.342901 0.0147555 0.742931
0.521157 0 0.723644
0.628717 0 0.709102
0.701106 0 0.704402
0.759716 0 0.704265
0 0.119478 0.579034
0.0123903 0.119509 0.582574
0.0394751 0.118791 0.589395
0.145571 0.0958267 0.771496
0.374823 0.0770275 0.773785
0.562127 0.0533761 0.761028
0.670878 0.0366369 0.753109
0.743816 0.0321355 0.752148
0.809003 0.041413 0.760769
0 0.171283 0.595956
0.0126192 0.171206 0.6038
0.0399939 0.170291 0.609339
0.126894 0.170382 0.797818
0.406134 0.173846 0.820783
0.610849 0.164157 0.821622
0.729076 0.157229 0.823911
0.806516 0.155962 0.827115
0.873564 0.166598 0.83505
0 0.258793 0.601617
0.0184939 0.25948 0.612284
0.0450141 0.258717 0.621759
0.0711986 0.292302 0.760266
0.418723 0.333303 0.867292
0.647745 0.331151 0.877333
0.777722 0.326635 0.886351
0.862364 0.324804 0.893294
0.929442 0.331792 0.899367
0.0247654 0.372152 0.604044
0.0529183 0.377737 0.612909
0.0785534 0.37641 0.620981
0.118349 0.450156 0.711635
0.399023 0.552209 0.877134
0.651438 0.55172 0.901381
0.795911 0.544991 0.909712
0.88632 0.538659 0.915389
0.951827 0.535668 0.918883
0.0659953 0.463416 0.625422
0.0950637 0.472374 0.634668
0.118624 0.477745 0.641733
0.184497 0.572427 0.739528
0.43006 0.704494 0.867628
0.649577 0.723827 0.902296
0.802152 0.724605 0.913848
0.89482 0.717159 0.916808
0.961669 0.712474 0.919219
0.103334 0.538445 0.652827
0.134173 0.550042 0.663508
0.155932 0.556924 0.670024
0.216022 0.653803 0.768872
0.438773 0.789624 0.888411
0.682521 0.823163 0.891783
0.808286 0.841138 0.910994
0.903517 0.842283 0.919829
0.971679 0.839155 0.921752
0.120211 0.601144 0.678233
0.155383 0.612772 0.688136
0.188846 0.624796 0.698955
0.243656 0.718502 0.794461
0.435309 0.852506 0.908675
0.700313 0.889372 0.909819
0.831983 0.912963 0.9149
0.909865 0.923705 0.919554
0.978195 0.926268 0.916442
0.146532 0.677104 0.721859
0.176165 0.685328 0.729168
0.2056 0.691798 0.733166
0.259144 0.778592 0.820996
0.466575 0.908614 0.928069
0.712139 0.944915 0.931777
0.843061 0.96997 0.945739
0.915236 0.986984 0.94435
0.994446 0.991241 0.913008
0 0.0794385 0.630686
0.00898756 0.0776074 0.629252
0.0364538 0.0755016 0.625788
0.116243 0.0382544 0.797009
0.327932 0.0164034 0.802045
0.509499 0 0.783108
0.623941 0 0.768139
0.698817 0 0.762402
0.758709 0 0.762768
0 0.120958 0.649973
0.00955215 0.119539 0.649958
0.0369421 0.116823 0.652354
0.119051 0.0947127 0.826352
0.360281 0.0795453 0.834012
0.554818 0.0562448 0.82182
0.667704 0.0395056 0.814069
0.743267 0.034287 0.81268
0.808957 0.0425269 0.8206
0 0.176501 0.669581
0.00955215 0.17554 0.673823
0.0375372 0.174212 0.675746
0.0999161 0.17705 0.834028
0.38732 0.181216 0.883482
0.601709 0.168765 0.88275
0.72575 0.162402 0.885924
0.807233 0.16025 0.889357
0.873915 0.169177 0.896666
0 0.26981 0.674205
0.017792 0.271748 0.68191
0.0408484 0.267994 0.688701
0.0686351 0.304204 0.794003
0.386786 0.351797 0.9346
0.630518 0.347478 0.942748
0.772992 0.343496 0.952605
0.862654 0.337743 0.958938
0.930938 0.340124 0.964172
0.0173648 0.381323 0.669047
0.0444648 0.386801 0.678218
0.0689097 0.386603 0.686992
0.110765 0.448737 0.760113
0.347875 0.559182 0.934112
0.623468 0.566232 0.969268
0.784604 0.559991 0.978164
0.881453 0.554192 0.982589
0.951141 0.546242 0.983749
0.0535134 0.470359 0.682338
0.0829175 0.479164 0.691554
0.110521 0.486229 0.699214
0.163424 0.563149 0.778149
0.355062 0.697459 0.921111
0.618448 0.726085 0.969162
0.78468 0.728695 0.984192
0.888289 0.723934 0.987732
0.958251 0.718181 0.988312
0.0937972 0.545357 0.707088
0.119493 0.553979 0.715389
0.145418 0.562371 0.723369
0.202426 0.643687 0.806226
0.350912 0.780224 0.939086
0.644388 0.824369 0.955764
0.786664 0.841108 0.985
0.894957 0.843153 0.992538
0.968566 0.841382 0.995254
0.131212 0.616815 0.739391
0.160845 0.626383 0.748104
0.187686 0.635157 0.755611
0.248707 0.715694 0.83592
0.363653 0.842847 0.958633
0.669291 0.891539 0.967422
0.809247 0.915297 0.974716
0.899138 0.928832 0.991714
0.972274 0.929351 0.995499
0.159564 0.692485 0.781369
0.18851 0.69987 0.786679
0.216907 0.704906 0.789563
0.265476 0.777523 0.864668
0.376638 0.897017 0.976974
0.683726 0.947784 0.985992
0.827131 0.972519 0.989944
0.920455 0.988464 0.993973
0.980392 0.997452 0.995911
