assets/luts/LUTs/CinePacks_MVP2_Take off.CUBE
TITLE "Generate by Resolve"
LUT_3D_SIZE 5
0.0124819 0.028748 0.0289464
0.143343 0.0382849 0.0305791
0.446403 0 0
0.615808 0 0
0.725216 0 0
0.0227665 0.102007 0.0720989
0.161273 0.120089 0.0339666
0.50927 0.0945449 0
0.684092 0.0771801 0
0.803784 0.0717632 0
0.0187076 0.220996 0.13106
0.0694743 0.291554 0.0736858
0.631342 0.337469 0.0449226
0.80705 0.346578 0.0465095
0.925093 0.364736 0.0538338
0.00328069 0.363821 0.183032
0.0733959 0.49012 0.156847
0.733501 0.632883 0.0349279
0.944854 0.63888 0.089189
1 0.641367 0.112673
0.00842298 0.509667 0.253681
0.10898 0.66125 0.255268
0.745556 0.804288 0.0243381
0.9935 0.806043 0.0874189
1 0.802869 0.114992
0.00323491 0.0421149 0.10779
0.107179 0.0402533 0.133791
0.438178 0 0.107805
0.623652 0 0.0913405
0.737972 0 0.0954604
0.0305638 0.113436 0.117357
0.0961166 0.129595 0.129931
0.518685 0.108141 0.103456
0.708125 0.0855421 0.0991684
0.830808 0.0991226 0.122072
0.0369421 0.241505 0.187304
0.078233 0.27599 0.200717
0.670802 0.392218 0.128405
0.860334 0.396201 0.137194
0.980972 0.423209 0.160189
0.0274052 0.386435 0.249821
0.0778515 0.456245 0.27747
0.750912 0.681926 0.0836652
1 0.684428 0.139681
1 0.686503 0.160983
0.0527199 0.540719 0.336385
0.110811 0.620005 0.369665
0.72784 0.842039 0.0622721
1 0.836362 0.12285
1 0.838865 0.171939
0 0.0695506 0.286397
0.0509957 0.0662852 0.310124
0.399176 0 0.440864
0.622263 0 0.417868
0.741604 0 0.438361
0.0161898 0.14728 0.280247
0.0559091 0.151354 0.325216
0.478416 0.130343 0.484611
0.714107 0.101076 0.493019
0.847562 0.121431 0.541909
0.045594 0.290364 0.294194
0.0985428 0.308156 0.322637
0.559792 0.493477 0.445411
0.828397 0.49102 0.476997
0.958419 0.499763 0.521324
0.0613718 0.435203 0.3682
0.1234 0.469673 0.403189
0.568276 0.775937 0.397543
0.954711 0.761654 0.418372
1 0.764126 0.46186
0.100191 0.583322 0.472984
0.168658 0.62295 0.506142
0.557397 0.905547 0.465736
0.986145 0.904372 0.360601
1 0.902083 0.44123
0 0.0768139 0.478462
0.0427253 0.0741131 0.48481
0.35938 0 0.665202
0.629648 0 0.636698
0.760967 0 0.644724
0 0.16582 0.51603
0.0434424 0.164416 0.53138
0.424689 0.149767 0.739101
0.717021 0.125948 0.737636
0.863264 0.150652 0.762036
0.0326085 0.355154 0.52604
0.0842908 0.364096 0.547601
0.443244 0.542962 0.798962
0.80766 0.533913 0.825483
0.953384 0.529397 0.840726
0.0863966 0.511391 0.571496
0.146075 0.535515 0.595071
0.513268 0.789197 0.8121
0.823728 0.833631 0.809918
0.976257 0.832425 0.81912
0.142977 0.656733 0.650828
0.196536 0.670695 0.661631
0.537316 0.905104 0.860273
0.829953 0.969955 0.852583
1 0.973327 0.810056
0 0.0794385 0.630686
0.0364538 0.0755016 0.625788
0.327932 0.0164034 0.802045
0.623941 0 0.768139
0.758709 0 0.762768
0 0.176501 0.669581
0.0375372 0.174212 0.675746
0.38732 0.181216 0.883482
0.72575 0.162402 0.885924
0.873915 0.169177 0.896666
0.0173648 0.381323 0.669047
0.0689097 0.386603 0.686992
0.347875 0.559182 0.934112
0.784604 0.559991 0.978164
0.951141 0.546242 0.983749
0.0937972 0.545357 0.707088
0.145418 0.562371 0.723369
0.350912 0.780224 0.939086
0.786664 0.841108 0.985
0.968566 0.841382 0.995254
0.159564 0.692485 0.781369
0.216907 0.704906 0.789563
0.376638 0.897017 0.976974
0.827131 0.972519 0.989944
0.980392 0.997452 0.995911
