assets/luts/LUTs/CinePacks_MVP2__Natural_DLOG_02.CUBE
LUT_3D_SIZE 6
0.000000 0.000000 0.000000
0.146135 -0.001251 -0.001251
0.495511 -0.002640 -0.002640
0.829326 -0.003944 -0.003944
1.000000 -0.005085 -0.005085
1.000002 -0.005419 -0.005419
-0.002071 0.146134 -0.002071
0.146133 0.146133 -0.002309
0.495510 0.247753 -0.003240
0.829325 0.276456 -0.004312
1.000000 0.249992 -0.005336
1.000002 0.200001 -0.005579
-0.004374 0.495507 -0.004374
0.247749 0.495507 -0.004474
0.495505 0.495505 -0.004878
0.829323 0.552905 -0.005546
1.000000 0.499983 -0.006246
1.000002 0.400007 -0.006188
-0.006539 0.829320 -0.006539
0.276441 0.829320 -0.006596
0.552900 0.829319 -0.006839
0.829330 0.829330 -0.007282
1.000000 0.749967 -0.007676
1.000001 0.600013 -0.007224
-0.008424 1.000000 -0.008424
0.249970 1.000000 -0.008463
0.500003 1.000000 -0.008619
0.749966 1.000000 -0.008924
1.000000 1.000000 -0.009386
1.000000 0.800046 -0.008537
-0.008991 1.000000 -0.008991
0.199961 1.000000 -0.009021
0.400010 1.000000 -0.009106
0.600009 1.000000 -0.009310
0.800045 1.000000 -0.009614
1.000000 1.000000 -0.010026
-0.000798 -0.000798 0.146136
0.146135 -0.001414 0.146135
0.495511 -0.002711 0.247755
0.829326 -0.003985 0.276458
1.000000 -0.005108 0.249993
1.000002 -0.005436 0.200003
-0.002156 0.146133 0.146133
0.146133 0.146133 0.146133
0.623470 0.019302 0.019302
0.889369 0.000000 0.000000
1.000000 0.000000 0.000000
1.000002 0.112637 0.112637
-0.004416 0.495507 0.247749
0.000000 0.515800 0.000000
0.501120 0.501120 0.000000
0.852562 0.537144 0.000000
1.000000 0.465123 0.000000
1.000002 0.377710 0.112637
-0.006563 0.829320 0.276441
0.000000 0.837473 0.000000
0.526153 0.835101 0.000000
0.831203 0.831203 0.000000
1.000000 0.738260 0.000000
1.000001 0.590232 0.112623
-0.008450 1.000000 0.249971
0.000000 0.999980 0.000000
0.465123 1.000000 0.000000
0.738260 0.999980 0.000000
1.000000 1.000000 0.000000
1.000000 0.796144 0.111851
-0.008995 1.000000 0.199962
0.110102 1.000000 0.110102
0.377295 1.000000 0.110099
0.590026 1.000000 0.110096
0.796146 1.000000 0.110093
1.000000 1.000000 0.110083
-0.001683 -0.001683 0.495512
0.247756 -0.002024 0.495512
0.495510 -0.002984 0.495510
0.829325 -0.004150 0.552910
1.000000 -0.005222 0.499985
1.000002 -0.005507 0.400010
-0.002614 0.247755 0.495511
0.077875 0.077875 0.707043
0.592233 0.001797 0.592233
0.883080 0.000000 0.556383
1.000000 0.000000 0.465123
1.000002 0.112414 0.377681
-0.004560 0.495506 0.495506
0.000000 0.510047 0.510047
0.495505 0.495505 0.495505
0.957369 0.339204 0.339204
0.999980 0.378813 0.378813
1.000001 0.447041 0.447041
-0.006647 0.829319 0.552901
0.000000 0.836636 0.527093
0.134890 0.868854 0.134890
0.841591 0.841591 0.106794
0.999980 0.677462 0.163308
1.000000 0.622375 0.447037
-0.008497 1.000000 0.499976
0.000000 0.999980 0.465123
0.049751 1.000000 0.049751
0.671939 1.000000 0.044130
1.000000 1.000000 0.037230
1.000000 0.808320 0.443912
-0.009030 1.000000 0.400010
0.110101 0.999980 0.377295
0.420798 0.999980 0.420798
0.609625 1.000000 0.420796
0.803803 0.999980 0.420794
0.999980 0.999980 0.420791
-0.002512 -0.002512 0.829328
0.276462 -0.002725 0.829327
0.552911 -0.003436 0.829327
0.829325 -0.004450 0.829325
1.000000 -0.005431 0.749969
1.000002 -0.005645 0.600016
-0.003142 0.276461 0.829327
0.010071 0.010071 0.965208
0.576690 0.000000 0.915362
0.872940 0.000000 0.872940
0.999980 0.000000 0.738260
1.000002 0.111948 0.590168
-0.004812 0.552908 0.829324
0.000000 0.547462 0.868973
0.404242 0.404242 0.971842
0.946542 0.264849 0.946542
1.000000 0.357891 0.708220
1.000001 0.442217 0.619961
-0.006811 0.829319 0.829319
0.000000 0.835052 0.835052
0.123992 0.858845 0.858845
0.829329 0.829329 0.829329
1.000000 0.790792 0.790792
1.000000 0.817430 0.817430
-0.008610 1.000000 0.749966
0.000000 1.000000 0.738260
0.047709 1.000000 0.672018
0.485927 0.999980 0.485927
1.000000 1.000000 0.368672
1.000000 0.899190 0.817426
-0.009100 1.000000 0.600009
0.110099 1.000000 0.590026
0.420797 1.000000 0.609626
0.793457 1.000000 0.793457
0.887020 1.000000 0.793456
1.000000 1.000000 0.793455
-0.003239 -0.003239 1.000000
0.250000 -0.003382 1.000000
0.499987 -0.003899 0.999980
0.749970 -0.004728 1.000000
1.000000 -0.005738 1.000000
1.000002 -0.005842 0.800050
-0.003683 0.249999 1.000000
0.069956 0.069956 0.999980
0.465652 0.042383 1.000000
0.738260 0.000000 0.999980
1.000000 0.000000 1.000000
1.000002 0.111203 0.796125
-0.005030 0.499985 0.999980
0.000000 0.465123 1.000000
0.404317 0.404317 1.000000
0.713242 0.378206 1.000000
0.999980 0.321173 0.999980
1.000001 0.433913 0.806351
-0.006820 0.749968 1.000000
0.000000 0.738260 0.999980
0.283592 0.692937 1.000000
0.787681 0.787681 1.000000
1.000000 0.749777 1.000000
1.000000 0.809424 0.895119
-0.008771 1.000000 1.000000
0.000000 0.999980 0.999980
0.044735 1.000000 1.000000
0.413819 0.999980 0.999980
1.000000 1.000000 1.000000
1.000000 1.000000 1.000000
-0.009207 1.000000 0.800046
0.110097 1.000000 0.796146
0.420796 1.000000 0.803804
0.793456 1.000000 0.887020
1.000000 1.000000 1.000000
1.000000 1.000000 1.000000
-0.003457 -0.003457 1.000003
0.200007 -0.003543 1.000003
0.400016 -0.003888 1.000003
0.600017 -0.004489 1.000003
0.800051 -0.005247 1.000002
1.000002 -0.006126 1.000002
-0.003738 0.200006 1.000003
0.110142 0.110142 1.000003
0.377306 0.110140 1.000003
0.590030 0.110136 1.000003
0.796150 0.110135 1.000002
1.000001 0.110126 1.000001
-0.004707 0.400013 1.000003
0.110136 0.377305 1.000003
0.420819 0.420819 1.000002
0.609635 0.420817 1.000002
0.803809 0.420815 1.000002
1.000001 0.420812 1.000001
-0.006098 0.600015 1.000002
0.110128 0.590029 1.000002
0.420814 0.609634 1.000001
0.793464 0.793464 1.000000
0.887024 0.793463 1.000000
1.000000 0.793462 1.000000
-0.007682 0.800047 1.000000
0.110113 0.796147 1.000000
0.420806 0.803806 0.999980
0.793461 0.887022 1.000000
1.000000 1.000000 1.000000
1.000000 1.000000 1.000000
-0.009352 1.000000 1.000000
0.110094 0.999980 0.999980
0.420795 1.000000 1.000000
0.793456 1.000000 1.000000
1.000000 1.000000 1.000000
1.000000 1.000000 1.000000
