assets/luts/LUTs/CINECOLOR_SOFT_ENHANCE.CUBE
TITLE "Generated by Resolve"
LUT_3D_SIZE 33
0.0590219 0.0604257 0.0588235
0.0724956 0.0625772 0.0614023
0.086183 0.0646982 0.0639506
0.101289 0.0665751 0.0664073
0.116518 0.0684062 0.0688792
0.133303 0.0700084 0.0712291
0.150118 0.0715953 0.0735027
0.16875 0.0728466 0.0757916
0.187564 0.0740673 0.0780041
0.209049 0.0751202 0.0802319
0.231098 0.0757763 0.0827497
0.256123 0.0759442 0.0852979
0.283055 0.075761 0.0878309
0.310903 0.0752728 0.0903639
0.340917 0.074052 0.0930343
0.370718 0.072694 0.0957504
0.401801 0.0704051 0.0985885
0.432929 0.0681773 0.10132
0.463523 0.0648203 0.104204
0.494438 0.0612497 0.107012
0.524941 0.0565194 0.109926
0.555047 0.0509957 0.112902
0.585092 0.0452277 0.11577
0.614939 0.0383917 0.118914
0.644541 0.0321965 0.121981
0.673777 0.0258488 0.125246
0.702754 0.0197452 0.128481
0.731685 0.0168307 0.131685
0.759884 0.0146334 0.134905
0.788235 0.010956 0.13817
0.815869 0.0065156 0.14136
0.843503 0.00105287 0.144549
0.870253 0 0.147784
0.0640574 0.0779736 0.066041
0.078172 0.0799573 0.0684215
0.0929885 0.0821698 0.0705577
0.108232 0.0842298 0.0727092
0.124559 0.086183 0.0748302
0.141405 0.0880751 0.0767834
0.159335 0.0896162 0.0789807
0.178042 0.0909285 0.0813611
0.198291 0.0921187 0.0836194
0.220493 0.0928969 0.0859693
0.243534 0.0937362 0.0882429
0.270237 0.0938125 0.0907301
0.297002 0.0941482 0.0931106
0.32665 0.0934615 0.0956588
0.356039 0.0930037 0.098024
0.386496 0.091783 0.100603
0.417121 0.0902724 0.103151
0.447791 0.088304 0.105776
0.478202 0.0856031 0.1084
0.508629 0.0829175 0.11104
0.538781 0.0786908 0.114153
0.568689 0.0747082 0.117113
0.598383 0.0697642 0.12018
0.627756 0.064622 0.123171
0.656992 0.0590982 0.126207
0.686 0.0526436 0.12932
0.714748 0.046128 0.132387
0.742977 0.0378271 0.135515
0.771206 0.0282139 0.138628
0.79881 0.0182803 0.141787
0.8262 0.00973526 0.144839
0.853422 0.00520333 0.147967
0.880079 0.00732433 0.150927
0.0666972 0.0969406 0.071809
0.0819409 0.0990616 0.0738384
0.097673 0.101061 0.0758984
0.114031 0.102876 0.0781415
0.131167 0.10457 0.0803693
0.14876 0.106233 0.082475
0.167315 0.107988 0.0844587
0.186358 0.109575 0.0865949
0.208347 0.110765 0.0886549
0.230274 0.112032 0.0907149
0.256107 0.11281 0.0928817
0.282643 0.113283 0.0950942
0.310842 0.113527 0.0974136
0.3402 0.11339 0.0997482
0.36994 0.112993 0.102052
0.400412 0.112139 0.104601
0.430945 0.111086 0.107042
0.461189 0.1093 0.109911
0.491463 0.107515 0.112688
0.521584 0.105028 0.115602
0.551263 0.102449 0.118379
0.580896 0.0994888 0.121157
0.610285 0.0953841 0.124071
0.639429 0.091371 0.126833
0.668254 0.0856184 0.129854
0.697032 0.079881 0.132662
0.725307 0.0733349 0.135637
0.753307 0.0663005 0.138567
0.781308 0.0594797 0.141497
0.808698 0.0531472 0.144518
0.835843 0.0468452 0.147524
0.862577 0.0419318 0.150439
0.889021 0.0364233 0.153414
0.067628 0.116411 0.076936
0.0838788 0.118624 0.0788891
0.100618 0.120699 0.0808881
0.118029 0.122591 0.082948
0.135592 0.124514 0.0849317
0.154513 0.126177 0.0869001
0.173571 0.127855 0.0888838
0.194751 0.129259 0.0908675
0.216907 0.130617 0.0928969
0.240848 0.131701 0.0949111
0.267445 0.132494 0.0970169
0.294224 0.133394 0.0989242
0.323415 0.13373 0.101091
0.352697 0.134035 0.103426
0.382666 0.133684 0.105867
0.413031 0.133227 0.108354
0.443427 0.132357 0.110948
0.473487 0.131289 0.113527
0.503594 0.129946 0.116136
0.533104 0.128008 0.118807
0.562921 0.125963 0.121584
0.591974 0.123415 0.124315
0.62118 0.120577 0.127123
0.65005 0.117449 0.129824
0.678584 0.113664 0.132647
0.707149 0.110018 0.13547
0.735317 0.105119 0.13843
0.763104 0.10071 0.141253
0.790677 0.0955673 0.144228
0.817838 0.0892195 0.147112
0.844724 0.0828717 0.149859
0.87097 0.073106 0.152651
0.897169 0.0638895 0.155505
0.0672465 0.136614 0.0815442
0.0851606 0.13872 0.0834974
0.102998 0.140841 0.0853132
0.120974 0.142947 0.0870069
0.139757 0.144991 0.0887465
0.15906 0.146975 0.0905318
0.178988 0.148806 0.0922713
0.201343 0.150286 0.0941634
0.22385 0.15198 0.0959182
0.249989 0.153124 0.0978714
0.276799 0.154025 0.0999466
0.30486 0.154665 0.102144
0.334188 0.155108 0.104463
0.363836 0.155337 0.106828
0.394156 0.155169 0.10927
0.424536 0.155093 0.111589
0.45449 0.154376 0.114199
0.484443 0.153826 0.116686
0.51426 0.152956 0.119219
0.543832 0.151766 0.121767
0.573159 0.150683 0.124163
0.602121 0.14905 0.126741
0.631113 0.147112 0.129351
0.659586 0.14493 0.132006
0.688182 0.142245 0.134661
0.716167 0.139574 0.137285
0.743999 0.135958 0.140047
0.771847 0.132555 0.142794
0.798947 0.128191 0.145586
0.825895 0.123415 0.148318
0.852644 0.118135 0.151232
0.878614 0.11162 0.154208
0.904601 0.105241 0.157183
0.0632639 0.158709 0.0847639
0.0821393 0.160952 0.0864881
0.101762 0.163012 0.0881819
0.121904 0.165087 0.0899062
0.142061 0.166903 0.0915847
0.16231 0.168734 0.0933852
0.184329 0.170397 0.0951705
0.207294 0.171771 0.0972457
0.23151 0.17319 0.0991989
0.258274 0.174746 0.100969
0.285267 0.176135 0.102785
0.314534 0.177081 0.104845
0.343923 0.178088 0.106905
0.37377 0.178607 0.109148
0.404028 0.179019 0.11136
0.434287 0.179355 0.113481
0.464378 0.17911 0.115923
0.494255 0.178973 0.118212
0.523781 0.178393 0.120653
0.552972 0.177829 0.12311
0.5823 0.17705 0.125658
0.611124 0.175799 0.128206
0.639979 0.174655 0.130739
0.668406 0.172885 0.13341
0.696559 0.171069 0.135958
0.724453 0.169162 0.138659
0.752102 0.166751 0.141375
0.779736 0.164416 0.144213
0.80647 0.161425 0.147158
0.833478 0.158404 0.150134
0.859754 0.155276 0.15285
0.885725 0.151522 0.155596
0.911315 0.14786 0.158297
0.0577096 0.181476 0.0873274
0.0776379 0.183932 0.0887617
0.0987564 0.186389 0.0902266
0.120134 0.188556 0.0919051
0.141329 0.190845 0.0935073
0.163241 0.192767 0.095201
0.186664 0.19472 0.0968795
0.210224 0.196536 0.0985885
0.237064 0.198108 0.100465
0.264317 0.199481 0.102403
0.292912 0.200717 0.104326
0.32253 0.201755 0.106355
0.3523 0.202823 0.108385
0.382589 0.203326 0.110567
0.412955 0.203891 0.112718
0.443137 0.204211 0.115007
0.473243 0.204456 0.117357
0.502998 0.204486 0.119631
0.532204 0.204776 0.121904
0.561502 0.204639 0.124147
0.590478 0.204425 0.126375
0.619089 0.204181 0.12874
0.647608 0.203586 0.131075
0.675807 0.202609 0.133593
0.704021 0.201678 0.136187
0.731777 0.20029 0.138918
0.759213 0.198642 0.14168
0.786389 0.197147 0.144305
0.813184 0.19501 0.147036
0.839719 0.193042 0.149752
0.865843 0.190448 0.152544
0.891661 0.187655 0.155367
0.916869 0.185077 0.158022
0.0434424 0.20708 0.0883192
0.0677195 0.209354 0.0899519
0.0931258 0.211627 0.0916152
0.116182 0.213672 0.0932479
0.139895 0.215732 0.0948806
0.164157 0.217517 0.0966506
0.188815 0.21944 0.098436
0.213733 0.221668 0.0998093
0.241367 0.223697 0.101381
0.269413 0.225544 0.102876
0.298817 0.227115 0.10457
0.328969 0.228656 0.10631
0.359213 0.23006 0.108156
0.389548 0.231296 0.110155
0.42034 0.232334 0.112062
0.450324 0.233051 0.114183
0.480079 0.233829 0.116289
0.50985 0.234409 0.118517
0.539132 0.234623 0.120745
0.568673 0.234821 0.12311
0.597177 0.234699 0.125628
0.626001 0.234623 0.128008
0.654521 0.234302 0.130648
0.682628 0.233646 0.133364
0.710658 0.233005 0.135943
0.738155 0.232044 0.138659
0.765408 0.231205 0.141329
0.792493 0.230076 0.144091
0.81912 0.228931 0.146731
0.84564 0.227512 0.149538
0.871504 0.225803 0.1523
0.897353 0.224537 0.15494
0.922164 0.222385 0.15758
0.0339361 0.234363 0.0883192
0.0549935 0.23711 0.0894331
0.0771038 0.239612 0.0908217
0.104036 0.242084 0.092134
0.131975 0.244572 0.0934768
0.158221 0.246921 0.0949569
0.185168 0.249058 0.0963607
0.213581 0.251286 0.098024
0.242817 0.253025 0.099733
0.272511 0.254948 0.101289
0.302907 0.256641 0.103197
0.333837 0.258137 0.105013
0.364721 0.259419 0.107012
0.395483 0.260456 0.109102
0.426307 0.261646 0.111055
0.456413 0.262425 0.113329
0.486564 0.263233 0.11545
0.516152 0.263767 0.117861
0.545586 0.2645 0.119997
0.574533 0.265156 0.122057
0.603464 0.265339 0.124468
0.632151 0.265599 0.126711
0.660349 0.265538 0.129152
0.688273 0.265507 0.131579
0.716197 0.26537 0.133928
0.743511 0.26479 0.136584
0.77084 0.264561 0.13901
0.797574 0.263676 0.141756
0.824262 0.262837 0.144366
0.850385 0.261906 0.146975
0.87631 0.260517 0.149584
0.901976 0.259495 0.152255
0.926207 0.258274 0.154925
0.020325 0.264439 0.0862135
0.0300145 0.267033 0.087602
0.0582437 0.269368 0.089128
0.0919356 0.271931 0.090486
0.124407 0.27422 0.0919661
0.153765 0.276204 0.0935836
0.18265 0.278752 0.0944991
0.212482 0.280873 0.0959335
0.242908 0.283009 0.0972305
0.273915 0.285008 0.0986954
0.305287 0.286915 0.10013
0.336965 0.288548 0.101869
0.368124 0.290227 0.103578
0.399512 0.291661 0.105394
0.430335 0.292638 0.107469
0.460838 0.293797 0.109545
0.490959 0.294972 0.111498
0.520485 0.295674 0.113878
0.550057 0.296407 0.116106
0.579171 0.296971 0.118471
0.608118 0.29749 0.120897
0.636713 0.297734 0.123247
0.66508 0.297993 0.125826
0.693233 0.29807 0.128298
0.720897 0.297948 0.130892
0.748104 0.297795 0.133516
0.775479 0.297612 0.136172
0.802014 0.29723 0.138903
0.828595 0.296635 0.141512
0.854871 0.296147 0.144305
0.880385 0.295399 0.146975
0.905943 0.294652 0.14966
0.930114 0.293767 0.152331
0.00915541 0.295995 0.0816052
0.0183413 0.298726 0.0826429
0.0433204 0.301427 0.083772
0.0658732 0.303883 0.0848859
0.0988479 0.306233 0.0862898
0.136141 0.308598 0.0875563
0.172793 0.310903 0.0889601
0.206348 0.312871 0.0904402
0.240009 0.315099 0.0918593
0.27306 0.316869 0.0938125
0.305928 0.318624 0.0955673
0.338537 0.320272 0.0972763
0.370489 0.321553 0.099382
0.402838 0.323125 0.101244
0.433631 0.324224 0.103563
0.464515 0.325353 0.10573
0.494911 0.32639 0.108003
0.524575 0.327108 0.110262
0.554528 0.328099 0.112642
0.583368 0.328664 0.114748
0.612284 0.329259 0.117052
0.640833 0.330022 0.119158
0.669123 0.330114 0.121584
0.697154 0.330526 0.12372
0.724743 0.330678 0.126268
0.752117 0.330587 0.128893
0.779141 0.330694 0.131319
0.805798 0.330404 0.133898
0.832486 0.330144 0.136461
0.858137 0.329702 0.139116
0.883986 0.329259 0.141787
0.90901 0.328496 0.144518
0.932998 0.327962 0.147143
0.00299077 0.328542 0.0757916
0.00991836 0.331044 0.0770886
0.0192721 0.333532 0.0784314
0.0320439 0.336034 0.0796521
0.0776226 0.338201 0.0812848
0.124773 0.340429 0.0825513
0.162722 0.342626 0.0835126
0.199084 0.344747 0.0845197
0.236103 0.346838 0.0856489
0.27042 0.348516 0.0869612
0.304753 0.350469 0.0883497
0.337987 0.352026 0.0899519
0.370947 0.353536 0.0916457
0.403662 0.354742 0.0935836
0.435065 0.3561 0.0953994
0.466331 0.357198 0.0975662
0.49659 0.358434 0.0996109
0.52697 0.359365 0.101854
0.556573 0.360265 0.104158
0.58584 0.361028 0.10663
0.615198 0.361547 0.109209
0.643626 0.362173 0.111803
0.671931 0.362493 0.114351
0.700053 0.363073 0.116838
0.727611 0.36321 0.11957
0.755199 0.363378 0.122469
0.781994 0.363439 0.125063
0.80885 0.363134 0.127947
0.835309 0.363134 0.130724
0.861006 0.362997 0.133425
0.886748 0.362585 0.13637
0.911543 0.362142 0.139116
0.935668 0.361669 0.141848
0 0.361456 0.0660716
0.00450141 0.364111 0.0666972
0.00872816 0.366506 0.0672923
0.0272068 0.368841 0.0681163
0.0599832 0.370886 0.0693523
0.0902724 0.373205 0.0702525
0.136904 0.375128 0.0717937
0.184573 0.37734 0.0729992
0.227436 0.379187 0.0745556
0.264759 0.380682 0.0764172
0.301793 0.382452 0.0781567
0.336095 0.38407 0.0800336
0.370352 0.385428 0.0822614
0.403708 0.386709 0.0844587
0.435752 0.387945 0.0867933
0.467811 0.389166 0.089128
0.498085 0.390249 0.0917067
0.528756 0.391333 0.0940871
0.558633 0.392081 0.0968795
0.588022 0.393042 0.0994278
0.617487 0.393759 0.102296
0.645991 0.394247 0.104875
0.674495 0.394736 0.107271
0.702663 0.395132 0.109773
0.730144 0.395209 0.112306
0.757641 0.395575 0.114885
0.78468 0.395453 0.117556
0.811368 0.395636 0.120272
0.837507 0.395514 0.122957
0.86334 0.39527 0.125765
0.889189 0.395056 0.128573
0.913481 0.394797 0.131334
0.937697 0.394507 0.134112
0.000366217 0.394522 0.0531624
0.00140383 0.396902 0.0543221
0.0019379 0.399008 0.0556802
0.0164034 0.401099 0.0569924
0.0317082 0.403449 0.0582284
0.0595102 0.405509 0.0597391
0.117769 0.407248 0.0613718
0.174777 0.409247 0.0627146
0.217411 0.410849 0.06421
0.257496 0.412695 0.0655222
0.297124 0.414221 0.0673533
0.332738 0.415656 0.0690623
0.368673 0.417105 0.0707408
0.401816 0.418189 0.0726482
0.434791 0.419501 0.0746929
0.467033 0.420508 0.0767529
0.497887 0.421668 0.0791638
0.528908 0.422583 0.0815137
0.558984 0.423392 0.0840467
0.588815 0.42417 0.0866712
0.618448 0.424918 0.0893416
0.647059 0.425284 0.0920882
0.675669 0.425925 0.0949416
0.70399 0.426184 0.0978561
0.731762 0.426398 0.101061
0.759167 0.426627 0.104005
0.786023 0.426963 0.106981
0.812985 0.426764 0.110216
0.839124 0.426795 0.113344
0.865125 0.42678 0.116335
0.890867 0.42678 0.119493
0.915022 0.426413 0.122698
0.939147 0.426062 0.125673
0 0.427039 0.0410773
0 0.429191 0.0420844
0.000946059 0.431342 0.0430915
0.0101778 0.433188 0.0443732
0.0182193 0.435309 0.0454871
0.0526131 0.43711 0.0466163
0.102754 0.43888 0.047776
0.152071 0.440635 0.0489815
0.199084 0.442283 0.05037
0.246662 0.443931 0.0517586
0.288945 0.445487 0.0532998
0.32723 0.446738 0.0548409
0.364965 0.448234 0.0565347
0.398825 0.449378 0.0586557
0.432837 0.450523 0.0607919
0.465599 0.451591 0.0632486
0.497307 0.452583 0.0659495
0.529152 0.453315 0.0688487
0.559136 0.454215 0.0715801
0.589227 0.454826 0.0747539
0.618784 0.455665 0.0776379
0.647761 0.456168 0.0808118
0.676783 0.456687 0.0842603
0.704921 0.457069 0.0876173
0.732967 0.457435 0.0909743
0.760433 0.457771 0.0940261
0.787243 0.45771 0.097261
0.814313 0.457908 0.100298
0.840452 0.457786 0.103319
0.866316 0.457908 0.106142
0.891966 0.457755 0.109407
0.915938 0.457542 0.112352
0.940169 0.457298 0.115343
0 0.458854 0.0285649
0 0.461036 0.0295415
0.000946059 0.462943 0.030457
0.00276188 0.464836 0.0314336
0.00360113 0.466728 0.0324102
0.0414588 0.468528 0.0335241
0.0831922 0.470329 0.0346838
0.129244 0.471824 0.0358129
0.182956 0.473518 0.0373693
0.238315 0.474952 0.0388495
0.280476 0.476249 0.0404364
0.320897 0.477531 0.042298
0.359915 0.478798 0.0437629
0.395026 0.479973 0.0458228
0.430106 0.480903 0.0479744
0.463188 0.481987 0.0500191
0.49543 0.48278 0.0525216
0.527291 0.483818 0.0545815
0.557855 0.484489 0.0570077
0.588495 0.485176 0.0594034
0.61828 0.485786 0.0619669
0.647334 0.486351 0.0645762
0.676707 0.486656 0.0674449
0.704707 0.487098 0.0703136
0.732799 0.487297 0.0731975
0.760616 0.487678 0.0763256
0.787701 0.487739 0.0796063
0.814542 0.487816 0.0829328
0.840711 0.48777 0.0865339
0.866819 0.487709 0.0902724
0.892088 0.487648 0.0939345
0.916457 0.487556 0.0975509
0.940566 0.48748 0.101137
0 0.490333 0.0198978
0 0.492256 0.0207523
0 0.493904 0.0216526
0 0.495781 0.0223545
0.0037232 0.497673 0.022797
0.0295415 0.499214 0.0236057
0.0527352 0.500755 0.0241703
0.0990768 0.502235 0.0248264
0.160693 0.5037 0.0254978
0.221592 0.50515 0.026154
0.265873 0.506493 0.0268101
0.311391 0.507561 0.0278172
0.351934 0.508843 0.0288243
0.389105 0.509834 0.0300298
0.426123 0.510811 0.0312352
0.459358 0.511666 0.0327916
0.492668 0.51252 0.0343633
0.524804 0.513344 0.0360571
0.556039 0.514107 0.037995
0.58735 0.514885 0.0399786
0.617121 0.515282 0.042359
0.646647 0.515938 0.044831
0.675929 0.516304 0.0475471
0.704326 0.516594 0.050782
0.732769 0.516915 0.0539864
0.760388 0.517388 0.0578622
0.787503 0.517296 0.0623789
0.814771 0.517449 0.066743
0.840803 0.51751 0.0708629
0.867109 0.517555 0.0753185
0.892302 0.517342 0.0797894
0.916548 0.517418 0.0836652
0.940826 0.51722 0.0879988
0 0.521187 0.00991836
0 0.522866 0.00976577
0 0.524529 0.00952163
0 0.526192 0.00920119
0.00299077 0.52781 0.00889601
0.00910964 0.529366 0.00863661
0.0129397 0.530938 0.00831617
0.0715801 0.532433 0.00814832
0.140429 0.533684 0.0081178
0.204013 0.535149 0.00802625
0.253361 0.536263 0.00825513
0.303212 0.537392 0.00849927
0.344381 0.53843 0.00981155
0.382895 0.539452 0.011368
0.420829 0.540444 0.0130007
0.454994 0.541329 0.0148775
0.489097 0.54197 0.0168154
0.521584 0.542824 0.0187839
0.553552 0.543374 0.0210422
0.585214 0.543923 0.0231785
0.615137 0.544625 0.0255131
0.645167 0.545052 0.0279088
0.674342 0.545449 0.0315099
0.703075 0.545815 0.0351415
0.731609 0.545907 0.0387579
0.759365 0.546136 0.0423133
0.786694 0.54638 0.0454108
0.813794 0.546304 0.0489204
0.840024 0.546441 0.0517891
0.8663 0.546319 0.0551156
0.891417 0.546166 0.0579232
0.915801 0.546288 0.0603189
0.940169 0.546136 0.0629129
0 0.551461 0.000350958
0 0.55314 0.000534066
0 0.554788 0.00077821
0 0.556191 0.00102235
0 0.557794 0.00135805
0 0.559091 0.00177005
0.0037232 0.560662 0.00215152
0.0553292 0.561913 0.00271611
0.10457 0.563149 0.00328069
0.159518 0.56434 0.00390631
0.222904 0.565484 0.00460822
0.288823 0.566613 0.00527962
0.331746 0.567407 0.00614939
0.373114 0.568475 0.00689708
0.412863 0.569238 0.00776684
0.448218 0.570199 0.00860609
0.483833 0.570901 0.00944533
0.516976 0.571527 0.0104219
0.549523 0.572106 0.0118563
0.58172 0.572671 0.0140688
0.611994 0.573175 0.0163272
0.642634 0.573663 0.0181735
0.672114 0.573861 0.0204929
0.701289 0.574273 0.0226444
0.730236 0.574456 0.0245518
0.757839 0.574746 0.026688
0.785519 0.574777 0.0285954
0.812741 0.574792 0.0304723
0.838972 0.574777 0.0323033
0.865492 0.574746 0.0345006
0.890532 0.574685 0.0362554
0.9149 0.574624 0.037583
0.938643 0.574578 0.0396124
0 0.581064 0.000213626
0 0.582742 0.000289921
0 0.584146 0.000396735
0 0.585794 0.000488289
0 0.587152 0.00062562
0 0.588495 0.000762951
0.0074464 0.589822 0.000885023
0.0321965 0.591073 0.00102235
0.0543374 0.592065 0.00114443
0.116808 0.593256 0.00125124
0.198505 0.594171 0.00134279
0.275242 0.595331 0.00135805
0.319661 0.59617 0.00137331
0.364385 0.597025 0.00131228
0.404837 0.597818 0.00120546
0.44181 0.598581 0.00177005
0.478935 0.599344 0.0027924
0.512413 0.59997 0.0037995
0.545495 0.60058 0.00495918
0.578134 0.600916 0.0061799
0.608927 0.60145 0.00769055
0.639872 0.601724 0.00926223
0.669474 0.602213 0.010544
0.698802 0.602426 0.011902
0.727932 0.602625 0.0133059
0.755871 0.602686 0.0151064
0.783566 0.602777 0.0166629
0.81088 0.602838 0.0182956
0.837339 0.602899 0.0196841
0.864088 0.60293 0.0214542
0.888792 0.602914 0.0233158
0.91339 0.602625 0.0253147
0.936736 0.602655 0.0275273
0 0.610636 0
0 0.612024 0
0 0.613413 0
0 0.614816 0
0 0.6159 0
0 0.617258 0
0.00459297 0.618296 0
0.013901 0.619547 0
0.0225986 0.620539 0
0.0980087 0.621469 0
0.179919 0.62266 0
0.25127 0.62356 0
0.30103 0.624399 0.00077821
0.351629 0.624979 0.00157168
0.393698 0.625757 0.00236515
0.432288 0.626535 0.00299077
0.471 0.627024 0.00381476
0.505104 0.62768 0.00445563
0.539437 0.628077 0.00529488
0.57229 0.628702 0.0059205
0.603952 0.629038 0.00660716
0.635676 0.629358 0.00743114
0.66566 0.629633 0.00810254
0.695506 0.629892 0.00877394
0.724636 0.630121 0.00953689
0.752956 0.630274 0.0104524
0.781033 0.630426 0.0115969
0.80827 0.630289 0.0129854
0.835279 0.630381 0.0142367
0.862028 0.630228 0.0158541
0.886778 0.630274 0.0172732
0.911589 0.630076 0.0191043
0.934401 0.629923 0.0211185
0 0.639109 0
0 0.640528 0
0 0.641932 0
0 0.643076 0
0 0.644434 0
0 0.645533 0
0.00289921 0.646571 0
0.00688182 0.647578 0
0.0153658 0.648585 0.000137331
0.0887922 0.649531 0.000457771
0.161349 0.650492 0.000701915
0.22594 0.651148 0.000991836
0.281941 0.652003 0.00125124
0.339193 0.652857 0.00141909
0.381888 0.653391 0.00163272
0.422934 0.653941 0.00178531
0.462379 0.654704 0.0018616
0.497841 0.655146 0.00199893
0.533379 0.655604 0.00205997
0.566842 0.656001 0.00207523
0.599283 0.656382 0.00205997
0.631357 0.656764 0.00199893
0.661692 0.657084 0.0018616
0.691814 0.657145 0.00180056
0.721492 0.65742 0.00195315
0.749981 0.657374 0.00270085
0.778408 0.657603 0.0034638
0.805783 0.657511 0.00456245
0.832807 0.657664 0.00578317
0.859602 0.657557 0.00715648
0.884321 0.657404 0.00886549
0.909331 0.657267 0.0106508
0.932052 0.657145 0.0124208
0 0.667613 0
0 0.668788 0
0 0.669963 0
0 0.671366 0
0 0.67245 0
0 0.673518 0
0 0.674266 0
0 0.675273 0
0.014725 0.676249 0
0.0735485 0.676966 0
0.130266 0.677913 0
0.191623 0.678553 0
0.257557 0.679164 0
0.323766 0.680018 0
0.367407 0.680568 0
0.411353 0.681117 0
0.45243 0.68162 0
0.489281 0.682094 0
0.525872 0.682567 0
0.559991 0.682734 0
0.592935 0.683131 0
0.625864 0.683513 0
0.656535 0.683604 0
0.687236 0.68368 0
0.716899 0.68397 0.000381476
0.7458 0.68397 0.00109865
0.774731 0.683955 0.00187686
0.801984 0.683894 0.00283818
0.829358 0.683818 0.00386053
0.856214 0.683726 0.00489815
0.881209 0.683635 0.00598154
0.906462 0.683528 0.00709544
0.92871 0.683482 0.00805676
0 0.695186 0
0 0.69633 0
0 0.697475 0
0 0.698589 0
0 0.699428 0
0 0.700511 0
0 0.701534 0
0 0.702296 0
0.0128786 0.703044 0
0.0434119 0.704005 0
0.0719768 0.704707 0
0.142153 0.705379 0
0.225147 0.70602 0
0.302953 0.706645 0
0.350607 0.707225 0
0.39826 0.707546 0
0.441093 0.70808 0
0.479286 0.708583 0
0.517723 0.708843 0
0.552316 0.709285 0
0.586343 0.709468 0
0.619623 0.709636 0
0.650858 0.710002 0
0.682231 0.710124 0
0.711986 0.710185 0.000198367
0.74136 0.710231 0.000503548
0.770764 0.710277 0.000793469
0.798169 0.710246 0.00114443
0.825956 0.709972 0.0015259
0.852628 0.709941 0.00184634
0.877867 0.70988 0.00215152
0.90312 0.709834 0.00241093
0.925231 0.70959 0.00268559
0 0.722408 0
0 0.723568 0
0 0.724453 0
0 0.725582 0
0 0.726436 0
0 0.727535 0
0 0.728313 0
0 0.729107 0
0.00251774 0.729854 0
0.00556954 0.730556 0
0.00656138 0.731289 0
0.0971237 0.73196 0
0.19733 0.732387 0
0.282795 0.733043 0
0.333806 0.733379 0
0.385107 0.733944 0
0.429435 0.734234 0
0.469291 0.734752 0
0.509285 0.735012 0
0.544228 0.73521 0
0.579263 0.735424 0
0.612741 0.735592 0
0.644709 0.735729 0
0.676738 0.735851 0
0.706783 0.735943 0
0.736324 0.736004 0
0.766018 0.736065 0
0.793835 0.735821 0
0.821607 0.735821 0
0.848478 0.735561 0
0.87396 0.735531 0
0.899535 0.735256 0
0.921431 0.735042 0
0 0.749096 0
0 0.749981 0
0 0.75111 0
0 0.751949 0
0 0.752804 0
0 0.753628 0
0 0.754406 0
0 0.755184 0
0 0.755673 0
0 0.756374 0
0.00436408 0.757092 0
0.0894331 0.757519 0
0.172183 0.75819 0
0.245014 0.758587 0
0.305547 0.758938 0
0.36643 0.759533 0
0.413123 0.759838 0
0.455833 0.760128 0
0.497749 0.760418 0
0.534051 0.760647 0
0.570062 0.760876 0
0.604791 0.760815 0
0.637247 0.760983 0
0.670085 0.761151 0
0.700618 0.761013 0
0.730709 0.76112 0
0.760555 0.760952 0
0.788708 0.761013 0
0.816968 0.7608 0
0.843931 0.76083 0
0.86978 0.760601 0
0.895644 0.760357 0
0.917144 0.760189 0
0 0.775265 0
0 0.77615 0
0 0.777035 0
0 0.77789 0
0 0.778729 0
0 0.779309 0
0 0.780118 0
0 0.780911 0
0 0.781415 0
0 0.781888 0
0.0116884 0.78262 0
0.0776989 0.783047 0
0.142657 0.78349 0
0.20972 0.783886 0
0.279759 0.784268 0
0.350378 0.784634 0
0.397742 0.78497 0
0.443091 0.785275 0
0.486625 0.78558 0
0.523888 0.78584 0
0.561349 0.785855 0
0.596658 0.786068 0
0.63003 0.786023 0
0.66334 0.786221 0
0.69424 0.786114 0
0.724971 0.785992 0
0.755077 0.786114 0
0.783734 0.785962 0
0.8121 0.785809 0
0.839292 0.785626 0
0.865431 0.785428 0
0.89131 0.785229 0
0.912718 0.785107 0
0 0.801129 0
0 0.801984 0
0 0.802609 0
0 0.803433 0
0 0.804013 0
0 0.804822 0
0 0.805371 0
0 0.806165 0
0 0.806638 0
