assets/luts/LUTs/CinePacks_MVP2_Airdrop.CUBE
LUT_3D_SIZE 16
0.028870 0.031769 0.037903
0.046576 0.032098 0.037974
0.089520 0.032878 0.038288
0.145654 0.034089 0.036975
0.213090 0.036521 0.038149
0.287069 0.039093 0.036693
0.362958 0.041358 0.036603
0.442194 0.043248 0.036373
0.514182 0.044647 0.036328
0.566303 0.045447 0.037024
0.584015 0.046173 0.037191
0.589889 0.046551 0.037201
0.595648 0.046930 0.037231
0.601178 0.047282 0.037262
0.606724 0.047656 0.037292
0.612186 0.048033 0.037323
0.027305 0.046049 0.038039
0.039828 0.044204 0.038096
0.080385 0.042354 0.038317
0.134123 0.040333 0.037064
0.200385 0.041563 0.038167
0.274704 0.043902 0.036816
0.351120 0.046190 0.036835
0.433246 0.048269 0.036295
0.508714 0.050102 0.036170
0.564766 0.051279 0.036921
0.586904 0.051789 0.037232
0.592780 0.052163 0.037256
0.598549 0.052469 0.037288
0.604106 0.052714 0.037321
0.609626 0.053078 0.037354
0.615088 0.053455 0.037386
0.027207 0.078825 0.038472
0.033104 0.076803 0.038410
0.067976 0.073345 0.038311
0.117415 0.068771 0.037700
0.180105 0.065725 0.037499
0.253573 0.064697 0.037707
0.334424 0.063356 0.036712
0.417791 0.060650 0.036224
0.498006 0.057840 0.035906
0.560596 0.058489 0.036839
0.590004 0.058458 0.037242
0.595781 0.057998 0.037293
0.601422 0.058078 0.037326
0.606976 0.058268 0.037358
0.612526 0.058488 0.037413
0.617989 0.058842 0.037445
0.027478 0.114954 0.038831
0.032484 0.113110 0.038798
0.054273 0.109996 0.038705
0.101094 0.107599 0.038447
0.164977 0.103829 0.037661
0.240995 0.099542 0.037874
0.327546 0.097691 0.036739
0.422383 0.097973 0.036090
0.510528 0.096940 0.037141
0.578508 0.094138 0.038112
0.612636 0.089060 0.038452
0.615083 0.083523 0.038335
0.617983 0.080519 0.038193
0.621368 0.078211 0.038077
0.625255 0.076439 0.038025
0.630608 0.076544 0.038055
0.027834 0.159080 0.039378
0.033241 0.157206 0.039304
0.041510 0.153407 0.039214
0.083633 0.151578 0.039247
0.144442 0.149325 0.039317
0.229090 0.146941 0.039946
0.329279 0.142467 0.038090
0.436091 0.141374 0.038135
0.537730 0.141920 0.039630
0.612266 0.140251 0.041162
0.658479 0.135781 0.041219
0.662233 0.129567 0.041027
0.663314 0.125600 0.040751
0.665931 0.122999 0.040595
0.668827 0.120575 0.040487
0.674227 0.120645 0.040602
0.030324 0.209076 0.042307
0.035317 0.207432 0.042168
0.040944 0.204229 0.041938
0.070258 0.202045 0.041868
0.123620 0.201802 0.042431
0.205224 0.201603 0.043189
0.325072 0.200781 0.043264
0.456043 0.200244 0.044828
0.574926 0.201207 0.047727
0.656370 0.198905 0.049027
0.707974 0.193817 0.048516
0.721543 0.186914 0.047633
0.722471 0.181389 0.047231
0.725086 0.178358 0.047297
0.728103 0.175528 0.047077
0.733697 0.175597 0.047240
0.032178 0.265674 0.044947
0.037486 0.264282 0.044862
0.042331 0.260779 0.044670
0.057936 0.257677 0.044880
0.105558 0.258178 0.045421
0.182261 0.260488 0.047386
0.313065 0.268473 0.051298
0.475667 0.272723 0.058093
0.603805 0.274420 0.062484
0.686973 0.269441 0.063016
0.737696 0.261009 0.060606
0.762719 0.252568 0.058723
0.765832 0.245627 0.057311
0.769499 0.242165 0.056687
0.773088 0.239267 0.056226
0.778501 0.239294 0.056311
0.036220 0.327372 0.050037
0.041149 0.325781 0.049928
0.045890 0.322647 0.049677
0.052648 0.317994 0.049298
0.093131 0.319549 0.049935
0.160326 0.324943 0.053463
0.293079 0.343544 0.062862
0.489332 0.365483 0.080929
0.623409 0.364514 0.086954
0.706613 0.356198 0.085378
0.760543 0.342119 0.079243
0.793353 0.329064 0.074727
0.799267 0.319907 0.071995
0.802704 0.314959 0.070888
0.806407 0.310834 0.070107
0.811438 0.310370 0.070073
0.042962 0.397728 0.057680
0.048024 0.396215 0.057506
0.052961 0.393534 0.057166
0.057803 0.388686 0.056739
0.084284 0.388000 0.057534
0.143167 0.396555 0.061533
0.281117 0.427567 0.080449
0.496417 0.480449 0.116748
0.644974 0.487513 0.127633
0.727297 0.472045 0.123957
0.784734 0.448339 0.113214
0.818907 0.423750 0.101506
0.829830 0.408536 0.095526
0.832598 0.401379 0.093218
0.835816 0.395784 0.091345
0.840522 0.394844 0.090790
0.055798 0.477161 0.068695
0.060493 0.475388 0.068640
0.064916 0.472291 0.068332
0.069015 0.467786 0.067474
0.081054 0.464332 0.067662
0.137718 0.475523 0.073981
0.261398 0.512513 0.098289
0.486175 0.590119 0.150168
0.648405 0.616071 0.168181
0.736556 0.602156 0.166742
0.800899 0.576223 0.156811
0.844440 0.547651 0.143377
0.863601 0.525412 0.134095
0.865959 0.515322 0.130313
0.868902 0.507863 0.127437
0.873270 0.506330 0.126603
0.075409 0.559204 0.085307
0.079857 0.558005 0.084881
0.083969 0.555792 0.084221
0.088076 0.551526 0.083386
0.093242 0.546550 0.082904
0.137773 0.555634 0.088915
0.235081 0.588483 0.110925
0.447447 0.669487 0.167886
0.622995 0.712058 0.196306
0.724760 0.711530 0.201011
0.796177 0.690718 0.194794
0.852475 0.668689 0.184677
0.883945 0.648936 0.174971
0.889896 0.638502 0.171119
0.893527 0.631584 0.168585
0.897847 0.630133 0.167800
0.103060 0.635553 0.106460
0.107327 0.634347 0.106043
0.111179 0.632478 0.105417
0.114864 0.629444 0.104444
0.119011 0.625404 0.103319
0.143509 0.628380 0.106171
0.232282 0.658793 0.125343
0.403812 0.723195 0.172880
0.583525 0.770498 0.209326
0.700786 0.785884 0.222275
0.779477 0.776203 0.221385
0.844167 0.761143 0.216844
0.885887 0.749141 0.211729
0.899358 0.739793 0.207273
0.903451 0.734585 0.204956
0.907790 0.733568 0.204263
0.119659 0.674890 0.118396
0.125321 0.676111 0.118775
0.130899 0.677311 0.119153
0.136778 0.678549 0.119613
0.142837 0.679236 0.120051
0.154889 0.681411 0.121401
0.235720 0.711853 0.138409
0.378926 0.763416 0.175425
0.543210 0.807715 0.212063
0.667516 0.827583 0.230548
0.757284 0.829144 0.235380
0.827778 0.818777 0.232682
0.878737 0.810356 0.232374
0.902738 0.805992 0.231195
0.907874 0.803234 0.230308
0.912211 0.802499 0.230061
0.124276 0.685167 0.121505
0.130101 0.686485 0.121914
0.135734 0.687715 0.122292
0.141888 0.689343 0.122872
0.149671 0.692132 0.124007
0.158008 0.695271 0.125286
0.222161 0.721474 0.138670
0.353077 0.771390 0.171688
0.508766 0.817065 0.207876
0.635963 0.841683 0.229228
0.732140 0.851881 0.239972
0.807267 0.847782 0.238484
0.866718 0.843188 0.239350
0.902267 0.842820 0.240353
0.908398 0.842587 0.240407
0.912972 0.842588 0.240438
0.128821 0.695349 0.124566
0.134683 0.696645 0.124977
0.140464 0.697960 0.125383
0.146642 0.699566 0.125962
0.154610 0.702399 0.127122
0.162150 0.705118 0.128223
0.211947 0.725397 0.138331
0.337036 0.773814 0.169133
0.489207 0.818936 0.204935
0.617096 0.844667 0.227179
0.717519 0.857074 0.239837
0.795119 0.855219 0.239766
0.858602 0.850189 0.240252
0.899419 0.850365 0.241670
0.908538 0.850480 0.241933
0.913090 0.850480 0.241996
0.133340 0.705395 0.127610
0.139175 0.706690 0.128021
0.145001 0.708014 0.128432
0.151326 0.709698 0.129032
0.159297 0.712528 0.130175
0.167152 0.715303 0.131333
0.217136 0.735552 0.141464
0.343952 0.784073 0.172255
0.491426 0.826303 0.206360
0.615544 0.850210 0.227658
0.715098 0.862158 0.240475
0.793344 0.860979 0.240595
0.857615 0.855898 0.241249
0.899100 0.856374 0.242709
0.908634 0.856508 0.242972
0.913216 0.856568 0.243128
0.027258 0.031903 0.058565
0.046008 0.032010 0.056279
0.088461 0.032811 0.053875
0.144728 0.034013 0.048900
0.212488 0.036472 0.046698
0.286286 0.039019 0.042531
0.361975 0.041163 0.042139
0.441328 0.043073 0.041517
0.513431 0.044475 0.041345
0.565637 0.045307 0.042089
0.583670 0.045735 0.042237
0.589543 0.046087 0.042269
0.595303 0.046531 0.042302
0.600832 0.047074 0.042338
0.606376 0.047465 0.042369
0.611838 0.047813 0.042399
0.027385 0.045339 0.051269
0.039262 0.043667 0.049588
0.079862 0.041922 0.047453
0.134254 0.039996 0.043447
0.201555 0.041894 0.044018
0.276143 0.044249 0.042430
0.352457 0.046408 0.042089
0.433998 0.048401 0.041745
0.508857 0.050262 0.041132
0.564959 0.051428 0.041814
0.587244 0.051901 0.042113
0.593117 0.052271 0.042126
0.598901 0.052601 0.042181
0.604463 0.052855 0.042274
0.609987 0.053227 0.042308
0.615474 0.053600 0.042339
0.027275 0.078056 0.044184
0.033004 0.076187 0.044098
0.067428 0.072836 0.043779
0.117008 0.068302 0.042857
0.180890 0.065535 0.042698
0.254413 0.064598 0.042781
0.335472 0.063046 0.041894
0.418579 0.060226 0.041643
0.498301 0.057644 0.040922
0.560821 0.058610 0.041726
0.590268 0.058527 0.042140
0.596119 0.058062 0.042173
0.601797 0.058199 0.042229
0.607381 0.058448 0.042324
0.612931 0.058647 0.042363
0.618394 0.058999 0.042395
0.027570 0.114250 0.043806
0.032552 0.112633 0.043810
0.053818 0.109718 0.043715
0.100527 0.107149 0.043332
0.164930 0.103430 0.042619
0.241460 0.099265 0.042995
0.328226 0.097351 0.042049
0.422668 0.097686 0.041228
0.510372 0.096424 0.042064
0.578710 0.093704 0.043120
0.612921 0.088671 0.043608
0.615378 0.083278 0.043417
0.618329 0.080218 0.043301
0.621772 0.077855 0.043212
0.625823 0.076294 0.043166
0.631175 0.076379 0.043190
0.027902 0.158403 0.044318
0.032897 0.156768 0.044305
0.040717 0.152987 0.044229
0.083213 0.151175 0.044245
0.144218 0.148796 0.044245
0.229517 0.146637 0.044976
0.329911 0.142306 0.043213
0.436578 0.141348 0.043289
0.538344 0.141848 0.044647
0.612480 0.139868 0.046225
0.658667 0.135414 0.046374
0.662518 0.129255 0.046049
0.663458 0.125140 0.045658
0.666179 0.122484 0.045428
0.669096 0.120060 0.045333
0.674494 0.120144 0.045426
0.030334 0.208590 0.047351
0.035369 0.207029 0.047253
0.040957 0.203862 0.047044
0.069826 0.201609 0.046876
0.123255 0.201242 0.047409
0.204965 0.201069 0.048065
0.324988 0.200324 0.048452
0.456190 0.199990 0.049909
0.574754 0.200978 0.052610
0.656296 0.198549 0.053739
0.707768 0.193386 0.053264
0.721925 0.186563 0.052709
0.722719 0.180909 0.052245
0.725283 0.177929 0.052252
0.728371 0.175155 0.051996
0.733924 0.175202 0.052169
0.032158 0.265333 0.050058
0.037567 0.263834 0.049983
0.042389 0.260407 0.049909
0.057575 0.257386 0.049997
0.105312 0.257761 0.050394
0.181804 0.259876 0.052299
0.312388 0.267710 0.056243
0.475068 0.272236 0.062955
0.603382 0.273891 0.067334
0.686588 0.268978 0.067663
0.737621 0.260486 0.065299
0.763015 0.252064 0.063713
0.766124 0.245070 0.062338
0.769824 0.241668 0.061774
0.773419 0.238763 0.061290
0.778878 0.238820 0.061354
0.036170 0.326889 0.055069
0.041177 0.326019 0.055485
0.045910 0.322916 0.055151
0.052616 0.318190 0.054601
0.092723 0.319265 0.055045
0.159986 0.324376 0.058299
0.293061 0.343227 0.067912
0.488902 0.364917 0.085905
0.622990 0.364082 0.091824
0.706350 0.355510 0.090254
0.760394 0.341469 0.084118
0.793416 0.328468 0.079344
0.799537 0.319277 0.076751
0.802991 0.314329 0.075534
0.806740 0.310333 0.074785
0.811784 0.309857 0.074768
0.042849 0.397647 0.063014
0.047988 0.396378 0.062794
0.052945 0.393786 0.062504
0.057801 0.389007 0.062061
0.083854 0.388101 0.062745
0.142876 0.396390 0.066572
0.280269 0.427070 0.085181
0.495608 0.480002 0.121466
0.644566 0.487116 0.132456
0.726944 0.471684 0.128577
0.784416 0.447496 0.117544
0.818771 0.422649 0.105724
0.830016 0.407499 0.099821
0.832780 0.400530 0.097623
0.836015 0.395092 0.095857
0.840755 0.394155 0.095306
0.055572 0.476924 0.074049
0.060395 0.475610 0.074146
0.064858 0.472642 0.073865
0.068979 0.468037 0.072975
0.080871 0.464497 0.072924
0.137367 0.475035 0.078932
0.260072 0.511415 0.102553
0.485506 0.589442 0.154634
0.648492 0.616118 0.173051
0.736369 0.602071 0.171394
0.800554 0.575360 0.160898
0.844162 0.546684 0.147530
0.863645 0.524187 0.138053
0.866050 0.514142 0.134163
0.869046 0.506798 0.131380
0.873386 0.505248 0.130540
0.075127 0.558979 0.090060
0.080170 0.558149 0.090329
0.084383 0.555904 0.089683
0.088549 0.551696 0.088769
0.093413 0.546911 0.088052
0.137531 0.555627 0.094010
0.234743 0.588162 0.115298
0.446981 0.668975 0.172180
0.622645 0.711693 0.200715
0.724702 0.711234 0.205464
0.795960 0.690404 0.199207
0.852260 0.667877 0.188624
0.884092 0.648287 0.179213
0.890049 0.637338 0.175182
0.893702 0.630540 0.172691
0.898023 0.629079 0.171895
0.102967 0.635239 0.111252
0.107494 0.634610 0.110792
0.111429 0.632740 0.110194
0.115142 0.629813 0.109284
0.119372 0.625980 0.108359
0.143874 0.628681 0.111055
0.232871 0.658875 0.130111
0.403927 0.723073 0.177072
0.583010 0.770470 0.213529
0.700466 0.785615 0.226683
0.779292 0.775874 0.225804
0.843960 0.760659 0.221250
0.885952 0.748604 0.216101
0.899583 0.739373 0.211564
0.903688 0.733961 0.209205
0.908024 0.732884 0.208502
0.120007 0.675251 0.123465
0.125700 0.677074 0.123613
0.131276 0.678311 0.123988
0.137326 0.679553 0.124495
0.144011 0.680217 0.125098
0.156092 0.682347 0.126438
0.237438 0.712774 0.143219
0.379811 0.764425 0.179989
0.543093 0.807730 0.216459
0.667041 0.827533 0.234708
0.757098 0.829010 0.239611
0.827509 0.818719 0.237216
0.878741 0.810273 0.236870
0.902985 0.805832 0.235625
0.908129 0.802981 0.234716
0.912487 0.802272 0.234468
0.124565 0.685395 0.126586
0.130796 0.687562 0.126692
0.136407 0.688835 0.127086
0.142703 0.690447 0.127719
0.150919 0.693270 0.129022
0.159120 0.696343 0.130273
0.224084 0.722709 0.143659
0.354084 0.772138 0.176274
0.508617 0.817391 0.212139
0.635182 0.841805 0.233730
0.731671 0.852115 0.244364
0.806882 0.848008 0.243066
0.866511 0.843588 0.243606
0.902487 0.843114 0.244996
0.908685 0.842880 0.245063
0.913261 0.842881 0.245118
0.129106 0.695540 0.129671
0.135368 0.697748 0.129775
0.141189 0.699064 0.130173
0.147482 0.700694 0.130802
0.155861 0.703555 0.132130
0.163412 0.706273 0.133236
0.213456 0.726463 0.143348
0.338506 0.774690 0.173582
0.489035 0.819242 0.208976
0.616359 0.844840 0.231702
0.716831 0.857638 0.244132
0.794661 0.855449 0.244307
0.858308 0.850545 0.244457
0.899400 0.850738 0.246167
0.908822 0.850857 0.246629
0.913373 0.850859 0.246666
0.133622 0.705584 0.132716
0.139884 0.707796 0.132819
0.145726 0.709118 0.133219
0.152168 0.710809 0.133849
0.160547 0.713672 0.135178
0.168403 0.716459 0.136336
0.218562 0.736602 0.146470
0.345512 0.785006 0.176735
0.491462 0.826720 0.210453
0.614852 0.850423 0.232180
0.714419 0.862725 0.244836
0.792912 0.861192 0.245143
0.857311 0.856276 0.245448
0.899079 0.856746 0.247193
0.908919 0.856884 0.247669
0.913498 0.856944 0.247825
0.027948 0.032493 0.100718
0.045403 0.032311 0.098096
0.086795 0.032577 0.094759
0.142210 0.033815 0.089925
0.211063 0.036016 0.084092
0.285096 0.037840 0.077307
0.360601 0.040192 0.072623
0.440115 0.042288 0.067882
0.511499 0.043741 0.062719
0.563936 0.044793 0.058662
0.582962 0.045318 0.054417
0.588952 0.045518 0.050736
0.594780 0.045979 0.049376
0.600302 0.046522 0.049157
0.605813 0.047055 0.048992
0.611279 0.047461 0.048979
0.027686 0.044957 0.091686
0.038670 0.043224 0.089714
0.078456 0.040790 0.086833
0.132913 0.039397 0.082424
0.201669 0.041701 0.077301
0.276052 0.043754 0.071441
0.351630 0.045589 0.067179
0.433190 0.047762 0.062879
0.507823 0.049574 0.057200
0.563907 0.051079 0.052834
0.586868 0.051594 0.049536
0.592714 0.051774 0.048892
0.598483 0.052069 0.048681
0.604046 0.052355 0.048532
0.609594 0.052909 0.048326
0.615081 0.053321 0.048341
0.027615 0.076819 0.080110
0.033230 0.074910 0.078258
0.066708 0.071995 0.075445
0.117866 0.067759 0.070830
0.187134 0.066251 0.067293
0.261623 0.065076 0.062718
0.339746 0.062734 0.057567
0.420560 0.059208 0.052903
0.497917 0.057308 0.048204
0.560616 0.058558 0.048323
0.590492 0.058474 0.048153
0.596365 0.058025 0.047723
0.602102 0.058254 0.047555
0.607678 0.058520 0.047427
0.613270 0.058769 0.047302
0.618737 0.059142 0.047325
0.027768 0.113626 0.067118
0.032738 0.111964 0.065730
0.052874 0.108955 0.062923
0.099444 0.106375 0.058994
0.165203 0.102652 0.054486
0.242086 0.098562 0.051459
0.328456 0.096811 0.049239
0.422201 0.096823 0.047804
0.509293 0.095318 0.047790
0.578029 0.092820 0.048322
0.612691 0.087984 0.048720
0.615272 0.082577 0.048471
0.618218 0.079408 0.048344
0.621640 0.077084 0.048206
0.625844 0.075723 0.048167
0.631176 0.075805 0.048200
0.027983 0.156994 0.054773
0.032971 0.155311 0.053627
0.040099 0.151944 0.051451
0.082327 0.150217 0.050960
0.143535 0.147854 0.050444
0.229196 0.145664 0.050758
0.329541 0.141535 0.048694
0.435850 0.140761 0.048429
0.537927 0.141250 0.049556
0.612041 0.139054 0.051296
0.658198 0.134611 0.051416
0.662222 0.128410 0.050942
0.663187 0.124287 0.050577
0.665953 0.121612 0.050331
0.669019 0.119229 0.050157
0.674397 0.119318 0.050229
0.030337 0.207600 0.053394
0.035384 0.206029 0.053166
0.040916 0.203030 0.052752
0.069094 0.200678 0.052197
0.122244 0.200182 0.052482
0.203981 0.199972 0.052894
0.323895 0.199352 0.053293
0.454992 0.199184 0.054878
0.573582 0.200379 0.057496
0.655504 0.197693 0.058376
0.707103 0.192584 0.058199
0.721961 0.185817 0.057727
0.722684 0.180174 0.057205
0.725240 0.177207 0.057041
0.728245 0.174322 0.056842
0.733741 0.174342 0.057025
0.032067 0.264133 0.055335
0.037424 0.262542 0.055339
0.042411 0.259496 0.055255
0.056890 0.256419 0.055127
0.104483 0.256927 0.055318
0.180854 0.258699 0.057125
0.310541 0.266244 0.061047
0.473204 0.271035 0.067604
0.602257 0.272938 0.072102
0.685758 0.268127 0.072181
0.737228 0.259584 0.070069
0.763158 0.251199 0.068585
0.766276 0.244198 0.067171
0.769979 0.240886 0.066548
0.773791 0.237959 0.066002
0.779272 0.237972 0.066071
0.036056 0.325838 0.060063
0.041065 0.324934 0.060439
0.045908 0.322622 0.060403
0.052526 0.317950 0.059833
0.092010 0.318497 0.060026
0.159068 0.323498 0.063068
0.291954 0.342184 0.072683
0.487169 0.363647 0.090518
0.622150 0.363036 0.096482
0.705885 0.354529 0.095077
0.759949 0.340507 0.088891
0.793298 0.327549 0.083935
0.799705 0.318324 0.081555
0.803195 0.313425 0.080344
0.806970 0.309474 0.079512
0.812003 0.309000 0.079483
0.042670 0.397023 0.068281
0.047814 0.395831 0.068068
0.052888 0.393600 0.067802
0.057756 0.388879 0.067267
0.083167 0.387816 0.067879
0.142071 0.395809 0.071705
0.278476 0.425833 0.089686
0.494227 0.478851 0.126044
0.643826 0.486368 0.137036
0.726196 0.470707 0.133241
0.783855 0.446266 0.121663
0.818445 0.421319 0.109803
0.830139 0.406169 0.103846
0.832896 0.399361 0.101744
0.836098 0.394083 0.100460
0.840886 0.393181 0.099983
0.055330 0.476221 0.079315
0.060153 0.474831 0.079400
0.064737 0.472570 0.079343
0.068909 0.468017 0.078585
0.080442 0.464306 0.078187
0.136540 0.474185 0.083816
0.258111 0.509517 0.106624
0.484024 0.588102 0.158854
0.648322 0.615632 0.177851
0.735969 0.601623 0.176039
0.800159 0.574338 0.164944
0.843752 0.545418 0.151491
0.863593 0.522615 0.141936
0.866056 0.512452 0.138011
0.869036 0.505312 0.135357
0.873381 0.503809 0.134555
0.074910 0.558480 0.094891
0.080009 0.557669 0.095192
0.084685 0.555644 0.094993
0.088765 0.551736 0.094138
0.093332 0.546955 0.093390
0.136846 0.555288 0.098989
0.233906 0.587241 0.119559
0.445607 0.667733 0.176263
0.622261 0.711079 0.205056
0.724502 0.710716 0.209928
0.795558 0.690067 0.203572
0.851910 0.666971 0.192561
0.884152 0.647288 0.183313
0.890124 0.636205 0.179196
0.893816 0.629166 0.176649
0.898137 0.627655 0.175851
0.102709 0.634767 0.115937
0.107232 0.634050 0.115477
0.111535 0.632756 0.114875
0.115282 0.629851 0.113969
0.119611 0.626119 0.113231
0.143476 0.628723 0.115813
0.232568 0.658408 0.134620
0.403535 0.722686 0.181159
0.582282 0.770294 0.217677
0.699845 0.785072 0.231048
0.778938 0.775545 0.230232
0.843608 0.759951 0.225585
0.885948 0.747887 0.220293
0.899791 0.738396 0.215716
0.903911 0.732906 0.213344
0.908229 0.731921 0.212672
0.120386 0.675691 0.128514
0.126074 0.677531 0.128654
0.131555 0.679244 0.128848
0.137505 0.680355 0.129305
0.144387 0.680973 0.129925
0.157069 0.683161 0.131428
0.238731 0.713494 0.147928
0.380314 0.765088 0.184545
0.542692 0.807748 0.220797
0.666377 0.827359 0.239029
0.756787 0.828838 0.243899
0.827107 0.818511 0.241742
0.878638 0.810023 0.241321
0.903207 0.805444 0.240085
0.908384 0.802629 0.239035
0.912744 0.801892 0.238760
0.124918 0.685787 0.131653
0.131151 0.687998 0.131748
0.136740 0.689781 0.131924
0.143028 0.691441 0.132542
0.151427 0.694296 0.133909
0.160053 0.697379 0.135289
0.224923 0.723535 0.148497
0.354772 0.773076 0.180765
0.508725 0.818034 0.216694
0.634345 0.841932 0.238148
0.731031 0.852348 0.248454
0.806358 0.848198 0.247489
0.866143 0.843906 0.247807
0.902738 0.843445 0.249588
0.908999 0.843191 0.249704
0.913569 0.843192 0.249760
0.129397 0.695752 0.134743
0.135671 0.697990 0.134837
0.141849 0.700128 0.134951
0.148142 0.701790 0.135569
0.156642 0.704653 0.136957
0.164637 0.707405 0.138228
0.214654 0.727441 0.148298
0.339681 0.775477 0.177909
0.488627 0.819543 0.213009
0.615410 0.844994 0.236166
0.716047 0.858158 0.248429
0.794088 0.855699 0.248817
0.857918 0.850944 0.248699
0.899282 0.851085 0.250481
0.909109 0.851233 0.251286
0.913656 0.851231 0.251332
0.133905 0.705804 0.137793
0.140180 0.708012 0.137882
0.146403 0.710196 0.137994
0.152885 0.711913 0.138609
0.161391 0.714783 0.139995
0.169626 0.717604 0.141316
0.219756 0.737568 0.151418
0.346810 0.785820 0.181119
0.491142 0.827072 0.214455
0.613891 0.850559 0.236650
0.713510 0.863193 0.249142
0.792295 0.861439 0.249660
0.856874 0.856754 0.249723
0.898963 0.857095 0.251479
0.909203 0.857258 0.252308
0.913781 0.857294 0.252488
0.029248 0.033588 0.152716
0.045177 0.033352 0.149877
0.085557 0.033338 0.147025
0.138763 0.033086 0.142391
0.206610 0.032789 0.135923
0.281940 0.035398 0.127694
0.360773 0.037668 0.118301
0.440601 0.040046 0.110050
0.510603 0.042771 0.104362
0.560665 0.043557 0.100392
0.579679 0.044067 0.096071
0.585490 0.044334 0.091968
0.591218 0.044506 0.089797
0.596731 0.044617 0.087680
0.602204 0.044713 0.085680
0.607482 0.044775 0.085486
0.029076 0.044872 0.142412
0.038823 0.043178 0.140791
0.077448 0.040488 0.138058
0.129475 0.038884 0.133737
0.197876 0.039052 0.127981
0.273924 0.040908 0.120388
0.352427 0.043493 0.111795
0.433822 0.045943 0.104689
0.507048 0.048290 0.099720
0.560748 0.049592 0.095676
0.583948 0.050162 0.091520
0.589909 0.050444 0.087147
0.595616 0.050647 0.084837
0.601155 0.050797 0.082644
0.606646 0.050905 0.080631
0.611917 0.051061 0.080456
0.028674 0.075957 0.129120
0.034195 0.074028 0.127037
0.065178 0.070732 0.124737
0.115450 0.065750 0.120889
0.186841 0.064296 0.115840
0.264317 0.062439 0.108966
0.342095 0.059933 0.101656
0.422337 0.056250 0.095491
0.498659 0.055511 0.091042
0.558636 0.056962 0.086738
0.588255 0.057002 0.082612
0.594582 0.056758 0.078062
0.600342 0.056928 0.075744
0.605875 0.057058 0.073771
0.611441 0.057234 0.071986
0.616722 0.057417 0.071842
0.028229 0.113065 0.114160
0.033262 0.111410 0.112520
0.051486 0.108406 0.109734
0.099758 0.106429 0.107879
0.170537 0.102466 0.103319
0.256046 0.100265 0.097713
0.343875 0.098490 0.091503
0.434369 0.097091 0.085557
0.518280 0.095110 0.081176
0.582275 0.092079 0.076711
0.615063 0.087512 0.072955
0.616428 0.081505 0.067661
0.618467 0.077997 0.064544
0.621831 0.076084 0.062692
0.625844 0.074719 0.061424
0.631204 0.074805 0.061401
0.027859 0.156559 0.099172
0.032923 0.154908 0.097778
0.039944 0.151523 0.094893
0.081603 0.150540 0.092506
0.144630 0.148752 0.087766
0.234946 0.146133 0.083971
0.336888 0.143149 0.078691
0.443014 0.142092 0.074184
0.541558 0.141118 0.070276
0.613458 0.137640 0.066702
0.658241 0.133255 0.062442
0.662192 0.127089 0.059290
0.662980 0.122853 0.058298
0.665741 0.120249 0.057741
0.668656 0.117867 0.057207
0.673862 0.117956 0.057195
0.030092 0.206797 0.087443
0.035168 0.205256 0.086217
0.040706 0.202044 0.083709
0.068164 0.201012 0.080508
0.121091 0.200006 0.076421
0.205126 0.199337 0.072047
0.325250 0.198824 0.068415
0.454875 0.198674 0.066522
0.572447 0.199522 0.066068
0.654280 0.196416 0.065618
0.705845 0.191160 0.064598
0.721510 0.184441 0.063247
0.721978 0.178758 0.061987
0.724611 0.175847 0.061803
0.727663 0.173006 0.061644
0.733140 0.172998 0.061690
0.031958 0.262813 0.075415
0.036967 0.261548 0.074301
0.041940 0.258865 0.071981
0.055694 0.255706 0.068482
0.103351 0.256053 0.065943
0.179416 0.257041 0.065025
0.307898 0.264109 0.067930
0.469802 0.268944 0.073317
0.599973 0.271281 0.077382
0.684094 0.266531 0.076726
0.736037 0.257979 0.074745
0.762980 0.249779 0.073151
0.766175 0.242820 0.071763
0.769830 0.239562 0.071157
0.773707 0.236680 0.070616
0.779416 0.236735 0.070735
0.035777 0.324435 0.068357
0.040857 0.323444 0.068262
0.045747 0.321032 0.067770
0.052261 0.316966 0.066749
0.090694 0.317083 0.065910
0.157281 0.321833 0.068167
0.288979 0.340066 0.077098
0.483237 0.361224 0.094563
