assets/luts/LUTs/CinePacks_MVP2_Wingspan.CUBE
LUT_3D_SIZE 16
0.034973 0.034393 0.034790
0.039247 0.035039 0.034986
0.072356 0.037253 0.031376
0.111543 0.038593 0.027861
0.149573 0.042664 0.026322
0.187774 0.049638 0.026141
0.227072 0.056216 0.026956
0.264991 0.060123 0.028360
0.299782 0.063160 0.029476
0.336910 0.064820 0.030386
0.378123 0.064481 0.031135
0.424349 0.065608 0.031975
0.470454 0.071566 0.033410
0.518685 0.080326 0.035842
0.549922 0.086787 0.037668
0.560045 0.089010 0.038267
0.034490 0.037413 0.036128
0.040444 0.039734 0.036874
0.079960 0.042117 0.030861
0.119698 0.046026 0.027505
0.159531 0.055551 0.026635
0.197915 0.060772 0.026685
0.236056 0.063922 0.027627
0.273243 0.067648 0.028935
0.308757 0.069868 0.029981
0.346531 0.069889 0.030789
0.388868 0.068605 0.031514
0.434740 0.071284 0.032508
0.478415 0.077756 0.034054
0.524971 0.086233 0.036454
0.556554 0.092563 0.038302
0.568104 0.095019 0.038942
0.030726 0.055203 0.039726
0.034877 0.062608 0.039282
0.091881 0.081436 0.036847
0.144947 0.080403 0.031356
0.192549 0.081566 0.029597
0.237333 0.082942 0.029688
0.277133 0.084963 0.030026
0.312922 0.085477 0.030725
0.346017 0.085460 0.031438
0.380472 0.085479 0.032043
0.417875 0.086362 0.032734
0.458729 0.090338 0.033717
0.502182 0.097205 0.035546
0.546872 0.105965 0.037814
0.576578 0.112671 0.040315
0.588375 0.115294 0.041160
0.028086 0.077986 0.049534
0.029607 0.085277 0.050716
0.064015 0.107438 0.045345
0.162801 0.125822 0.040013
0.227491 0.125651 0.036496
0.273250 0.124024 0.035241
0.313505 0.122172 0.034412
0.348815 0.119257 0.034196
0.383067 0.115356 0.034010
0.419740 0.114501 0.034028
0.458428 0.115682 0.034750
0.498245 0.118988 0.035865
0.540512 0.124585 0.037496
0.582665 0.132769 0.040479
0.608881 0.140365 0.043475
0.620017 0.143348 0.044295
0.026523 0.100545 0.060651
0.026842 0.107938 0.060605
0.042491 0.132159 0.054708
0.128198 0.162139 0.050030
0.250433 0.185423 0.050858
0.309653 0.181957 0.046853
0.351054 0.177640 0.043193
0.387273 0.172199 0.041122
0.420881 0.165629 0.040356
0.456806 0.159599 0.039840
0.496859 0.157357 0.039806
0.538473 0.158684 0.040615
0.577838 0.160857 0.041772
0.613611 0.167527 0.044939
0.637790 0.174939 0.048586
0.648580 0.179689 0.051372
0.025974 0.123579 0.069335
0.025925 0.131140 0.069913
0.031903 0.160060 0.066896
0.082141 0.190325 0.055940
0.225289 0.234260 0.053918
0.342909 0.255936 0.063774
0.394087 0.247978 0.061008
0.432204 0.239871 0.057197
0.466956 0.231443 0.055890
0.500681 0.223465 0.053779
0.538500 0.215544 0.051604
0.577900 0.212303 0.051374
0.617184 0.211413 0.051538
0.652637 0.219678 0.055232
0.680781 0.233008 0.061009
0.693288 0.241094 0.066591
0.025486 0.150830 0.084734
0.025272 0.158109 0.084511
0.026509 0.189042 0.077546
0.049684 0.218363 0.064526
0.160737 0.267433 0.056318
0.325834 0.309332 0.072858
0.435663 0.326981 0.087953
0.485129 0.317961 0.084242
0.523920 0.307398 0.080766
0.561746 0.297993 0.077020
0.599827 0.291168 0.072632
0.638945 0.286957 0.068719
0.679609 0.285950 0.066625
0.720377 0.296768 0.069973
0.755725 0.320164 0.082876
0.771777 0.333259 0.091865
0.024641 0.181001 0.105445
0.024373 0.188134 0.105457
0.023597 0.218908 0.099253
0.033589 0.248512 0.083734
0.096767 0.284948 0.070506
0.259725 0.340565 0.075632
0.426345 0.382830 0.103800
0.530261 0.401078 0.119543
0.584763 0.395366 0.113041
0.633554 0.390221 0.105140
0.679231 0.386530 0.096392
0.723534 0.385521 0.088471
0.766957 0.388680 0.086793
0.806451 0.405309 0.100425
0.831997 0.432918 0.132777
0.840704 0.449203 0.160685
0.023248 0.214569 0.129980
0.022937 0.221049 0.130534
0.021963 0.249672 0.128597
0.026312 0.280654 0.110061
0.056562 0.301326 0.087889
0.168819 0.353798 0.077529
0.363115 0.412911 0.101574
0.527926 0.461347 0.134129
0.635276 0.485707 0.141939
0.702507 0.491779 0.132632
0.757271 0.494404 0.125106
0.798851 0.494702 0.122460
0.831661 0.500141 0.134627
0.852759 0.515670 0.178081
0.862512 0.536523 0.230232
0.867147 0.553285 0.265119
0.021872 0.251687 0.155271
0.021683 0.256464 0.154839
0.021084 0.279060 0.151114
0.023076 0.316360 0.133767
0.038363 0.330444 0.105698
0.103547 0.362285 0.086474
0.265853 0.429510 0.089387
0.470311 0.498873 0.126819
0.637549 0.555479 0.158334
0.742372 0.579862 0.177627
0.799646 0.585202 0.190483
0.833412 0.586683 0.200545
0.857413 0.595815 0.226677
0.873945 0.614042 0.277276
0.883029 0.635068 0.332053
0.888630 0.652859 0.368597
0.020941 0.288791 0.177310
0.020905 0.292520 0.177093
0.020690 0.310077 0.173475
0.021964 0.350463 0.151013
0.032685 0.374918 0.127786
0.067201 0.389599 0.107850
0.178439 0.445119 0.090004
0.383882 0.522458 0.114043
0.603558 0.606507 0.166330
0.743051 0.644846 0.231455
0.819596 0.666210 0.266780
0.854742 0.675554 0.286046
0.876369 0.687010 0.317516
0.892752 0.703890 0.374180
0.899833 0.721459 0.428309
0.903709 0.734276 0.462382
0.020456 0.322316 0.188444
0.020467 0.325482 0.187204
0.020848 0.342216 0.182663
0.024411 0.388857 0.168387
0.034556 0.427224 0.152594
0.058666 0.438450 0.139690
0.131048 0.472894 0.123190
0.313798 0.554314 0.114704
0.565575 0.648999 0.173293
0.735615 0.702595 0.270060
0.827844 0.736581 0.326815
0.874449 0.761955 0.369442
0.894818 0.768896 0.412351
0.905201 0.775518 0.466756
0.908621 0.787172 0.507534
0.909872 0.795487 0.531073
0.023179 0.362933 0.204384
0.023322 0.366248 0.201795
0.025050 0.384894 0.195268
0.032154 0.437644 0.192556
0.041962 0.486976 0.191685
0.067115 0.510375 0.196718
0.125783 0.531960 0.196482
0.279547 0.597982 0.168354
0.535260 0.689223 0.204747
0.726073 0.755716 0.324223
0.829194 0.792045 0.395168
0.878271 0.815904 0.449674
0.905059 0.830967 0.491907
0.910846 0.834772 0.549355
0.910993 0.840932 0.581106
0.910441 0.846442 0.595209
0.030988 0.413784 0.217806
0.031525 0.417887 0.216283
0.034913 0.441575 0.215960
0.044448 0.496867 0.229097
0.060435 0.549833 0.252009
0.092997 0.573712 0.272623
0.157527 0.594425 0.281951
0.295881 0.645626 0.284498
0.530501 0.728056 0.321911
0.716207 0.798040 0.429438
0.818794 0.835605 0.501566
0.870049 0.849666 0.547525
0.898828 0.859558 0.579370
0.911056 0.865226 0.602714
0.910179 0.868773 0.627036
0.909914 0.871446 0.633950
0.039631 0.462985 0.232253
0.040489 0.467894 0.233704
0.046949 0.497311 0.248323
0.061272 0.552955 0.280399
0.086740 0.588433 0.313226
0.132805 0.604584 0.339335
0.209794 0.634402 0.355170
0.350448 0.689809 0.386006
0.571745 0.763213 0.436809
0.727249 0.824154 0.512080
0.823029 0.854434 0.563729
0.870609 0.865350 0.601868
0.896829 0.872345 0.627687
0.907149 0.875501 0.639061
0.909558 0.876632 0.644064
0.909590 0.876852 0.644950
0.046476 0.492751 0.247879
0.047741 0.498437 0.250586
0.054551 0.527874 0.269871
0.072527 0.577698 0.308033
0.105149 0.601599 0.344131
0.165920 0.623135 0.380106
0.265081 0.673063 0.420089
0.414876 0.728781 0.463231
0.599742 0.788186 0.500832
0.734110 0.835153 0.549695
0.829722 0.859648 0.582612
0.876639 0.868106 0.611948
0.901634 0.874480 0.635430
0.909010 0.876872 0.644599
0.909571 0.877073 0.645469
0.909576 0.877075 0.645477
0.034887 0.034813 0.037543
0.039261 0.035154 0.038621
0.072606 0.037186 0.035608
0.114335 0.037179 0.030781
0.154317 0.039047 0.028089
0.192477 0.042640 0.027439
0.234602 0.046606 0.027908
0.278046 0.048113 0.028513
0.318528 0.048707 0.029400
0.360669 0.050037 0.030470
0.405037 0.051636 0.031042
0.450606 0.057543 0.031952
0.496454 0.065701 0.033766
0.543512 0.075184 0.036530
0.572549 0.081633 0.038793
0.581888 0.083970 0.039605
0.034339 0.038489 0.039491
0.039191 0.039836 0.040379
0.074649 0.041805 0.036508
0.118908 0.042719 0.030156
0.162022 0.049780 0.027960
0.203110 0.053795 0.027660
0.246023 0.054574 0.028410
0.288715 0.055487 0.028880
0.327650 0.056396 0.029821
0.367778 0.057101 0.030756
0.411436 0.058640 0.031358
0.456355 0.064993 0.032403
0.501906 0.073134 0.034364
0.547409 0.081888 0.037300
0.576913 0.088524 0.039840
0.587405 0.091043 0.040776
0.030346 0.057162 0.047264
0.034291 0.060743 0.047522
0.080051 0.076810 0.049052
0.139965 0.074296 0.036432
0.189662 0.074437 0.032347
0.236260 0.075868 0.031292
0.277510 0.077680 0.030892
0.313986 0.077460 0.031450
0.350477 0.076745 0.031688
0.389303 0.076608 0.032128
0.429960 0.078762 0.032920
0.473686 0.084055 0.034122
0.519020 0.091652 0.036380
0.563766 0.100831 0.039346
0.593039 0.108466 0.042290
0.604275 0.111533 0.043120
0.028581 0.079019 0.062597
0.029679 0.084674 0.061843
0.054518 0.102151 0.054674
0.152898 0.120973 0.046807
0.218378 0.119661 0.041855
0.268967 0.118050 0.038333
0.312470 0.116217 0.036738
0.350260 0.112930 0.035927
0.386608 0.108195 0.034954
0.424276 0.106612 0.034698
0.464118 0.107910 0.035382
0.506042 0.112213 0.036639
0.549580 0.118457 0.038402
0.591965 0.127621 0.041707
0.618104 0.135660 0.044375
0.628667 0.139396 0.045760
0.026685 0.101445 0.068161
0.026935 0.108543 0.068453
0.039179 0.129063 0.064559
0.108865 0.155010 0.059029
0.239848 0.180118 0.057662
0.303804 0.176482 0.050969
0.346923 0.171698 0.046498
0.384698 0.166035 0.043723
0.420106 0.158919 0.042082
0.457844 0.151931 0.040967
0.499955 0.149619 0.040780
0.543641 0.151750 0.041559
0.583779 0.155081 0.043110
0.619335 0.162997 0.046657
0.643730 0.171716 0.050671
0.653649 0.177988 0.054568
0.026093 0.125944 0.080245
0.026026 0.133321 0.080782
0.030699 0.157482 0.077149
0.068379 0.182802 0.065451
0.204772 0.227189 0.061305
0.332901 0.251665 0.070371
0.389057 0.243113 0.064691
0.428639 0.234611 0.059226
0.464047 0.225740 0.057259
0.499076 0.217590 0.055232
0.538722 0.209487 0.053394
0.580040 0.206376 0.053040
0.620952 0.206400 0.053133
0.657119 0.215978 0.056953
0.685800 0.231619 0.064155
0.698238 0.240520 0.070260
0.025573 0.154226 0.095582
0.025345 0.161386 0.094893
0.026195 0.188636 0.087088
0.045222 0.214803 0.073233
0.140766 0.258769 0.062462
0.312095 0.303660 0.075040
0.428894 0.323997 0.091082
0.481171 0.314634 0.087529
0.520847 0.303821 0.083308
0.559559 0.294167 0.079599
0.598626 0.287172 0.075038
0.639174 0.283208 0.070594
0.680465 0.282255 0.068558
0.722189 0.293798 0.072552
0.758949 0.319536 0.087124
0.775204 0.333460 0.096844
0.024657 0.184958 0.115008
0.024344 0.192036 0.113646
0.023513 0.221385 0.109039
0.031656 0.247834 0.091136
0.085079 0.278901 0.074913
0.242284 0.335060 0.077389
0.415013 0.378535 0.106172
0.526205 0.399753 0.123973
0.582395 0.394117 0.117122
0.631847 0.388433 0.108247
0.678465 0.384164 0.099153
0.723679 0.382923 0.090781
0.767788 0.386212 0.089300
0.807883 0.403701 0.104458
0.833007 0.432888 0.140379
0.841814 0.449928 0.168688
0.023128 0.219061 0.139754
0.022851 0.225412 0.139566
0.021961 0.253210 0.139125
0.025822 0.281673 0.120392
0.051345 0.298757 0.094603
0.151616 0.346641 0.081300
0.347654 0.408727 0.103579
0.520945 0.459791 0.137375
0.633344 0.485779 0.146002
0.701508 0.491716 0.136510
0.757054 0.493488 0.128376
0.799045 0.493782 0.125573
0.831968 0.499104 0.138432
0.853080 0.514891 0.183584
0.863172 0.537643 0.237477
0.867706 0.554865 0.272494
0.021732 0.256627 0.165141
0.021570 0.261538 0.165293
0.021062 0.283480 0.161967
0.023003 0.317957 0.145193
0.036986 0.331427 0.114376
0.093289 0.357978 0.092590
0.250740 0.426069 0.091020
0.461636 0.497300 0.128610
0.633639 0.555602 0.161031
0.741257 0.580026 0.181132
0.799625 0.585300 0.193648
0.833676 0.586698 0.203408
0.857901 0.595949 0.229755
0.874506 0.614223 0.281038
0.883502 0.635890 0.336081
0.889145 0.653931 0.372687
0.020837 0.293883 0.186952
0.020833 0.297534 0.187002
0.020735 0.314876 0.183932
0.021998 0.352212 0.161140
0.032376 0.377881 0.136214
0.063930 0.389376 0.114211
0.168397 0.442274 0.094367
0.374211 0.520867 0.114071
0.598604 0.606179 0.166912
0.741365 0.645496 0.232796
0.819489 0.666905 0.268293
0.855031 0.676132 0.287334
0.876871 0.687429 0.319162
0.893120 0.704196 0.376247
0.899842 0.721492 0.428363
0.903725 0.734289 0.462486
0.020858 0.328181 0.198024
0.020861 0.331000 0.196560
0.021592 0.347496 0.192701
0.025158 0.390904 0.177871
0.034634 0.430559 0.159911
0.057732 0.441679 0.145841
0.127150 0.472797 0.129315
0.305721 0.553514 0.115811
0.560062 0.648677 0.172889
0.734017 0.703513 0.270375
0.827589 0.737403 0.327399
0.874649 0.762704 0.369793
0.895087 0.769190 0.412354
0.905302 0.775647 0.467096
0.908596 0.787161 0.506378
0.909845 0.795505 0.530013
0.024554 0.370578 0.215284
0.024703 0.373537 0.212411
0.026528 0.390789 0.205170
0.033226 0.439535 0.200428
0.042976 0.490665 0.198897
0.067052 0.515367 0.202850
0.124202 0.534745 0.201832
0.274986 0.597864 0.171850
0.530528 0.689088 0.204035
0.724920 0.756211 0.324142
0.829051 0.792446 0.395097
0.878418 0.816200 0.449362
0.904985 0.831013 0.491860
0.910885 0.834908 0.547633
0.911080 0.841130 0.579861
0.910498 0.846691 0.594203
0.033483 0.422817 0.228214
0.033813 0.426107 0.226050
0.036678 0.447268 0.223997
0.045711 0.498641 0.235656
0.061771 0.551998 0.257495
0.094048 0.576101 0.277004
0.157540 0.596284 0.286086
0.294931 0.645989 0.287445
0.529876 0.728232 0.323615
0.716458 0.798143 0.429157
0.820074 0.835134 0.499448
0.871142 0.848805 0.544173
0.899606 0.858822 0.576533
0.911125 0.864542 0.600027
0.910252 0.868349 0.625242
0.909970 0.871153 0.632614
0.042667 0.472898 0.242980
0.043418 0.477115 0.243789
0.048902 0.502563 0.254980
0.062120 0.553811 0.284415
0.087399 0.589516 0.315297
0.132178 0.604195 0.338563
0.208422 0.633382 0.352897
0.348768 0.688389 0.382900
0.571771 0.762394 0.433769
0.728705 0.823776 0.509551
0.824302 0.853934 0.561372
0.871450 0.864756 0.599624
0.896931 0.871780 0.625586
0.907209 0.875161 0.637777
0.909593 0.876369 0.643058
0.909618 0.876668 0.644209
0.050257 0.503376 0.259700
0.051026 0.508045 0.261159
0.056305 0.533190 0.276309
0.073829 0.578651 0.312681
0.106172 0.602593 0.346649
0.165293 0.622687 0.379462
0.263201 0.671481 0.417061
0.413132 0.727164 0.459625
0.600068 0.787271 0.497876
0.735657 0.834623 0.546804
0.830638 0.859087 0.580226
0.877430 0.867634 0.610164
0.901715 0.874069 0.633826
0.909035 0.876664 0.643738
0.909594 0.876941 0.644914
0.909597 0.876951 0.644947
0.033858 0.036678 0.055154
0.037927 0.036556 0.058621
0.065943 0.036772 0.060988
0.109721 0.037203 0.058302
0.150806 0.037024 0.054294
0.191215 0.037941 0.048772
0.235807 0.039636 0.043601
0.283789 0.039569 0.040962
0.330397 0.040260 0.040063
0.379579 0.041576 0.039822
0.432079 0.043906 0.038709
0.486543 0.049620 0.039357
0.537633 0.057466 0.040695
0.583510 0.066580 0.043717
0.612205 0.073273 0.045476
0.620411 0.076239 0.046536
0.033161 0.041499 0.061883
0.037634 0.042486 0.065367
0.067671 0.040942 0.068765
0.117652 0.039996 0.061013
0.165569 0.041060 0.050070
0.210847 0.043467 0.041467
0.255223 0.043110 0.038451
0.298207 0.042749 0.037486
0.343370 0.043016 0.036906
0.392854 0.043368 0.036275
0.444351 0.046465 0.035763
0.496152 0.053383 0.036417
0.545389 0.060929 0.037839
0.590042 0.070194 0.041278
0.617455 0.078023 0.044313
0.625807 0.082130 0.046188
0.030075 0.060258 0.067025
0.033855 0.064019 0.069127
0.063675 0.068130 0.068460
0.126511 0.065947 0.052913
0.183217 0.063806 0.043114
0.233440 0.063191 0.038837
0.276950 0.063462 0.037070
0.319825 0.061402 0.035753
0.365418 0.059475 0.034809
0.412609 0.059257 0.034704
0.460574 0.063870 0.035423
0.511776 0.070517 0.036874
0.560925 0.078809 0.038668
0.603341 0.089054 0.042489
0.628456 0.098339 0.046736
0.635446 0.104496 0.050959
0.028929 0.080710 0.078942
0.030113 0.087108 0.081794
0.048647 0.099557 0.079178
0.125453 0.112780 0.072903
0.201592 0.108106 0.054669
0.257888 0.104903 0.047403
0.305311 0.102553 0.043526
0.347450 0.098578 0.040730
0.388573 0.092593 0.039219
0.433377 0.089402 0.037844
0.479312 0.092143 0.038138
0.527719 0.098186 0.039605
0.575591 0.105136 0.041564
0.614899 0.115697 0.045926
0.639520 0.125995 0.051185
0.647376 0.133069 0.056344
0.026962 0.104148 0.088056
0.027255 0.111627 0.090304
0.037514 0.128478 0.091925
0.082220 0.144678 0.083220
0.214990 0.169283 0.076118
0.287089 0.164833 0.066232
0.336361 0.158803 0.056922
0.379338 0.152248 0.051696
0.419391 0.143390 0.047857
0.461593 0.133728 0.044471
0.506384 0.131172 0.044141
0.552447 0.134851 0.046100
0.598609 0.140894 0.047874
0.634587 0.150763 0.051763
0.658462 0.164435 0.059281
0.667926 0.172852 0.065216
0.026314 0.130658 0.102823
0.026248 0.138397 0.104036
0.030228 0.160088 0.102585
0.056000 0.176364 0.091714
0.157372 0.210668 0.085263
0.311233 0.242214 0.089320
0.377741 0.232164 0.076699
0.420055 0.222476 0.067991
0.458263 0.211794 0.062561
0.495246 0.201524 0.059274
0.538953 0.192614 0.057641
0.585431 0.189734 0.058112
0.631779 0.192661 0.058357
0.670437 0.205657 0.063393
0.699806 0.227859 0.076692
0.713850 0.238896 0.084524
0.025542 0.159924 0.115493
0.025347 0.168217 0.117609
0.026058 0.196181 0.117294
0.039466 0.210403 0.099512
0.102631 0.241979 0.082599
0.277019 0.292630 0.087563
0.412761 0.317556 0.103352
0.472628 0.306769 0.095861
0.513843 0.294162 0.088898
0.554567 0.283683 0.085450
0.596354 0.276491 0.081437
0.640850 0.271969 0.077479
0.685871 0.271528 0.076662
0.731138 0.287330 0.083800
0.771818 0.319907 0.104237
0.789582 0.338988 0.120025
0.024369 0.192841 0.135878
0.024124 0.201172 0.137254
0.023373 0.233345 0.136950
0.029313 0.249096 0.112125
0.065069 0.269301 0.086794
0.196923 0.321251 0.081919
0.387194 0.369154 0.111328
0.515787 0.396715 0.133989
0.577908 0.391625 0.127781
0.628677 0.384344 0.117784
0.677976 0.378450 0.108487
0.726385 0.376510 0.100315
0.773710 0.380283 0.100485
0.814883 0.402785 0.125100
0.837729 0.436490 0.174794
0.844936 0.458735 0.209780
0.022758 0.229950 0.163411
0.022514 0.237068 0.164958
0.021677 0.267135 0.165815
0.025191 0.289489 0.146646
0.044326 0.298971 0.113911
0.117929 0.332335 0.093618
0.306032 0.398959 0.108752
0.500058 0.455098 0.146753
0.628683 0.488720 0.160498
0.700940 0.493839 0.150973
0.758009 0.492677 0.141971
0.801210 0.492124 0.140539
0.834715 0.497701 0.160164
0.855825 0.516707 0.213072
0.866238 0.545120 0.272520
0.871904 0.567004 0.308219
0.021383 0.267623 0.187271
0.021280 0.273243 0.188895
0.021072 0.298467 0.192370
0.023213 0.326891 0.177340
0.035049 0.338989 0.143104
0.075035 0.351686 0.114200
0.205590 0.414553 0.100201
0.429631 0.491336 0.135465
0.621102 0.557440 0.171778
0.738665 0.583216 0.199137
0.801120 0.587372 0.209900
0.836419 0.588894 0.218733
0.861726 0.599876 0.248474
0.878102 0.619948 0.306140
0.886910 0.644487 0.360894
0.892552 0.663973 0.397466
0.021268 0.307089 0.210991
0.021341 0.310963 0.211297
0.021941 0.330899 0.213253
0.024449 0.365074 0.196713
0.033049 0.388136 0.165861
0.056969 0.392580 0.136463
0.137833 0.433210 0.115351
0.339611 0.517235 0.119535
0.580623 0.606642 0.171594
0.736909 0.650366 0.242778
0.821095 0.672980 0.279155
0.858350 0.682223 0.298765
0.881009 0.693108 0.334131
0.895803 0.710602 0.395958
0.901261 0.726812 0.440075
0.904697 0.738457 0.469450
0.024043 0.348256 0.232377
0.024172 0.351286 0.231367
0.025290 0.367556 0.228206
0.029895 0.406074 0.214277
0.037591 0.446149 0.191622
0.057415 0.458325 0.174293
0.114559 0.477071 0.157343
0.274707 0.552504 0.128018
0.538591 0.650254 0.175122
0.729710 0.711116 0.277925
0.829327 0.745459 0.335843
0.877901 0.770331 0.378202
0.898109 0.774442 0.420349
0.906446 0.780662 0.476924
0.908933 0.790903 0.509019
0.909911 0.798174 0.526689
0.030591 0.394267 0.247241
0.031150 0.397852 0.246035
0.033635 0.415093 0.241332
0.038523 0.452284 0.232737
0.048738 0.508015 0.230646
0.069522 0.535889 0.231676
0.120463 0.548976 0.228629
0.257933 0.601049 0.195924
0.512567 0.692499 0.211047
0.722120 0.761993 0.332746
0.830154 0.798550 0.403302
0.880382 0.821092 0.456120
0.905536 0.833814 0.498874
0.911297 0.837790 0.544342
0.911379 0.842529 0.572867
0.911119 0.847909 0.584601
0.042349 0.452646 0.260873
0.042904 0.456251 0.259900
0.046595 0.476068 0.260412
0.052332 0.509706 0.267924
0.068984 0.564830 0.284474
0.101287 0.586131 0.300160
0.164385 0.606436 0.308794
0.297940 0.653875 0.313905
0.530603 0.732908 0.347766
0.720699 0.802584 0.438887
0.826961 0.835791 0.497899
0.877149 0.846748 0.534494
0.903135 0.855865 0.565339
0.911519 0.861123 0.586668
0.910959 0.865324 0.609276
0.910620 0.868814 0.618483
0.056719 0.511240 0.287520
0.057163 0.515024 0.287945
0.060354 0.534103 0.294078
0.068087 0.560496 0.307293
0.093809 0.596413 0.331255
0.137034 0.607811 0.348390
0.213256 0.636658 0.359187
0.356291 0.691862 0.388656
0.581280 0.765648 0.437224
0.739614 0.825301 0.506147
0.832609 0.851253 0.550257
0.878378 0.860024 0.582343
0.900617 0.866454 0.605583
0.909204 0.870212 0.619192
0.910436 0.871783 0.625364
0.910332 0.872855 0.629313
0.063478 0.542420 0.304770
0.064181 0.546403 0.306049
0.069391 0.565070 0.315481
0.081758 0.587538 0.335890
0.113507 0.608061 0.362866
0.168976 0.624889 0.384976
0.259994 0.668368 0.409397
0.412508 0.722161 0.443195
0.610368 0.784759 0.481444
0.751928 0.833385 0.529220
0.841025 0.854968 0.563556
0.884597 0.863267 0.594014
0.904417 0.869442 0.616476
0.909914 0.872497 0.627891
0.910191 0.873644 0.632255
0.910176 0.873909 0.633175
0.030432 0.038214 0.083824
0.034110 0.037240 0.089225
0.059637 0.034292 0.099374
0.099329 0.036128 0.099706
0.144648 0.036950 0.084267
0.186740 0.036367 0.074749
0.231560 0.037166 0.066682
0.282116 0.038677 0.060806
0.334992 0.039990 0.059280
0.392932 0.041474 0.058863
0.453584 0.043972 0.057957
0.514777 0.049471 0.058460
0.571184 0.057454 0.060102
0.618803 0.067535 0.064323
0.646879 0.075899 0.068781
0.653252 0.079787 0.071898
0.030136 0.043401 0.088868
0.032271 0.042362 0.096750
0.060393 0.037692 0.110320
0.105595 0.038338 0.110374
0.159050 0.039614 0.087173
0.207435 0.039842 0.071051
0.253354 0.040097 0.061945
0.298856 0.041108 0.057987
0.350505 0.041762 0.057327
0.409153 0.042717 0.056401
0.468119 0.045608 0.055438
0.525774 0.052487 0.055695
0.581026 0.060343 0.057791
0.626231 0.070489 0.062369
0.652088 0.079945 0.068681
0.658275 0.084663 0.072264
0.030076 0.066694 0.088566
0.031850 0.069348 0.094950
0.056748 0.066764 0.103796
0.111858 0.063568 0.108995
0.177369 0.059011 0.083435
0.231304 0.055699 0.068162
0.277858 0.055376 0.057898
0.325567 0.052495 0.054082
0.377620 0.051594 0.052249
0.431838 0.052368 0.049795
0.488433 0.056073 0.049417
0.546971 0.062704 0.051153
0.596989 0.070978 0.052663
0.634300 0.082603 0.056917
0.653989 0.095491 0.065839
0.660352 0.102091 0.070834
0.029094 0.082902 0.098807
0.030263 0.089766 0.104200
0.049117 0.101841 0.113700
0.101036 0.103400 0.107969
0.182696 0.099169 0.081702
0.247297 0.093685 0.066076
0.297839 0.089806 0.057799
0.342353 0.084824 0.053328
0.390502 0.078207 0.049781
0.442706 0.075931 0.047427
0.494958 0.079841 0.047910
0.547898 0.086265 0.049808
0.599046 0.093129 0.050861
0.638215 0.104910 0.055093
0.660039 0.120665 0.066954
0.667751 0.128681 0.073476
0.027327 0.108267 0.113334
0.027696 0.116096 0.117988
0.038933 0.133445 0.126922
0.073289 0.144382 0.122392
0.179906 0.162770 0.115048
0.271247 0.154421 0.086987
0.324896 0.146692 0.072557
0.371069 0.137937 0.063611
0.414655 0.127566 0.057674
0.460887 0.117622 0.053520
0.509797 0.115924 0.052493
0.561886 0.120941 0.054189
0.612167 0.127697 0.055330
0.650238 0.139099 0.060829
0.674657 0.158700 0.074786
0.685378 0.169123 0.082974
0.026449 0.135070 0.124320
0.026425 0.143470 0.128931
0.030724 0.168543 0.139480
0.052067 0.178426 0.130844
0.120524 0.200660 0.122213
0.285041 0.232090 0.117866
0.364468 0.222607 0.100912
0.413071 0.210736 0.084749
0.453239 0.197754 0.074387
0.492772 0.184504 0.067115
0.539331 0.173855 0.063219
0.590464 0.172085 0.064069
0.638919 0.177988 0.066179
0.680980 0.194877 0.074458
0.713121 0.222215 0.092604
0.729213 0.237024 0.103529
0.025299 0.165693 0.137948
0.024988 0.174413 0.141131
0.025771 0.207555 0.153634
0.038646 0.216465 0.139350
0.082586 0.232760 0.118735
0.223015 0.276429 0.116162
0.394286 0.311856 0.128461
0.465738 0.299186 0.112261
0.507453 0.284037 0.098918
0.548125 0.270064 0.090329
0.591803 0.260851 0.085977
0.640487 0.255221 0.083496
0.690899 0.257125 0.084556
0.742084 0.281269 0.098719
0.783839 0.320720 0.128178
0.802646 0.346196 0.154163
0.023739 0.200591 0.157331
0.023460 0.209707 0.160783
0.022980 0.246371 0.171129
0.029538 0.260107 0.150313
0.056748 0.266290 0.115585
0.154499 0.306500 0.101395
0.356103 0.362134 0.121765
0.503088 0.393703 0.144138
