assets/luts/LUTs/CinePacks_MVP2_Low Altitude.CUBE
TITLE "Generate by Resolve"
LUT_3D_SIZE 5
0.030457 0.0316472 0.0322576
0.132815 0.0365301 0.032578
0.372061 0.00314336 0
0.569253 0 0
0.726452 0 0
0.0369268 0.143282 0.0458076
0.145434 0.154131 0.0521248
0.405127 0.140459 0.0259098
0.638666 0.1552 0.0304265
0.844388 0.197635 0.0648051
0 0.383352 0.0154574
0.147936 0.44535 0.0737469
0.455894 0.479179 0.0946975
0.716793 0.520409 0.125078
0.920043 0.560143 0.156909
0.11133 0.735592 0.154376
0.25745 0.782757 0.196674
0.531411 0.781903 0.182895
0.75555 0.786709 0.17734
0.93164 0.799725 0.182589
0.181338 0.974258 0.234638
0.305806 0.999374 0.254948
0.567681 0.986343 0.228992
0.784466 0.983841 0.216144
0.956909 0.993194 0.217746
0.0371405 0.0321508 0.135454
0.138643 0.0361334 0.134798
0.377951 0.00277714 0.0884871
0.576104 0 0.0583505
0.735729 0 0.0476997
0.0444648 0.14464 0.149676
0.156283 0.15877 0.159106
0.421561 0.150546 0.138094
0.660807 0.170855 0.147921
0.87187 0.21854 0.187427
0.0133364 0.401282 0.136233
0.175921 0.467109 0.197116
0.484733 0.501488 0.218296
0.741894 0.538933 0.244999
0.939559 0.57319 0.271153
0.134127 0.752194 0.27245
0.27538 0.794415 0.309529
0.547219 0.791348 0.293584
0.769863 0.794644 0.286534
0.944839 0.806577 0.290639
0.195163 0.981857 0.343374
0.318944 1 0.362829
0.58024 0.992584 0.336324
0.797208 0.990234 0.323644
0.969894 0.999832 0.325444
0.0399481 0.0177157 0.400061
0.140383 0.02121 0.398917
0.380224 0 0.35375
0.579629 0 0.325231
0.742596 0 0.317891
0.0495766 0.132235 0.41648
0.164584 0.150103 0.429435
0.4365 0.148501 0.415045
0.681041 0.174014 0.42974
0.896284 0.225803 0.47274
0.0352636 0.406439 0.420615
0.201312 0.475517 0.483879
0.508827 0.508492 0.503319
0.761135 0.541146 0.524987
0.953658 0.570367 0.545922
0.151019 0.752194 0.550317
0.28867 0.790829 0.58352
0.558206 0.785489 0.565408
0.779873 0.787839 0.557412
0.954116 0.799023 0.560708
0.204669 0.974548 0.613504
0.327993 0.998535 0.63238
0.589014 0.984604 0.605737
0.805844 0.982132 0.592981
0.97911 0.992279 0.595254
0.0436866 0.00788891 0.609979
0.143633 0.0110781 0.608545
0.384192 0 0.56434
0.585428 0 0.537713
0.75201 0 0.533867
0.0565347 0.125734 0.629602
0.176989 0.149172 0.647898
0.454063 0.152667 0.638483
0.704509 0.183948 0.658671
0.923049 0.238972 0.70457
0.0596628 0.417762 0.651194
0.228077 0.488899 0.716091
0.532372 0.518532 0.732113
0.779721 0.546258 0.748852
0.968338 0.571633 0.765927
0.167666 0.75552 0.772473
0.302327 0.791135 0.802609
0.570321 0.784268 0.783017
0.790692 0.785336 0.773754
0.964492 0.796078 0.776577
0.215381 0.971969 0.829664
0.33817 0.995422 0.847929
0.599069 0.981384 0.821256
0.816037 0.979034 0.808621
0.988693 0.988586 0.810269
0.0483558 0.00256352 0.767071
0.148302 0.00585946 0.765743
0.3897 0 0.722484
0.593454 0 0.698344
0.765499 0 0.699718
0.066041 0.125414 0.791516
0.192172 0.154543 0.814878
0.475105 0.163729 0.811017
0.7308 0.200107 0.836011
0.951324 0.257069 0.883513
0.0864881 0.435035 0.830228
0.255436 0.506355 0.894636
0.555947 0.532052 0.906737
0.797711 0.554223 0.917983
0.983352 0.576699 0.932143
0.184161 0.762173 0.940429
0.316548 0.795499 0.968139
0.583276 0.787305 0.947356
0.802716 0.787457 0.937255
0.976059 0.797726 0.93959
0.227176 0.973938 0.992859
0.349432 0.996841 1
0.610452 0.982879 0.984024
0.827665 0.980774 0.971679
1 0.990082 0.973083
