assets/luts/LUTs/CinePacks_MVP2__Natural_DLOG_03.CUBE
LUT_3D_SIZE 16
0.000000 0.000000 0.000000
0.000000 -0.000418 -0.000418
0.082891 -0.000940 -0.000940
0.182505 -0.001421 -0.001421
0.281543 -0.001847 -0.001847
0.382177 -0.002230 -0.002230
0.482508 -0.002591 -0.002591
0.580659 -0.002944 -0.002944
0.672699 -0.003279 -0.003279
0.758323 -0.003624 -0.003624
0.836093 -0.003975 -0.003975
0.902353 -0.004347 -0.004347
0.957252 -0.004724 -0.004724
0.999980 -0.005066 -0.005066
1.000000 -0.005318 -0.005318
1.000000 -0.005419 -0.005419
-0.000694 0.000000 -0.000694
0.000000 0.000000 -0.000773
0.082891 0.041447 -0.001153
0.182505 0.060834 -0.001555
0.281542 0.070380 -0.001937
0.382177 0.076428 -0.002294
0.482508 0.080406 -0.002641
0.580659 0.082932 -0.002985
0.672699 0.084064 -0.003314
0.758323 0.084240 -0.003653
0.836093 0.083574 -0.004000
0.902353 0.081993 -0.004369
0.957252 0.079718 -0.004744
0.999980 0.076869 -0.005083
1.000000 0.071364 -0.005325
1.000000 0.066601 -0.005433
-0.001557 0.082890 -0.001557
0.041446 0.082890 -0.001595
0.082890 0.082890 -0.001735
0.182505 0.121671 -0.001997
0.281542 0.140764 -0.002268
0.382176 0.152864 -0.002547
0.482508 0.160824 -0.002835
0.580658 0.165881 -0.003140
0.672699 0.168158 -0.003441
0.758323 0.168510 -0.003761
0.836093 0.167202 -0.004095
0.902353 0.164048 -0.004447
0.957252 0.159510 -0.004813
1.000000 0.153834 -0.005145
1.000000 0.142820 -0.005381
1.000000 0.133309 -0.005485
-0.002353 0.182504 -0.002353
0.060831 0.182504 -0.002375
0.121669 0.182504 -0.002464
0.182503 0.182503 -0.002625
0.281541 0.211156 -0.002786
0.382175 0.229305 -0.002967
0.482507 0.241255 -0.003187
0.580658 0.248845 -0.003424
0.672699 0.252253 -0.003686
0.758322 0.252790 -0.003969
0.836092 0.250829 -0.004271
0.902353 0.246086 -0.004609
0.957252 0.239295 -0.004947
1.000000 0.230775 -0.005266
0.999980 0.214256 -0.005492
1.000000 0.200001 -0.005578
-0.003060 0.281541 -0.003060
0.070374 0.281541 -0.003072
0.140761 0.281541 -0.003130
0.211155 0.281540 -0.003240
0.281540 0.281540 -0.003406
0.382173 0.305733 -0.003509
0.482506 0.321659 -0.003653
0.580657 0.331774 -0.003827
0.672698 0.336345 -0.004031
0.758322 0.337043 -0.004269
0.836092 0.334430 -0.004540
0.902352 0.328142 -0.004840
0.957251 0.319066 -0.005167
1.000000 0.307691 -0.005466
1.000000 0.285692 -0.005666
1.000000 0.266664 -0.005731
-0.003701 0.382172 -0.003701
0.076413 0.382172 -0.003705
0.152858 0.382172 -0.003749
0.229301 0.382171 -0.003828
0.305731 0.382170 -0.003956
0.382169 0.382169 -0.004123
0.482505 0.402115 -0.004193
0.580656 0.414757 -0.004311
0.672697 0.420403 -0.004467
0.758321 0.421311 -0.004655
0.836091 0.418057 -0.004882
0.902352 0.410146 -0.005162
0.957251 0.398835 -0.005452
1.000000 0.384632 -0.005719
1.000000 0.357107 -0.005900
1.000000 0.333341 -0.005933
-0.004297 0.482505 -0.004297
0.080384 0.482505 -0.004307
0.160815 0.482504 -0.004335
0.241250 0.482504 -0.004397
0.321657 0.482504 -0.004494
0.402114 0.482504 -0.004630
0.482503 0.482503 -0.004792
0.580655 0.497694 -0.004857
0.672697 0.504510 -0.004960
0.758321 0.505597 -0.005104
0.836090 0.501658 -0.005298
0.902351 0.492184 -0.005538
0.957251 0.478608 -0.005801
0.999980 0.461554 -0.006035
0.999980 0.428533 -0.006187
1.000000 0.400006 -0.006187
-0.004880 0.580655 -0.004880
0.082900 0.580655 -0.004883
0.165878 0.580655 -0.004906
0.248838 0.580654 -0.004962
0.331770 0.580654 -0.005030
0.414753 0.580654 -0.005144
0.497692 0.580654 -0.005280
0.580653 0.580653 -0.005437
0.672695 0.588614 -0.005492
0.758320 0.589858 -0.005598
0.836089 0.585301 -0.005754
0.902351 0.574256 -0.005966
0.957250 0.558403 -0.006194
0.999980 0.538501 -0.006419
1.000000 0.499981 -0.006534
1.000000 0.466710 -0.006488
-0.005448 0.672696 -0.005448
0.084022 0.672696 -0.005450
0.168138 0.672696 -0.005469
0.252244 0.672695 -0.005507
0.336340 0.672695 -0.005573
0.420397 0.672695 -0.005652
0.504507 0.672695 -0.005768
0.588613 0.672695 -0.005904
0.672694 0.672694 -0.006065
0.758318 0.674075 -0.006130
0.836088 0.668846 -0.006253
0.902350 0.656246 -0.006432
0.957249 0.638134 -0.006650
1.000000 0.615412 -0.006823
1.000000 0.571384 -0.006917
1.000000 0.533339 -0.006840
-0.006004 0.758319 -0.006004
0.084180 0.758319 -0.006006
0.168489 0.758319 -0.006030
0.252777 0.758319 -0.006062
0.337036 0.758318 -0.006119
0.421306 0.758318 -0.006187
0.505593 0.758318 -0.006280
0.589856 0.758318 -0.006397
0.674074 0.758317 -0.006538
0.758317 0.758317 -0.006702
0.836086 0.752502 -0.006791
0.902349 0.738222 -0.006946
0.957249 0.717842 -0.007128
0.999980 0.692307 -0.007280
1.000000 0.642783 -0.007329
1.000000 0.600012 -0.007223
-0.006596 0.836087 -0.006596
0.083500 0.836087 -0.006597
0.167174 0.836087 -0.006604
0.250816 0.836087 -0.006632
0.334420 0.836087 -0.006682
0.418046 0.836086 -0.006741
0.501679 0.836086 -0.006822
0.585298 0.836086 -0.006925
0.668843 0.836085 -0.007051
0.752501 0.836085 -0.007184
0.836131 0.836131 -0.007349
0.902348 0.820303 -0.007474
0.957248 0.797673 -0.007635
1.000000 0.769271 -0.007779
1.000000 0.714233 -0.007788
1.000000 0.666693 -0.007632
-0.007204 0.902349 -0.007204
0.081898 0.902349 -0.007206
0.164009 0.902349 -0.007225
0.246069 0.902349 -0.007249
0.328113 0.902349 -0.007281
0.410133 0.902348 -0.007345
0.492177 0.902348 -0.007416
0.574234 0.902348 -0.007496
0.656243 0.902348 -0.007608
0.738219 0.902348 -0.007727
0.820302 0.902347 -0.007875
0.902347 0.902347 -0.008041
0.957247 0.877469 -0.008175
1.000000 0.846184 -0.008290
1.000000 0.785701 -0.008262
1.000000 0.733407 -0.008061
-0.007831 0.957248 -0.007831
0.079606 0.957248 -0.007833
0.159467 0.957248 -0.007838
0.239271 0.957248 -0.007871
0.319037 0.957248 -0.007888
0.398820 0.957247 -0.007955
0.478599 0.957247 -0.008008
0.558396 0.957247 -0.008090
0.638130 0.957247 -0.008180
0.717838 0.957247 -0.008297
0.797671 0.957246 -0.008422
0.877468 0.957246 -0.008572
0.957246 0.957246 -0.008728
0.999980 0.923112 -0.008808
1.000000 0.857074 -0.008768
1.000000 0.800046 -0.008536
-0.008388 1.000000 -0.008388
0.076742 1.000000 -0.008389
0.153781 1.000000 -0.008414
0.230747 0.999980 -0.008424
0.307697 1.000000 -0.008459
0.384615 1.000000 -0.008500
0.461545 1.000000 -0.008548
0.538494 0.999980 -0.008622
0.615408 1.000000 -0.008703
0.692305 0.999980 -0.008809
0.769269 1.000000 -0.008922
0.846184 1.000000 -0.009060
0.923112 1.000000 -0.009203
1.000000 1.000000 -0.009352
0.999980 0.928474 -0.009281
1.000000 0.866649 -0.009020
-0.008809 1.000000 -0.008809
0.071219 1.000000 -0.008810
0.142771 1.000000 -0.008814
0.214233 1.000000 -0.008841
0.285669 1.000000 -0.008873
0.357089 0.999980 -0.008910
0.428523 1.000000 -0.008953
0.500001 1.000000 -0.009021
0.571381 1.000000 -0.009095
0.642780 1.000000 -0.009174
0.714230 0.999980 -0.009278
0.785700 1.000000 -0.009387
0.857074 1.000000 -0.009520
0.928474 1.000000 -0.009674
1.000000 1.000000 -0.009816
1.000000 0.933409 -0.009512
-0.008990 1.000000 -0.008990
0.066441 1.000000 -0.008990
0.133249 1.000000 -0.008994
0.199962 1.000000 -0.009019
0.266641 1.000000 -0.009031
0.333327 1.000000 -0.009066
0.400010 1.000000 -0.009105
0.466702 1.000000 -0.009168
0.533332 1.000000 -0.009236
0.600009 1.000000 -0.009309
0.666690 1.000000 -0.009388
0.733404 1.000000 -0.009489
0.800045 1.000000 -0.009613
0.866649 1.000000 -0.009740
0.933409 1.000000 -0.009873
1.000000 1.000000 -0.010025
-0.000267 -0.000267 0.000000
0.000000 -0.000473 0.000000
0.082891 -0.000964 0.041447
0.182505 -0.001436 0.060835
0.281543 -0.001857 0.070381
0.382177 -0.002237 0.076428
0.482508 -0.002600 0.080407
0.580659 -0.002946 0.082933
0.672699 -0.003290 0.084065
0.758323 -0.003625 0.084240
0.836093 -0.003976 0.083579
0.902353 -0.004348 0.081993
0.957252 -0.004725 0.079718
0.999980 -0.005066 0.076870
1.000000 -0.005319 0.071364
1.000000 -0.005419 0.066601
-0.000722 0.000000 0.000000
0.000000 0.000000 0.000000
0.113333 0.000000 0.000000
0.205312 0.000000 0.000000
0.300174 0.000000 0.000000
0.397912 0.000000 0.000000
0.495659 0.000000 0.000000
0.591550 0.000000 0.000000
0.681450 0.000000 0.000000
0.765138 0.000000 0.000000
0.841162 0.000000 0.000000
0.905884 0.000000 0.000000
0.959807 0.000000 0.000000
1.000000 0.000000 0.000000
0.999980 0.000000 0.000000
1.000000 0.000000 0.000000
-0.001570 0.082890 0.041446
0.000000 0.087203 0.000000
0.083922 0.083922 0.000000
0.190606 0.120076 0.000000
0.292157 0.135883 0.000000
0.393310 0.145408 0.000000
0.492956 0.151403 0.000000
0.589879 0.155003 0.000000
0.680487 0.156302 0.000000
0.764554 0.156003 0.000000
0.840817 0.154325 0.000000
0.905732 0.151072 0.000000
0.959689 0.146695 0.000000
1.000000 0.141084 0.000000
1.000000 0.130967 0.000000
1.000000 0.122235 0.000000
-0.002361 0.182504 0.060831
0.000000 0.185298 0.000000
0.116222 0.184491 0.000000
0.183208 0.183208 0.000000
0.285733 0.210975 0.000000
0.388369 0.227927 0.000000
0.489441 0.238618 0.000000
0.587537 0.245082 0.000000
0.678866 0.247530 0.000000
0.763594 0.247324 0.000000
0.840211 0.244781 0.000000
0.905340 0.239697 0.000000
0.959446 0.232805 0.000000
1.000000 0.223952 0.000000
1.000000 0.207900 0.000000
1.000000 0.194027 0.000000
-0.003062 0.281541 0.070374
0.000000 0.283732 0.000000
0.131824 0.283415 0.000000
0.208826 0.282846 0.000000
0.282101 0.282101 0.000000
0.384860 0.305925 0.000000
0.486441 0.321208 0.000000
0.585202 0.330624 0.000000
0.677186 0.334418 0.000000
0.762419 0.334456 0.000000
0.839412 0.331216 0.000000
0.904917 0.324481 0.000000
0.959154 0.315225 0.000000
0.999980 0.303326 0.000000
1.000000 0.281582 0.000000
0.999980 0.262806 0.000000
-0.003702 0.382172 0.076413
0.000000 0.383975 0.000000
0.141899 0.383788 0.000000
0.225076 0.383532 0.000000
0.304522 0.383103 0.000000
0.382616 0.382616 0.000000
0.484311 0.402344 0.000000
0.583363 0.414630 0.000000
0.675707 0.419772 0.000000
0.761310 0.420153 0.000000
0.838650 0.416314 0.000000
0.904361 0.407984 0.000000
0.958842 0.396442 0.000000
1.000000 0.381600 0.000000
1.000000 0.354230 0.000000
1.000000 0.330628 0.000000
-0.004299 0.482505 0.080384
0.000000 0.483976 0.000000
0.148623 0.483912 0.000000
0.235825 0.483714 0.000000
0.319270 0.483508 0.000000
0.401394 0.483198 0.000000
0.482865 0.482865 0.000000
0.581964 0.497908 0.000000
0.674428 0.504405 0.000000
0.760262 0.505068 0.000000
0.837971 0.500777 0.000000
0.903902 0.490873 0.000000
0.958502 0.477034 0.000000
1.000000 0.459346 0.000000
1.000000 0.426428 0.000000
0.999980 0.397980 0.000000
-0.004881 0.580655 0.082900
0.000000 0.581922 0.000000
0.152899 0.581838 0.000000
0.242669 0.581756 0.000000
0.328605 0.581632 0.000000
0.413264 0.581419 0.000000
0.497263 0.581184 0.000000
0.580972 0.580972 0.000000
0.673551 0.588746 0.000000
0.759492 0.589730 0.000000
0.837337 0.584843 0.000000
0.903454 0.573445 0.000000
0.958196 0.557387 0.000000
1.000000 0.536884 0.000000
1.000000 0.498413 0.000000
1.000000 0.465156 0.000000
-0.005449 0.672696 0.084022
0.000000 0.673591 0.000000
0.154726 0.673560 0.000000
0.245583 0.673534 0.000000
0.332575 0.673437 0.000000
0.418333 0.673310 0.000000
0.503487 0.673188 0.000000
0.588316 0.673051 0.000000
0.672942 0.672942 0.000000
0.758920 0.674126 0.000000
0.836841 0.668691 0.000000
0.903144 0.655823 0.000000
0.957955 0.637466 0.000000
0.999980 0.614210 0.000000
1.000000 0.570194 0.000000
1.000000 0.532140 0.000000
-0.006004 0.758319 0.084180
0.000000 0.759019 0.000000
0.154865 0.758998 0.000000
0.245828 0.759006 0.000000
0.332941 0.758945 0.000000
0.418817 0.758920 0.000000
0.504106 0.758817 0.000000
0.589079 0.758687 0.000000
0.673837 0.758581 0.000000
0.758504 0.758504 0.000000
0.836469 0.752468 0.000000
0.902818 0.738094 0.000000
0.957703 0.717476 0.000000
1.000000 0.691424 0.000000
1.000000 0.641929 0.000000
0.999980 0.599091 0.000000
-0.006596 0.836087 0.083500
0.000000 0.836639 0.000000
0.153554 0.836620 0.000000
0.243735 0.836581 0.000000
0.330117 0.836581 0.000000
0.415259 0.836527 0.000000
0.499874 0.836486 0.000000
0.584208 0.836443 0.000000
0.668324 0.836384 0.000000
0.752246 0.836269 0.000000
0.836180 0.836180 0.000000
0.902609 0.820248 0.000000
0.957523 0.797443 0.000000
1.000000 0.768692 0.000000
1.000000 0.713607 0.000000
1.000000 0.666008 0.000000
-0.007205 0.902349 0.081898
0.000000 0.902731 0.000000
0.150567 0.902723 0.000000
0.239003 0.902707 0.000000
0.323716 0.902682 0.000000
0.407235 0.902674 0.000000
0.490179 0.902649 0.000000
0.572901 0.902626 0.000000
0.655446 0.902601 0.000000
0.737790 0.902537 0.000000
0.820137 0.902479 0.000000
0.902438 0.902438 0.000000
0.957421 0.877402 0.000000
0.999980 0.845841 0.000000
1.000000 0.785219 0.000000
1.000000 0.732846 0.000000
-0.007832 0.957248 0.079606
0.000000 0.957490 0.000000
0.146355 0.957485 0.000000
0.232326 0.957474 0.000000
0.314666 0.957457 0.000000
0.395840 0.957477 0.000000
0.476493 0.957448 0.000000
0.556908 0.957412 0.000000
0.637118 0.957416 0.000000
0.717176 0.957372 0.000000
0.797277 0.957366 0.000000
0.877300 0.957316 0.000000
0.957287 0.957287 0.000000
0.999980 0.922976 0.000000
1.000000 0.856824 0.000000
1.000000 0.799668 0.000000
-0.008389 1.000000 0.076742
0.000000 0.999980 0.000000
0.141084 1.000000 0.000000
0.223953 1.000000 0.000000
0.303326 1.000000 0.000000
0.381600 1.000000 0.000000
0.459346 0.999980 0.000000
0.536884 0.999980 0.000000
0.614210 1.000000 0.000000
0.691424 0.999980 0.000000
0.768692 0.999980 0.000000
0.845841 1.000000 0.000000
0.922976 1.000000 0.000000
1.000000 1.000000 0.000000
1.000000 0.928379 0.000000
0.999980 0.866441 0.000000
-0.008809 1.000000 0.071219
0.000000 1.000000 0.000000
0.130967 0.999980 0.000000
0.207900 1.000000 0.000000
0.281582 1.000000 0.000000
0.354230 0.999980 0.000000
0.426428 1.000000 0.000000
0.498413 1.000000 0.000000
0.570194 0.999980 0.000000
0.641929 1.000000 0.000000
0.713607 1.000000 0.000000
0.785219 0.999980 0.000000
0.856824 1.000000 0.000000
0.928379 1.000000 0.000000
1.000000 1.000000 0.000000
0.999980 0.933300 0.000000
-0.008990 1.000000 0.066441
0.000000 1.000000 0.000000
0.122235 1.000000 0.000000
0.194027 1.000000 0.000000
0.262806 0.999980 0.000000
0.330628 1.000000 0.000000
0.397980 1.000000 0.000000
0.465156 1.000000 0.000000
0.532140 1.000000 0.000000
0.599091 1.000000 0.000000
0.666008 1.000000 0.000000
0.732846 1.000000 0.000000
0.799668 1.000000 0.000000
0.866441 1.000000 0.000000
0.933300 1.000000 0.000000
1.000000 1.000000 0.000000
-0.000599 -0.000599 0.082892
0.041445 -0.000720 0.082892
0.082891 -0.001061 0.082891
0.182505 -0.001494 0.121672
0.281543 -0.001892 0.140765
0.382177 -0.002267 0.152864
0.482508 -0.002617 0.160825
0.580659 -0.002965 0.165882
0.672699 -0.003297 0.168159
0.758323 -0.003638 0.168511
0.836093 -0.003988 0.167203
0.902353 -0.004352 0.164049
0.957252 -0.004729 0.159511
0.999980 -0.005069 0.153835
1.000000 -0.005322 0.142820
1.000000 -0.005431 0.133309
-0.000930 0.041447 0.082891
0.000000 0.000000 0.138894
0.105412 0.000000 0.105412
0.202622 0.000000 0.127648
0.299031 0.000000 0.139086
0.397350 0.000000 0.146902
0.495333 0.000000 0.152140
0.591351 0.000000 0.155393
0.681323 0.000000 0.156508
0.765079 0.000000 0.156103
0.841080 0.000000 0.154381
0.905870 0.000000 0.151092
0.959806 0.000000 0.146712
1.000000 0.000000 0.141084
1.000000 0.000000 0.130967
1.000000 0.000000 0.122235
-0.001621 0.082890 0.082890
0.000000 0.085912 0.085912
0.082890 0.082890 0.082890
0.250029 0.043213 0.043213
0.374210 0.000892 0.000892
0.472080 0.000000 0.000000
0.562311 0.000000 0.000000
0.648692 0.000000 0.000000
0.728754 0.000000 0.000000
0.802738 0.000000 0.000000
0.868865 0.000000 0.000000
0.925864 0.000000 0.000000
0.975351 0.000000 0.000000
1.000000 0.000000 0.000000
1.000000 0.000000 0.000000
0.999980 0.057265 0.057265
-0.002390 0.182504 0.121670
0.000000 0.185016 0.116552
0.000000 0.200043 0.000000
0.188296 0.188296 0.000000
0.316770 0.212791 0.000000
0.431348 0.223030 0.000000
0.535467 0.226612 0.000000
0.631386 0.226788 0.000000
0.717777 0.224295 0.000000
0.795954 0.220235 0.000000
0.864892 0.214805 0.000000
0.923471 0.208118 0.000000
0.973802 0.200920 0.000000
1.000000 0.190259 0.000000
1.000000 0.176515 0.000000
0.999980 0.169920 0.057251
-0.003082 0.281541 0.140762
0.000000 0.283598 0.131910
0.000000 0.296746 0.000000
0.196173 0.292041 0.000000
0.286023 0.286023 0.000000
0.402943 0.310165 0.000000
0.512547 0.322893 0.000000
0.614344 0.328479 0.000000
0.705752 0.328302 0.000000
0.787837 0.324510 0.000000
0.859868 0.317901 0.000000
0.920346 0.308773 0.000000
0.971734 0.298451 0.000000
0.999980 0.283246 0.000000
1.000000 0.262786 0.000000
1.000000 0.248116 0.057238
-0.003717 0.382172 0.152858
0.000000 0.383940 0.141945
0.000000 0.394933 0.000000
0.202996 0.392602 0.000000
0.299727 0.389403 0.000000
0.385622 0.385622 0.000000
0.496218 0.406133 0.000000
0.600515 0.417141 0.000000
0.694913 0.419886 0.000000
0.779955 0.417378 0.000000
0.854582 0.410498 0.000000
0.916929 0.399687 0.000000
0.969388 0.386792 0.000000
1.000000 0.367992 0.000000
1.000000 0.341419 0.000000
0.999980 0.320478 0.057215
-0.004310 0.482505 0.160815
0.000000 0.483938 0.148636
0.000000 0.493109 0.000000
0.208165 0.491899 0.000000
0.308738 0.490078 0.000000
0.399261 0.487819 0.000000
0.485241 0.485241 0.000000
0.590161 0.500908 0.000000
0.686157 0.506575 0.000000
0.773007 0.505397 0.000000
0.849735 0.498687 0.000000
0.913675 0.486577 0.000000
0.966956 0.471411 0.000000
1.000000 0.449592 0.000000
1.000000 0.417112 0.000000
1.000000 0.390568 0.057167
-0.004896 0.580655 0.165878
0.000000 0.581900 0.152912
0.000000 0.589384 0.000000
0.211430 0.588641 0.000000
0.314211 0.587615 0.000000
0.407244 0.586251 0.000000
0.496196 0.584649 0.000000
0.582889 0.582889 0.000000
0.679339 0.590996 0.000000
0.767409 0.591159 0.000000
0.845477 0.584647 0.000000
0.910697 0.571433 0.000000
0.964778 0.554155 0.000000
1.000000 0.529730 0.000000
1.000000 0.491472 0.000000
1.000000 0.459545 0.057097
-0.005452 0.672696 0.168138
0.000000 0.673580 0.154724
0.000000 0.679680 0.000000
0.212240 0.679236 0.000000
0.315669 0.678678 0.000000
0.409612 0.677839 0.000000
0.499689 0.676819 0.000000
0.587718 0.675625 0.000000
0.674369 0.674369 0.000000
0.763092 0.675774 0.000000
0.842053 0.669335 0.000000
0.908194 0.655071 0.000000
0.962829 0.635752 0.000000
0.999980 0.608944 0.000000
0.999980 0.564967 0.000000
1.000000 0.527834 0.056978
-0.006023 0.758319 0.168490
0.000000 0.759012 0.154867
0.000000 0.763793 0.000000
0.211270 0.763563 0.000000
0.314365 0.763230 0.000000
0.408132 0.762652 0.000000
0.498234 0.762046 0.000000
0.586483 0.761360 0.000000
0.673444 0.760444 0.000000
0.759562 0.759562 0.000000
0.839288 0.753409 0.000000
0.906085 0.738076 0.000000
0.961137 0.716671 0.000000
1.000000 0.687635 0.000000
1.000000 0.638008 0.000000
1.000000 0.595779 0.056776
-0.006598 0.836087 0.167174
0.000000 0.836633 0.153556
0.000000 0.840120 0.000000
0.208610 0.839971 0.000000
0.310479 0.839731 0.000000
0.403248 0.839479 0.000000
0.492461 0.839108 0.000000
0.579887 0.838654 0.000000
0.666259 0.838155 0.000000
0.751823 0.837558 0.000000
0.837026 0.837026 0.000000
0.904364 0.820661 0.000000
0.959686 0.797217 0.000000
0.999980 0.766090 0.000000
1.000000 0.710674 0.000000
1.000000 0.663494 0.056440
-0.007207 0.902349 0.164009
0.000000 0.902728 0.150567
0.000000 0.905210 0.000000
0.203974 0.905082 0.000000
0.303609 0.904986 0.000000
0.394386 0.904834 0.000000
0.481742 0.904624 0.000000
0.567439 0.904345 0.000000
0.652074 0.904030 0.000000
0.736172 0.903722 0.000000
0.819705 0.903343 0.000000
0.902998 0.902998 0.000000
0.958586 0.877560 0.000000
1.000000 0.844265 0.000000
1.000000 0.783261 0.000000
1.000000 0.731027 0.055876
-0.007833 0.957248 0.159467
0.000000 0.957488 0.146355
0.000000 0.959272 0.000000
0.197901 0.959217 0.000000
0.294587 0.959168 0.000000
0.382685 0.959040 0.000000
0.467492 0.958904 0.000000
0.550752 0.958760 0.000000
0.632975 0.958566 0.000000
0.714633 0.958358 0.000000
0.795911 0.958120 0.000000
0.876932 0.957932 0.000000
0.957673 0.957673 0.000000
1.000000 0.922177 0.000000
1.000000 0.855561 0.000000
1.000000 0.798343 0.054557
-0.008390 1.000000 0.153781
0.000000 1.000000 0.141085
0.000000 1.000000 0.000000
0.190259 1.000000 0.000000
0.283246 1.000000 0.000000
0.367991 0.999980 0.000000
0.449592 0.999980 0.000000
0.529730 1.000000 0.000000
0.608944 0.999980 0.000000
0.687635 1.000000 0.000000
0.766090 1.000000 0.000000
0.844265 1.000000 0.000000
0.922177 0.999980 0.000000
1.000000 1.000000 0.000000
1.000000 0.927771 0.000000
0.999980 0.865590 0.052083
-0.008811 1.000000 0.142771
0.000000 0.999980 0.130967
0.000000 1.000000 0.000000
0.176516 1.000000 0.000000
0.262786 1.000000 0.000000
0.341419 1.000000 0.000000
0.417112 1.000000 0.000000
0.491472 1.000000 0.000000
0.564967 1.000000 0.000000
0.638008 1.000000 0.000000
0.710674 0.999980 0.000000
0.783261 0.999980 0.000000
0.855561 1.000000 0.000000
0.927771 1.000000 0.000000
1.000000 1.000000 0.000000
1.000000 0.932884 0.046857
-0.008991 1.000000 0.133249
0.000000 1.000000 0.122235
0.052019 1.000000 0.052019
0.168837 1.000000 0.051933
0.247485 1.000000 0.051796
0.320038 1.000000 0.051582
0.390242 0.999980 0.051286
0.459291 1.000000 0.050885
0.527647 0.999980 0.050333
0.595616 1.000000 0.049584
0.663348 1.000000 0.048545
0.730877 1.000000 0.047064
0.798241 1.000000 0.044863
0.865521 1.000000 0.041341
0.932888 1.000000 0.034932
1.000000 1.000000 0.020207
-0.000906 -0.000906 0.182506
0.060835 -0.000980 0.182506
0.121672 -0.001237 0.182506
0.182505 -0.001603 0.182505
0.281542 -0.001969 0.211158
0.382177 -0.002322 0.229307
0.482508 -0.002663 0.241256
0.580658 -0.002998 0.248846
0.672699 -0.003329 0.252255
0.758323 -0.003658 0.252787
0.836093 -0.004012 0.250831
0.902353 -0.004373 0.246088
0.957252 -0.004747 0.239296
0.999980 -0.005086 0.230776
1.000000 -0.005337 0.214258
1.000000 -0.005436 0.200002
-0.001131 0.060835 0.182506
0.000000 0.000000 0.246335
0.137081 0.000000 0.217594
0.198425 0.000000 0.198425
0.296962 0.000000 0.219266
0.396260 0.000000 0.232547
0.494718 0.000000 0.241193
0.590977 0.000000 0.246518
0.681105 0.000000 0.248358
0.764998 0.000000 0.247766
0.841056 0.000000 0.245030
0.905813 0.000000 0.239822
0.959757 0.000000 0.232878
1.000000 0.000000 0.223952
1.000000 0.000000 0.207900
1.000000 0.000000 0.194027
-0.001733 0.121671 0.182505
0.000000 0.124008 0.196843
0.061092 0.061092 0.264383
0.242430 0.024389 0.242430
0.365024 0.000000 0.245206
0.466205 0.000000 0.241056
0.558827 0.000000 0.236493
0.646578 0.000000 0.232229
0.727511 0.000000 0.227320
0.801999 0.000000 0.221886
0.868407 0.000000 0.215672
0.925620 0.000000 0.208595
0.975207 0.000000 0.201200
1.000000 0.000000 0.190259
0.999980 0.000000 0.176515
1.000000 0.057246 0.169919
-0.002452 0.182504 0.182504
0.000000 0.184475 0.184475
0.000000 0.195568 0.195568
0.182503 0.182503 0.182503
0.359937 0.150819 0.150819
0.513897 0.106961 0.106961
0.630515 0.066958 0.066958
0.720165 0.038027 0.038027
0.793515 0.017405 0.017405
0.855901 0.002056 0.002056
0.909498 0.000000 0.000000
0.957398 0.000000 0.000000
1.000000 0.000000 0.000000
1.000000 0.000000 0.000000
0.999980 0.105075 0.105075
1.000000 0.144864 0.144864
-0.003122 0.281541 0.211156
0.000000 0.283412 0.209240
0.000000 0.295066 0.198215
0.068982 0.312471 0.068982
0.293556 0.293556 0.051016
0.444975 0.308580 0.044295
0.570581 0.310966 0.028097
0.675777 0.306378 0.013960
0.763238 0.297694 0.002289
0.836545 0.286976 0.000000
0.897558 0.275115 0.000000
0.949621 0.263305 0.000000
0.996314 0.252317 0.000000
1.000000 0.233154 0.000000
0.999980 0.229310 0.100129
0.999980 0.234648 0.144852
-0.003747 0.382172 0.229301
0.000000 0.383814 0.225267
0.000000 0.394202 0.203819
0.017330 0.413979 0.017330
0.279621 0.404140 0.011231
0.392588 0.392588 0.004190
0.522881 0.411497 0.001601
0.637202 0.417501 0.000000
0.734333 0.414013 0.000000
0.816659 0.404910 0.000000
0.884661 0.391950 0.000000
0.941020 0.377153 0.000000
0.989942 0.362387 0.000000
1.000000 0.337011 0.000000
1.000000 0.318729 0.092397
0.999980 0.311512 0.144840
-0.004334 0.482505 0.241251
0.000000 0.483908 0.235917
0.000000 0.492666 0.208492
0.000000 0.510113 0.000000
0.274876 0.504836 0.000000
0.392058 0.498156 0.000000
0.490667 0.490667 0.000000
0.607997 0.506180 0.000000
0.710294 0.508823 0.000000
0.798591 0.503142 0.000000
