assets/luts/LUTs/CinePacks_MVP2__Natural_DLOG_03.CUBE
LUT_3D_SIZE 6
0.000000 0.000000 0.000000
0.182505 -0.001421 -0.001421
0.482508 -0.002591 -0.002591
0.758323 -0.003624 -0.003624
0.957252 -0.004724 -0.004724
1.000000 -0.005419 -0.005419
-0.002353 0.182504 -0.002353
0.182503 0.182503 -0.002625
0.482507 0.241255 -0.003187
0.758322 0.252790 -0.003969
0.957252 0.239295 -0.004947
1.000000 0.200001 -0.005578
-0.004297 0.482505 -0.004297
0.241250 0.482504 -0.004397
0.482503 0.482503 -0.004792
0.758321 0.505597 -0.005104
0.957251 0.478608 -0.005801
1.000000 0.400006 -0.006187
-0.006004 0.758319 -0.006004
0.252777 0.758319 -0.006062
0.505593 0.758318 -0.006280
0.758317 0.758317 -0.006702
0.957249 0.717842 -0.007128
1.000000 0.600012 -0.007223
-0.007831 0.957248 -0.007831
0.239271 0.957248 -0.007871
0.478599 0.957247 -0.008008
0.717838 0.957247 -0.008297
0.957246 0.957246 -0.008728
1.000000 0.800046 -0.008536
-0.008990 1.000000 -0.008990
0.199962 1.000000 -0.009019
0.400010 1.000000 -0.009105
0.600009 1.000000 -0.009309
0.800045 1.000000 -0.009613
1.000000 1.000000 -0.010025
-0.000906 -0.000906 0.182506
0.182505 -0.001603 0.182505
0.482508 -0.002663 0.241256
0.758323 -0.003658 0.252787
0.957252 -0.004747 0.239296
1.000000 -0.005436 0.200002
-0.002452 0.182504 0.182504
0.182503 0.182503 0.182503
0.630515 0.066958 0.066958
0.855901 0.002056 0.002056
1.000000 0.000000 0.000000
1.000000 0.144864 0.144864
-0.004334 0.482505 0.241251
0.000000 0.510113 0.000000
0.490667 0.490667 0.000000
0.798591 0.503142 0.000000
0.983618 0.457520 0.000000
1.000000 0.384116 0.144813
-0.006028 0.758319 0.252777
0.000000 0.772870 0.000000
0.484286 0.768686 0.000000
0.761985 0.761985 0.000000
0.967951 0.714617 0.000000
1.000000 0.592965 0.144569
-0.007837 0.957248 0.239271
0.000000 0.962768 0.000000
0.447415 0.961918 0.000000
0.709007 0.960395 0.000000
0.958398 0.958398 0.000000
1.000000 0.797138 0.142262
-0.008994 1.000000 0.199962
0.138419 1.000000 0.138419
0.382585 1.000000 0.138035
0.592232 1.000000 0.137035
0.796873 1.000000 0.134308
1.000000 1.000000 0.121393
-0.001653 -0.001653 0.482509
0.241257 -0.001988 0.482509
0.482508 -0.002931 0.482508
0.758323 -0.003811 0.505601
0.957252 -0.004841 0.478610
1.000000 -0.005506 0.400009
-0.002565 0.241256 0.482509
0.124674 0.124674 0.684468
0.600122 0.041310 0.600122
0.846713 0.000000 0.533461
0.999261 0.000000 0.464795
1.000000 0.144519 0.384042
-0.004472 0.482504 0.482504
0.000000 0.502580 0.502580
0.482503 0.482503 0.482503
0.894045 0.368348 0.368348
0.999980 0.305757 0.305757
0.999980 0.433308 0.433308
-0.006098 0.758318 0.505594
0.000000 0.771400 0.486022
0.167391 0.806299 0.167391
0.774392 0.774392 0.134942
1.000000 0.673380 0.097767
0.999980 0.615517 0.433154
-0.007884 0.957248 0.478600
0.000000 0.962484 0.447669
0.060708 0.978480 0.060708
0.652968 0.971572 0.053963
0.962411 0.962411 0.045540
1.000000 0.805509 0.429432
-0.009029 1.000000 0.400010
0.138298 1.000000 0.382657
0.406350 1.000000 0.406350
0.602602 1.000000 0.405772
0.800746 1.000000 0.404153
1.000000 1.000000 0.396197
-0.002309 -0.002309 0.758324
0.252790 -0.002506 0.758324
0.505602 -0.003158 0.758323
0.758322 -0.004096 0.758322
0.957252 -0.005044 0.717847
1.000000 -0.005645 0.600014
-0.002889 0.252789 0.758323
0.062422 0.062422 0.941227
0.560836 0.020473 0.890067
0.831164 0.000000 0.831164
0.994713 0.000000 0.734339
0.999980 0.143796 0.592889
-0.004421 0.505599 0.758322
0.000000 0.519786 0.824972
0.407431 0.407431 0.914527
0.886651 0.301224 0.886651
1.000000 0.272886 0.691091
1.000000 0.428631 0.613325
-0.006251 0.758318 0.758318
0.000000 0.768594 0.768594
0.154922 0.794758 0.794758
0.758316 0.758316 0.758316
1.000000 0.683740 0.683740
0.999980 0.737793 0.737793
-0.007999 0.957247 0.717839
0.000000 0.961909 0.710134
0.058258 0.976027 0.656108
0.371434 0.991338 0.371434
0.967211 0.967211 0.308479
1.000000 0.859704 0.737475
-0.009099 1.000000 0.600009
0.138019 1.000000 0.592319
0.406206 0.999980 0.602801
0.705691 1.000000 0.705691
0.844507 1.000000 0.704730
1.000000 1.000000 0.699211
-0.003009 -0.003009 0.957253
0.239302 -0.003140 0.957253
0.478613 -0.003622 0.957253
0.717848 -0.004395 0.957252
0.957251 -0.005337 0.957251
1.000000 -0.005841 0.800048
-0.003419 0.239301 0.957253
0.071342 0.071342 1.000000
0.465141 0.009861 1.000000
0.738260 0.000000 1.000000
0.988735 0.000000 0.988735
0.999980 0.142657 0.797156
-0.004679 0.478611 0.957252
0.000000 0.465123 0.999980
0.379267 0.379267 1.000000
0.701751 0.328750 0.999980
0.999980 0.213948 0.999980
1.000000 0.420591 0.803804
-0.006338 0.717844 0.957250
0.000000 0.720274 0.975577
0.131546 0.675133 1.000000
0.698592 0.698592 1.000000
1.000000 0.620207 1.000000
1.000000 0.727110 0.854827
-0.008142 0.957247 0.957247
0.000000 0.961049 0.961049
0.054681 0.972291 0.972291
0.347515 0.982675 0.982675
0.957245 0.957245 0.957245
1.000000 0.955513 0.955513
-0.009206 1.000000 0.800045
0.137536 1.000000 0.796999
0.405853 1.000000 0.801065
0.705474 1.000000 0.844827
0.949283 1.000000 0.949283
1.000000 1.000000 0.946869
-0.003456 -0.003456 1.000000
0.200006 -0.003543 1.000000
0.400014 -0.003887 1.000000
0.600015 -0.004476 1.000000
0.800048 -0.005247 1.000000
1.000000 -0.006125 1.000000
-0.003737 0.200005 1.000000
0.141049 0.141049 1.000000
0.383234 0.141047 1.000000
0.592628 0.141044 1.000000
0.797141 0.141039 1.000000
1.000000 0.140966 1.000000
-0.004706 0.400011 1.000000
0.141044 0.383233 1.000000
0.408096 0.408096 1.000000
0.603664 0.408081 0.999980
0.801479 0.408039 0.999980
1.000000 0.407981 1.000000
-0.006097 0.600014 1.000000
0.140980 0.592622 1.000000
0.408032 0.603643 1.000000
0.706870 0.706870 1.000000
0.845456 0.706867 1.000000
0.999980 0.706811 0.999980
-0.007681 0.800047 1.000000
0.140502 0.797131 1.000000
0.407754 0.801429 1.000000
0.706697 0.845382 1.000000
0.949847 0.949847 1.000000
1.000000 0.949796 1.000000
-0.009351 1.000000 1.000000
0.136615 1.000000 1.000000
0.405250 1.000000 1.000000
0.704988 0.999980 0.999980
0.949017 1.000000 1.000000
1.000000 1.000000 1.000000
