assets/luts/LUTs/CinePacks_MVP2_Take off.CUBE
TITLE "Generate by Resolve"
LUT_3D_SIZE 33
0.0124819 0.028748 0.0289464
0.0178836 0.0287327 0.0286717
0.0233768 0.0288243 0.0285191
0.0285496 0.0292973 0.028275
0.0345159 0.0296178 0.0288243
0.0483406 0.0312047 0.0300298
0.0740215 0.0339666 0.032166
0.105989 0.0372473 0.0326238
0.143343 0.0382849 0.0305791
0.182773 0.0362097 0.0271153
0.225269 0.0307012 0.0201114
0.261997 0.0229191 0.0143435
0.299321 0.0119478 0.00727855
0.337179 6.10361e-05 6.10361e-05
0.376104 0 0
0.413352 0 0
0.446403 0 0
0.475319 0 0
0.501427 0 0
0.524605 0 0
0.545754 0 0
0.565866 0 0
0.583032 0 0
0.59971 0 0
0.615808 0 0
0.630747 0 0
0.645609 0 0
0.660563 0 0
0.675807 0 0
0.689021 0 0
0.700801 0 0
0.7131 0 0
0.725216 0 0
0.0141909 0.0375067 0.0339818
0.0196841 0.0376135 0.034165
0.0247959 0.0375982 0.0339513
0.0293736 0.0379034 0.0328527
0.0346075 0.0390478 0.0293889
0.0472114 0.0395819 0.0314794
0.0738842 0.0428168 0.0324712
0.106752 0.0465248 0.0327764
0.144915 0.0479286 0.0308385
0.184817 0.0459297 0.0268711
0.22858 0.0406653 0.0190127
0.265553 0.0334173 0.0124971
0.303914 0.024445 0.0049897
0.343343 0.0133364 0
0.382879 0.0016022 0
0.420706 0 0
0.45478 0 0
0.484352 0 0
0.510872 0 0
0.534264 0 0
0.554681 0 0
0.57499 0 0
0.592187 0 0
0.60885 0 0
0.624704 0 0
0.640284 0 0
0.655299 0 0
0.669337 0 0
0.684855 0 0
0.697459 0 0
0.70956 0 0
0.721813 0 0
0.7337 0 0
0.0155947 0.0463111 0.039704
0.0207675 0.0465095 0.0396277
0.0257267 0.0467842 0.0390478
0.0302739 0.0471046 0.0377356
0.0338903 0.0475929 0.0357824
0.0459144 0.0489357 0.0301061
0.0757458 0.0513008 0.0347143
0.107591 0.055375 0.0338598
0.145998 0.0573892 0.0314946
0.187182 0.0564279 0.026978
0.231662 0.0505989 0.0184329
0.270634 0.0444038 0.0112306
0.31046 0.0360113 0.00265507
0.350027 0.0261387 0
0.389929 0.0159457 0
0.426917 0 0
0.462013 0 0
0.492164 0 0
0.519707 0 0
0.542794 0 0
0.562737 0 0
0.582376 0 0
0.600946 0 0
0.619104 0 0
0.63418 0 0
0.649592 0 0
0.664408 0 0
0.678492 0 0
0.693858 0 0
0.706264 0 0
0.718288 0 0
0.730404 0 0
0.742748 0 0
0.0165866 0.0546578 0.0448768
0.0216373 0.0551003 0.0445716
0.0263523 0.0554055 0.043595
0.0307164 0.0558938 0.0423438
0.0348516 0.0564736 0.0405737
0.0414588 0.0584268 0.0357061
0.0783856 0.0599985 0.0352483
0.110628 0.0640726 0.0362097
0.148806 0.0668956 0.0326543
0.190921 0.0661784 0.0268406
0.236088 0.0610056 0.0173648
0.276066 0.0551156 0.0100099
0.316991 0.0479591 0.0012665
0.357473 0.0390784 0
0.397208 0.030045 0
0.435554 0.0184939 0
0.470054 0.00869764 0
0.498741 0 0
0.525475 0 0
0.549249 0 0
0.569848 0 0
0.58938 0 0
0.607828 0 0
0.62623 0 0
0.642054 0 0
0.657801 0 0
0.672511 0 0
0.686961 0 0
0.702785 0 0
0.714595 0 0
0.726406 0 0
0.738613 0 0
0.750805 0 0
0.0175479 0.0633402 0.0499886
0.0224308 0.0637217 0.0493324
0.0270848 0.0641184 0.048249
0.0312657 0.0645457 0.0469368
0.0363165 0.0657664 0.0450294
0.0397192 0.0674144 0.0429694
0.0775311 0.0699931 0.0331426
0.113527 0.0731823 0.038117
0.151766 0.0764019 0.0350042
0.194003 0.0762036 0.0276188
0.240284 0.0715343 0.0161898
0.280842 0.0654154 0.00772107
0.323827 0.058793 0
0.364721 0.0510414 0
0.405264 0.0436408 0
0.444038 0.0345312 0
0.478172 0.027863 0
0.506737 0.0197452 0
0.532509 0.0141146 0
0.555734 0.00808728 0
0.576883 0.00282292 0
0.596521 0 0
0.61474 0 0
0.631891 0 0
0.649027 0 0
0.664591 0 0
0.679728 0 0
0.694728 0 0
0.709773 0 0
0.722164 0 0
0.734127 0 0
0.746609 0 0
0.758923 0 0
0.0193484 0.0728161 0.0552224
0.0238651 0.0731823 0.0543526
0.0283055 0.0735943 0.0532387
0.0324559 0.0740215 0.0518959
0.0362554 0.0746624 0.0505226
0.0402075 0.0766155 0.0483558
0.0716716 0.0813306 0.0299229
0.115267 0.0830701 0.0372931
0.155673 0.086244 0.0378729
0.198505 0.08748 0.0298314
0.246235 0.083238 0.0157473
0.287877 0.0776989 0.00697337
0.331258 0.0711681 0
0.371756 0.0639048 0
0.413245 0.0574502 0
0.451545 0.0492561 0
0.486427 0.0426947 0
0.515602 0.0353094 0
0.539986 0.0308843 0
0.562646 0.0259709 0
0.583871 0.0216983 0
0.603555 0.0184176 0
0.621881 0.0154421 0
0.639658 0.0121309 0
0.656352 0.0111086 0
0.673167 0.00894179 0
0.689342 0.00775158 0
0.704555 0.00624094 0
0.719646 0.00384527 0
0.731975 0.002533 0
0.744274 0.00173953 0
0.756832 0.000991836 0
0.7691 0.000183108 0
0.0204776 0.0823224 0.0607919
0.0251774 0.0828412 0.0598764
0.029572 0.0832074 0.0585489
0.0339971 0.0837262 0.057084
0.036408 0.0838026 0.0560769
0.0431373 0.0863508 0.0532845
0.0593729 0.0930495 0.0370794
0.115557 0.09308 0.0352026
0.158923 0.0962234 0.0385443
0.204028 0.0980087 0.0317693
0.25272 0.094789 0.0145571
0.295476 0.0903029 0.00563058
0.339269 0.0844892 0
0.380148 0.0780194 0
0.421958 0.0718853 0
0.458915 0.0656291 0
0.49546 0.0590066 0
0.52491 0.0535286 0
0.549554 0.049897 0
0.571771 0.0464637 0
0.592447 0.0430152 0
0.611994 0.0399786 0
0.630259 0.0369268 0
0.648341 0.0343481 0
0.664347 0.0330968 0
0.68188 0.0311437 0
0.698665 0.0304265 0
0.714214 0.0295415 0
0.729213 0.0285191 0
0.742016 0.026627 0
0.754986 0.0252537 0
0.768032 0.0240177 0
0.780484 0.0233616 0
0.0215152 0.0919356 0.0666514
0.0260624 0.0924849 0.0657511
0.0304417 0.093019 0.0645914
0.0346838 0.0933852 0.0630045
0.0375982 0.0936141 0.0619669
0.0450141 0.0960555 0.0582284
0.0498817 0.101991 0.0532998
0.112139 0.10515 0.0314031
0.161166 0.107424 0.0372931
0.209323 0.109133 0.0332799
0.259907 0.106737 0.0155947
0.304784 0.102617 0.00350958
0.347555 0.0973526 0
0.388159 0.0923781 0
0.430106 0.0869154 0
0.466606 0.0818799 0
0.501579 0.0763409 0
0.531136 0.0713359 0
0.557 0.0675212 0
0.580224 0.0646525 0
0.600671 0.062211 0
0.620386 0.0606088 0
0.639323 0.0585641 0
0.657374 0.0571756 0
0.673396 0.0558022 0
0.691249 0.0537881 0
0.708019 0.0530404 0
0.723857 0.0526284 0
0.739498 0.051545 0
0.752758 0.0501106 0
0.765866 0.0490578 0
0.778897 0.0479744 0
0.792065 0.0470436 0
0.0227665 0.102007 0.0720989
0.0273899 0.102586 0.0710155
0.0318608 0.103243 0.0698405
0.0361181 0.103639 0.0682383
0.0393378 0.103914 0.0669871
0.0456397 0.105989 0.064271
0.0483406 0.11194 0.0615702
0.102678 0.119249 0.0266728
0.161273 0.120089 0.0339666
0.214954 0.122057 0.0331121
0.266361 0.120134 0.0195926
0.312551 0.117494 0.00852979
0.354421 0.113512 0.000274662
0.396445 0.108736 0
0.438087 0.103334 0
0.474632 0.098558 0
0.50927 0.0945449 0
0.538338 0.0902266 0
0.565591 0.0861219 0
0.588861 0.0831311 0
0.609598 0.0813306 0
0.62945 0.079881 0
0.647654 0.0788281 0
0.665904 0.0774395 0
0.684092 0.0771801 0
0.701335 0.0755627 0
0.718151 0.0753796 0
0.734081 0.0756695 0
0.750713 0.0744793 0
0.763775 0.0733501 0
0.776913 0.0727092 0
0.790616 0.0723735 0
0.803784 0.0717632 0
0.0231174 0.113115 0.0782483
0.0279545 0.113787 0.0773022
0.0326848 0.114366 0.0760815
0.037232 0.114824 0.0745708
0.041886 0.115602 0.0731212
0.0456855 0.116854 0.071397
0.0494087 0.121889 0.0686809
0.0858778 0.134096 0.0294804
0.161089 0.134356 0.0277409
0.218677 0.136553 0.0296483
0.273579 0.134951 0.0226596
0.320378 0.132616 0.0138552
0.361822 0.130312 0.00607309
0.403525 0.126604 0
0.445594 0.122164 0
0.483101 0.117678 0
0.517021 0.114137 0
0.54789 0.110613 0
0.576608 0.107271 0
0.600763 0.105135 0
0.620417 0.104265 0
0.640925 0.103288 0
0.659205 0.102235 0
0.677821 0.101244 0
0.696101 0.102327 0
0.713634 0.101869 0
0.731304 0.101839 0
0.747951 0.102998 0
0.765087 0.101762 0
0.778683 0.100816 0
0.79237 0.100526 0
0.805539 0.100038 0
0.818982 0.0997635 0
0.0232853 0.124773 0.0852674
0.027863 0.12546 0.0841535
0.0326543 0.126101 0.0827497
0.0372015 0.126513 0.081239
0.0442512 0.127871 0.0797131
0.0475624 0.129198 0.0781262
0.0496376 0.132769 0.0757458
0.0733349 0.14873 0.0440375
0.156085 0.151995 0.0192264
0.22211 0.153246 0.019913
0.279683 0.15172 0.0230106
0.329137 0.150317 0.0196536
0.370871 0.148669 0.012726
0.412558 0.145998 0.00488289
0.453346 0.142489 0
0.491112 0.13875 0
0.525292 0.136141 0
0.557137 0.133013 0
0.586252 0.129046 0
0.611673 0.127214 0
0.6318 0.126909 0
0.652628 0.126696 0
0.671305 0.12665 0
0.690929 0.126436 0
0.709072 0.128389 0
0.725444 0.129305 0
0.742672 0.12987 0
0.760708 0.13135 0
0.778424 0.131823 0
0.793088 0.131426 0
0.806622 0.131182 0
0.820172 0.131075 0
0.834012 0.130999 0
0.0242161 0.13756 0.0926375
0.0285344 0.138231 0.0916762
0.0332036 0.138888 0.0903639
0.0376135 0.139269 0.088716
0.0431373 0.140017 0.086717
0.0505684 0.142168 0.0840467
0.0510109 0.145312 0.0830091
0.0627756 0.160464 0.062089
0.144869 0.171405 0.007187
0.222141 0.17232 0.0133974
0.284047 0.171664 0.022797
0.336919 0.171038 0.0241398
0.381445 0.170062 0.0200656
0.424796 0.169131 0.0133059
0.465614 0.167117 0.00621042
0.503349 0.164401 0
0.53817 0.161898 0
0.568963 0.160037 0
0.596735 0.157351 0
0.622324 0.156008 0
0.64184 0.155962 0
0.663828 0.155734 0
0.683467 0.156298 0
0.70251 0.156527 0
0.721752 0.158007 0
0.738643 0.159655 0
0.755596 0.161608 0
0.773678 0.163439 0
0.791592 0.164508 0
0.807538 0.165042 0
0.821408 0.164858 0
0.834836 0.164813 0
0.848905 0.165286 0
0.0247654 0.151919 0.100465
0.0289921 0.152483 0.0994125
0.0337224 0.153216 0.0981765
0.0383612 0.153704 0.0967422
0.0429694 0.154803 0.0954147
0.0494545 0.157366 0.0932021
0.0524453 0.160678 0.0910506
0.0563211 0.174258 0.0762341
0.127535 0.194415 0
0.217868 0.195529 0.00616464
0.285603 0.195468 0.0192721
0.344564 0.194141 0.0255741
0.389441 0.192599 0.0255436
0.434165 0.192874 0.0220035
0.475151 0.192401 0.017731
0.513619 0.191455 0.0129854
0.54995 0.190295 0.0065919
0.582132 0.189441 0.00143435
0.608881 0.187488 0
0.634531 0.186984 0
0.654078 0.187747 0
0.67509 0.188159 0
0.695552 0.189197 0
0.714595 0.190249 0
0.733516 0.191821 0
0.751507 0.193347 0
0.768643 0.195987 0
0.787366 0.199176 0
0.805402 0.201205 0
0.821912 0.20238 0
0.835584 0.202228 0
0.84947 0.20235 0
0.863355 0.202777 0
0.0243381 0.167437 0.107744
0.0287633 0.168231 0.106828
0.0335851 0.169009 0.105669
0.0381933 0.169635 0.104356
0.0428779 0.170504 0.10312
0.0478523 0.172595 0.101854
0.0524147 0.177035 0.0999008
0.0539101 0.190188 0.0917983
0.105562 0.218723 0.0102388
0.207767 0.223651 0
0.287724 0.225193 0.012604
0.352209 0.22501 0.023682
0.401419 0.223163 0.0300298
0.447883 0.223224 0.029984
0.491615 0.22359 0.0281682
0.530114 0.223697 0.0260624
0.565454 0.222919 0.0195621
0.598489 0.221653 0.0122072
0.625696 0.221332 0.00923171
0.650385 0.220111 0.0062562
0.669825 0.221027 0.00517281
0.69015 0.221927 0.00418097
0.710216 0.223392 0.00361639
0.72903 0.224399 0.00285344
0.747845 0.226505 0.00285344
0.765835 0.229084 0.00300603
0.78352 0.232303 0.00517281
0.800412 0.234333 0.00547799
0.817182 0.23682 0.00567636
0.833951 0.239902 0.00611887
0.847532 0.239765 0.00527962
0.86125 0.240085 0.00497444
0.875273 0.240757 0.00483711
0.02327 0.185397 0.116289
0.0279698 0.18613 0.115175
0.0325628 0.186877 0.114092
0.0374151 0.187396 0.112718
0.0423438 0.188006 0.11136
0.0471504 0.190372 0.110307
0.0522316 0.195178 0.10837
0.0518502 0.207843 0.104662
0.0895399 0.241596 0.0339208
0.190433 0.256626 0
0.285725 0.257191 0.00350958
0.358206 0.257115 0.0184176
0.411246 0.257023 0.0303349
0.461311 0.257069 0.0362707
0.508034 0.257313 0.0357824
0.549859 0.257572 0.0349584
0.586969 0.25803 0.030808
0.61976 0.25774 0.0247501
0.645747 0.259052 0.0240024
0.669612 0.259297 0.0221714
0.689799 0.260426 0.0206912
0.710018 0.261051 0.019089
0.729137 0.263218 0.017792
0.746807 0.265248 0.017319
0.763851 0.265766 0.0164034
0.780926 0.269657 0.017258
0.797269 0.27219 0.0196994
0.814847 0.274983 0.020798
0.832258 0.277974 0.0211795
0.849073 0.281376 0.0221103
0.862425 0.280797 0.0209812
0.876066 0.281346 0.020676
0.889876 0.281819 0.0203861
0.0211185 0.203479 0.1243
0.0259861 0.20473 0.123491
0.030869 0.205753 0.122377
0.0352941 0.20647 0.121126
0.0402838 0.20705 0.119692
0.0480659 0.209705 0.11783
0.0501411 0.214832 0.117174
0.0493324 0.229068 0.113756
0.0784924 0.265263 0.0564279
0.171176 0.293996 0
0.28098 0.297581 0
0.365133 0.295827 0.0101778
0.423835 0.295155 0.0236973
0.475975 0.295033 0.0351415
0.524697 0.295399 0.039704
0.569772 0.294743 0.040238
0.607843 0.29453 0.0390936
0.643687 0.295552 0.0360266
0.668757 0.296498 0.0367132
0.692821 0.299184 0.0390173
0.711147 0.299229 0.0383307
0.730388 0.300801 0.037995
0.749126 0.302449 0.0364538
0.767346 0.30425 0.0340581
0.784802 0.305135 0.030869
0.800885 0.308324 0.0320439
0.81593 0.31162 0.0352331
0.832441 0.315221 0.0374304
0.849851 0.318563 0.0375677
0.865919 0.322118 0.0387579
0.879088 0.321828 0.0375525
0.892363 0.322408 0.0370642
0.905898 0.323354 0.0367895
0.0187076 0.220996 0.13106
0.0243381 0.222538 0.130343
0.0297704 0.22385 0.129305
0.0347753 0.224964 0.128344
0.0397955 0.226093 0.127306
0.0473335 0.229297 0.125628
0.0467994 0.23476 0.125765
0.0468605 0.250828 0.122438
0.0694743 0.291554 0.0736858
0.156466 0.329534 0.00860609
0.269276 0.33933 0
0.368292 0.338827 0
0.43508 0.336843 0.0146487
0.491875 0.336492 0.0281987
0.544213 0.336843 0.0390631
0.592004 0.337774 0.0432746
0.631342 0.337469 0.0449226
0.66804 0.338094 0.0446326
0.694087 0.339391 0.0456703
0.718166 0.341939 0.0494087
0.736904 0.34287 0.0534981
0.754559 0.344167 0.0554665
0.77319 0.345876 0.0545357
0.790478 0.346349 0.0504768
0.80705 0.346578 0.0465095
0.822965 0.348638 0.0469368
0.837827 0.351812 0.0501106
0.85362 0.355932 0.0536049
0.870726 0.360433 0.054551
0.886351 0.363546 0.0554971
0.899245 0.36379 0.0548257
0.91194 0.364141 0.0543069
0.925093 0.364736 0.0538338
0.0148165 0.240269 0.138048
0.0201572 0.241474 0.137224
0.0262455 0.242863 0.136339
0.032166 0.244083 0.135454
0.0372931 0.245014 0.134432
0.0428321 0.248585 0.133959
0.0452735 0.25597 0.134279
0.0440223 0.27303 0.131487
0.0617533 0.316808 0.0873732
0.14992 0.363561 0.0296025
0.258488 0.381521 0
0.369116 0.38172 0
0.443244 0.380011 0.00582895
0.506661 0.379812 0.0211032
0.560143 0.378988 0.0337072
0.609354 0.380514 0.0439002
0.650019 0.380194 0.046891
0.687739 0.380514 0.0494698
0.716365 0.381979 0.0519875
0.741695 0.383932 0.0552377
0.761822 0.385702 0.0609751
0.780301 0.387243 0.0661173
0.798001 0.388312 0.0675669
0.814786 0.38822 0.0639048
0.830442 0.388739 0.0609751
0.847547 0.390738 0.0598611
0.862974 0.39321 0.0614481
0.877501 0.396826 0.0656901
0.892699 0.401862 0.0691844
0.90901 0.4065 0.0708934
0.922789 0.408347 0.0711986
0.934981 0.408453 0.0707408
0.947433 0.409262 0.0702068
0.0117189 0.25832 0.144686
0.0167849 0.25977 0.143954
0.0223087 0.261433 0.143328
0.0281071 0.262913 0.142611
0.033753 0.264271 0.14168
0.0375525 0.268055 0.142046
0.0421912 0.276738 0.142138
0.0413825 0.298177 0.140932
0.0613565 0.346624 0.0982223
0.147326 0.396368 0.0525521
0.24686 0.423301 0
0.365911 0.425315 0
0.449256 0.423194 0
0.519127 0.423178 0.0148318
0.574701 0.422385 0.0272374
0.627268 0.423178 0.0401312
0.667994 0.423194 0.049485
0.705409 0.423896 0.0544594
0.734569 0.425177 0.0584115
0.761501 0.426551 0.0616312
0.78352 0.427512 0.0654154
0.802869 0.428733 0.0699626
0.821393 0.430045 0.0740063
0.83859 0.431281 0.0732433
0.85304 0.430289 0.0718242
0.869627 0.431373 0.0709392
0.885618 0.433127 0.070573
0.900465 0.435584 0.0722057
0.91545 0.440772 0.0772106
0.931716 0.445747 0.0810864
0.94612 0.448371 0.0829786
0.958022 0.448569 0.0829786
0.970382 0.44918 0.0824445
0.00973526 0.276326 0.151171
0.0146487 0.277623 0.150484
0.019852 0.279042 0.149828
0.0250706 0.280217 0.149142
0.03122 0.282109 0.148592
0.0366674 0.287709 0.149126
0.0400549 0.297856 0.149599
0.0393835 0.320668 0.149294
0.0615702 0.372946 0.107668
0.146838 0.427482 0.0739147
0.239338 0.461662 0.0125124
0.359319 0.471794 0
0.450309 0.465873 0
0.528252 0.464744 0.00683604
0.589059 0.463523 0.0209659
0.641978 0.463935 0.0340429
0.683864 0.464897 0.0472114
0.721111 0.465843 0.0555734
0.751186 0.467185 0.0622721
0.778408 0.468559 0.0672465
0.802518 0.468956 0.0685435
0.823301 0.468833 0.0687266
0.842664 0.470405 0.0729076
0.859678 0.471229 0.0751049
0.876127 0.471077 0.0756237
0.891905 0.471946 0.0766003
0.906889 0.473289 0.0778058
0.921843 0.475456 0.0794232
0.936187 0.479133 0.0849775
0.952483 0.484184 0.0901198
0.967285 0.48687 0.0925307
0.979187 0.486702 0.0928054
0.991882 0.487556 0.0931868
0.00903334 0.295293 0.157702
0.0142519 0.297215 0.157427
0.0191043 0.299031 0.157061
0.024094 0.300618 0.156619
0.0300755 0.302251 0.155993
0.0395209 0.308782 0.156191
0.0375677 0.318257 0.157015
0.038468 0.343542 0.158114
0.0643931 0.398581 0.116487
0.147555 0.455863 0.0906539
0.233127 0.49398 0.0310521
0.350958 0.507698 0
0.449989 0.504723 0
0.5337 0.503075 0.000946059
0.600153 0.502815 0.0161135
0.654261 0.502647 0.0281071
0.697734 0.505196 0.0407874
0.736706 0.505867 0.0503395
0.766247 0.506676 0.0585031
0.794247 0.507744 0.0652018
0.819791 0.508629 0.0684215
0.841642 0.508858 0.0690776
0.861692 0.510063 0.0715801
0.878981 0.510338 0.0749676
0.895796 0.510475 0.0774701
0.91162 0.511177 0.0796063
0.926116 0.511833 0.0817426
0.94136 0.513893 0.0851759
0.955291 0.516716 0.091249
0.971405 0.520974 0.0964828
0.986328 0.523461 0.0995499
0.998581 0.523171 0.100816
1 0.523598 0.101839
0.00807202 0.311879 0.163455
0.0134585 0.313603 0.163088
0.0187839 0.315297 0.162661
0.0236515 0.316838 0.162158
0.0289769 0.319066 0.161913
0.0395819 0.328542 0.163119
0.0351568 0.338537 0.164584
0.0386053 0.365576 0.166232
0.066392 0.423346 0.126024
0.14902 0.484031 0.105013
0.233143 0.525628 0.0489204
0.345556 0.542275 0
0.44773 0.541894 0
0.536339 0.539849 0
0.605722 0.539773 0.0120089
0.662028 0.538918 0.024918
0.708965 0.538781 0.0380713
0.747372 0.540749 0.0473793
0.778668 0.542077 0.0559854
0.807523 0.543282 0.063035
0.833417 0.544442 0.0677653
0.856077 0.545403 0.0704204
0.877089 0.546792 0.0732433
0.895216 0.547433 0.0759442
0.912306 0.547951 0.0801404
0.928939 0.548943 0.0829328
0.944244 0.550195 0.0849928
0.958709 0.550423 0.0874037
0.973083 0.553368 0.0942092
0.988067 0.556527 0.0991226
1 0.55845 0.102159
1 0.557763 0.103487
1 0.557946 0.105043
0.00764477 0.330205 0.170275
0.0128939 0.331731 0.16965
0.0183413 0.333394 0.169253
0.023621 0.334951 0.168917
0.0285649 0.336828 0.168505
0.0365454 0.346731 0.169955
0.0346532 0.358221 0.172
0.0423133 0.387427 0.173846
0.0695506 0.445792 0.136217
0.150439 0.508141 0.119982
0.233021 0.55404 0.067689
0.342657 0.57496 0
0.444114 0.57911 0
0.538231 0.576211 0
0.610605 0.573907 0.0101472
0.671763 0.57322 0.0225223
0.718715 0.572641 0.0357061
0.757855 0.574182 0.0459907
0.78996 0.575555 0.0552377
0.819638 0.577066 0.0631723
0.845319 0.577966 0.0692302
0.866239 0.578958 0.0749218
0.889509 0.580499 0.0791791
0.907073 0.579339 0.0820172
0.923613 0.580346 0.0866865
0.939849 0.581399 0.090837
0.955978 0.5823 0.0932174
0.971557 0.582742 0.0956741
0.985931 0.584115 0.0990005
1 0.586954 0.101869
1 0.589029 0.103532
1 0.58854 0.105409
1 0.58854 0.107179
0.00616464 0.34757 0.176822
0.0119783 0.34963 0.176501
0.0176242 0.351583 0.176287
0.0231174 0.353307 0.175875
0.0284581 0.355581 0.175708
0.0312047 0.36437 0.176944
0.0364538 0.378347 0.179446
0.0450141 0.408133 0.181933
0.0710765 0.467384 0.146044
0.153292 0.531029 0.136995
0.234104 0.579782 0.0868238
0.339391 0.6038 0.00959792
0.443351 0.608652 0
0.538048 0.606882 0
0.614588 0.605158 0.00929274
0.678401 0.603998 0.0213016
0.726543 0.604608 0.0339818
0.767926 0.606897 0.0453346
0.80087 0.607736 0.0552834
0.830564 0.608988 0.0641642
0.856626 0.610224 0.0715343
0.877241 0.609674 0.0770123
0.899245 0.610803 0.0814527
0.917403 0.610269 0.0848707
0.934691 0.610681 0.0893416
0.950607 0.611048 0.093431
0.967285 0.61239 0.0976425
0.982467 0.612055 0.101167
0.997467 0.612833 0.103639
1 0.614511 0.104891
1 0.616724 0.105379
1 0.616007 0.107332
1 0.615961 0.109224
0.00328069 0.363821 0.183032
0.00926223 0.36585 0.182788
0.0153048 0.367941 0.18262
0.0210422 0.370047 0.182239
0.0268711 0.372412 0.182223
0.0301518 0.381979 0.184161
0.0368048 0.397787 0.187625
0.0455787 0.429099 0.190875
0.0733959 0.49012 0.156847
0.157626 0.55462 0.156085
0.238712 0.605432 0.103944
0.338567 0.632563 0.0243992
0.443946 0.63801 0
0.538872 0.635828 0
0.618891 0.634012 0.00947585
0.682597 0.631617 0.0212406
0.733501 0.632883 0.0349279
0.775402 0.634226 0.0467231
0.809674 0.63534 0.0568704
0.83946 0.636606 0.0655528
0.865385 0.637659 0.0729381
0.886397 0.637324 0.0776532
0.907378 0.6383 0.0817578
0.926635 0.638697 0.0856031
0.944854 0.63888 0.089189
0.961715 0.639048 0.0927291
0.97705 0.64007 0.0968795
0.99353 0.640589 0.10164
1 0.641611 0.105196
1 0.642023 0.107454
1 0.642466 0.109346
1 0.641825 0.11107
1 0.641367 0.112673
0 0.379461 0.189288
0.0043946 0.381643 0.189151
0.0110933 0.384085 0.189242
0.0177768 0.386511 0.189334
0.024094 0.38883 0.189212
0.0293278 0.399222 0.191363
0.0367742 0.416342 0.195666
0.040589 0.4477 0.199008
0.0758068 0.510704 0.167117
0.161013 0.576272 0.169055
0.242359 0.628046 0.119249
0.338643 0.659175 0.0398718
0.442496 0.666606 0.00329595
0.540978 0.663859 0
0.621118 0.661738 0.00889601
0.686809 0.659266 0.0201724
0.73901 0.659693 0.0343481
0.781872 0.660899 0.0474098
0.8168 0.66154 0.0574197
0.846754 0.662531 0.0656443
0.872938 0.662852 0.0733349
0.89369 0.662211 0.0786908
0.91577 0.662959 0.0831464
0.934707 0.662745 0.086717
0.952758 0.662608 0.0901808
0.96968 0.662455 0.0932937
0.985061 0.662898 0.0970932
1 0.663874 0.101488
1 0.665095 0.105257
1 0.666041 0.108171
1 0.66601 0.111482
1 0.665675 0.114076
1 0.665156 0.116106
0 0.396307 0.195987
0.00468452 0.398733 0.196048
0.0104067 0.401083 0.196124
0.0156863 0.403052 0.195911
0.0210422 0.405402 0.196002
0.0287938 0.4168 0.19884
0.0368353 0.434958 0.203876
0.0386969 0.465812 0.206806
0.0787366 0.531548 0.177478
0.165545 0.598032 0.181445
0.24567 0.649241 0.131853
0.338781 0.681208 0.0571298
0.442557 0.689784 0.00793469
0.541817 0.687892 0
0.62211 0.686244 0.00868238
0.690242 0.685206 0.0194247
0.743252 0.684718 0.0329747
0.787243 0.686564 0.0466163
0.823545 0.687114 0.0572213
0.853574 0.687419 0.0654765
0.880201 0.688365 0.0730144
0.901884 0.687037 0.0789654
0.923308 0.687343 0.0843366
0.941772 0.686793 0.088014
0.960128 0.686671 0.0915236
0.977325 0.686122 0.0944991
0.993149 0.686107 0.0982834
1 0.686885 0.102296
1 0.68748 0.105531
1 0.687999 0.108461
1 0.68748 0.110979
1 0.686854 0.113451
1 0.686549 0.115831
0.00213626 0.413626 0.20325
0.00840772 0.416098 0.203342
0.0144961 0.41857 0.203403
0.0201267 0.421012 0.203555
0.0256046 0.423331 0.203601
0.0290074 0.434195 0.207034
0.0375372 0.453117 0.2121
0.0407416 0.48542 0.215976
0.0822461 0.552209 0.188174
