assets/luts/LUTs/CINECOLOR_SOFT_ENHANCE.CUBE
TITLE "Generated by Resolve"
LUT_3D_SIZE 9
0.0590219 0.0604257 0.0588235
0.116518 0.0684062 0.0688792
0.187564 0.0740673 0.0780041
0.283055 0.075761 0.0878309
0.401801 0.0704051 0.0985885
0.524941 0.0565194 0.109926
0.644541 0.0321965 0.121981
0.759884 0.0146334 0.134905
0.870253 0 0.147784
0.0672465 0.136614 0.0815442
0.139757 0.144991 0.0887465
0.22385 0.15198 0.0959182
0.334188 0.155108 0.104463
0.45449 0.154376 0.114199
0.573159 0.150683 0.124163
0.688182 0.142245 0.134661
0.798947 0.128191 0.145586
0.904601 0.105241 0.157183
0.0339361 0.234363 0.0883192
0.131975 0.244572 0.0934768
0.242817 0.253025 0.099733
0.364721 0.259419 0.107012
0.486564 0.263233 0.11545
0.603464 0.265339 0.124468
0.716197 0.26537 0.133928
0.824262 0.262837 0.144366
0.926207 0.258274 0.154925
0 0.361456 0.0660716
0.0599832 0.370886 0.0693523
0.227436 0.379187 0.0745556
0.370352 0.385428 0.0822614
0.498085 0.390249 0.0917067
0.617487 0.393759 0.102296
0.730144 0.395209 0.112306
0.837507 0.395514 0.122957
0.937697 0.394507 0.134112
0 0.490333 0.0198978
0.0037232 0.497673 0.022797
0.160693 0.5037 0.0254978
0.351934 0.508843 0.0288243
0.492668 0.51252 0.0343633
0.617121 0.515282 0.042359
0.732769 0.516915 0.0539864
0.840803 0.51751 0.0708629
0.940826 0.51722 0.0879988
0 0.610636 0
0 0.6159 0
0.0225986 0.620539 0
0.30103 0.624399 0.00077821
0.471 0.627024 0.00381476
0.603952 0.629038 0.00660716
0.724636 0.630121 0.00953689
0.835279 0.630381 0.0142367
0.934401 0.629923 0.0211185
0 0.722408 0
0 0.726436 0
0.00251774 0.729854 0
0.19733 0.732387 0
0.429435 0.734234 0
0.579263 0.735424 0
0.706783 0.735943 0
0.821607 0.735821 0
0.921431 0.735042 0
0 0.826123 0
0 0.828824 0
0 0.83122 0
0.0534829 0.832822 0
0.356313 0.833875 0
0.539895 0.834394 0
0.67892 0.834257 0
0.800336 0.833661 0
0.902358 0.832883 0
0 0.9196 0
0 0.920928 0
0 0.921965 0
0.00166323 0.922454 0
0.229633 0.922576 0
0.489174 0.922271 0
0.643214 0.921477 0
0.773739 0.920241 0
0.879347 0.918898 0
0.06009 0.0550088 0.098436
0.120104 0.0617685 0.110323
0.192798 0.0655222 0.121828
0.290898 0.0660258 0.132555
0.410971 0.0580148 0.14432
0.533455 0.0391394 0.156558
0.652552 0.0192569 0.168643
0.767544 0.00494392 0.180652
0.877073 0 0.193164
0.066041 0.133562 0.12929
0.141161 0.141146 0.13875
0.228672 0.146929 0.147768
0.341009 0.149462 0.156985
0.461631 0.148394 0.166461
0.580011 0.143404 0.17705
0.694636 0.132448 0.18819
0.804974 0.114305 0.199252
0.910262 0.0907759 0.210239
0.029984 0.234836 0.146929
0.131395 0.244541 0.153857
0.246448 0.252354 0.161944
0.369879 0.257923 0.170397
0.492058 0.26183 0.179065
0.608652 0.263432 0.187854
0.721202 0.262898 0.196918
0.829084 0.259953 0.206165
0.930648 0.254536 0.216251
0.000335698 0.363409 0.147036
0.0533913 0.372473 0.153155
0.229526 0.380133 0.160067
0.37499 0.386404 0.16733
0.502708 0.390967 0.17554
0.621759 0.393698 0.184283
0.73434 0.394858 0.193286
0.841627 0.394614 0.20264
0.941222 0.393118 0.212039
0 0.492424 0.12604
0.00793469 0.499352 0.132723
0.163607 0.505165 0.139528
0.354742 0.509865 0.147356
0.496239 0.51339 0.155932
0.620554 0.515709 0.165103
0.736461 0.51722 0.174838
0.844404 0.517464 0.184817
0.943725 0.516991 0.19411
0 0.612528 0.0738231
0 0.617624 0.0826429
0.0174258 0.621912 0.0912032
0.302708 0.625376 0.10042
0.473259 0.627894 0.110079
0.60705 0.629648 0.119768
0.727443 0.630655 0.129641
0.838056 0.630625 0.142641
0.936568 0.630198 0.154925
0 0.72401 0.0336614
0 0.728008 0.0357519
0.000183108 0.731121 0.0393683
0.205264 0.733547 0.0448005
0.430488 0.735332 0.0509499
0.581674 0.736187 0.0581826
0.709255 0.73669 0.0652018
0.824323 0.736309 0.0728771
0.923125 0.735546 0.0834058
0 0.82768 0
0 0.830106 0
0 0.832212 0
0.0458991 0.833829 0
0.357717 0.834836 0
0.542596 0.835279 0
0.68101 0.834867 0.002121
0.80296 0.834241 0.00611887
0.903883 0.833265 0.0125582
0 0.92015 0
0 0.921416 0
0 0.922286 0
0.00639353 0.922866 0
0.232517 0.922789 0
0.491051 0.922454 4.57771e-05
0.645609 0.921431 0.000946059
0.775891 0.920165 0.00225834
0.880552 0.9187 0.00381476
0.0582437 0.0401312 0.14847
0.121736 0.0428779 0.162768
0.19733 0.0449531 0.176486
0.297902 0.04094 0.1906
0.419242 0.0282139 0.204059
0.541466 0.0125582 0.216876
0.659983 0.00700389 0.231754
0.774548 9.15541e-05 0.245869
0.883299 0 0.25951
0.0591897 0.121477 0.190265
0.139971 0.12845 0.201465
0.232242 0.132677 0.212985
0.346456 0.132342 0.225681
0.467689 0.12845 0.237644
0.585916 0.119448 0.249531
0.700298 0.103685 0.260884
0.810269 0.0832532 0.272419
0.915145 0.0613413 0.284398
0.0212406 0.228428 0.220737
0.125582 0.237217 0.230976
0.247776 0.244572 0.24065
0.374029 0.249866 0.250416
0.496147 0.253056 0.260227
0.613016 0.253147 0.270191
0.72549 0.251057 0.280247
0.833555 0.246448 0.290303
0.93431 0.24004 0.299931
0 0.361227 0.237369
0.037644 0.369497 0.246098
0.228397 0.376379 0.25449
0.377539 0.382055 0.263035
0.505531 0.385824 0.271427
0.624781 0.388022 0.279896
0.737896 0.388739 0.288243
0.844938 0.388251 0.296529
0.944274 0.386252 0.304875
0 0.490806 0.241733
0.00839246 0.497307 0.248692
0.162387 0.50277 0.256123
0.355245 0.507103 0.263416
0.498283 0.510567 0.270756
0.623072 0.512551 0.278477
0.739178 0.513649 0.286076
0.847044 0.513542 0.293523
0.945373 0.512581 0.30071
0 0.611536 0.232685
0 0.616312 0.23946
0.0234531 0.620462 0.246281
0.301457 0.62359 0.252598
0.474113 0.62594 0.258946
0.608804 0.627237 0.265782
0.729473 0.628077 0.272404
0.840375 0.627955 0.279332
0.937896 0.627085 0.286244
0 0.72343 0.21117
0 0.726955 0.216815
0 0.729885 0.221546
0.207401 0.732174 0.227085
0.429999 0.733608 0.232898
0.583001 0.734386 0.239475
0.710536 0.734524 0.246052
0.826078 0.734051 0.252857
0.924086 0.733242 0.259388
0 0.826886 0.159121
0 0.829236 0.164233
0 0.831281 0.170459
0.0391089 0.832547 0.176959
0.356542 0.833478 0.184466
0.543725 0.833661 0.191959
0.682277 0.833478 0.200122
0.804425 0.832547 0.208026
0.904433 0.831556 0.215732
0 0.918761 0.0864729
0 0.920012 0.0925002
0 0.920806 0.0989242
0.00863661 0.921172 0.105043
0.231373 0.92108 0.110903
0.490776 0.920516 0.117754
0.64654 0.919463 0.127184
0.776852 0.918181 0.137179
0.881224 0.916686 0.146288
0.0508431 0.0104372 0.212802
0.118013 0.0109712 0.233494
0.198474 0.00889601 0.251667
0.303502 0 0.268406
0.425742 0.00148013 0.285573
0.547997 0.00151064 0.301732
0.666362 0 0.316899
0.780545 0 0.331289
0.888884 0 0.345464
0.041886 0.0842756 0.271092
0.132052 0.085481 0.286503
0.231754 0.0874342 0.300801
0.349722 0.0853895 0.31426
0.472068 0.0742504 0.327214
0.590417 0.0613718 0.339971
0.705211 0.0482643 0.352148
0.814786 0.0257572 0.363928
0.919142 0.00604257 0.375219
0.0111849 0.209186 0.312444
0.110033 0.216724 0.324422
0.245762 0.223056 0.335515
0.374868 0.227329 0.346212
0.498589 0.228901 0.356237
0.616236 0.228244 0.366201
0.728893 0.224735 0.375769
0.837003 0.218143 0.385199
0.937636 0.207782 0.39411
0 0.350103 0.338766
0.0219577 0.358267 0.347997
0.222263 0.365011 0.356573
0.377066 0.370535 0.365103
0.506798 0.373739 0.37322
0.627024 0.375021 0.380911
0.740185 0.375113 0.388739
0.847257 0.373342 0.396445
0.946883 0.370703 0.403861
0 0.484276 0.352728
0.00466926 0.490196 0.359548
0.15404 0.495415 0.36643
0.353414 0.499184 0.373281
0.499031 0.502205 0.379919
0.624353 0.50396 0.386526
0.740764 0.504738 0.392767
0.84863 0.504173 0.399374
0.946365 0.502785 0.405356
0 0.606317 0.355459
0 0.610941 0.361028
0.0348058 0.614679 0.366445
0.296925 0.6177 0.37203
0.472755 0.620035 0.377401
0.609552 0.621271 0.383246
0.730602 0.621576 0.388617
0.841703 0.621393 0.394232
0.938643 0.620539 0.399512
0 0.719615 0.34876
0 0.723064 0.353384
0 0.725704 0.357885
0.199649 0.727703 0.362509
0.427924 0.729061 0.367254
0.582681 0.729824 0.372045
0.711269 0.729641 0.37705
0.827039 0.729137 0.381643
0.924514 0.728069 0.386389
0 0.823728 0.332586
0 0.826032 0.336553
0 0.827832 0.340642
0.0398413 0.829084 0.344762
0.353185 0.829786 0.34902
0.542519 0.829938 0.353262
0.682414 0.829664 0.357671
0.804715 0.828733 0.361639
0.904646 0.827436 0.365454
0 0.915526 0.309499
0 0.916747 0.313451
0 0.917311 0.317021
0.00575265 0.917647 0.320409
0.22591 0.917327 0.323857
0.489448 0.916716 0.327306
0.646448 0.915648 0.330922
0.777005 0.914351 0.334478
0.88127 0.912596 0.338186
0.0272068 0 0.302403
0.105272 0 0.324758
0.193942 0 0.345571
0.30544 0 0.364248
0.430213 0 0.381506
0.552926 0 0.397711
0.671565 0 0.412802
0.785458 0 0.426932
0.893721 0 0.440238
0.0103456 0.0163577 0.367971
0.114107 0.00570687 0.383856
0.22652 0.00125124 0.398489
0.349798 0.0118257 0.41207
0.47422 0.0131838 0.425025
0.593606 0.00758373 0.437003
0.708843 0.000595102 0.448768
0.81854 0 0.459556
0.922469 0 0.470024
0.000823987 0.15993 0.412192
0.078172 0.171191 0.423911
0.238209 0.181048 0.434821
0.37322 0.183825 0.445136
0.499474 0.180331 0.454688
0.618326 0.173556 0.464042
0.73135 0.16405 0.472969
0.839475 0.158877 0.481651
0.940032 0.152148 0.490028
0 0.330007 0.440742
0.00802625 0.337789 0.449409
0.210239 0.344244 0.457816
0.373465 0.348592 0.465629
0.505974 0.351232 0.473274
0.62739 0.352316 0.480674
0.741619 0.351873 0.487831
0.849073 0.349737 0.494804
0.948653 0.346426 0.501381
0 0.471244 0.457221
0.000167849 0.476967 0.464042
0.133257 0.482048 0.470603
0.34844 0.485924 0.476982
0.497414 0.488716 0.483375
0.624323 0.490318 0.489189
0.741238 0.49041 0.49485
0.84979 0.489189 0.500526
0.946883 0.487495 0.505852
0 0.597513 0.464958
0 0.601877 0.470481
0.0393988 0.605646 0.475441
0.288228 0.608164 0.480568
0.47013 0.610071 0.48542
0.608942 0.610956 0.490074
0.730709 0.611322 0.494911
0.842252 0.610727 0.49955
0.93846 0.609751 0.503975
0 0.712825 0.465019
0 0.715908 0.469017
0 0.71841 0.472969
0.175845 0.720088 0.476661
0.423163 0.721355 0.48069
0.581308 0.721798 0.484443
0.710521 0.721477 0.488502
0.82707 0.720623 0.492241
0.923934 0.719722 0.495766
0 0.818006 0.457313
0 0.820233 0.460517
0 0.821988 0.463462
0.0374762 0.822934 0.466697
0.346166 0.82356 0.469947
0.53991 0.823621 0.473152
0.6813 0.823148 0.476371
0.803876 0.822156 0.479545
0.904067 0.820844 0.482521
0 0.909926 0.444602
0 0.910903 0.447059
0 0.911452 0.44947
7.62951e-05 0.911559 0.452201
0.220569 0.911406 0.454551
0.485527 0.910796 0.457206
0.645075 0.909499 0.459922
0.776272 0.907958 0.462531
0.880278 0.906432 0.46479
0.002533 0 0.403113
0.0751659 0 0.42565
0.182788 0 0.445624
0.303731 0 0.463767
0.432166 0 0.480171
0.556344 0 0.495583
0.675471 0 0.509773
0.789548 0 0.523171
0.897597 0 0.535698
0.00271611 0 0.467811
0.0808118 0 0.483253
0.21474 0.000488289 0.497276
0.347005 1.5259e-05 0.510185
0.474693 0 0.522377
0.595376 0 0.534005
0.711009 0 0.544915
0.821393 0 0.555261
0.924773 0 0.564965
0 0.0855116 0.511299
0.0564126 0.0824598 0.522393
0.223972 0.0840925 0.532784
0.368688 0.0894789 0.542443
0.498192 0.0942245 0.551843
0.618799 0.0983139 0.560723
0.73257 0.0974899 0.569116
0.840955 0.0822156 0.57734
0.941741 0.0520027 0.585031
0 0.295186 0.539803
0.00805676 0.304479 0.548424
0.188586 0.31162 0.556222
0.366934 0.31545 0.563928
0.50399 0.316793 0.571038
0.626841 0.316442 0.577874
0.742092 0.314336 0.584695
0.849775 0.310872 0.590936
0.948608 0.306142 0.597086
0 0.451667 0.558099
0 0.457343 0.564477
0.084184 0.462043 0.570535
0.339651 0.465888 0.576638
0.493874 0.467964 0.582101
0.622858 0.468757 0.587518
0.740673 0.46862 0.592935
0.850034 0.467277 0.598032
0.946487 0.465034 0.60296
0 0.58349 0.567559
0 0.587793 0.572564
0.0296178 0.591196 0.577295
0.275059 0.593835 0.581994
0.464973 0.595422 0.586633
0.606912 0.596262 0.590982
0.729549 0.596338 0.595331
0.842008 0.595743 0.599588
0.93785 0.59443 0.603357
0 0.702083 0.570504
0 0.70518 0.57438
0 0.707439 0.577996
0.147845 0.709117 0.581582
0.416236 0.710048 0.585397
0.578149 0.71043 0.588861
0.708843 0.71014 0.592004
0.825788 0.709255 0.5953
0.922759 0.708034 0.598444
0 0.809583 0.567544
0 0.811902 0.570397
0 0.813367 0.57319
0.0414282 0.814298 0.576211
0.336126 0.814908 0.578836
0.535592 0.814694 0.58172
0.679362 0.813962 0.584222
0.802563 0.812802 0.586877
0.90251 0.811383 0.589258
0 0.902205 0.56051
0 0.902968 0.562539
0 0.903532 0.564736
0 0.903578 0.566796
0.217914 0.903197 0.568994
0.479973 0.90251 0.570901
0.642603 0.901183 0.573022
0.774609 0.899626 0.574762
0.878859 0.897887 0.576547
6.10361e-05 0 0.504585
0.0241703 0 0.525979
0.16173 0 0.545235
0.297887 0 0.562432
0.431754 0 0.578103
0.557961 0 0.592584
0.677852 0 0.605875
0.792096 0 0.618585
0.90071 0 0.630228
0 0 0.566583
0.0187076 0 0.581292
0.194705 0 0.594537
0.34049 0 0.606989
0.473167 0 0.618662
0.59556 0 0.629541
0.71223 0 0.639597
0.823163 0 0.64921
0.926345 0 0.658244
0 0 0.608423
0.0112001 0.0104982 0.619074
0.201816 0.0251469 0.628931
0.361669 0.0303044 0.638285
0.495064 0.0259403 0.646891
0.617716 0.0128176 0.655161
0.732952 0.000946059 0.663188
0.841779 0 0.670878
0.942535 0 0.677989
0 0.239521 0.636744
0.00263981 0.251728 0.644648
0.159838 0.255711 0.65214
0.356847 0.258656 0.659113
0.499733 0.25919 0.666041
0.624704 0.257725 0.67245
0.741405 0.254459 0.678737
0.849699 0.248631 0.684749
0.948241 0.241062 0.690349
0 0.422995 0.654871
0 0.428977 0.661173
0.0389258 0.434089 0.66688
0.327306 0.437644 0.672572
0.488029 0.439429 0.677836
0.619944 0.439719 0.683101
0.739208 0.438727 0.687877
0.849302 0.436896 0.692393
0.945434 0.433997 0.696925
0 0.564553 0.665644
0 0.568704 0.670604
0.0199893 0.572137 0.674891
0.264103 0.574395 0.679286
0.458152 0.57586 0.683436
0.603265 0.576699 0.687221
0.727642 0.576226 0.691188
0.840925 0.575158 0.69482
0.936507 0.573785 0.698283
0 0.68809 0.670146
0 0.690883 0.673594
0 0.693049 0.676951
0.125582 0.694316 0.680262
0.405875 0.695216 0.683513
0.572869 0.695491 0.686671
0.705989 0.694804 0.68954
0.823789 0.693751 0.6925
0.920974 0.692195 0.695033
0 0.79826 0.669139
0 0.800214 0.671763
0 0.801648 0.674296
0.0413977 0.802579 0.676783
0.320577 0.80293 0.679179
0.52929 0.802533 0.681743
0.675898 0.801602 0.683955
0.800092 0.800351 0.686046
0.900191 0.798672 0.688212
0 0.891661 0.664622
0 0.892592 0.666407
0 0.892866 0.668406
0 0.892912 0.670253
0.206516 0.892485 0.672038
0.472557 0.891615 0.673701
0.638804 0.890257 0.675334
0.771572 0.88864 0.677028
0.876341 0.886625 0.678553
0 0 0.604623
0.00462348 0 0.624964
0.129931 0 0.642939
0.287526 0 0.658915
0.428534 0 0.673899
0.557961 0 0.687633
0.679164 0 0.700282
0.793988 0 0.711879
0.902419 0 0.722728
0 0 0.663172
0.00842298 0 0.677073
0.163317 0 0.689616
0.330419 0 0.701488
0.469123 0 0.7122
0.594293 0 0.722408
0.712291 0 0.732021
0.823896 0 0.741085
0.927214 0 0.749523
0 0 0.703014
0 0 0.713008
0.161669 0 0.72224
0.351385 0 0.731121
0.48983 0 0.739284
0.615427 0 0.747356
0.731899 0 0.754803
0.841642 0 0.761547
0.942748 0 0.768139
0 0.140887 0.730068
0 0.146593 0.737743
0.131655 0.151003 0.7449
0.343175 0.152407 0.751629
0.493828 0.15285 0.757717
0.621592 0.149722 0.76376
0.739666 0.151476 0.769467
0.848783 0.156115 0.775082
0.946853 0.152193 0.780102
0 0.383871 0.748165
0 0.390265 0.753964
0.0418555 0.395377 0.759335
0.308843 0.397803 0.764446
0.479744 0.39884 0.769223
0.615641 0.398779 0.773907
0.736584 0.397436 0.778485
0.847761 0.394751 0.782727
0.943481 0.391485 0.786831
0 0.5393 0.758907
0 0.543557 0.763363
0.0093843 0.546746 0.767498
0.246342 0.549249 0.771527
0.448692 0.550576 0.775235
0.59826 0.551095 0.77908
0.724483 0.550744 0.782666
0.838666 0.549462 0.786038
0.934112 0.547677 0.789014
0 0.669657 0.76405
0 0.672236 0.767422
0 0.674434 0.770687
0.0935683 0.675761 0.773663
0.39353 0.676432 0.776532
0.566308 0.676616 0.779522
0.70219 0.675929 0.782177
0.821164 0.674556 0.784726
0.918349 0.672953 0.78706
0 0.7841 0.764599
0 0.78587 0.766949
0 0.787289 0.769436
0.0265049 0.788174 0.771725
0.300206 0.788052 0.774029
0.521202 0.787625 0.775891
0.671443 0.786648 0.77792
0.796643 0.785077 0.779706
0.897215 0.783291 0.781537
0 0.879149 0.7617
0 0.87985 0.76347
0 0.880156 0.765362
0 0.879957 0.766766
0.180972 0.879454 0.768338
0.462821 0.878538 0.769787
0.633921 0.877134 0.77113
0.768154 0.875319 0.772412
0.87306 0.873472 0.773663
0 0 0.702296
0 0 0.721035
0.0606241 0 0.737697
0.273304 0 0.753155
0.423224 0 0.766766
0.555764 0 0.779339
0.679042 0 0.79118
0.794781 0 0.801968
0.90341 0 0.81239
0 0 0.756909
0 0 0.769726
0.125582 0 0.78143
0.316243 0 0.792416
0.462776 0 0.802609
0.591897 0 0.812253
0.711025 0 0.820829
0.823575 0 0.828855
0.927443 0 0.836332
0 0 0.79411
0 0 0.803632
0.115038 0 0.812268
0.336721 0 0.820233
0.482841 0 0.827451
0.611566 0 0.834623
0.73022 0 0.84126
0.840665 0 0.847532
0.942123 0 0.853452
0 0.0173037 0.819455
0 0.0406958 0.826047
0.0702831 0.0585031 0.83238
0.325948 0.0695811 0.838422
0.48542 0.0722972 0.844358
0.617121 0.0630503 0.84979
0.736889 0.0356451 0.854917
0.84741 0.00697337 0.859907
0.945266 0 0.864347
0 0.32813 0.835874
0 0.338155 0.841047
0.0409094 0.342199 0.84596
0.287526 0.345006 0.85069
0.470253 0.346151 0.855177
0.61088 0.34551 0.858869
0.733227 0.343175 0.862318
0.845792 0.339513 0.86566
0.941405 0.334783 0.868711
0 0.50869 0.846128
0 0.513191 0.850126
0 0.516854 0.8533
0.213779 0.519478 0.856245
0.437919 0.521141 0.859083
0.592538 0.521584 0.861982
0.720745 0.521004 0.864546
0.836103 0.519005 0.867201
0.931579 0.517113 0.869551
0 0.648539 0.849714
0 0.651316 0.852125
0 0.653407 0.854658
0.0650797 0.654856 0.856931
0.379385 0.655573 0.859159
0.559106 0.655665 0.861097
0.698131 0.654597 0.863233
0.817945 0.653223 0.865232
0.915557 0.651591 0.867109
0 0.768124 0.848936
0 0.77023 0.850889
0 0.771313 0.852598
0 0.771817 0.8542
0.280659 0.77174 0.855955
0.512322 0.771328 0.857404
0.666377 0.770016 0.859037
0.792966 0.768505 0.860395
0.894041 0.76672 0.861753
0 0.865263 0.845823
0 0.866056 0.846937
0 0.866392 0.848188
0 0.866209 0.849363
0.127489 0.865568 0.850645
0.452262 0.864607 0.851667
0.628946 0.862974 0.852811
0.764218 0.861097 0.853895
0.870008 0.859297 0.854765
