assets/luts/LUTs/CINECOLOR_SOFT_ENHANCE.CUBE
TITLE "Generated by Resolve"
LUT_3D_SIZE 5
0.0590219 0.0604257 0.0588235
0.187564 0.0740673 0.0780041
0.401801 0.0704051 0.0985885
0.644541 0.0321965 0.121981
0.870253 0 0.147784
0.0339361 0.234363 0.0883192
0.242817 0.253025 0.099733
0.486564 0.263233 0.11545
0.716197 0.26537 0.133928
0.926207 0.258274 0.154925
0 0.490333 0.0198978
0.160693 0.5037 0.0254978
0.492668 0.51252 0.0343633
0.732769 0.516915 0.0539864
0.940826 0.51722 0.0879988
0 0.722408 0
0.00251774 0.729854 0
0.429435 0.734234 0
0.706783 0.735943 0
0.921431 0.735042 0
0 0.9196 0
0 0.921965 0
0.229633 0.922576 0
0.643214 0.921477 0
0.879347 0.918898 0
0.0582437 0.0401312 0.14847
0.19733 0.0449531 0.176486
0.419242 0.0282139 0.204059
0.659983 0.00700389 0.231754
0.883299 0 0.25951
0.0212406 0.228428 0.220737
0.247776 0.244572 0.24065
0.496147 0.253056 0.260227
0.72549 0.251057 0.280247
0.93431 0.24004 0.299931
0 0.490806 0.241733
0.162387 0.50277 0.256123
0.498283 0.510567 0.270756
0.739178 0.513649 0.286076
0.945373 0.512581 0.30071
0 0.72343 0.21117
0 0.729885 0.221546
0.429999 0.733608 0.232898
0.710536 0.734524 0.246052
0.924086 0.733242 0.259388
0 0.918761 0.0864729
0 0.920806 0.0989242
0.231373 0.92108 0.110903
0.64654 0.919463 0.127184
0.881224 0.916686 0.146288
0.0272068 0 0.302403
0.193942 0 0.345571
0.430213 0 0.381506
0.671565 0 0.412802
0.893721 0 0.440238
0.000823987 0.15993 0.412192
0.238209 0.181048 0.434821
0.499474 0.180331 0.454688
0.73135 0.16405 0.472969
0.940032 0.152148 0.490028
0 0.471244 0.457221
0.133257 0.482048 0.470603
0.497414 0.488716 0.483375
0.741238 0.49041 0.49485
0.946883 0.487495 0.505852
0 0.712825 0.465019
0 0.71841 0.472969
0.423163 0.721355 0.48069
0.710521 0.721477 0.488502
0.923934 0.719722 0.495766
0 0.909926 0.444602
0 0.911452 0.44947
0.220569 0.911406 0.454551
0.645075 0.909499 0.459922
0.880278 0.906432 0.46479
6.10361e-05 0 0.504585
0.16173 0 0.545235
0.431754 0 0.578103
0.677852 0 0.605875
0.90071 0 0.630228
0 0 0.608423
0.201816 0.0251469 0.628931
0.495064 0.0259403 0.646891
0.732952 0.000946059 0.663188
0.942535 0 0.677989
0 0.422995 0.654871
0.0389258 0.434089 0.66688
0.488029 0.439429 0.677836
0.739208 0.438727 0.687877
0.945434 0.433997 0.696925
0 0.68809 0.670146
0 0.693049 0.676951
0.405875 0.695216 0.683513
0.705989 0.694804 0.68954
0.920974 0.692195 0.695033
0 0.891661 0.664622
0 0.892866 0.668406
0.206516 0.892485 0.672038
0.638804 0.890257 0.675334
0.876341 0.886625 0.678553
0 0 0.702296
0.0606241 0 0.737697
0.423224 0 0.766766
0.679042 0 0.79118
0.90341 0 0.81239
0 0 0.79411
0.115038 0 0.812268
0.482841 0 0.827451
0.73022 0 0.84126
0.942123 0 0.853452
0 0.32813 0.835874
0.0409094 0.342199 0.84596
0.470253 0.346151 0.855177
0.733227 0.343175 0.862318
0.941405 0.334783 0.868711
0 0.648539 0.849714
0 0.653407 0.854658
0.379385 0.655573 0.859159
0.698131 0.654597 0.863233
0.915557 0.651591 0.867109
0 0.865263 0.845823
0 0.866392 0.848188
0.127489 0.865568 0.850645
0.628946 0.862974 0.852811
0.870008 0.859297 0.854765
