assets/luts/LUTs/CinePacks_MVP2_Radar.CUBE
TITLE "Generate by Resolve"
LUT_3D_SIZE 5
0 0.107256 0.0113527
0.0239567 0.112291 0
0.487022 0 0
0.840925 0 0
0.940581 0 0
0 0.150179 0
0.0266423 0.142596 0
0.494667 0.0987106 0
0.881712 0.0769055 0
1 0.128603 0
0 0.416419 0
0 0.471885 0
0.494408 0.461173 0
0.921691 0.473503 0
1 0.551965 0.0554818
0 0.8692 0
0 0.943252 0
0.525628 0.915389 0
0.938735 0.899336 0
1 0.941527 0.0196078
0 1 0
0.203494 1 0.0197757
0.634791 1 0.0546731
0.999222 1 0.0348821
1 1 0.0292973
0 0.0783856 0.0738079
0.0349889 0.0750896 0.0712139
0.480964 0 0
0.834546 0 0
0.935882 0 0
0 0.145922 0.0479896
0.021622 0.176883 0.0978103
0.504158 0.113634 0.0427253
0.896895 0.0962692 0.0355993
1 0.151568 0.108492
0 0.435157 0
0 0.498268 0
0.519692 0.490303 0.0551766
0.94818 0.503899 0.0850996
1 0.580652 0.178775
0 0.898146 0
0 0.97116 0
0.541985 0.940261 0.0467994
0.95436 0.918563 0.0785534
1 0.954482 0.124453
0.0144808 1 0.082002
0.203372 1 0.126192
0.629297 1 0.140841
0.996597 1 0.125017
1 1 0.119051
0 0.0554055 0.513542
0 0.0484779 0.496498
0.441703 0 0.416129
0.79472 0 0.340154
0.899763 0 0.342077
0 0.121981 0.49543
0 0.134066 0.49073
0.485237 0.112596 0.462058
0.884459 0.0991836 0.457313
1 0.15816 0.525551
0 0.421622 0.382177
0 0.492836 0.459297
0.515312 0.501381 0.482567
0.943343 0.514534 0.508446
1 0.589273 0.588968
0 0.89427 0.372045
0 0.969955 0.446677
0.494285 0.9561 0.442847
0.937819 0.917174 0.490043
1 0.944747 0.521859
0 1 0.548714
0.154681 1 0.569604
0.558465 1 0.50837
0.963073 1 0.511635
1 1 0.507546
0 0.0323949 0.95169
0 0.0254215 0.931014
0.400046 0 0.835904
0.753689 0 0.760739
0.864546 0 0.762417
0 0.102541 0.921004
0 0.125032 0.913146
0.46508 0.110948 0.882368
0.86891 0.100481 0.881514
1 0.163714 0.954376
0 0.420569 0.838773
0 0.494789 0.913695
0.50721 0.510246 0.914336
0.934356 0.52253 0.939223
1 0.594034 1
0 0.885481 0.850065
0 0.956359 0.926207
0.493095 0.943908 0.925872
0.915251 0.911208 0.906188
1 0.929656 0.928527
0 1 1
0.150484 1 1
0.538842 1 0.977783
0.913146 1 0.899275
1 1 0.908141
0 0.0291295 1
0 0.0219425 1
0.391012 0 0.949157
0.747189 0 0.875196
0.865766 0 0.88365
0 0.105623 1
0 0.13785 1
0.478111 0.128283 1
0.88661 0.121813 1
1 0.188434 1
0 0.442939 0.978286
0 0.520394 1
0.530159 0.538338 1
0.955764 0.54905 1
1 0.616632 1
0 0.909407 0.997864
0 0.976394 1
0.50515 0.959884 1
0.921309 0.921981 1
1 0.931868 1
0 1 1
0.148287 1 1
0.538323 1 1
0.911116 1 1
1 1 1
