assets/luts/LUTs/CinePacks_MVP2__Natural_DLOG_02.CUBE
LUT_3D_SIZE 16
0.000000 0.000000 0.000000
0.000000 -0.000361 -0.000361
0.054315 -0.000794 -0.000794
0.146135 -0.001251 -0.001251
0.249582 -0.001716 -0.001716
0.368184 -0.002180 -0.002180
0.495511 -0.002640 -0.002640
0.618629 -0.003081 -0.003081
0.731631 -0.003510 -0.003510
0.829326 -0.003944 -0.003944
0.905761 -0.004370 -0.004370
0.962553 -0.004766 -0.004766
1.000000 -0.005085 -0.005085
1.000000 -0.005300 -0.005300
1.000000 -0.005399 -0.005399
1.000002 -0.005419 -0.005419
-0.000599 0.000000 -0.000599
0.000000 0.000000 -0.000668
0.054314 0.027157 -0.000976
0.146135 0.048706 -0.001368
0.249582 0.062392 -0.001797
0.368184 0.073629 -0.002244
0.495511 0.082573 -0.002689
0.618629 0.088359 -0.003122
0.731631 0.091423 -0.003544
0.829326 0.092120 -0.003972
0.905761 0.090537 -0.004394
0.962552 0.087462 -0.004788
1.000000 0.083283 -0.005104
1.000000 0.076870 -0.005318
0.999980 0.071364 -0.005415
1.000002 0.066601 -0.005434
-0.001316 0.054314 -0.001316
0.027156 0.054314 -0.001346
0.054314 0.054314 -0.001467
0.146134 0.097415 -0.001758
0.249582 0.124784 -0.002105
0.368183 0.147263 -0.002484
0.495511 0.165158 -0.002888
0.618629 0.176742 -0.003290
0.731631 0.182888 -0.003686
0.829325 0.184293 -0.004087
0.905761 0.181120 -0.004494
0.962552 0.174985 -0.004875
1.000000 0.166653 -0.005183
0.999980 0.153834 -0.005379
1.000000 0.142821 -0.005471
1.000002 0.133309 -0.005486
-0.002071 0.146134 -0.002071
0.048704 0.146134 -0.002089
0.097413 0.146133 -0.002165
0.146133 0.146133 -0.002309
0.249581 0.187188 -0.002588
0.368182 0.220910 -0.002900
0.495510 0.247753 -0.003240
0.618629 0.265129 -0.003589
0.731631 0.274334 -0.003944
0.829325 0.276456 -0.004312
0.905761 0.271718 -0.004686
0.962552 0.262507 -0.005045
1.000000 0.249992 -0.005336
1.000000 0.230775 -0.005509
0.999980 0.214256 -0.005581
1.000002 0.200001 -0.005579
-0.002843 0.249580 -0.002843
0.062386 0.249580 -0.002855
0.124781 0.249580 -0.002909
0.187187 0.249580 -0.003009
0.249580 0.249580 -0.003169
0.368180 0.294541 -0.003434
0.495509 0.330339 -0.003717
0.618628 0.353499 -0.004012
0.731629 0.365790 -0.004319
0.829325 0.368576 -0.004640
0.905760 0.362266 -0.004984
0.962552 0.350013 -0.005304
1.000000 0.333324 -0.005561
0.999980 0.307691 -0.005716
1.000000 0.285692 -0.005755
1.000002 0.266665 -0.005732
-0.003610 0.368179 -0.003610
0.073619 0.368179 -0.003622
0.147257 0.368179 -0.003658
0.220906 0.368179 -0.003737
0.294540 0.368178 -0.003859
0.368177 0.368177 -0.004027
0.495507 0.412916 -0.004270
0.618627 0.441877 -0.004517
0.731629 0.457238 -0.004773
0.829324 0.460758 -0.005065
0.905760 0.452860 -0.005362
0.962552 0.437510 -0.005649
1.000000 0.416661 -0.005869
1.000000 0.384632 -0.005992
1.000000 0.357107 -0.005997
1.000002 0.333342 -0.005934
-0.004374 0.495507 -0.004374
0.082554 0.495507 -0.004378
0.165149 0.495507 -0.004418
0.247749 0.495507 -0.004474
0.330319 0.495506 -0.004570
0.412914 0.495506 -0.004706
0.495505 0.495505 -0.004878
0.618626 0.530240 -0.005086
0.731627 0.548680 -0.005303
0.829323 0.552905 -0.005546
0.905759 0.543432 -0.005808
0.962551 0.525032 -0.006062
1.000000 0.499983 -0.006246
1.000000 0.461554 -0.006313
1.000000 0.428533 -0.006283
1.000002 0.400007 -0.006188
-0.005109 0.618626 -0.005109
0.088324 0.618626 -0.005111
0.176715 0.618626 -0.005144
0.265122 0.618626 -0.005189
0.353495 0.618626 -0.005268
0.441874 0.618626 -0.005380
0.530239 0.618625 -0.005524
0.618625 0.618625 -0.005698
0.731625 0.640140 -0.005875
0.829321 0.645071 -0.006093
0.905758 0.634010 -0.006315
0.962551 0.612527 -0.006538
1.000000 0.583375 -0.006678
0.999980 0.538501 -0.006708
1.000000 0.499981 -0.006629
1.000001 0.466711 -0.006488
-0.005831 0.731625 -0.005831
0.091381 0.731625 -0.005833
0.182866 0.731625 -0.005843
0.274335 0.731625 -0.005898
0.365791 0.731625 -0.005963
0.457234 0.731625 -0.006058
0.548677 0.731624 -0.006180
0.640139 0.731624 -0.006314
0.731623 0.731623 -0.006488
0.829319 0.737221 -0.006678
0.905757 0.724536 -0.006872
0.962550 0.700026 -0.007052
1.000000 0.666652 -0.007154
1.000000 0.615412 -0.007149
1.000000 0.571384 -0.007025
1.000001 0.533340 -0.006841
-0.006539 0.829320 -0.006539
0.092057 0.829320 -0.006541
0.184265 0.829320 -0.006565
0.276441 0.829320 -0.006596
0.368603 0.829319 -0.006653
0.460761 0.829319 -0.006733
0.552900 0.829319 -0.006839
0.645069 0.829331 -0.006955
0.737218 0.829331 -0.007108
0.829330 0.829330 -0.007282
0.905756 0.815087 -0.007464
0.962549 0.787495 -0.007608
1.000000 0.749967 -0.007676
1.000000 0.692307 -0.007614
1.000000 0.642783 -0.007448
1.000001 0.600013 -0.007224
-0.007247 0.905757 -0.007247
0.090450 0.905757 -0.007249
0.181083 0.905757 -0.007256
0.271699 0.905757 -0.007296
0.362260 0.905757 -0.007345
0.452852 0.905756 -0.007403
0.543426 0.905756 -0.007495
0.634007 0.905756 -0.007609
0.724533 0.905756 -0.007743
0.815086 0.905755 -0.007887
0.905755 0.905755 -0.008060
0.962548 0.875015 -0.008184
0.999980 0.833314 -0.008221
1.000000 0.769271 -0.008131
1.000000 0.714233 -0.007917
1.000000 0.666693 -0.007633
-0.007886 0.962548 -0.007886
0.087365 0.962548 -0.007887
0.174962 0.962548 -0.007916
0.262484 0.962548 -0.007929
0.350000 0.962548 -0.007972
0.437500 0.962548 -0.008045
0.525024 0.962548 -0.008126
0.612523 0.962548 -0.008216
0.700023 0.962547 -0.008336
0.787493 0.962547 -0.008464
0.875014 0.962547 -0.008620
0.962546 0.962546 -0.008803
1.000000 0.916664 -0.008803
0.999980 0.846184 -0.008659
0.999980 0.785701 -0.008390
1.000000 0.733407 -0.008083
-0.008424 1.000000 -0.008424
0.083168 1.000000 -0.008425
0.166613 1.000000 -0.008451
0.249970 1.000000 -0.008463
0.333310 1.000000 -0.008501
0.416671 0.999980 -0.008547
0.500003 1.000000 -0.008619
0.583371 1.000000 -0.008700
0.666649 1.000000 -0.008808
0.749966 1.000000 -0.008924
0.833314 0.999980 -0.009065
0.916664 1.000000 -0.009214
1.000000 1.000000 -0.009386
1.000000 0.923112 -0.009211
1.000000 0.857075 -0.008914
1.000000 0.800046 -0.008537
-0.008776 1.000000 -0.008776
0.076742 1.000000 -0.008777
0.153781 1.000000 -0.008801
0.230747 1.000000 -0.008811
0.307697 1.000000 -0.008846
0.384615 1.000000 -0.008887
0.461545 0.999980 -0.008953
0.538494 1.000000 -0.009026
0.615408 1.000000 -0.009107
0.692305 1.000000 -0.009212
0.769269 1.000000 -0.009342
0.846184 1.000000 -0.009478
0.923112 1.000000 -0.009620
0.999980 0.999980 -0.009784
1.000000 0.928474 -0.009442
1.000000 0.866649 -0.009021
-0.008954 1.000000 -0.008954
0.071219 1.000000 -0.008955
0.142771 1.000000 -0.008959
0.214232 1.000000 -0.008986
0.285669 1.000000 -0.009000
0.357089 1.000000 -0.009055
0.428523 1.000000 -0.009099
0.500001 1.000000 -0.009166
0.571381 1.000000 -0.009239
0.642780 1.000000 -0.009319
0.714230 1.000000 -0.009422
0.785700 1.000000 -0.009548
0.857074 1.000000 -0.009680
0.928474 0.999980 -0.009817
0.999980 0.999980 -0.009975
1.000000 0.933409 -0.009514
-0.008991 1.000000 -0.008991
0.066441 1.000000 -0.008991
0.133249 1.000000 -0.008995
0.199961 1.000000 -0.009021
0.266641 1.000000 -0.009032
0.333328 1.000000 -0.009067
0.400010 1.000000 -0.009106
0.466702 1.000000 -0.009169
0.533332 1.000000 -0.009237
0.600009 1.000000 -0.009310
0.666690 1.000000 -0.009406
0.733404 1.000000 -0.009507
0.800045 1.000000 -0.009614
0.866649 1.000000 -0.009741
0.933409 1.000000 -0.009874
1.000000 1.000000 -0.010026
-0.000230 -0.000230 0.000000
0.000000 -0.000408 0.000000
0.054315 -0.000815 0.027157
0.146135 -0.001264 0.048707
0.249582 -0.001723 0.062392
0.368184 -0.002187 0.073630
0.495511 -0.002642 0.082573
0.618629 -0.003088 0.088360
0.731631 -0.003521 0.091424
0.829326 -0.003945 0.092121
0.905761 -0.004371 0.090538
0.962553 -0.004767 0.087463
1.000000 -0.005086 0.083284
1.000000 -0.005301 0.076870
1.000000 -0.005399 0.071364
1.000002 -0.005429 0.066601
-0.000623 0.000000 0.000000
0.000000 0.000000 0.000000
0.080362 0.000000 0.000000
0.164622 0.000000 0.000000
0.263626 0.000000 0.000000
0.379617 0.000000 0.000000
0.504556 0.000000 0.000000
0.625697 0.000000 0.000000
0.736805 0.000000 0.000000
0.832943 0.000000 0.000000
0.908052 0.000000 0.000000
0.964268 0.000000 0.000000
0.999980 0.000000 0.000000
0.999980 0.000000 0.000000
1.000000 0.000000 0.000000
1.000002 0.000000 0.000000
-0.001328 0.054314 0.027156
0.000000 0.058043 0.000000
0.055152 0.055152 0.000000
0.152670 0.096182 0.000000
0.257533 0.119786 0.000000
0.376194 0.139085 0.000000
0.502674 0.154382 0.000000
0.624635 0.164139 0.000000
0.736189 0.169102 0.000000
0.832607 0.169881 0.000000
0.907847 0.166636 0.000000
0.964165 0.160814 0.000000
1.000000 0.152862 0.000000
1.000000 0.141084 0.000000
0.999980 0.130967 0.000000
1.000002 0.122235 0.000000
-0.002078 0.146134 0.048704
0.000000 0.148374 0.000000
0.093065 0.147725 0.000000
0.146680 0.146680 0.000000
0.252725 0.186593 0.000000
0.372643 0.218697 0.000000
0.500262 0.243890 0.000000
0.623096 0.259905 0.000000
0.735298 0.268095 0.000000
0.832013 0.269467 0.000000
0.907584 0.264414 0.000000
0.963990 0.255226 0.000000
1.000000 0.242644 0.000000
1.000000 0.223952 0.000000
1.000000 0.207900 0.000000
1.000002 0.194027 0.000000
-0.002845 0.249580 0.062386
0.000000 0.251218 0.000000
0.116730 0.250964 0.000000
0.184980 0.250545 0.000000
0.249990 0.249990 0.000000
0.370062 0.294174 0.000000
0.498155 0.328954 0.000000
0.621559 0.351155 0.000000
0.734210 0.362599 0.000000
0.831384 0.364705 0.000000
0.907173 0.357970 0.000000
0.963783 0.345601 0.000000
1.000000 0.328659 0.000000
1.000000 0.303326 0.000000
1.000000 0.281582 0.000000
1.000002 0.262806 0.000000
-0.003619 0.368179 0.073619
0.000000 0.369484 0.000000
0.136572 0.369383 0.000000
0.216657 0.369175 0.000000
0.293212 0.368881 0.000000
0.368542 0.368542 0.000000
0.496693 0.412618 0.000000
0.620355 0.440907 0.000000
0.733292 0.455591 0.000000
0.830831 0.458509 0.000000
0.906833 0.450173 0.000000
0.963512 0.434666 0.000000
1.000000 0.413442 0.000000
1.000000 0.381600 0.000000
0.999980 0.354230 0.000000
1.000002 0.330628 0.000000
-0.004375 0.495507 0.082554
0.000000 0.496478 0.000000
0.152478 0.496438 0.000000
0.241981 0.496339 0.000000
0.327645 0.496161 0.000000
0.412015 0.495971 0.000000
0.495728 0.495728 0.000000
0.619483 0.530037 0.000000
0.732588 0.547909 0.000000
0.830334 0.551625 0.000000
0.906536 0.541716 0.000000
0.963278 0.523124 0.000000
1.000000 0.497705 0.000000
0.999980 0.459346 0.000000
0.999980 0.426428 0.000000
1.000002 0.397981 0.000000
-0.005109 0.618626 0.088324
0.000000 0.619418 0.000000
0.162774 0.619388 0.000000
0.258358 0.619339 0.000000
0.349866 0.619246 0.000000
0.440064 0.619118 0.000000
0.529604 0.619012 0.000000
0.618873 0.618873 0.000000
0.732068 0.639940 0.000000
0.829924 0.644403 0.000000
0.906254 0.632954 0.000000
0.963053 0.611287 0.000000
1.000000 0.581701 0.000000
1.000000 0.536884 0.000000
1.000000 0.498413 0.000000
1.000001 0.465157 0.000000
-0.005832 0.731625 0.091381
0.000000 0.732094 0.000000
0.168172 0.732108 0.000000
0.266931 0.732052 0.000000
0.361517 0.732009 0.000000
0.454776 0.731952 0.000000
0.547396 0.731900 0.000000
0.639682 0.731827 0.000000
0.731737 0.731737 0.000000
0.829670 0.736974 0.000000
0.906031 0.723978 0.000000
0.962884 0.699175 0.000000
1.000000 0.665465 0.000000
1.000000 0.614210 0.000000
1.000000 0.570194 0.000000
1.000001 0.532141 0.000000
-0.006540 0.829320 0.092057
0.000000 0.829735 0.000000
0.169302 0.829718 0.000000
0.268717 0.829684 0.000000
0.363913 0.829633 0.000000
0.457846 0.829621 0.000000
0.551097 0.829548 0.000000
0.644078 0.829508 0.000000
0.736763 0.829430 0.000000
0.829401 0.829401 0.000000
0.905882 0.814825 0.000000
0.962750 0.787013 0.000000
1.000000 0.749150 0.000000
1.000000 0.691424 0.000000
1.000000 0.641929 0.000000
1.000001 0.599092 0.000000
-0.007247 0.905757 0.090450
0.000000 0.905919 0.000000
0.166268 0.905912 0.000000
0.263925 0.905899 0.000000
0.357471 0.905908 0.000000
0.449692 0.905881 0.000000
0.541333 0.905867 0.000000
0.632649 0.905841 0.000000
0.723766 0.905797 0.000000
0.814706 0.905810 0.000000
0.905790 0.905790 0.000000
0.962656 0.874854 0.000000
1.000000 0.832863 0.000000
1.000000 0.768692 0.000000
1.000000 0.713607 0.000000
1.000000 0.666009 0.000000
-0.007886 0.962548 0.087366
0.000000 0.962711 0.000000
0.160575 0.962707 0.000000
0.254884 0.962699 0.000000
0.345227 0.962686 0.000000
0.434285 0.962674 0.000000
0.522793 0.962671 0.000000
0.611011 0.962650 0.000000
0.699012 0.962621 0.000000
0.786875 0.962634 0.000000
0.874771 0.962601 0.000000
0.962616 0.962616 0.000000
1.000000 0.916440 0.000000
0.999980 0.845841 0.000000
0.999980 0.785219 0.000000
1.000000 0.732846 0.000000
-0.008424 1.000000 0.083168
0.000000 1.000000 0.000000
0.152862 1.000000 0.000000
0.242644 1.000000 0.000000
0.328659 0.999980 0.000000
0.413442 0.999980 0.000000
0.497705 0.999980 0.000000
0.581701 1.000000 0.000000
0.665465 0.999980 0.000000
0.749150 1.000000 0.000000
0.832863 1.000000 0.000000
0.916440 0.999980 0.000000
0.999980 0.999980 0.000000
1.000000 0.922976 0.000000
1.000000 0.856824 0.000000
1.000000 0.799668 0.000000
-0.008777 1.000000 0.076742
0.000000 0.999980 0.000000
0.141084 1.000000 0.000000
0.223952 1.000000 0.000000
0.303326 1.000000 0.000000
0.381600 0.999980 0.000000
0.459346 0.999980 0.000000
0.536884 1.000000 0.000000
0.614210 1.000000 0.000000
0.691424 1.000000 0.000000
0.768692 1.000000 0.000000
0.845841 1.000000 0.000000
0.922976 1.000000 0.000000
1.000000 1.000000 0.000000
1.000000 0.928379 0.000000
1.000000 0.866441 0.000000
-0.008955 1.000000 0.071219
0.000000 1.000000 0.000000
0.130967 1.000000 0.000000
0.207900 1.000000 0.000000
0.281582 1.000000 0.000000
0.354230 1.000000 0.000000
0.426428 1.000000 0.000000
0.498413 0.999980 0.000000
0.570194 1.000000 0.000000
0.641929 1.000000 0.000000
0.713607 0.999980 0.000000
0.785219 1.000000 0.000000
0.856824 1.000000 0.000000
0.928379 1.000000 0.000000
1.000000 1.000000 0.000000
1.000000 0.933300 0.000000
-0.008991 1.000000 0.066441
0.000000 1.000000 0.000000
0.122235 1.000000 0.000000
0.194027 1.000000 0.000000
0.262806 1.000000 0.000000
0.330628 1.000000 0.000000
0.397980 1.000000 0.000000
0.465156 1.000000 0.000000
0.532140 1.000000 0.000000
0.599091 1.000000 0.000000
0.666008 1.000000 0.000000
0.732846 1.000000 0.000000
0.799668 1.000000 0.000000
0.866441 1.000000 0.000000
0.933300 1.000000 0.000000
1.000000 1.000000 0.000000
-0.000506 -0.000506 0.054315
0.027157 -0.000608 0.054315
0.054315 -0.000896 0.054315
0.146135 -0.001315 0.097416
0.249582 -0.001758 0.124785
0.368184 -0.002213 0.147263
0.495511 -0.002665 0.165159
0.618629 -0.003102 0.176743
0.731631 -0.003528 0.182889
0.829326 -0.003959 0.184294
0.905761 -0.004376 0.181121
0.962553 -0.004772 0.174986
1.000000 -0.005090 0.166654
1.000000 -0.005304 0.153835
0.999980 -0.005411 0.142820
1.000002 -0.005432 0.133310
-0.000786 0.027157 0.054315
0.000000 0.000000 0.100427
0.073717 0.000000 0.073717
0.162419 0.000000 0.102319
0.262737 0.000000 0.122203
0.379132 0.000000 0.140173
0.504318 0.000000 0.154896
0.625565 0.000000 0.164388
0.736677 0.000000 0.169226
0.832912 0.000000 0.169941
0.908022 0.000000 0.166656
0.964248 0.000000 0.160826
1.000000 0.000000 0.152862
1.000000 0.000000 0.141084
1.000000 0.000000 0.130967
1.000002 0.000000 0.122235
-0.001370 0.054314 0.054314
0.000000 0.056899 0.056899
0.054314 0.054314 0.054314
0.203694 0.016372 0.016372
0.322522 0.000000 0.000000
0.434832 0.000000 0.000000
0.550976 0.000000 0.000000
0.662828 0.000000 0.000000
0.765040 0.000000 0.000000
0.852746 0.000000 0.000000
0.921500 0.000000 0.000000
0.974637 0.000000 0.000000
1.000000 0.000000 0.000000
1.000000 0.000000 0.000000
1.000000 0.016818 0.016818
1.000002 0.032447 0.032447
-0.002105 0.146134 0.097414
0.000000 0.148151 0.093330
0.000000 0.159642 0.000000
0.150257 0.150257 0.000000
0.275421 0.185019 0.000000
0.403189 0.208474 0.000000
0.531418 0.224890 0.000000
0.651103 0.233875 0.000000
0.758249 0.236907 0.000000
0.849094 0.234927 0.000000
0.919491 0.228362 0.000000
0.973324 0.219363 0.000000
1.000000 0.206310 0.000000
0.999980 0.190259 0.000000
0.999980 0.176741 0.015633
1.000002 0.166029 0.032445
-0.002865 0.249580 0.124782
0.000000 0.251125 0.116801
0.000000 0.260484 0.000000
0.172665 0.257027 0.000000
0.252661 0.252661 0.000000
0.382585 0.294478 0.000000
0.515518 0.324778 0.000000
0.639857 0.342154 0.000000
0.750769 0.349235 0.000000
0.844682 0.347927 0.000000
0.916914 0.339028 0.000000
0.971685 0.325990 0.000000
1.000000 0.307147 0.000000
0.999980 0.283246 0.000000
0.999980 0.262874 0.013638
1.000002 0.245906 0.032443
-0.003626 0.368179 0.147258
0.000000 0.369460 0.136602
0.000000 0.376955 0.000000
0.194056 0.375339 0.000000
0.287173 0.373067 0.000000
0.370481 0.370481 0.000000
0.504463 0.412874 0.000000
0.630960 0.438309 0.000000
0.744404 0.449850 0.000000
0.840491 0.449769 0.000000
0.914324 0.439188 0.000000
0.969901 0.422720 0.000000
1.000000 0.399035 0.000000
1.000000 0.367992 0.000000
1.000000 0.341442 0.010531
1.000002 0.318990 0.032438
-0.004393 0.495507 0.165149
0.000000 0.496474 0.152488
0.000000 0.502401 0.000000
0.212265 0.501609 0.000000
0.315243 0.500390 0.000000
0.408329 0.498913 0.000000
0.497239 0.497239 0.000000
0.624570 0.530063 0.000000
0.739210 0.545803 0.000000
0.836838 0.547129 0.000000
0.912012 0.535222 0.000000
0.968167 0.515613 0.000000
1.000000 0.487525 0.000000
1.000000 0.449592 0.000000
0.999980 0.417121 0.005850
1.000002 0.389495 0.032434
-0.005124 0.618626 0.176715
0.000000 0.619408 0.162770
0.000000 0.624028 0.000000
0.223975 0.623583 0.000000
0.333067 0.622931 0.000000
0.432128 0.622080 0.000000
0.527125 0.621072 0.000000
0.619966 0.619966 0.000000
0.735369 0.639701 0.000000
0.833977 0.642424 0.000000
0.909981 0.629281 0.000000
0.966635 0.606518 0.000000
1.000000 0.574425 0.000000
1.000000 0.529730 0.000000
1.000000 0.491472 0.000000
1.000001 0.458741 0.032429
-0.005835 0.731625 0.182866
0.000000 0.732127 0.168175
0.000000 0.735561 0.000000
0.229741 0.735321 0.000000
0.341858 0.734961 0.000000
0.443830 0.734479 0.000000
0.541826 0.733862 0.000000
0.637842 0.733236 0.000000
0.732473 0.732473 0.000000
0.831617 0.736442 0.000000
0.908343 0.722030 0.000000
0.965394 0.696348 0.000000
1.000000 0.660304 0.000000
0.999980 0.608944 0.000000
0.999980 0.564967 0.000000
1.000001 0.527232 0.032427
-0.006543 0.829320 0.184266
0.000000 0.829729 0.169305
0.000000 0.832026 0.000000
0.230176 0.831946 0.000000
0.342589 0.831706 0.000000
0.444920 0.831451 0.000000
0.543405 0.831158 0.000000
0.639993 0.830775 0.000000
0.735344 0.830375 0.000000
0.829970 0.829970 0.000000
0.907070 0.814226 0.000000
0.964319 0.785468 0.000000
0.999980 0.745688 0.000000
1.000000 0.687635 0.000000
1.000000 0.638008 0.000000
1.000001 0.595328 0.032420
-0.007250 0.905757 0.181084
0.000000 0.905917 0.166268
0.000000 0.907466 0.000000
0.225365 0.907417 0.000000
0.335468 0.907303 0.000000
0.435755 0.907192 0.000000
0.532301 0.907042 0.000000
0.627057 0.906820 0.000000
0.720633 0.906594 0.000000
0.813544 0.906344 0.000000
0.906081 0.906081 0.000000
0.963498 0.874287 0.000000
1.000000 0.830708 0.000000
0.999980 0.766090 0.000000
1.000000 0.710674 0.000000
1.000000 0.663158 0.032414
-0.007889 0.962548 0.174962
0.000000 0.962710 0.160576
0.000000 0.963877 0.000000
0.217223 0.963856 0.000000
0.323351 0.963814 0.000000
0.420062 0.963708 0.000000
0.513164 0.963581 0.000000
0.604556 0.963466 0.000000
0.694870 0.963337 0.000000
0.784529 0.963170 0.000000
0.873847 0.963025 0.000000
0.962829 0.962829 0.000000
0.999980 0.915466 0.000000
1.000000 0.844265 0.000000
0.999980 0.783261 0.000000
1.000000 0.730738 0.032403
-0.008427 1.000000 0.166613
0.000000 1.000000 0.152862
0.000000 1.000000 0.000000
0.206310 1.000000 0.000000
0.307147 0.999980 0.000000
0.399035 0.999980 0.000000
0.487525 0.999980 0.000000
0.574425 1.000000 0.000000
0.660304 0.999980 0.000000
0.745688 1.000000 0.000000
0.830708 1.000000 0.000000
0.915466 0.999980 0.000000
1.000000 1.000000 0.000000
1.000000 0.922177 0.000000
1.000000 0.855561 0.000000
1.000000 0.798156 0.032220
-0.008778 1.000000 0.153781
0.000000 1.000000 0.141084
0.000000 1.000000 0.000000
0.190259 1.000000 0.000000
0.283246 0.999980 0.000000
0.367992 0.999980 0.000000
0.449592 1.000000 0.000000
0.529730 0.999980 0.000000
0.608944 0.999980 0.000000
0.687635 1.000000 0.000000
0.766090 0.999980 0.000000
0.844265 1.000000 0.000000
0.922177 1.000000 0.000000
1.000000 1.000000 0.000000
1.000000 0.927771 0.000000
1.000000 0.865497 0.031936
-0.008956 1.000000 0.142771
0.000000 1.000000 0.130968
0.000000 1.000000 0.000000
0.176515 1.000000 0.000000
0.262786 1.000000 0.000000
0.341419 1.000000 0.000000
0.417112 1.000000 0.000000
0.491472 1.000000 0.000000
0.564967 1.000000 0.000000
0.638008 1.000000 0.000000
0.710674 1.000000 0.000000
0.783261 0.999980 0.000000
0.855561 0.999980 0.000000
0.927771 1.000000 0.000000
1.000000 1.000000 0.000000
0.999980 0.932882 0.031833
-0.008992 1.000000 0.133249
0.000000 1.000000 0.122235
0.031839 1.000000 0.031839
0.165970 1.000000 0.031838
0.245872 1.000000 0.031837
0.318954 1.000000 0.031837
0.389485 0.999980 0.031835
0.458732 0.999980 0.031832
0.527219 1.000000 0.031831
0.595321 1.000000 0.031828
0.663152 1.000000 0.031836
0.730731 0.999980 0.031833
0.798154 1.000000 0.031830
0.865497 1.000000 0.031825
0.932882 0.999980 0.031821
1.000000 1.000000 0.031820
-0.000798 -0.000798 0.146136
0.048708 -0.000863 0.146136
0.097417 -0.001088 0.146135
0.146135 -0.001414 0.146135
0.249582 -0.001829 0.187189
0.368184 -0.002268 0.220912
0.495511 -0.002711 0.247755
0.618629 -0.003140 0.265131
0.731631 -0.003559 0.274335
0.829326 -0.003985 0.276458
0.905761 -0.004399 0.271720
0.962553 -0.004792 0.262508
1.000000 -0.005108 0.249993
1.000000 -0.005321 0.230776
1.000000 -0.005417 0.214258
1.000002 -0.005436 0.200003
-0.000996 0.048708 0.146135
0.000000 0.000000 0.198141
0.109996 0.000000 0.174616
0.159010 0.000000 0.159010
0.261201 0.000000 0.192843
0.378376 0.000000 0.222054
0.503892 0.000000 0.245665
0.625355 0.000000 0.260847
0.736596 0.000000 0.268572
0.832837 0.000000 0.269739
0.907990 0.000000 0.264533
0.964255 0.000000 0.255302
1.000000 0.000000 0.242644
1.000000 0.000000 0.223952
0.999980 0.000000 0.207900
1.000002 0.000000 0.194027
-0.001524 0.097416 0.146135
0.000000 0.099355 0.157720
0.035747 0.035747 0.216414
0.195946 0.001098 0.195946
0.314362 0.000000 0.211172
0.430112 0.000000 0.222392
0.548367 0.000000 0.232069
0.661358 0.000000 0.237548
0.764292 0.000000 0.238803
0.852291 0.000000 0.235821
0.921303 0.000000 0.228823
0.974495 0.000000 0.219622
1.000000 0.000000 0.206310
0.999980 0.000000 0.190259
1.000000 0.016691 0.176770
1.000002 0.032436 0.166028
-0.002156 0.146133 0.146133
0.000000 0.147714 0.147714
0.000000 0.156049 0.156049
0.146133 0.146133 0.146133
0.328323 0.110355 0.110355
0.496179 0.057753 0.057753
0.623470 0.019302 0.019302
0.727603 0.000000 0.000000
0.816379 0.000000 0.000000
0.889369 0.000000 0.000000
0.947937 0.000000 0.000000
0.996125 0.000000 0.000000
1.000000 0.000000 0.000000
1.000000 0.055787 0.055787
1.000000 0.104199 0.104199
1.000002 0.112637 0.112637
-0.002900 0.249580 0.187187
0.000000 0.250957 0.185282
0.000000 0.259248 0.174151
0.033113 0.276358 0.033113
0.259479 0.259479 0.018349
0.420296 0.290793 0.006383
0.564946 0.307609 0.000000
0.689045 0.312336 0.000000
0.793059 0.309314 0.000000
0.876346 0.300609 0.000000
0.940202 0.288202 0.000000
0.990879 0.274732 0.000000
1.000000 0.253257 0.000000
0.999980 0.235063 0.046051
0.999980 0.230292 0.103231
1.000002 0.220412 0.112638
-0.003656 0.368179 0.220906
0.000000 0.369387 0.216789
0.000000 0.376412 0.194621
0.000000 0.393268 0.000000
0.266495 0.385211 0.000000
0.375889 0.375889 0.000000
0.525701 0.413727 0.000000
0.658906 0.431703 0.000000
0.772259 0.435356 0.000000
0.863593 0.428183 0.000000
0.932314 0.413061 0.000000
0.985211 0.394862 0.000000
1.000000 0.366064 0.000000
1.000000 0.337370 0.029359
1.000000 0.320394 0.101738
1.000002 0.302460 0.112636
-0.004416 0.495507 0.247749
0.000000 0.496435 0.242030
0.000000 0.502134 0.212497
0.000000 0.515800 0.000000
0.278641 0.511748 0.000000
0.398793 0.506743 0.000000
0.501120 0.501120 0.000000
0.637525 0.530750 0.000000
0.755912 0.541507 0.000000
0.852562 0.537144 0.000000
