assets/luts/LUTs/CinePacks_MVP2_Low Altitude.CUBE
TITLE "Generate by Resolve"
LUT_3D_SIZE 9
0.030457 0.0316472 0.0322576
0.077821 0.0355383 0.0341192
0.132815 0.0365301 0.032578
0.23151 0.025452 0.0162356
0.372061 0.00314336 0
0.484352 0 0
0.569253 0 0
0.647242 0 0
0.726452 0 0
0.0373236 0.0858167 0.0424201
0.0835431 0.0884413 0.0429999
0.138415 0.0892805 0.0413062
0.238483 0.079118 0.026276
0.381491 0.059205 0
0.49749 0.0488136 0
0.588266 0.0481422 0
0.674586 0.0528267 0
0.765637 0.062501 0
0.0369268 0.143282 0.0458076
0.0859998 0.148775 0.0492714
0.145434 0.154131 0.0521248
0.252232 0.150637 0.0437934
0.405127 0.140459 0.0259098
0.533837 0.142123 0.0216068
0.638666 0.1552 0.0304265
0.73959 0.174121 0.0455329
0.844388 0.197635 0.0648051
0.0115511 0.233921 0.0271763
0.0709697 0.250599 0.0420233
0.143511 0.269154 0.0581369
0.264347 0.279622 0.0634318
0.431357 0.283299 0.0594644
0.573754 0.298329 0.0684977
0.690867 0.323369 0.0887922
0.80209 0.352285 0.113741
0.912032 0.380819 0.138277
0 0.383352 0.0154574
0.0627756 0.413809 0.0445411
0.147936 0.44535 0.0737469
0.280217 0.467079 0.0902876
0.455894 0.479179 0.0946975
0.601892 0.497627 0.107103
0.716793 0.520409 0.125078
0.820722 0.542107 0.142809
0.920043 0.560143 0.156909
0.0362097 0.563943 0.0725109
0.116167 0.600793 0.107378
0.203479 0.633677 0.137224
0.332311 0.651606 0.149889
0.499306 0.654856 0.145418
0.633509 0.661585 0.14612
0.736202 0.672297 0.152453
0.829084 0.683146 0.15938
0.919738 0.692638 0.164996
0.11133 0.735592 0.154376
0.182437 0.762448 0.179049
0.25745 0.782757 0.196674
0.374487 0.788739 0.197406
0.531411 0.781903 0.182895
0.658091 0.78117 0.176165
0.75555 0.786709 0.17734
0.844327 0.793515 0.18024
0.93164 0.799725 0.182589
0.156939 0.866102 0.205158
0.218769 0.883543 0.220371
0.287373 0.897353 0.231525
0.399756 0.898634 0.227558
0.553063 0.888121 0.209415
0.676661 0.884291 0.199619
0.771832 0.887572 0.19855
0.858747 0.892531 0.199619
0.94461 0.897292 0.200534
0.181338 0.974258 0.234638
0.239719 0.988144 0.246357
0.305806 0.999374 0.254948
0.416068 0.998505 0.248829
0.567681 0.986343 0.228992
0.690059 0.981338 0.21799
0.784466 0.983841 0.216144
0.871046 0.988464 0.216861
0.956909 0.993194 0.217746
0.0339361 0.0323491 0.0792401
0.0810559 0.0359655 0.0807965
0.135836 0.0367437 0.0790265
0.234501 0.0256504 0.0623941
0.375082 0.00335698 0.0323949
0.487526 0 0.0124056
0.572671 0 0.0018616
0.651102 0 0
0.731151 0 0
0.0402533 0.0859541 0.0887465
0.0866102 0.088716 0.0894484
0.141741 0.0897993 0.0879835
0.242115 0.0799573 0.0729839
0.385595 0.060502 0.0458534
0.502312 0.0507515 0.0301213
0.594278 0.0512551 0.0263066
0.682429 0.0577401 0.0289769
0.775174 0.0687114 0.0361181
0.0407568 0.144335 0.0930343
0.0904707 0.150454 0.0970779
0.150698 0.156603 0.100679
0.258579 0.154192 0.09308
0.41323 0.145708 0.0769207
0.543542 0.148943 0.0741741
0.649638 0.163241 0.084123
0.752087 0.183673 0.100603
0.857969 0.208225 0.121172
0.018677 0.238392 0.0775921
0.0794842 0.256382 0.0935836
0.153246 0.276112 0.11075
0.275776 0.288212 0.117617
0.444389 0.293416 0.115114
0.587915 0.309529 0.125154
0.705592 0.335073 0.146197
0.816953 0.364111 0.17113
0.926467 0.392233 0.195163
0.00128176 0.392355 0.0711833
0.0755016 0.424201 0.100694
0.161776 0.456397 0.130312
0.295048 0.479026 0.147646
0.470481 0.490822 0.151675
0.615854 0.508629 0.163378
0.729809 0.530434 0.180682
0.832349 0.550759 0.196963
0.930068 0.567239 0.209476
0.0508431 0.575982 0.130068
0.13051 0.61236 0.164309
0.216526 0.64387 0.193072
0.344503 0.660899 0.204761
0.510353 0.662974 0.199115
0.643046 0.668208 0.198306
0.745037 0.678218 0.203922
0.837293 0.688441 0.210193
0.927489 0.697505 0.215351
0.122927 0.744411 0.208804
0.19263 0.769833 0.231952
0.266728 0.789212 0.248585
0.383093 0.794507 0.248615
0.539528 0.787137 0.233616
0.665614 0.785809 0.226307
0.762844 0.791119 0.227237
0.851362 0.797665 0.229862
0.938445 0.803647 0.231983
0.165194 0.871565 0.256092
0.226566 0.888533 0.270802
0.294896 0.902068 0.281621
0.406973 0.903014 0.277333
0.559991 0.892195 0.25893
0.683406 0.888197 0.248966
0.778454 0.89134 0.247761
0.865293 0.896208 0.248722
0.951019 0.900847 0.2495
0.188418 0.978546 0.284352
0.24654 0.992157 0.29575
0.312505 1 0.304189
0.422644 1 0.297932
0.57406 0.989868 0.277913
0.696544 0.984955 0.267018
0.790951 0.987457 0.265171
0.877516 0.99205 0.265858
0.9635 0.996918 0.26685
0.0371405 0.0321508 0.135454
0.0840162 0.035523 0.136736
0.138643 0.0361334 0.134798
0.23714 0.0248569 0.11809
0.377951 0.00277714 0.0884871
0.490623 0 0.068513
0.576104 0 0.0583505
0.654978 0 0.0518959
0.735729 0 0.0476997
0.0430304 0.0853132 0.144472
0.0895094 0.0881819 0.145281
0.144915 0.0895399 0.144076
0.245686 0.0800946 0.129534
0.389838 0.0612955 0.103212
0.507622 0.0522316 0.0882429
0.600244 0.0537423 0.0850843
0.690501 0.0620432 0.0897231
0.784649 0.0746471 0.0985275
0.0444648 0.14464 0.149676
0.0949416 0.151522 0.154452
0.156283 0.15877 0.159106
0.265553 0.157717 0.15288
0.421561 0.150546 0.138094
0.553246 0.155123 0.136645
0.660807 0.170855 0.147921
0.76492 0.192905 0.165896
0.87187 0.21854 0.187427
0.0262303 0.242649 0.138308
0.0885176 0.262043 0.155566
0.16347 0.282918 0.173754
0.287343 0.2963 0.181827
0.457359 0.302831 0.180621
0.601953 0.319982 0.191608
0.720287 0.346136 0.213153
0.831388 0.374914 0.237705
0.940261 0.402411 0.261021
0.0133364 0.401282 0.136233
0.0887617 0.434104 0.166888
0.175921 0.467109 0.197116
0.309682 0.49015 0.214755
0.484733 0.501488 0.218296
0.628763 0.517937 0.228565
0.741894 0.538933 0.244999
0.843259 0.558083 0.26006
0.939559 0.57319 0.271153
0.0651408 0.586984 0.197238
0.144244 0.622675 0.23061
0.22948 0.653361 0.258427
0.355978 0.668879 0.268559
0.520424 0.66952 0.261494
0.652186 0.673823 0.259754
0.753475 0.683146 0.264637
0.845197 0.692851 0.270375
0.934676 0.701198 0.274815
0.134127 0.752194 0.27245
0.202014 0.775784 0.29369
0.27538 0.794415 0.309529
0.39118 0.79913 0.30898
0.547219 0.791348 0.293584
0.672969 0.78967 0.285939
0.769863 0.794644 0.286534
0.858106 0.800916 0.288869
0.944839 0.806577 0.290639
0.173083 0.876036 0.31632
0.233875 0.892409 0.330388
0.302037 0.90576 0.340993
0.41387 0.906462 0.336461
0.566476 0.895216 0.317662
0.689906 0.891218 0.307729
0.784817 0.894224 0.306371
0.87158 0.899016 0.30724
0.957275 0.903624 0.307988
0.195163 0.981857 0.343374
0.253117 0.995285 0.354574
0.318944 1 0.362829
0.428977 1 0.356466
0.58024 0.992584 0.336324
0.70277 0.987716 0.32549
0.797208 0.990234 0.323644
0.883772 0.994827 0.324331
0.969894 0.999832 0.325444
0.0390784 0.0271 0.243915
0.0857252 0.0302739 0.244999
0.140246 0.0307927 0.242985
0.238697 0.0195315 0.226337
0.379599 0 0.197055
0.492531 0 0.177478
0.578332 0 0.167681
0.657938 0 0.16199
0.739467 0 0.158541
0.0447089 0.0800183 0.252659
0.09131 0.0830549 0.25359
0.146853 0.0845655 0.252552
0.248173 0.0757 0.238651
0.393103 0.0576486 0.21323
0.511696 0.0497749 0.199161
0.60592 0.0525063 0.197543
0.697353 0.0622263 0.203281
0.793072 0.076112 0.213489
0.0475013 0.140368 0.258824
0.0983749 0.148043 0.264347
0.160723 0.156329 0.269978
0.271977 0.157259 0.265705
0.429389 0.151461 0.252354
0.562325 0.157259 0.252079
0.671138 0.174228 0.264469
0.776654 0.197635 0.28365
0.88481 0.22446 0.306203
0.0328527 0.24239 0.251545
0.0967117 0.263371 0.270237
0.173098 0.285664 0.289677
0.298405 0.30045 0.299046
0.46949 0.308003 0.298817
0.614679 0.325704 0.310246
0.733745 0.35259 0.332372
0.844434 0.380941 0.35639
0.952209 0.407385 0.378531
0.0247349 0.405936 0.254383
0.101259 0.439734 0.285771
0.18909 0.473365 0.316396
0.322957 0.496483 0.333989
0.497612 0.507378 0.337026
0.640513 0.522713 0.34612
0.752194 0.54226 0.361044
0.85214 0.560037 0.37467
0.947402 0.574136 0.38471
0.0780804 0.593118 0.316457
0.156451 0.628016 0.348837
0.240864 0.657847 0.375662
0.366049 0.672023 0.384405
0.528786 0.670985 0.375692
0.659648 0.674388 0.373037
0.760357 0.683131 0.377325
0.851667 0.692424 0.38262
0.94078 0.700435 0.386679
0.143526 0.754742 0.387747
0.210285 0.777173 0.407767
0.282689 0.794858 0.422583
0.397879 0.798947 0.421393
0.553201 0.790478 0.405371
0.678874 0.788724 0.39765
0.775509 0.793439 0.397971
0.863401 0.799359 0.399939
0.950088 0.804959 0.401633
0.179507 0.875608 0.428504
0.240024 0.891707 0.442252
0.30782 0.904692 0.452445
0.419394 0.905135 0.447669
0.571817 0.893706 0.428733
0.695109 0.88957 0.418677
0.789899 0.892454 0.417197
0.876356 0.896971 0.417777
0.962234 0.901747 0.418662
0.200397 0.980255 0.454307
0.25835 0.993698 0.465476
0.324071 1 0.473579
0.434012 1 0.46714
0.585214 0.990738 0.446983
0.707729 0.98584 0.436149
0.802197 0.988388 0.434333
0.888731 0.99295 0.434958
0.975067 0.998169 0.436286
0.0399481 0.0177157 0.400061
0.0860151 0.0207675 0.401038
0.140383 0.02121 0.398917
0.2392 0.00994888 0.382742
0.380224 0 0.35375
0.493355 0 0.334493
0.579629 0 0.325231
0.659998 0 0.320302
0.742596 0 0.317891
0.0456855 0.0703899 0.40885
0.0921645 0.0737621 0.410132
0.147982 0.0755932 0.409415
0.249744 0.0672007 0.396033
0.395346 0.0498512 0.371435
0.514992 0.043061 0.35845
0.611154 0.0476997 0.358694
0.70399 0.058793 0.365728
0.800946 0.0739147 0.37705
0.0495766 0.132235 0.41648
0.101183 0.140734 0.422797
0.164584 0.150103 0.429435
0.277501 0.152712 0.42681
0.4365 0.148501 0.415045
0.570596 0.155459 0.415885
0.681041 0.174014 0.42974
0.78761 0.198489 0.449836
0.896284 0.225803 0.47274
0.0389563 0.238376 0.413306
0.103792 0.260365 0.432868
0.181964 0.284459 0.453956
0.308827 0.300786 0.464775
0.481025 0.309438 0.465583
0.626764 0.327657 0.47744
0.745953 0.354665 0.49955
0.856214 0.382589 0.523003
0.962554 0.40763 0.543694
0.0352636 0.406439 0.420615
0.112642 0.441077 0.452628
0.201312 0.475517 0.483879
0.334905 0.498329 0.501045
0.508827 0.508492 0.503319
0.650828 0.522942 0.511482
0.761135 0.541146 0.524987
0.85951 0.557366 0.537026
0.953658 0.570367 0.545922
0.0898451 0.594858 0.483574
0.167117 0.628626 0.514656
0.250416 0.657343 0.540246
0.374395 0.670344 0.547784
0.53579 0.667948 0.537758
0.665812 0.670542 0.53431
0.765881 0.67866 0.537957
0.856657 0.687449 0.542702
0.945556 0.695216 0.546502
0.151019 0.752194 0.550317
0.216938 0.773816 0.569421
0.28867 0.790829 0.58352
0.403342 0.794415 0.581842
0.558206 0.785489 0.565408
0.683497 0.783368 0.557351
0.779873 0.787839 0.557412
0.867506 0.79353 0.559136
0.954116 0.799023 0.560708
0.184726 0.870817 0.588708
0.244953 0.886625 0.602106
0.312413 0.899306 0.611963
0.423575 0.899351 0.60679
0.575906 0.887846 0.587823
0.699062 0.883574 0.577661
0.793759 0.886381 0.576089
0.880171 0.890837 0.576623
0.966049 0.895598 0.577462
0.204669 0.974548 0.613504
0.26244 0.987823 0.624445
0.327993 0.998535 0.63238
0.437629 0.997024 0.625681
0.589014 0.984604 0.605737
0.711513 0.979706 0.594934
0.805844 0.982132 0.592981
0.892622 0.986938 0.593835
0.97911 0.992279 0.595254
0.0415198 0.0113527 0.521691
0.0873579 0.0142824 0.52253
0.141588 0.0146181 0.520333
0.240543 0.00352483 0.504356
0.381781 0 0.47567
0.495186 0 0.456748
0.581949 0 0.447974
0.663035 0 0.443732
0.746853 0 0.442512
0.0471809 0.0639506 0.530404
0.0938582 0.0676127 0.53196
0.150134 0.0699474 0.531716
0.252491 0.0621653 0.518975
0.398596 0.045716 0.494957
0.519524 0.0398413 0.483238
0.617472 0.0462348 0.485191
0.711894 0.0589151 0.493721
0.810162 0.0753033 0.506233
0.0526284 0.127428 0.53959
0.105196 0.13695 0.546883
0.170092 0.147829 0.554971
0.284306 0.151751 0.553628
0.444556 0.148775 0.543069
0.580285 0.157321 0.545449
0.692287 0.177432 0.560754
0.799985 0.202976 0.581827
0.909148 0.230793 0.605142
0.0465248 0.238193 0.540978
0.112581 0.261402 0.561669
0.192004 0.286732 0.583886
0.320211 0.304372 0.595926
0.493263 0.313832 0.597498
0.639872 0.332891 0.610117
0.758785 0.359609 0.631876
0.868376 0.386892 0.654643
0.97377 0.410986 0.674342
0.0469978 0.410513 0.552453
0.125246 0.445945 0.585122
0.214374 0.480797 0.616663
0.347555 0.503166 0.633326
0.520104 0.511955 0.634226
0.66128 0.525551 0.641535
0.770397 0.542596 0.653849
0.867231 0.557305 0.664378
0.960678 0.569604 0.672572
0.101839 0.59913 0.615396
0.178515 0.632258 0.645762
0.260304 0.659449 0.669795
0.382864 0.671016 0.675898
0.543313 0.667704 0.664973
0.672633 0.669596 0.660838
0.772183 0.677211 0.663966
0.862318 0.685374 0.668086
0.951019 0.692927 0.671672
0.158968 0.752392 0.677974
0.224018 0.773144 0.696193
0.295186 0.789578 0.709697
0.409369 0.792706 0.707546
0.563958 0.78349 0.690852
0.688914 0.781048 0.68249
0.785 0.785245 0.682277
0.872419 0.790707 0.683757
0.958923 0.796109 0.685222
0.1906 0.86894 0.71426
0.250523 0.884459 0.727337
0.317739 0.896895 0.736919
0.428595 0.89662 0.731456
0.580819 0.885023 0.712428
0.703822 0.880613 0.702144
0.798352 0.883238 0.700404
0.88481 0.88777 0.700969
0.970687 0.892515 0.701793
0.209674 0.971832 0.73817
0.267292 0.984955 0.748943
0.332708 0.995529 0.756725
0.442298 0.993988 0.749981
0.593637 0.981521 0.730037
0.716167 0.976654 0.719265
0.810483 0.97908 0.717311
0.897398 0.984009 0.718273
0.984009 0.989456 0.719799
0.0436866 0.00788891 0.609979
0.0894179 0.0107271 0.610742
0.143633 0.0110781 0.608545
0.242695 9.15541e-05 0.592706
0.384192 0 0.56434
0.497978 0 0.545815
0.585428 0 0.537713
0.667277 0 0.534234
0.75201 0 0.533867
0.0494698 0.0606088 0.618814
0.0962692 0.0644236 0.620508
0.153109 0.0673381 0.620813
0.256229 0.0603342 0.608865
0.403449 0.0449989 0.585946
0.525719 0.0404517 0.57554
0.62504 0.048188 0.57879
0.720836 0.0621958 0.588602
0.820508 0.0799725 0.602426
0.0565347 0.125734 0.629602
0.110201 0.136385 0.637964
0.176989 0.149172 0.647898
0.292653 0.154498 0.647913
0.454063 0.152667 0.638483
0.591119 0.162509 0.642084
0.704509 0.183948 0.658671
0.813321 0.210605 0.680766
0.923049 0.238972 0.70457
0.0550851 0.241276 0.63563
0.122774 0.266072 0.657832
0.20354 0.292714 0.68127
0.33283 0.31136 0.69427
0.506676 0.321569 0.696559
0.653803 0.3411 0.709606
0.77229 0.367391 0.730907
0.880598 0.393378 0.752361
0.985092 0.416617 0.771191
0.0596628 0.417762 0.651194
0.138842 0.454017 0.684565
0.228077 0.488899 0.716091
0.360678 0.510643 0.732097
0.532372 0.518532 0.732113
0.672023 0.530632 0.737926
0.779721 0.546258 0.748852
0.875608 0.560037 0.758434
0.968338 0.571633 0.765927
0.114519 0.606302 0.713954
0.190295 0.638453 0.743297
0.270802 0.664347 0.766003
0.391531 0.674067 0.770306
0.551217 0.669993 0.758633
0.679973 0.671321 0.753948
0.77911 0.678523 0.756664
0.868894 0.686336 0.760433
0.957244 0.693553 0.763668
0.167666 0.75552 0.772473
0.231785 0.775326 0.789731
0.302327 0.791135 0.802609
0.415885 0.793637 0.799832
0.570321 0.784268 0.783017
0.695048 0.781582 0.774411
0.790692 0.785336 0.773754
0.878126 0.790829 0.775265
0.964492 0.796078 0.776577
0.197208 0.869978 0.806653
0.256748 0.885115 0.819348
0.323705 0.897292 0.828656
0.434379 0.896849 0.823011
0.58648 0.8851 0.803876
0.709377 0.880583 0.793484
0.803693 0.883009 0.791547
0.890257 0.887617 0.792203
0.97615 0.892393 0.793042
0.215381 0.971969 0.829664
0.272877 0.98497 0.840299
0.33817 0.995422 0.847929
0.447745 0.993866 0.841184
0.599069 0.981384 0.821256
0.72163 0.976532 0.810498
0.816037 0.979034 0.808621
0.903059 0.984085 0.809689
0.988693 0.988586 0.810269
0.0460212 0.00520333 0.688807
0.0915541 0.00790417 0.689418
0.145953 0.00842298 0.687404
0.245136 0 0.671733
0.386816 0 0.643565
0.501152 0 0.625605
0.58938 0 0.61825
0.672328 0 0.615824
0.758389 0 0.616724
0.0521096 0.0582437 0.697932
0.0992142 0.0623941 0.699977
0.156497 0.0657664 0.700725
0.260334 0.0594797 0.689464
0.408545 0.0451362 0.667552
0.53286 0.0425879 0.659098
0.63357 0.0517128 0.663661
0.730617 0.0669261 0.674647
0.83154 0.0859388 0.689647
0.0611276 0.125399 0.710689
0.115877 0.137133 0.720088
0.184314 0.151553 0.731609
0.301579 0.15845 0.73315
0.464378 0.157961 0.725017
0.602914 0.169238 0.730007
0.717372 0.191714 0.74757
0.826703 0.21886 0.770108
0.93724 0.248035 0.794659
0.0639353 0.245289 0.720974
0.133394 0.271794 0.744778
0.215763 0.299962 0.76968
0.346166 0.319677 0.783688
0.520607 0.330419 0.78648
0.667842 0.350042 0.799588
0.785901 0.375875 0.820417
0.893019 0.400687 0.840681
0.996109 0.422583 0.857816
0.0729534 0.426276 0.740902
0.15285 0.463081 0.774777
0.241794 0.497627 0.805905
0.373648 0.518563 0.821103
0.544503 0.525597 0.820279
0.682811 0.536355 0.824765
0.788861 0.550347 0.834073
0.883772 0.56318 0.842725
0.975921 0.574212 0.849653
0.126986 0.613886 0.802686
0.201587 0.6448 0.830777
0.280919 0.669474 0.852277
0.400488 0.678035 0.855406
0.559243 0.672999 0.842817
0.687358 0.673701 0.837522
0.78584 0.680262 0.839597
0.875517 0.687953 0.843244
0.963623 0.694926 0.846235
0.176089 0.758984 0.857114
0.239567 0.778134 0.873716
0.309483 0.793332 0.885954
0.422736 0.795499 0.882856
0.576806 0.785763 0.86569
0.701259 0.782818 0.85684
0.796735 0.786404 0.856016
0.884031 0.791745 0.857374
0.970275 0.796887 0.858579
0.203922 0.871748 0.889601
0.263172 0.88658 0.901976
0.329641 0.898253 0.910796
0.44033 0.897826 0.905165
0.592294 0.885954 0.885908
0.715114 0.881346 0.875425
0.809384 0.883726 0.873442
0.895918 0.888319 0.874067
0.981857 0.893111 0.874937
0.221286 0.97293 0.911788
0.278645 0.985794 0.922271
0.343725 0.996033 0.929702
0.453422 0.994568 0.923049
0.604746 0.982086 0.90312
0.727123 0.97705 0.892195
0.82182 0.979843 0.890593
0.90898 0.985031 0.891798
0.994385 0.989288 0.892149
0.0483558 0.00256352 0.767071
0.0938125 0.00521859 0.767651
0.148302 0.00585946 0.765743
0.247745 0 0.750317
0.3897 0 0.722484
0.504524 0 0.704997
0.593454 0 0.698344
0.677531 0 0.696971
0.765499 0 0.699718
0.0547189 0.0559091 0.776486
0.102358 0.0606241 0.779065
0.160266 0.0646067 0.780423
0.264897 0.0591287 0.769955
0.414206 0.0458686 0.749096
0.540215 0.0449836 0.742275
0.642542 0.0556954 0.748379
0.741039 0.0719615 0.760693
0.843305 0.092668 0.776959
0.066041 0.125414 0.791516
0.122393 0.138766 0.802472
0.192172 0.154543 0.814878
0.310521 0.162493 0.817441
0.475105 0.163729 0.811017
0.615213 0.176532 0.817472
0.7308 0.200107 0.836011
0.840681 0.227771 0.858961
0.951324 0.257069 0.883513
0.0737163 0.250263 0.806622
0.144457 0.278004 0.83122
0.228153 0.307469 0.857267
0.35938 0.327947 0.871946
0.534752 0.339544 0.875563
0.681697 0.358862 0.888304
0.7991 0.384039 0.9084
0.905241 0.407874 0.927657
1 0.428412 0.94374
0.0864881 0.435035 0.830228
0.166873 0.472251 0.864073
0.255436 0.506355 0.894636
0.386145 0.526101 0.908614
0.555947 0.532052 0.906737
0.69308 0.541619 0.910063
0.797711 0.554223 0.917983
0.891844 0.566278 0.925841
0.983352 0.576699 0.932143
0.13933 0.621393 0.890349
0.212482 0.650782 0.916838
0.290303 0.673945 0.936767
0.409018 0.681636 0.93904
0.567086 0.675914 0.925841
0.694713 0.676097 0.920073
0.792691 0.68217 0.92166
0.882033 0.689525 0.924971
0.969879 0.696254 0.927703
0.184161 0.762173 0.940429
0.247074 0.780758 0.95639
0.316548 0.795499 0.968139
0.429511 0.797375 0.964767
0.583276 0.787305 0.947356
0.707362 0.783993 0.938186
0.802716 0.787457 0.937255
0.889876 0.792676 0.938491
0.976059 0.797726 0.93959
0.210498 0.873442 0.971374
0.269505 0.888014 0.983459
0.335775 0.899504 0.992035
0.446281 0.898878 0.986236
0.598108 0.886854 0.966918
0.720638 0.881956 0.956222
0.815091 0.884504 0.954406
0.901625 0.889097 0.955016
0.987457 0.893797 0.955779
0.227176 0.973938 0.992859
0.284291 0.986557 1
0.349432 0.996841 1
0.459098 0.995361 1
0.610452 0.982879 0.984024
0.732891 0.977905 0.97319
0.827665 0.980774 0.971679
0.914946 0.986068 0.972976
1 0.990082 0.973083
