assets/luts/LUTs/CinePacks_MVP2_Aerospace .CUBE
TITLE "Generate by Resolve"
LUT_3D_SIZE 9
0.0394446 0.0842603 0.0883345
0.0838788 0.0816968 0.0866865
0.199542 0.0833906 0.0794232
0.372396 0.0775311 0.0659342
0.511025 0.0647746 0.0506142
0.609583 0.053666 0.0406195
0.702892 0.0419623 0.030457
0.800778 0.0310063 0.0196536
0.900221 0.0206912 0.00946059
0.0403754 0.13373 0.0842451
0.0844587 0.130404 0.0823377
0.175113 0.130068 0.0743725
0.344503 0.128618 0.0632639
0.512917 0.11931 0.0482185
0.621469 0.111406 0.040589
0.717876 0.101564 0.0336156
0.816327 0.0922103 0.0270085
0.915053 0.0829633 0.0204013
0.0375219 0.187198 0.0789807
0.0826734 0.183047 0.0774243
0.139727 0.181628 0.0761425
0.318257 0.190066 0.0636912
0.521172 0.191287 0.0554665
0.640925 0.188769 0.0502327
0.73994 0.180179 0.0456092
0.839704 0.171023 0.0404364
0.939483 0.161929 0.0356298
0.0237278 0.268513 0.0683604
0.0721599 0.262837 0.0688487
0.119631 0.257862 0.0694743
0.300816 0.288502 0.0603189
0.524712 0.297444 0.0548409
0.657465 0.293034 0.0510872
0.761944 0.286519 0.0479591
0.860853 0.274083 0.0446174
0.960494 0.261936 0.0411841
0.0149233 0.368551 0.0612802
0.0648356 0.365072 0.0635538
0.113924 0.361868 0.0658732
0.24152 0.405814 0.0530404
0.512764 0.442329 0.0496529
0.682872 0.442237 0.0469368
0.793408 0.43949 0.0443885
0.894041 0.423819 0.0423133
0.966644 0.408682 0.0410468
0.00903334 0.463706 0.0525063
0.0598917 0.463172 0.0559091
0.109438 0.46273 0.0591287
0.181216 0.480278 0.0624552
0.469825 0.562921 0.0455787
0.692485 0.587625 0.0413825
0.811719 0.585336 0.0389563
0.904418 0.575067 0.037232
0.969009 0.563073 0.0365759
0.00631724 0.56553 0.0457771
0.0575265 0.561563 0.0490578
0.107836 0.558679 0.0525826
0.161089 0.557549 0.0556954
0.425025 0.652247 0.0411688
0.672221 0.697353 0.0366217
0.810224 0.700236 0.0344549
0.90547 0.694835 0.0330663
0.970535 0.689143 0.0326238
0.00344854 0.670939 0.0376135
0.0552377 0.672999 0.0422065
0.105943 0.67538 0.0468452
0.159426 0.676707 0.0508888
0.394583 0.744488 0.0356451
0.630091 0.786175 0.0327916
0.80032 0.799893 0.0304723
0.906203 0.797406 0.0293736
0.971191 0.792493 0.028809
0.000289921 0.760357 0.0271153
0.0517128 0.762341 0.0314183
0.102617 0.764553 0.0361944
0.156527 0.766186 0.0405432
0.266697 0.810529 0.0300603
0.577554 0.866453 0.0296483
0.782177 0.893187 0.0273747
0.902632 0.894179 0.0259709
0.97203 0.890227 0.0254063
0.0394293 0.0865644 0.143252
0.0839857 0.0839704 0.141039
0.199496 0.0799573 0.139727
0.380667 0.0594492 0.120317
0.519707 0.0497139 0.104143
0.618723 0.0361944 0.0925917
0.711513 0.0249332 0.0794842
0.808392 0.0166629 0.0684062
0.906462 0.00953689 0.058381
0.0372015 0.134813 0.138384
0.0843824 0.130861 0.134951
0.169177 0.130083 0.133272
0.348714 0.120394 0.110933
0.519966 0.111894 0.0971237
0.627649 0.104417 0.0882429
0.722927 0.0974594 0.0820783
0.820417 0.0903639 0.0759899
0.918517 0.0821088 0.0691234
0.0374456 0.188479 0.130266
0.0827649 0.184268 0.128786
0.136782 0.181811 0.12813
0.318135 0.189517 0.112261
0.524239 0.190326 0.105165
0.643656 0.187778 0.0987564
0.74226 0.179828 0.0930953
0.841184 0.171023 0.0883345
0.940703 0.162493 0.0833906
0.0253147 0.269947 0.12018
0.0737011 0.264088 0.120195
0.121248 0.258824 0.120531
0.298085 0.287755 0.105211
0.522576 0.296437 0.0996872
0.657359 0.292454 0.0985733
0.7617 0.285298 0.0911269
0.860197 0.272984 0.0879683
0.959609 0.261234 0.0854047
0.0172274 0.370626 0.11191
0.0672313 0.36672 0.114015
0.116396 0.363226 0.116442
0.224582 0.401236 0.104555
0.50457 0.438865 0.0898299
0.68043 0.439689 0.0898146
0.791867 0.437263 0.0865949
0.892485 0.421286 0.0823224
0.968475 0.406271 0.0795911
0.0118563 0.464515 0.103197
0.062501 0.463935 0.106218
0.112566 0.46363 0.110033
0.180529 0.476402 0.113725
0.461875 0.560067 0.0845655
0.689906 0.586191 0.0825208
0.811383 0.584894 0.0830243
0.906676 0.574029 0.0787518
0.970703 0.561074 0.0749523
0.00941482 0.565255 0.0963607
0.0606241 0.561563 0.0996719
0.110948 0.558938 0.103319
0.164218 0.55845 0.106615
0.418662 0.650278 0.0799573
0.668544 0.696986 0.0780041
0.809918 0.700908 0.0796674
0.907973 0.695674 0.076173
0.972564 0.689677 0.0737774
0.00700389 0.67274 0.0888075
0.0584573 0.674571 0.0931716
0.109178 0.676921 0.0980087
0.162997 0.678035 0.102129
0.380621 0.740307 0.0745098
0.623087 0.784543 0.0717327
0.799527 0.801144 0.0740063
0.908507 0.798321 0.071809
0.973495 0.793637 0.0700236
0.00355535 0.761883 0.0782483
0.0551919 0.76405 0.0827649
0.105898 0.76611 0.08748
0.159716 0.767803 0.0917678
0.264271 0.805478 0.074403
0.571862 0.865568 0.0683299
0.780835 0.893828 0.0664073
0.90309 0.895399 0.0650797
0.97435 0.891478 0.0643015
0.0385901 0.0941634 0.221637
0.0830549 0.0907454 0.216327
0.195056 0.0713512 0.237217
0.376715 0.0584115 0.221088
0.520333 0.0420539 0.203998
0.621485 0.0307774 0.188785
0.715282 0.0202182 0.172335
0.813275 0.0104982 0.157092
0.912154 0.00254826 0.142794
0.0393988 0.139467 0.211032
0.0836805 0.135729 0.205371
0.15436 0.130266 0.213993
0.346563 0.1131 0.203708
0.526329 0.0927596 0.18436
0.63389 0.0775006 0.171633
0.728801 0.0708934 0.158633
0.825498 0.0640574 0.147143
0.923476 0.0583047 0.136248
0.0163577 0.197345 0.206439
0.0762188 0.189227 0.196429
0.132982 0.184283 0.191562
0.320333 0.189639 0.192432
0.542199 0.14786 0.157687
0.665415 0.146059 0.146899
0.764263 0.14052 0.138827
0.860029 0.136233 0.134295
0.947646 0.132845 0.131167
0.0260777 0.275624 0.185779
0.0751202 0.269139 0.183963
0.122972 0.263264 0.182727
0.29308 0.291386 0.174868
0.53637 0.291691 0.149294
0.675166 0.284108 0.144839
0.779431 0.281468 0.139971
0.875761 0.269535 0.135927
0.963958 0.258122 0.132845
0.0193332 0.377508 0.176699
0.0694133 0.373266 0.177081
0.118654 0.369451 0.178012
0.20206 0.40061 0.172747
0.504005 0.44358 0.142031
0.689754 0.444114 0.137911
0.800305 0.440055 0.136629
0.899245 0.423575 0.134234
0.971084 0.407691 0.132342
0.0143587 0.469993 0.166094
0.0652934 0.469352 0.16817
0.115282 0.467826 0.170703
0.178317 0.477302 0.173068
0.457542 0.562676 0.132555
0.692363 0.590036 0.133181
0.815091 0.587167 0.133639
0.9093 0.575647 0.130373
0.973541 0.56318 0.124666
0.0124056 0.570199 0.161013
0.0636149 0.564858 0.161257
0.113954 0.561349 0.162432
0.167224 0.560418 0.164782
0.411154 0.651209 0.130312
0.666178 0.698375 0.129244
0.810925 0.702998 0.132235
0.910811 0.6972 0.128222
0.975586 0.690501 0.125658
0.010132 0.677913 0.152834
0.0616007 0.678798 0.1552
0.112276 0.680644 0.158572
0.166049 0.679637 0.160861
0.359152 0.740017 0.117144
0.617121 0.784482 0.116854
0.799405 0.802777 0.125811
0.91165 0.800076 0.123735
0.976394 0.795178 0.121782
0.0065919 0.764309 0.13521
0.0582132 0.765988 0.138323
0.109224 0.767788 0.142
0.162692 0.769223 0.145541
0.260014 0.801541 0.135836
0.566949 0.864805 0.106371
0.77937 0.895171 0.117281
0.904143 0.897337 0.116808
0.977203 0.893339 0.115023
0.0356603 0.0987716 0.315038
0.079881 0.0955978 0.31133
0.185443 0.0676432 0.351766
0.370047 0.0576486 0.344198
0.52015 0.0432441 0.331212
0.623316 0.0315404 0.322057
0.718776 0.0204318 0.307851
0.81738 0.0093843 0.29456
0.91339 0.000793469 0.281773
0.035874 0.146944 0.314961
0.0804456 0.143572 0.310552
0.143389 0.141329 0.317693
0.336477 0.100893 0.350256
0.526574 0.0904707 0.33167
0.63859 0.0750591 0.323247
0.734066 0.0688945 0.30753
0.831846 0.0638743 0.292027
0.928191 0.0592966 0.276844
0.0324102 0.204669 0.31194
0.0792859 0.200137 0.307485
0.125856 0.196475 0.302464
0.310903 0.189014 0.346578
0.541238 0.155459 0.330968
0.66656 0.146777 0.318334
0.766812 0.137789 0.304189
0.864424 0.124468 0.285145
0.943664 0.113451 0.267811
0 0.298955 0.315908
0.0489815 0.292134 0.310918
0.0989853 0.284794 0.304555
0.264134 0.298802 0.325475
0.537255 0.294545 0.313222
0.690303 0.277562 0.297475
0.798444 0.273823 0.286793
0.897826 0.256855 0.270497
0.964935 0.241215 0.25565
0.0187686 0.394675 0.293126
0.0693065 0.38909 0.288533
0.119142 0.384237 0.284947
0.20087 0.408499 0.293584
0.499977 0.455406 0.274784
0.714519 0.446403 0.245212
0.829709 0.442359 0.235523
0.909438 0.423713 0.221576
0.973266 0.405295 0.208942
0.0151522 0.486915 0.274128
0.0661326 0.48397 0.271122
0.116274 0.481498 0.268696
0.18323 0.485496 0.268818
0.43122 0.579995 0.220645
0.706752 0.600946 0.185534
0.832135 0.596704 0.182986
0.911162 0.58407 0.179309
0.975616 0.570184 0.176928
0.013962 0.583841 0.266194
0.0651102 0.577111 0.260441
0.115602 0.5738 0.25774
0.168978 0.571878 0.255756
0.359762 0.668925 0.2047
0.670939 0.709682 0.180835
0.822721 0.713024 0.186145
0.913176 0.70695 0.189136
0.978073 0.698878 0.189975
0.0113985 0.693278 0.262058
0.0631418 0.694347 0.263264
0.11397 0.695323 0.26424
0.167666 0.691676 0.262257
0.278752 0.749187 0.242817
0.612894 0.800961 0.171786
0.811795 0.814267 0.175357
0.914153 0.808942 0.198718
0.978958 0.801984 0.186267
0.00817884 0.77702 0.235492
0.0600137 0.778256 0.237598
0.111116 0.779782 0.239719
0.164691 0.780133 0.240909
0.245777 0.803311 0.239155
0.557198 0.883024 0.160586
0.788968 0.905959 0.160327
0.912306 0.905272 0.194949
0.979995 0.900496 0.188174
0.0321508 0.0997635 0.403754
0.0764019 0.0966201 0.398856
0.174914 0.0649729 0.450538
0.36022 0.0556802 0.446235
0.519219 0.0375067 0.434699
0.622553 0.0250706 0.425818
0.719387 0.0153811 0.413535
0.818677 0.00601205 0.401755
0.911757 0 0.391653
0.0324254 0.149233 0.407401
0.0771191 0.145953 0.403098
0.138308 0.144854 0.408927
0.32604 0.0975357 0.463172
0.524193 0.0878767 0.445655
0.637736 0.0733959 0.442298
0.734371 0.0685588 0.429145
0.833127 0.0634928 0.416205
0.927352 0.0591287 0.404105
0.0286564 0.210407 0.410208
0.0757 0.206668 0.406699
0.12224 0.203616 0.403464
0.299077 0.18352 0.478264
0.535042 0.144671 0.469932
0.663996 0.134905 0.462119
0.767498 0.133532 0.453803
0.865415 0.120348 0.439612
0.942596 0.111543 0.426978
0.00799573 0.307881 0.424186
0.0709392 0.297963 0.415045
0.12079 0.292531 0.412467
0.235187 0.303548 0.47039
0.52784 0.297215 0.483574
0.689403 0.280339 0.474556
0.797711 0.276493 0.468528
0.897673 0.260075 0.455909
0.965347 0.244343 0.443763
0 0.418631 0.430045
0.0430457 0.415167 0.430381
0.0929427 0.410742 0.429297
0.173617 0.431357 0.451591
0.473472 0.467613 0.478202
0.708309 0.458274 0.467216
0.825299 0.454719 0.460212
0.910689 0.434379 0.445579
0.974517 0.414588 0.430274
0.0148013 0.511864 0.415412
0.0659953 0.50985 0.41529
0.116335 0.508232 0.414832
0.172091 0.50779 0.414466
0.35967 0.598627 0.448157
0.703731 0.621424 0.431006
0.840162 0.615946 0.417395
0.913512 0.602518 0.403265
0.978134 0.587259 0.386297
0.0137942 0.607721 0.408911
0.0654154 0.602335 0.403281
0.116213 0.600168 0.400122
0.169772 0.597086 0.395758
0.284398 0.68304 0.415656
0.662669 0.732372 0.392508
0.830762 0.733974 0.372641
0.91519 0.726925 0.36614
0.97995 0.718288 0.343679
0.0111849 0.715114 0.401205
0.0628977 0.715312 0.400305
0.113771 0.71577 0.39968
0.167651 0.710079 0.394003
0.268666 0.755917 0.403067
0.592004 0.817655 0.379843
0.818372 0.833509 0.347265
0.915984 0.825452 0.356878
0.98088 0.818235 0.336355
0.00820935 0.796994 0.368124
0.0603647 0.797299 0.367987
0.111467 0.797971 0.367926
0.165621 0.798001 0.367239
0.237003 0.813764 0.370962
0.531975 0.897307 0.356527
0.791775 0.924056 0.335134
0.914305 0.922332 0.348791
0.982071 0.918059 0.340856
0.0285496 0.0988022 0.492088
0.0729229 0.0957504 0.487663
0.163256 0.0687266 0.54136
0.353521 0.0476997 0.549126
0.516518 0.0375677 0.535943
0.62153 0.0246281 0.528008
0.718761 0.0139773 0.515709
0.818845 0.00430304 0.504448
0.910185 0 0.494759
0.0290684 0.148852 0.499168
0.0739452 0.1458 0.494682
0.132952 0.145022 0.500023
0.315312 0.0945296 0.572229
0.522622 0.0931411 0.55816
0.637125 0.0723278 0.553582
0.733639 0.0679179 0.538903
0.833082 0.0616617 0.525048
0.925795 0.05626 0.512093
0.0258793 0.211566 0.505104
0.0734417 0.20856 0.501747
0.120363 0.206409 0.499001
0.287221 0.177417 0.598352
0.528023 0.137453 0.594339
0.660334 0.128191 0.585519
0.765469 0.12903 0.57882
0.863233 0.116182 0.563104
0.941588 0.109773 0.549493
0.0209812 0.307622 0.519707
0.0707561 0.302052 0.516289
0.1196 0.296513 0.513405
0.21976 0.305776 0.579675
0.516884 0.294362 0.622675
0.685847 0.275212 0.613428
0.796567 0.274495 0.609781
0.897307 0.257527 0.596475
0.964782 0.240482 0.584375
0.0161746 0.421759 0.532708
0.0540627 0.420874 0.53698
0.101183 0.417273 0.537346
0.195941 0.428092 0.554162
0.449866 0.467094 0.629908
0.70277 0.459602 0.625406
0.821927 0.457237 0.619333
0.910369 0.436835 0.607736
0.974411 0.417136 0.596979
0.0142367 0.52256 0.529671
0.0656748 0.521996 0.53109
0.100664 0.524392 0.538689
0.145266 0.524544 0.542992
0.303166 0.61001 0.619867
0.692149 0.631266 0.615
0.833814 0.62501 0.606836
0.914244 0.612665 0.598535
0.978607 0.598825 0.589441
0.0133516 0.619593 0.526345
0.0649882 0.616403 0.525917
0.115724 0.615854 0.526528
0.169574 0.615473 0.527382
0.281376 0.693721 0.586526
0.640818 0.747631 0.59649
0.829068 0.752514 0.585245
0.916121 0.747311 0.580407
0.981094 0.73901 0.568643
0.0104829 0.730037 0.530373
0.0621042 0.731624 0.533806
0.1131 0.732662 0.536812
0.16701 0.727871 0.533806
0.260899 0.767773 0.563302
0.557565 0.832776 0.5832
0.809873 0.852384 0.570001
0.917189 0.847181 0.568841
0.982071 0.841077 0.553109
0.00791943 0.816449 0.507988
0.0599985 0.81796 0.511086
0.111437 0.819867 0.514931
0.165301 0.820844 0.516991
0.232898 0.828519 0.522347
0.48687 0.913451 0.555154
0.779782 0.942367 0.546059
0.913375 0.940093 0.53991
0.983032 0.934798 0.532921
0.0250095 0.098085 0.590768
0.0693065 0.0948348 0.585214
0.152407 0.0739605 0.63769
0.345739 0.0457008 0.661173
0.516869 0.0364538 0.646799
0.623056 0.0254673 0.639429
0.720439 0.0153658 0.625406
0.820539 0.00602731 0.613092
0.909514 0 0.60267
0.0257725 0.148959 0.596674
0.0710613 0.146014 0.591424
0.127565 0.144625 0.59707
0.30602 0.0915389 0.6907
0.519203 0.0828412 0.674113
0.639628 0.072343 0.673487
0.737041 0.0684977 0.657984
0.836103 0.0644083 0.642557
0.926314 0.0600595 0.628016
0.0235599 0.212024 0.604166
0.0714733 0.209232 0.60032
0.118639 0.206851 0.597971
0.276875 0.174197 0.717769
0.522866 0.139757 0.719554
0.658396 0.129595 0.710979
0.764019 0.125124 0.704723
0.862333 0.112993 0.688609
0.940505 0.107958 0.674815
0.0196078 0.307912 0.62324
0.0695201 0.302602 0.620493
0.118395 0.297673 0.617899
0.209491 0.307347 0.683177
0.503365 0.290089 0.753704
0.681895 0.267979 0.748425
0.793896 0.269612 0.745464
0.894514 0.251362 0.732891
0.963455 0.233341 0.721233
0.0155032 0.423285 0.643091
0.0662394 0.419471 0.642405
0.116274 0.415259 0.641672
0.189593 0.426429 0.664836
0.427619 0.462715 0.77171
0.696712 0.455482 0.772564
0.818021 0.452354 0.768536
0.909957 0.433066 0.75877
0.973816 0.413642 0.747662
0.0136416 0.527962 0.646235
0.0649882 0.527733 0.649241
0.115694 0.52755 0.65243
0.164477 0.52665 0.655116
0.313252 0.602365 0.751385
0.681254 0.632395 0.774121
0.828489 0.624933 0.766903
0.914214 0.614527 0.76025
0.978637 0.600961 0.752514
0.013138 0.624918 0.642374
0.0647898 0.623743 0.643
0.115236 0.623713 0.645106
0.169055 0.623804 0.648417
0.278233 0.697169 0.727199
0.610101 0.755764 0.765179
0.82295 0.75845 0.753826
0.916228 0.753033 0.748104
0.981247 0.745327 0.739788
0.00982681 0.73518 0.649317
0.0618448 0.736797 0.654643
0.112886 0.737163 0.65716
0.166918 0.734051 0.655314
0.266041 0.769467 0.693202
0.528634 0.836912 0.743023
0.802518 0.860105 0.740337
0.917388 0.856992 0.738811
0.982208 0.851484 0.730404
0.00791943 0.82414 0.629404
0.0597086 0.826123 0.634058
0.111208 0.828534 0.639963
0.165469 0.830411 0.644556
0.228931 0.831952 0.64889
0.432685 0.919432 0.723003
0.7673 0.950652 0.725429
0.912016 0.950988 0.723064
0.983322 0.946471 0.721813
0.0213779 0.0965133 0.697078
0.0657816 0.0934005 0.692195
0.139483 0.0820935 0.735042
0.341695 0.0377508 0.786862
0.518486 0.0335393 0.76849
0.629602 0.0236057 0.767742
0.728725 0.0147097 0.756527
0.829831 0.00595102 0.745632
0.908629 0.000427253 0.73753
0.0225986 0.148257 0.707378
0.0677043 0.145907 0.703166
0.122148 0.144915 0.708873
0.300298 0.0895552 0.818357
0.523659 0.0719921 0.807019
0.64625 0.0643015 0.803967
0.744213 0.0592355 0.788952
0.842634 0.0540322 0.772473
0.922683 0.0509346 0.75729
0.0214084 0.213504 0.717067
0.0694743 0.210788 0.714046
0.116747 0.208743 0.712551
0.264759 0.184466 0.833112
0.52195 0.1561 0.846342
0.662654 0.138735 0.836789
0.766094 0.12549 0.829129
0.86392 0.111574 0.813245
0.939391 0.106142 0.799725
0.0184787 0.306111 0.734356
0.0681621 0.301289 0.731502
0.117098 0.297093 0.729015
0.206165 0.307317 0.791333
0.492943 0.292378 0.874052
0.679973 0.270024 0.870344
0.792493 0.269413 0.86836
0.893416 0.250309 0.856764
0.963027 0.232303 0.845548
0.0145418 0.422904 0.756146
0.0654917 0.419608 0.757046
0.115434 0.415229 0.755138
0.185824 0.4224 0.773892
0.410559 0.457908 0.892973
0.688777 0.450004 0.898299
0.814328 0.447196 0.894682
0.909331 0.427619 0.885069
0.973373 0.40853 0.875624
0.0129854 0.527977 0.761349
0.0644083 0.527733 0.764523
0.115084 0.527642 0.767483
0.16849 0.525307 0.769635
0.29659 0.59823 0.872175
0.671778 0.62948 0.907897
0.824796 0.620798 0.902464
0.913802 0.611109 0.897749
0.978302 0.59736 0.891035
0.0125429 0.625818 0.758434
0.0641794 0.625238 0.761166
0.1149 0.625681 0.764141
0.16846 0.625788 0.767208
0.2916 0.691264 0.843809
0.604807 0.750942 0.896971
0.81854 0.760006 0.896849
0.916106 0.755047 0.891722
0.981155 0.747448 0.886809
0.0093843 0.738277 0.769039
0.0612497 0.740444 0.774594
0.112398 0.738918 0.775631
0.16643 0.735561 0.775113
0.271504 0.767452 0.811643
0.468681 0.841978 0.888747
0.795575 0.863203 0.884733
0.917052 0.860807 0.882063
0.98233 0.856291 0.877455
0.00730907 0.828 0.752483
0.059556 0.830427 0.757977
0.110903 0.83328 0.763622
0.165087 0.835111 0.768399
0.227481 0.835401 0.771252
0.407553 0.920058 0.859663
0.757275 0.953216 0.869764
0.910384 0.954528 0.86743
0.983139 0.951385 0.864424
0.0177157 0.0927138 0.801434
0.0620279 0.0895399 0.796384
0.129122 0.0869306 0.822721
0.329061 0.0351873 0.891844
0.512871 0.03122 0.874769
0.626001 0.0211643 0.875547
0.72517 0.0122835 0.864363
0.826398 0.00373846 0.854002
0.907042 0 0.845838
0.0193179 0.144747 0.81236
0.0646982 0.142596 0.808347
0.116686 0.141299 0.811963
0.289235 0.0854963 0.923278
0.517159 0.069688 0.914244
0.642084 0.0608225 0.911192
0.741955 0.0539254 0.899733
0.841245 0.0473182 0.88571
0.920653 0.0463417 0.873396
0.0191958 0.2103 0.823117
0.0673838 0.207904 0.821454
0.114824 0.206332 0.820737
0.252613 0.186847 0.941222
0.516197 0.157717 0.959106
0.661692 0.134615 0.951507
0.769955 0.133242 0.949508
0.870115 0.121599 0.936919
0.940734 0.11284 0.926741
0.0170138 0.304829 0.842863
0.0668345 0.300282 0.840238
0.115724 0.296452 0.837812
0.202716 0.307027 0.894423
0.480766 0.294545 0.986587
0.678828 0.276677 0.987213
0.793667 0.278233 0.987015
0.895491 0.263478 0.97644
0.964279 0.249729 0.967163
0.0136721 0.421241 0.866148
0.0646982 0.418219 0.866316
0.114794 0.41416 0.867033
0.181765 0.419257 0.881315
0.390219 0.454658 1
0.683818 0.449836 1
0.811749 0.445258 1
0.908782 0.426368 1
0.972839 0.407889 0.994034
0.0125582 0.528008 0.873503
0.0637064 0.527047 0.877287
0.114366 0.526314 0.880537
0.167819 0.524437 0.881987
0.289952 0.592111 0.98117
0.66096 0.623865 1
0.82031 0.615198 1
0.91339 0.60795 1
0.97821 0.594339 1
0.0118715 0.625376 0.8701
0.0636759 0.625467 0.874266
0.114458 0.62591 0.878248
0.167788 0.625696 0.88127
0.273289 0.684596 0.95317
0.585962 0.747494 1
0.813931 0.758694 1
0.915953 0.753674 1
0.980972 0.745663 1
0.00880446 0.737911 0.882033
0.0607004 0.740108 0.887556
0.111849 0.738033 0.889128
0.165911 0.735164 0.888853
0.255253 0.761288 0.921263
0.459022 0.832273 0.997955
0.789303 0.862837 1
0.91693 0.861753 1
0.982177 0.856168 1
0.00704967 0.828794 0.867369
0.0591592 0.830793 0.873075
0.110567 0.833341 0.879179
0.165026 0.835187 0.884627
0.229847 0.835355 0.887831
0.387533 0.917647 0.979797
0.721798 0.959457 1
0.907805 0.954055 0.994049
0.98294 0.9523 0.991638
