assets/luts/LUTs/CinePacks_MVP2_Wingspan.CUBE
LUT_3D_SIZE 6
0.034973 0.034393 0.034790
0.111543 0.038593 0.027861
0.227072 0.056216 0.026956
0.336910 0.064820 0.030386
0.470454 0.071566 0.033410
0.560045 0.089010 0.038267
0.028086 0.077986 0.049534
0.162801 0.125822 0.040013
0.313505 0.122172 0.034412
0.419740 0.114501 0.034028
0.540512 0.124585 0.037496
0.620017 0.143348 0.044295
0.025486 0.150830 0.084734
0.049684 0.218363 0.064526
0.435663 0.326981 0.087953
0.561746 0.297993 0.077020
0.679609 0.285950 0.066625
0.771777 0.333259 0.091865
0.021872 0.251687 0.155271
0.023076 0.316360 0.133767
0.265853 0.429510 0.089387
0.742372 0.579862 0.177627
0.857413 0.595815 0.226677
0.888630 0.652859 0.368597
0.023179 0.362933 0.204384
0.032154 0.437644 0.192556
0.125783 0.531960 0.196482
0.726073 0.755716 0.324223
0.905059 0.830967 0.491907
0.910441 0.846442 0.595209
0.046476 0.492751 0.247879
0.072527 0.577698 0.308033
0.265081 0.673063 0.420089
0.734110 0.835153 0.549695
0.901634 0.874480 0.635430
0.909576 0.877075 0.645477
0.030432 0.038214 0.083824
0.099329 0.036128 0.099706
0.231560 0.037166 0.066682
0.392932 0.041474 0.058863
0.571184 0.057454 0.060102
0.653252 0.079787 0.071898
0.029094 0.082902 0.098807
0.101036 0.103400 0.107969
0.297839 0.089806 0.057799
0.442706 0.075931 0.047427
0.599046 0.093129 0.050861
0.667751 0.128681 0.073476
0.025299 0.165693 0.137948
0.038646 0.216465 0.139350
0.394286 0.311856 0.128461
0.548125 0.270064 0.090329
0.690899 0.257125 0.084556
0.802646 0.346196 0.154163
0.021650 0.279669 0.211233
0.025676 0.345002 0.214147
0.165839 0.402748 0.113393
0.734993 0.587284 0.221138
0.866264 0.604407 0.273945
0.895661 0.674439 0.423193
0.039738 0.420759 0.280662
0.050132 0.480842 0.278603
0.119171 0.564164 0.262351
0.715873 0.767883 0.349387
0.906312 0.837174 0.509517
0.911830 0.844241 0.566308
0.081617 0.580591 0.352380
0.094446 0.605054 0.366319
0.255445 0.666418 0.409443
0.765164 0.833112 0.517144
0.907452 0.861313 0.586566
0.911584 0.864385 0.597525
0.029200 0.045411 0.140845
0.071885 0.036627 0.198590
0.208745 0.037908 0.179260
0.419476 0.042054 0.155098
0.626771 0.058223 0.162399
0.701757 0.091272 0.184013
0.029518 0.091649 0.166682
0.055296 0.097622 0.218251
0.293233 0.085843 0.231885
0.497562 0.067477 0.163992
0.674826 0.091016 0.161334
0.718228 0.149966 0.211768
0.024115 0.186710 0.215018
0.037193 0.247396 0.279695
0.269854 0.305925 0.304493
0.546030 0.230116 0.178926
0.699277 0.200717 0.144282
0.819618 0.380399 0.327145
0.025965 0.316595 0.288992
0.056367 0.419355 0.353083
0.122940 0.401469 0.226351
0.693145 0.577402 0.284228
0.864899 0.583039 0.332251
0.897480 0.681868 0.491504
0.090268 0.522629 0.404155
0.113183 0.598039 0.437995
0.154195 0.616536 0.384384
0.667391 0.780765 0.425419
0.908924 0.848975 0.550548
0.911188 0.859678 0.598449
0.134975 0.658710 0.469515
0.139291 0.659380 0.468697
0.269081 0.692317 0.485278
0.776228 0.848151 0.574211
0.910039 0.867258 0.608233
0.911180 0.867122 0.607725
0.027991 0.055958 0.219281
0.054986 0.048599 0.282972
0.189604 0.046607 0.292516
0.424464 0.045561 0.284658
0.627151 0.068295 0.296284
0.685509 0.108501 0.322026
0.028357 0.103448 0.246777
0.036412 0.106808 0.329084
0.213174 0.076949 0.406224
0.497206 0.082150 0.352895
0.663839 0.107085 0.335666
0.698991 0.180912 0.371096
0.021926 0.204976 0.299202
0.029196 0.251544 0.384036
0.139286 0.251993 0.399316
0.543286 0.267143 0.458073
0.704153 0.231200 0.404501
0.823746 0.418280 0.523997
0.043070 0.362927 0.388767
0.102469 0.499513 0.515299
0.191059 0.499657 0.509049
0.576325 0.586763 0.562152
0.827382 0.512986 0.473904
0.883328 0.683766 0.627585
0.149781 0.618216 0.535247
0.168758 0.679270 0.580685
0.293366 0.736920 0.612605
0.456214 0.724876 0.516517
0.881198 0.823854 0.557900
0.904853 0.851335 0.687337
0.170663 0.700204 0.578346
0.189274 0.710403 0.598846
0.445240 0.816287 0.714750
0.745977 0.880223 0.748698
0.888497 0.902701 0.778258
0.911407 0.913713 0.822605
0.027571 0.073647 0.312967
0.047451 0.059392 0.366261
0.189244 0.049898 0.407135
0.439273 0.059051 0.403177
0.609581 0.088199 0.413526
0.646689 0.117625 0.405419
0.028042 0.117427 0.336358
0.035402 0.108148 0.449270
0.171768 0.062916 0.522943
0.500883 0.094860 0.495195
0.636029 0.118711 0.454378
0.668830 0.191350 0.458085
0.022486 0.226451 0.375746
0.029160 0.260252 0.462688
0.086513 0.227626 0.477653
0.444107 0.205099 0.606099
0.693173 0.257524 0.582472
0.785688 0.398097 0.653983
0.058533 0.407630 0.496844
0.085929 0.482379 0.607740
0.170025 0.496080 0.665507
0.467125 0.539923 0.761604
0.819450 0.560106 0.759872
0.879831 0.742349 0.826986
0.166859 0.661715 0.657531
0.195810 0.707842 0.714540
0.371461 0.788195 0.808438
0.557906 0.818426 0.820700
0.806429 0.822465 0.797678
0.896642 0.831179 0.794471
0.189244 0.714710 0.710613
0.230217 0.731025 0.740134
0.531763 0.862045 0.862681
0.779556 0.907024 0.879850
0.822328 0.905265 0.833130
0.912530 0.919075 0.847241
0.029906 0.082549 0.369587
0.046800 0.067396 0.422925
0.192200 0.049133 0.476354
0.445274 0.061550 0.470204
0.615220 0.093299 0.467198
0.638609 0.115554 0.447342
0.029970 0.120941 0.396548
0.034712 0.106935 0.518052
0.160840 0.061914 0.616590
0.484242 0.086283 0.565521
0.638682 0.123817 0.522631
0.656277 0.180867 0.511429
0.024985 0.243443 0.435058
0.032337 0.266851 0.520170
0.073847 0.214720 0.582441
0.456381 0.253366 0.705372
0.745208 0.379746 0.708895
0.807786 0.435896 0.733858
0.068966 0.443811 0.553921
0.089119 0.476510 0.646911
0.318920 0.586764 0.765515
0.679754 0.715767 0.861951
0.845676 0.743084 0.862763
0.888841 0.802357 0.878420
0.165526 0.650039 0.716010
0.213901 0.671971 0.736308
0.449251 0.768716 0.834962
0.679935 0.836664 0.885165
0.830042 0.852053 0.903080
0.903848 0.863665 0.903516
0.190331 0.711532 0.731745
0.241915 0.733413 0.754029
0.546243 0.866148 0.874496
0.766760 0.907275 0.904680
0.836575 0.920092 0.917860
0.919842 0.932360 0.931849
