assets/luts/LUTs/CinePacks_MVP2__Natural_DLOG_01.CUBE
LUT_3D_SIZE 6
0.000000 0.000000 0.000000
0.086721 -0.000718 -0.000718
0.339629 -0.001552 -0.001552
0.652823 -0.002404 -0.002404
0.912864 -0.003307 -0.003307
0.999980 -0.004057 -0.004057
-0.001191 0.086721 -0.001191
0.086721 0.086721 -0.001327
0.339629 0.169821 -0.001906
0.652822 0.217608 -0.002630
0.912864 0.228219 -0.003468
0.999980 0.200003 -0.004174
-0.002573 0.339628 -0.002573
0.169819 0.339628 -0.002633
0.339627 0.339627 -0.002868
0.652822 0.435213 -0.003384
0.912863 0.456436 -0.004061
1.000000 0.400012 -0.004630
-0.003985 0.652821 -0.003985
0.217600 0.652821 -0.004020
0.435211 0.652821 -0.004166
0.652820 0.652820 -0.004442
0.912863 0.684668 -0.004991
1.000000 0.600015 -0.005400
-0.005482 0.912862 -0.005482
0.228202 0.912862 -0.005506
0.456432 0.912862 -0.005608
0.684667 0.912862 -0.005808
0.912861 0.912861 -0.006110
1.000000 0.800048 -0.006384
-0.006725 1.000000 -0.006725
0.199989 1.000000 -0.006742
0.400004 1.000000 -0.006816
0.600013 1.000000 -0.006964
0.800047 1.000000 -0.007190
0.999980 0.999980 -0.007495
-0.000458 -0.000458 0.086721
0.086721 -0.000811 0.086721
0.339629 -0.001593 0.169822
0.652823 -0.002428 0.217608
0.912864 -0.003323 0.228220
1.000000 -0.004069 0.200003
-0.001239 0.086721 0.086721
0.086721 0.086721 0.086721
0.400719 0.035971 0.035971
0.701646 0.003915 0.003915
0.933021 0.000000 0.000000
0.999980 0.057268 0.057268
-0.002594 0.339628 0.169819
0.004603 0.351276 0.004603
0.343212 0.343212 0.000097
0.671882 0.423275 0.000000
0.924779 0.430128 0.000000
1.000000 0.371229 0.055725
-0.003997 0.652821 0.217600
0.000000 0.659593 0.000000
0.414356 0.657697 0.000000
0.654612 0.654612 0.000000
0.917643 0.677507 0.000000
1.000000 0.587380 0.051318
-0.005490 0.912862 0.228202
0.000000 0.915356 0.000000
0.425578 0.914958 0.000000
0.675004 0.914283 0.000000
0.913429 0.913429 0.000000
0.999980 0.794999 0.035860
-0.006731 1.000000 0.199990
0.019948 0.999980 0.019948
0.369798 0.999980 0.014606
0.586890 1.000000 0.000000
0.794899 1.000000 0.000000
0.999980 0.999980 0.000000
-0.000990 -0.000990 0.339630
0.169823 -0.001191 0.339630
0.339629 -0.001753 0.339629
0.652822 -0.002528 0.435214
0.912864 -0.003394 0.456437
1.000000 -0.004120 0.400013
-0.001537 0.169822 0.339629
0.058966 0.058966 0.426718
0.388337 0.026405 0.388337
0.696632 0.001746 0.438869
0.931809 0.000000 0.433418
0.999980 0.057039 0.371311
-0.002679 0.339628 0.339628
0.002716 0.348162 0.348162
0.339627 0.339627 0.339627
0.741160 0.276378 0.276378
0.979304 0.190765 0.190765
1.000000 0.287424 0.287424
-0.004048 0.652821 0.435211
0.000000 0.658916 0.415098
0.186040 0.683248 0.186040
0.664082 0.664082 0.169593
0.942381 0.637380 0.141296
1.000000 0.556160 0.285524
-0.005525 0.912862 0.456432
0.000000 0.915158 0.425675
0.118874 0.926175 0.118874
0.621997 0.921950 0.114187
0.916316 0.916316 0.108058
1.000000 0.782541 0.277667
-0.006756 1.000000 0.400004
0.018251 0.999980 0.369859
0.259725 1.000000 0.259725
0.547357 1.000000 0.255563
0.779256 1.000000 0.244444
0.999980 0.999980 0.190027
-0.001533 -0.001533 0.652823
0.217610 -0.001660 0.652823
0.435215 -0.002094 0.652823
0.652822 -0.002716 0.652822
0.912864 -0.003531 0.684670
1.000000 -0.004220 0.600015
-0.001917 0.217610 0.652823
0.028754 0.028754 0.760659
0.455251 0.012169 0.722589
0.688435 0.000000 0.688435
0.929757 0.000000 0.686464
0.999980 0.056569 0.587526
-0.002932 0.435214 0.652822
0.000000 0.431680 0.685198
0.289796 0.289796 0.756269
0.735666 0.244670 0.735666
0.974233 0.180783 0.661920
0.999980 0.284671 0.555864
-0.004148 0.652821 0.652821
0.000000 0.657656 0.657656
0.179882 0.676251 0.676251
0.652820 0.652820 0.652820
0.965854 0.586922 0.586922
1.000000 0.618173 0.618173
-0.005596 0.912862 0.684667
0.000000 0.914940 0.675511
0.117187 0.924716 0.623998
0.439183 0.935126 0.439183
0.920877 0.920877 0.406324
1.000000 0.805911 0.614872
-0.006807 1.000000 0.600013
0.014429 1.000000 0.586908
0.258459 0.999980 0.548154
0.574614 0.999980 0.574614
0.787663 0.999980 0.567546
0.999980 0.999980 0.528452
-0.002108 -0.002108 0.912865
0.228224 -0.002199 0.912865
0.456438 -0.002536 0.912864
0.684670 -0.003076 0.912864
0.912864 -0.003735 0.912864
1.000000 -0.004375 0.800049
-0.002393 0.228224 0.912864
0.005106 0.005106 0.966241
0.442969 0.000000 0.952398
0.692248 0.000000 0.937665
0.927081 0.000000 0.927081
1.000000 0.055795 0.795168
-0.003275 0.456437 0.912864
0.000000 0.435398 0.936109
0.253970 0.253970 0.986447
0.671695 0.214225 0.983328
0.966800 0.166988 0.966800
1.000000 0.280082 0.782818
-0.004438 0.684669 0.912863
0.000000 0.680021 0.921116
0.155626 0.648760 0.957810
0.588107 0.588107 0.972681
0.963284 0.537342 0.963284
1.000000 0.605837 0.802336
-0.005706 0.912862 0.912862
0.000000 0.914583 0.914583
0.114709 0.922406 0.922406
0.427087 0.930114 0.930114
0.912861 0.912861 0.912861
1.000000 0.908446 0.908446
-0.006888 1.000000 0.800047
0.006966 1.000000 0.794901
0.256129 1.000000 0.780326
0.572782 0.999980 0.789616
0.892888 1.000000 0.892888
1.000000 1.000000 0.874857
-0.002586 -0.002586 0.999980
0.200009 -0.002652 1.000000
0.400016 -0.002910 1.000000
0.600016 -0.003353 0.999980
0.800049 -0.003927 1.000000
1.000000 -0.004582 1.000000
-0.002799 0.200009 0.999980
0.058695 0.058695 1.000000
0.371423 0.058417 1.000000
0.587553 0.057801 1.000000
0.795119 0.056668 0.999980
1.000000 0.054632 1.000000
-0.003523 0.400015 0.999980
0.057700 0.371364 1.000000
0.275104 0.275104 1.000000
0.552849 0.274809 1.000000
0.782176 0.274222 1.000000
0.999980 0.273201 0.999980
-0.004564 0.600015 0.999980
0.054984 0.587484 1.000000
0.273926 0.552587 1.000000
0.585287 0.585287 0.999980
0.794154 0.584804 0.999980
0.999980 0.583972 0.999980
-0.005749 0.800048 1.000000
0.046979 0.795084 0.999980
0.270530 0.781798 1.000000
0.583196 0.793541 1.000000
0.897215 0.897215 1.000000
1.000000 0.896658 1.000000
-0.007000 1.000000 1.000000
0.000000 1.000000 1.000000
0.251892 1.000000 1.000000
0.569226 1.000000 1.000000
0.890766 1.000000 1.000000
1.000000 1.000000 1.000000
