assets/luts/LUTs/CinePacks_MVP2_Radar.CUBE
TITLE "Generate by Resolve"
LUT_3D_SIZE 9
0 0.107256 0.0113527
0 0.112673 0.00540169
0.0239567 0.112291 0
0.25597 0.0412909 0
0.487022 0 0
0.689204 0 0
0.840925 0 0
0.905364 0 0
0.940581 0 0
0 0.114733 0
0 0.143221 0.00955215
0.00691234 0.141527 0
0.250095 0.0696574 0
0.481346 0.0292821 0
0.684001 0 0
0.838819 0 0
0.912367 0 0
0.962722 0 0
0 0.150179 0
0 0.148531 0
0.0266423 0.142596 0
0.257404 0.121523 0
0.494667 0.0987106 0
0.710353 0.0796979 0
0.881712 0.0769055 0
0.97496 0.0978256 0
1 0.128603 0
0 0.244862 0
0 0.257542 0
0 0.270604 0
0.24947 0.260121 0
0.499245 0.25095 0
0.726955 0.241794 0
0.911421 0.247929 0
1 0.278386 0
1 0.31812 0.0451667
0 0.416419 0
0 0.444251 0
0 0.471885 0
0.222354 0.465278 0
0.494408 0.461173 0
0.730602 0.460258 0
0.921691 0.473503 0
1 0.509468 0.00442512
1 0.551965 0.0554818
0 0.640421 0
0 0.679225 0
0 0.714656 0
0.203647 0.712963 0
0.499001 0.701534 0
0.73637 0.699321 0
0.923858 0.708919 0
1 0.738125 0
1 0.772442 0.0326543
0 0.8692 0
0 0.909529 0
0 0.943252 0
0.243534 0.938079 0
0.525628 0.915389 0
0.760983 0.900145 0
0.938735 0.899336 0
1 0.918257 0
1 0.941527 0.0196078
0 1 0
0 1 0
0.0829328 1 0
0.341894 1 0
0.593271 1 0.00866712
0.821439 1 0.0250095
0.984436 1 0.0187533
1 1 0.0213931
1 1 0.0275731
0 1 0
0.0974441 1 0
0.203494 1 0.0197757
0.39968 1 0.0322728
0.634791 1 0.0546731
0.848585 1 0.0543679
0.999222 1 0.0348821
1 1 0.0286717
1 1 0.0292973
0 0.100679 0.0501717
0 0.108812 0.0505531
0.0307469 0.109773 0.02916
0.253468 0.0411078 0
0.484825 0 0
0.686824 0 0
0.838544 0 0
0.903197 0 0
0.938857 0 0
0 0.112764 0.00250248
0 0.138338 0.0530861
0.0150454 0.13817 0.029572
0.248631 0.0701915 0
0.48043 0.0307927 0
0.683482 0 0
0.839277 0 0
0.915129 0 0
0.967773 0.00605783 0
0 0.149386 0
0 0.149386 0
0.00146487 0.181735 0.0348363
0.26334 0.127062 0
0.49984 0.106325 0
0.716823 0.0887922 0
0.889494 0.0869459 0
0.984985 0.108766 0.000122072
1 0.140307 0.0408637
0 0.249348 0
0 0.264469 0
0 0.28011 0
0.263005 0.270375 0
0.509148 0.261845 0
0.738308 0.254108 0
0.923919 0.261357 0.00764477
1 0.292592 0.0486763
1 0.332891 0.0993973
0 0.426474 0
0 0.45626 0
0 0.485328 0
0.240116 0.479927 0
0.507668 0.476051 0
0.744579 0.475868 0
0.935699 0.489174 0.0143282
1 0.524804 0.0585641
1 0.566979 0.109239
0 0.654398 0
0 0.694118 0
0 0.730312 0
0.221775 0.729442 0
0.512367 0.716945 0
0.74934 0.713909 0
0.93608 0.722744 0.00679026
1 0.750927 0.0423133
1 0.784268 0.0826734
0 0.884291 0
0 0.924483 0
0 0.957687 0
0.256199 0.952193 0
0.535225 0.928313 0
0.770855 0.911604 0.00741588
0.94754 0.909667 0.0146029
1 0.92755 0.0380865
1 0.948623 0.0640879
0 1 0
0 1 0
0.094789 1 0
0.346059 1 0.00926223
0.598795 1 0.0524453
0.826658 1 0.0686198
0.986831 1 0.059266
1 1 0.0602884
1 1 0.0654917
0.00677501 1 0.0115206
0.104356 1 0.0424201
0.206104 1 0.0648203
0.397772 1 0.0711376
0.633646 1 0.0905623
0.848386 1 0.0914015
0.998672 1 0.0718547
1 1 0.065507
1 1 0.0660563
0 0.0783856 0.0738079
0 0.0798962 0.0781872
0.0349889 0.0750896 0.0712139
0.248493 0.0399634 0.0365301
0.480964 0 0
0.68278 0 0
0.834546 0 0
0.899565 0 0
0.935882 0 0
0 0.108507 0.067689
0 0.116701 0.0867781
0.0297704 0.127764 0.0876783
0.244877 0.0698558 0.0346685
0.478035 0.0315251 0
0.681834 0 0
0.839246 0 0
0.91722 0 0
0.972015 0.0144045 0
0 0.145922 0.0479896
0 0.147631 0.0515297
0.021622 0.176883 0.0978103
0.268162 0.132494 0.0576028
0.504158 0.113634 0.0427253
0.722438 0.0974594 0.0309453
0.896895 0.0962692 0.0355993
0.993439 0.118746 0.0661936
1 0.151568 0.108492
0 0.252064 0
0 0.270359 0
0 0.288838 0.0221866
0.274952 0.280293 0.0629129
0.518364 0.272679 0.0611582
0.74844 0.265812 0.0606851
0.934981 0.273976 0.0767681
1 0.305592 0.118242
1 0.34699 0.170108
0 0.435157 0
0 0.467414 0
0 0.498268 0
0.254353 0.494575 0.0215
0.519692 0.490303 0.0551766
0.757015 0.490562 0.0634775
0.94818 0.503899 0.0850996
1 0.538827 0.128527
1 0.580652 0.178775
0 0.667338 0
0 0.70811 0
0 0.745052 0
0.234318 0.745327 0
0.523888 0.731456 0.0438849
0.76054 0.727306 0.0596323
0.946273 0.735103 0.0747997
1 0.762371 0.109239
1 0.794781 0.148516
0 0.898146 0
0 0.93817 0
0 0.97116 0
0.264271 0.965927 0
0.541985 0.940261 0.0467994
0.778592 0.921569 0.0721752
0.95436 0.918563 0.0785534
1 0.935378 0.100771
1 0.954482 0.124453
0 1 0
0 1 0.0106661
0.102342 1 0.0465553
0.34638 1 0.0711986
0.600504 1 0.109651
0.829206 1 0.126894
0.987503 1 0.115801
1 1 0.115206
1 1 0.119341
0.0144808 1 0.082002
0.106981 1 0.109148
0.203372 1 0.126192
0.391852 1 0.126024
0.629297 1 0.140841
0.846387 1 0.144121
0.996597 1 0.125017
1 1 0.118502
1 1 0.119051
0 0.0688182 0.266407
0 0.0668345 0.260639
0.0111086 0.0611582 0.249409
0.226078 0.0320439 0.215244
0.465217 0 0.167254
0.666773 0 0.119158
0.818509 0 0.0869154
0.884062 0 0.0820325
0.921492 0 0.0897688
0 0.0980697 0.261585
0 0.0949569 0.256229
0.00631724 0.0893721 0.244968
0.224475 0.0631723 0.212299
0.464179 0.0259403 0.17145
0.668803 0 0.134936
0.828656 0 0.121447
0.909087 0 0.13959
0.965957 0.016907 0.171038
0 0.135866 0.245701
0 0.138262 0.248966
0.016434 0.141604 0.251789
0.257435 0.131777 0.236683
0.498131 0.115129 0.222248
0.717632 0.100175 0.210651
0.894209 0.0997482 0.215808
0.991638 0.123003 0.246952
1 0.156756 0.289235
0 0.242267 0.171954
0 0.263005 0.201938
0.00157168 0.284596 0.232212
0.244038 0.301015 0.236286
0.517205 0.277546 0.24271
0.748226 0.271611 0.243336
0.935515 0.280507 0.259922
1 0.312749 0.300771
1 0.354681 0.350607
0 0.431586 0.0988479
0 0.466865 0.14052
0 0.501396 0.180804
0.238041 0.507256 0.197162
0.521111 0.498054 0.23975
0.758648 0.498527 0.248127
0.949432 0.511498 0.268818
1 0.546334 0.310582
1 0.587304 0.357305
0 0.670375 0.0453498
0 0.71281 0.0958877
0 0.751598 0.142931
0.218036 0.758312 0.165545
0.521355 0.74049 0.220676
0.760769 0.733837 0.242664
0.945022 0.740124 0.255787
1 0.766629 0.288365
1 0.797986 0.324804
0 0.902754 0.0698558
0 0.943084 0.118883
0 0.976791 0.16083
0.244892 0.975937 0.176867
0.528725 0.949065 0.212711
0.774914 0.924727 0.248997
0.949798 0.92018 0.255512
1 0.935454 0.27538
1 0.952575 0.295995
0 1 0.179324
0 1 0.215915
0.0871748 1 0.24448
0.324559 1 0.250385
0.579858 1 0.266926
0.818692 1 0.292973
0.976684 1 0.28426
1 1 0.282689
1 1 0.285863
0.000289921 1 0.279988
0.0886549 1 0.299809
0.179324 1 0.308476
0.364096 1 0.29424
0.602228 1 0.290196
0.831998 1 0.304463
0.983627 1 0.290394
1 1 0.284276
1 1 0.28481
0 0.0554055 0.513542
0 0.0538643 0.507057
0 0.0484779 0.496498
0.191333 0.0195621 0.461997
0.441703 0 0.416129
0.642985 0 0.371389
0.79472 0 0.340154
0.860822 0 0.334783
0.899763 0 0.342077
0 0.0833753 0.506737
0 0.0813916 0.499382
0 0.0773632 0.488899
0.192691 0.0524605 0.456733
0.443397 0.0167849 0.417807
0.649012 0 0.384878
0.811185 0 0.372686
0.894163 0 0.389303
0.953292 0.0154726 0.416968
0 0.121981 0.49543
0 0.126665 0.492927
0 0.134066 0.49073
0.236973 0.12755 0.476005
0.485237 0.112596 0.462058
0.705959 0.0986648 0.451667
0.884459 0.0991836 0.457313
0.982956 0.123415 0.486152
1 0.15816 0.525551
0 0.235172 0.443458
0 0.25745 0.465217
0 0.28011 0.487556
0.257465 0.283253 0.481804
0.508812 0.278202 0.482597
0.740963 0.273365 0.484306
0.928878 0.282887 0.499916
1 0.315755 0.537774
1 0.357961 0.584192
0 0.421622 0.382177
0 0.457588 0.421164
0 0.492836 0.459297
0.237278 0.504021 0.475975
0.515312 0.501381 0.482567
0.752895 0.501915 0.49012
0.943343 0.514534 0.508446
1 0.54905 0.546288
1 0.589273 0.588968
0 0.659495 0.348043
0 0.703243 0.394995
0 0.743603 0.43624
0.205112 0.758602 0.447776
0.495079 0.74995 0.448844
0.753201 0.735348 0.483223
0.936568 0.740749 0.494087
1 0.766171 0.522545
1 0.796307 0.554818
0 0.89427 0.372045
0 0.935393 0.413062
0 0.969955 0.446677
0.223011 0.975296 0.449042
0.494285 0.9561 0.442847
0.761639 0.923796 0.478813
0.937819 0.917174 0.490043
1 0.930266 0.505776
1 0.944747 0.521859
0 1 0.462455
0 1 0.493263
0.0727855 1 0.516381
0.301656 1 0.509834
0.541131 1 0.490867
0.795941 1 0.507042
0.957931 1 0.508492
1 1 0.506615
1 1 0.50901
0 1 0.548714
0.0695811 1 0.564874
0.154681 1 0.569604
0.334874 1 0.544381
0.558465 1 0.50837
0.80441 1 0.512001
0.963073 1 0.511635
1 1 0.507012
1 1 0.507546
0 0.0419471 0.763241
0 0.0404059 0.756024
0 0.03505 0.744427
0.152743 0.00683604 0.705974
0.417411 0 0.655955
0.618753 0 0.611734
0.770809 0 0.581735
0.837736 0 0.576074
0.878279 0 0.582437
0 0.0696117 0.752819
0 0.0682078 0.745129
0 0.0648814 0.733974
0.157656 0.0411078 0.698054
0.422263 0.00802625 0.655772
0.629847 0 0.623438
0.794003 0 0.611704
0.879103 0 0.627558
0.940291 0.0132448 0.655558
0 0.109667 0.737591
0 0.116472 0.734005
0 0.12755 0.731624
0.215503 0.123293 0.715114
0.471839 0.109819 0.700526
0.694041 0.0966049 0.690791
0.873228 0.0976577 0.697017
0.97322 0.123308 0.727398
1 0.159121 0.767941
0 0.227558 0.690318
0 0.251545 0.706889
0 0.276265 0.724514
0.242496 0.282582 0.722515
0.499428 0.278401 0.724163
0.732494 0.274464 0.726833
0.920974 0.28452 0.742992
1 0.318166 0.781659
1 0.360464 0.828122
0 0.419242 0.643854
0 0.456168 0.682872
0 0.491936 0.720897
0.231357 0.503334 0.732708
0.508232 0.503929 0.726482
0.74583 0.504494 0.734051
0.935851 0.51667 0.751888
1 0.550576 0.789075
1 0.590036 0.83093
0 0.654871 0.616815
0 0.69839 0.66302
0 0.737728 0.705394
0.217716 0.750423 0.72369
0.494423 0.745434 0.725948
0.743648 0.735363 0.724422
0.926299 0.740032 0.734524
1 0.764523 0.762005
1 0.793606 0.793164
0 0.884047 0.647517
0 0.923873 0.689601
0 0.957 0.725048
0.232547 0.962432 0.733303
0.481834 0.950088 0.72108
0.732082 0.926863 0.703822
0.924025 0.912825 0.726665
1 0.923964 0.740337
1 0.935439 0.753323
0 1 0.740063
0 1 0.771344
0.0823987 1 0.796094
0.305821 1 0.791577
0.520455 1 0.763027
0.755749 1 0.727016
0.937438 0.999268 0.73669
1 0.993484 0.73547
1 0.994202 0.737301
0 1 0.824613
0.0714427 1 0.839368
0.15462 1 0.844526
0.331777 1 0.820478
0.532204 1 0.775418
0.760098 1 0.730617
0.940154 1 0.736004
1 1 0.73489
1 1 0.73579
0 0.0323949 0.95169
0 0.0307164 0.943603
0 0.0254215 0.931014
0.124102 0 0.889754
0.400046 0 0.835904
0.60116 0 0.791089
0.753689 0 0.760739
0.821805 0 0.755184
0.864546 0 0.762417
0 0.060029 0.938888
0 0.0591135 0.930617
0 0.0564889 0.918547
0.132692 0.0338293 0.879713
0.407919 0.00273136 0.83476
0.617975 0 0.803784
0.783993 0 0.792752
0.87097 0 0.809232
0.934356 0.0146639 0.838483
0 0.102541 0.921004
0 0.111345 0.916365
0 0.125032 0.913146
0.203998 0.123186 0.896605
0.46508 0.110948 0.882368
0.688792 0.098558 0.874327
0.86891 0.100481 0.881514
0.969802 0.126986 0.912825
1 0.163714 0.954376
0 0.225467 0.870039
0 0.251209 0.885832
0 0.277501 0.90486
0.236942 0.285908 0.907561
0.49662 0.282658 0.910185
0.730419 0.279454 0.913634
0.919493 0.290089 0.930404
1 0.324193 0.969512
1 0.366644 1
0 0.420569 0.838773
0 0.458564 0.877577
0 0.494789 0.913695
0.23595 0.507851 0.917403
0.50721 0.510246 0.914336
0.744289 0.510277 0.92134
0.934356 0.52253 0.939223
1 0.555581 0.97554
1 0.594034 1
0 0.659678 0.820218
0 0.703243 0.866407
0 0.742306 0.9084
0.215763 0.754376 0.925566
0.495125 0.748226 0.923644
0.73994 0.738933 0.909377
0.92166 0.742641 0.918471
1 0.766064 0.944839
1 0.794141 0.974945
0 0.885481 0.850065
0 0.924254 0.891356
0 0.956359 0.926207
0.237598 0.959609 0.934691
0.493095 0.943908 0.925872
0.731472 0.922393 0.911406
0.915251 0.911208 0.906188
0.997467 0.920333 0.917784
1 0.929656 0.928527
0 1 0.940612
0 1 0.97116
0.084535 1 0.995483
0.312535 1 0.991501
0.529809 1 0.966415
0.747234 1 0.931441
0.915358 0.994842 0.902724
0.990524 0.985321 0.908186
1 0.985611 0.90959
0 1 1
0.0663157 1 1
0.150484 1 1
0.337957 1 1
0.538842 1 0.977783
0.746883 1 0.933211
0.913146 1 0.899275
0.990387 1 0.905776
1 1 0.908141
0 0.029633 1
0 0.0277867 1
0 0.0225071 1
0.114443 0 0.965896
0.393194 0 0.91075
0.5953 0 0.865873
0.74818 0 0.835721
0.817548 0 0.831067
0.862974 0 0.840558
0 0.0572824 1
0 0.0569009 1
0 0.0551766 0.995254
0.127443 0.0339208 0.955673
0.405692 0.00479133 0.911055
0.6177 0 0.882094
0.785687 0 0.873045
0.874311 0 0.890898
0.939803 0.0223697 0.922133
0 0.10277 0.997421
0 0.114275 0.993225
0 0.129915 0.991028
0.20943 0.129686 0.976776
0.469398 0.11841 0.964309
0.694438 0.106874 0.958144
0.875822 0.109987 0.96669
0.977676 0.137407 0.998993
1 0.174853 1
0 0.231449 0.948302
0 0.258595 0.965942
0 0.286091 0.987793
0.24741 0.295705 0.992844
0.504829 0.293568 0.996704
0.73904 0.290761 1
0.928985 0.302235 1
1 0.33666 1
1 0.37908 1
0 0.430091 0.926375
0 0.468757 0.965026
0 0.506127 1
0.25182 0.520455 1
0.51693 0.523247 1
0.753765 0.523033 1
0.943389 0.534829 1
1 0.567132 1
1 0.604074 1
0 0.671824 0.914153
0 0.7149 0.959731
0 0.753964 1
0.230304 0.765225 1
0.506172 0.758358 1
0.746944 0.749142 0.994568
0.927596 0.751781 1
1 0.773983 1
1 0.800748 1
0 0.896315 0.943053
0 0.933822 0.982986
0 0.965209 1
0.245502 0.967605 1
0.497246 0.950698 1
0.735332 0.928267 0.998795
0.916579 0.915602 0.985351
0.996185 0.922057 0.994171
1 0.9299 1
0 1 1
0 1 1
0.090959 1 1
0.31577 1 1
0.530663 1 1
0.749172 1 1
0.913787 0.991806 0.986847
0.985916 0.983627 0.981048
1 0.983642 0.982147
0 1 1
0.065095 1 1
0.147768 1 1
0.336812 1 1
0.538628 1 1
0.750332 1 1
0.909392 1 0.983978
0.981781 1 0.974762
1 1 0.980835
0 0.0291295 1
0 0.0272068 1
0 0.0219425 1
0.111376 0 1
0.391012 0 0.949157
0.593729 0 0.904646
0.747189 0 0.875196
0.817899 0 0.871824
0.865766 0 0.88365
0 0.057023 1
0 0.0571298 1
0 0.0562753 1
0.12961 0.0368963 0.995132
0.408682 0.010544 0.952682
0.622171 0 0.925902
0.791684 0 0.918776
0.882124 0.00424201 0.938521
0.949264 0.0329747 0.971466
0 0.105623 1
0 0.120195 1
0 0.13785 1
0.221286 0.138872 1
0.478111 0.128283 1
0.703868 0.117418 1
0.88661 0.121813 1
0.989593 0.150317 1
1 0.188434 1
0 0.240284 0.992294
0 0.268788 1
0.00276188 0.29749 1
0.263645 0.308049 1
0.516899 0.306798 1
0.751873 0.304738 1
0.942351 0.316793 1
1 0.351431 1
1 0.393988 1
0 0.442939 0.978286
0 0.482261 1
0 0.520394 1
0.271931 0.535592 1
0.530159 0.538338 1
0.766796 0.537926 1
0.955764 0.54905 1
1 0.580591 1
1 0.616632 1
0 0.686534 0.970306
0 0.729534 1
0 0.768154 1
0.249256 0.778576 1
0.518364 0.770489 1
0.757137 0.76112 1
0.936889 0.762829 1
1 0.78381 1
1 0.809659 1
0 0.909407 0.997864
0 0.946181 1
0 0.976394 1
0.257588 0.977737 1
0.50515 0.959884 1
0.743008 0.936095 1
0.921309 0.921981 1
0.997955 0.925399 1
1 0.931868 1
0 1 1
0 1 1
0.100404 1 1
0.32047 1 1
0.532357 1 1
0.749371 1 1
0.913497 0.992325 1
0.984833 0.984024 1
1 0.983871 1
0 1 1
0.0671244 1 1
0.148287 1 1
0.336721 1 1
0.538323 1 1
0.75021 1 1
0.911116 1 1
0.981811 1 1
1 1 1
