assets/luts/LUTs/CinePacks_MVP2_400 ft.CUBE
TITLE "Generate by Resolve"
LUT_3D_SIZE 9
0 0.00965896 0.0583505
0.00915541 0.00808728 0.0728008
0.0743572 0.00531014 0.0762646
0.173587 0 0.0745098
0.352026 0 0.0616159
0.573632 0 0.0426795
0.736339 0 0.0316472
0.863584 0 0.0258183
0.985107 0 0.0213931
0 0.0653544 0.0219577
0.0276036 0.058854 0.0310369
0.0738994 0.0585184 0.0674754
0.172534 0.0448157 0.0652781
0.351339 0.00895705 0.0526589
0.574228 0 0.034699
0.73959 0 0.0256809
0.870619 0 0.0227817
0.997421 0 0.022385
0 0.118379 0.00357061
0.0305028 0.112505 0.0129854
0.101915 0.107256 0.0229648
0.183932 0.100206 0.055024
0.359991 0.0700999 0.0508431
0.588846 0.0277409 0.0374456
0.762478 0.00512703 0.0347753
0.904448 0 0.040238
1 0 0.0502327
0 0.189456 0.022034
0.0171359 0.187289 0
0.0953689 0.187732 0
0.216297 0.180163 0.00260929
0.370306 0.168826 0.0446174
0.613382 0.138781 0.0421149
0.802335 0.129442 0.0511482
0.960037 0.134371 0.0686656
1 0.144884 0.0903792
0 0.307103 0
0 0.319234 0
0.0287785 0.335546 0
0.155383 0.346075 0.00239567
0.366064 0.33785 0.0141909
0.624552 0.321172 0.0234989
0.82826 0.32462 0.0438392
0.998276 0.340215 0.0707713
1 0.357397 0.0983597
0 0.482017 0
0 0.507683 0
0.0101472 0.537255 0
0.150454 0.55967 0
0.371633 0.56054 0
0.636316 0.549218 0
0.839582 0.5523 0.0182345
1 0.561822 0.0398108
1 0.569497 0.0590219
0 0.680049 0
0 0.713573 0
0.0704509 0.746181 0
0.208301 0.766461 0
0.42118 0.760128 0
0.673106 0.737758 0.00173953
0.861967 0.728344 0.0107271
1 0.726192 0.021973
1 0.724239 0.0326696
0 0.872557 0
0.0392004 0.897627 0
0.131853 0.918654 0
0.25478 0.925978 0.000808728
0.455039 0.908736 0.00463874
0.696773 0.877516 0.00111391
0.878187 0.861646 0.00437934
1 0.854688 0.0113832
1 0.848997 0.0187839
0 1 0
0.0743877 1 0
0.157641 1 0
0.273945 1 0
0.46923 1 0
0.707179 0.999115 0
0.88571 0.980758 0
1 0.972137 0
1 0.965423 0.00447089
0 0.0118715 0.117494
0.00471504 0.00987259 0.124239
0.0695964 0.00680552 0.127459
0.168582 0 0.125536
0.346899 0 0.112535
0.568429 0 0.0935378
0.731319 0 0.0826429
0.858732 0 0.0769513
0.980453 0 0.0726787
0 0.0682994 0.0854658
0.00825513 0.0631571 0.106142
0.0687877 0.0597238 0.11841
0.167575 0.0461433 0.11632
0.346624 0.0104982 0.103899
0.569833 0 0.086183
0.735622 0 0.0775006
0.867292 0 0.0750591
0.994873 0 0.075288
0 0.121569 0.0576638
0.0183108 0.115831 0.0671855
0.0903182 0.111086 0.0776226
0.173281 0.104738 0.112245
0.357061 0.0731975 0.103441
0.586801 0.0315862 0.0907301
0.761807 0.0101778 0.0890974
0.905745 0.00317388 0.0960708
1 0.00163272 0.107134
0 0.192111 0.0742504
0.007187 0.192477 0.0256199
0.0867323 0.194034 0.0417029
0.209033 0.18761 0.0605173
0.371588 0.17557 0.100435
0.616571 0.147173 0.0993973
0.80734 0.139422 0.109834
0.966735 0.145815 0.128634
1 0.157427 0.151324
0 0.313588 0.00183108
0 0.326909 0.0195163
0.0325017 0.344411 0.0408942
0.160647 0.356283 0.0612802
0.3729 0.349401 0.0742657
0.633143 0.334249 0.0849165
0.83769 0.33843 0.105898
1 0.354086 0.132891
1 0.371145 0.160388
0 0.492805 0
0 0.519738 0
0.0188907 0.550469 0
0.160067 0.573632 0.026566
0.381231 0.574487 0.0463874
0.645197 0.562539 0.0598764
0.84744 0.564736 0.0790875
1 0.573007 0.0995651
1 0.579339 0.117571
0 0.69395 0
0 0.727504 0
0.0790265 0.759243 0.0175937
0.215106 0.777981 0.0440528
0.426841 0.770672 0.0566415
0.677455 0.747158 0.0599222
0.864958 0.736584 0.0678569
1 0.7337 0.0784924
1 0.731151 0.0886549
0 0.884108 0
0.0441901 0.907591 0.018616
0.135409 0.927367 0.0420081
0.257435 0.933913 0.0576944
0.457038 0.916091 0.0610056
0.698177 0.884367 0.057023
0.878843 0.867857 0.0597391
1 0.860792 0.0666514
1 0.854932 0.0738994
0 1 0.00704967
0.0760357 1 0.0252842
0.158831 1 0.0422217
0.274769 1 0.053254
0.469734 1 0.0530251
0.707454 1 0.0464179
0.885634 0.986328 0.0472114
1 0.977859 0.052903
1 0.971176 0.0594186
0 0.0138399 0.171237
4.57771e-05 0.0114595 0.17557
0.0647135 0.00820935 0.178622
0.163546 0 0.176562
0.341772 0 0.1635
0.563287 0 0.144503
0.726345 0 0.13373
0.854002 0 0.128222
0.976013 0 0.124178
0 0.0701152 0.149767
0.000106813 0.0649424 0.165011
0.0636912 0.0609445 0.169406
0.162615 0.0474861 0.167422
0.341924 0.0120546 0.155184
0.565637 0 0.137865
0.731975 0 0.129595
0.864302 0 0.127687
0.992767 0 0.128573
0 0.12462 0.115572
0.00505074 0.11931 0.130068
0.0706035 0.116732 0.154055
0.169833 0.107393 0.164492
0.354376 0.0765087 0.156283
0.585428 0.0360418 0.144579
0.761746 0.0157626 0.143954
0.907134 0.0100099 0.152026
1 0.0100099 0.164446
0 0.194797 0.126543
0 0.19791 0.0817578
0.078584 0.200748 0.0989853
0.202686 0.195834 0.119158
0.373892 0.1832 0.157092
0.620233 0.155978 0.157092
0.812573 0.149584 0.168734
0.973312 0.157137 0.188571
1 0.170489 0.212787
0 0.320119 0.0575113
0 0.335149 0.0767071
0.0370642 0.353994 0.0992752
0.166644 0.367102 0.12076
0.380255 0.361425 0.134798
0.641886 0.347448 0.146502
0.847349 0.352438 0.168185
1 0.367788 0.194903
1 0.384512 0.222095
0 0.504128 0
0 0.532418 0.0242466
0.0279545 0.563958 0.0580301
0.169253 0.587228 0.0884871
0.390814 0.588418 0.108614
0.653773 0.575616 0.12134
0.854551 0.576547 0.139437
1 0.583597 0.158831
1 0.588785 0.17583
0 0.707927 0.0103456
0 0.741176 0.0456397
0.0874037 0.772137 0.0789044
0.221775 0.78941 0.104051
0.431846 0.780652 0.115373
0.681056 0.755901 0.117571
0.867567 0.744472 0.124758
1 0.741085 0.13492
1 0.738003 0.144625
0 0.895293 0.0517433
0.0489815 0.917388 0.0771801
0.138552 0.935729 0.0993057
0.259709 0.941527 0.114336
0.458686 0.923156 0.117174
0.699382 0.891051 0.11284
0.879622 0.874174 0.115221
1 0.866865 0.121935
1 0.860792 0.129
0 1 0.0635843
0.0774853 1 0.0812848
0.159594 1 0.0976883
0.275425 1 0.108659
0.470161 1 0.108248
0.707591 1 0.101411
0.885756 0.992065 0.102205
1 0.983581 0.107866
1 0.976944 0.114427
0 0.0140993 0.255497
0 0.0113069 0.258946
0.0534981 0.00791943 0.261875
0.152209 0 0.259724
0.330388 0 0.246647
0.551949 0 0.227665
0.71516 0 0.216999
0.843107 0 0.211719
0.965515 0 0.20798
0 0.0686198 0.247868
0 0.0645151 0.250141
0.0524453 0.0606241 0.252628
0.151537 0.047303 0.250782
0.331029 0.0120394 0.238682
0.555245 0 0.221759
0.722286 0 0.214023
0.855497 0 0.212772
0.985107 0 0.214542
0 0.122042 0.2392
0 0.120378 0.233738
0.0568551 0.11812 0.247303
0.160266 0.108537 0.249027
0.345769 0.0784772 0.241535
0.578332 0.0393225 0.230991
0.756374 0.0205386 0.231678
0.903059 0.0158999 0.240757
1 0.0171511 0.254276
0 0.196292 0.211368
0 0.199557 0.220172
0.0589914 0.207202 0.19379
0.17467 0.206424 0.234531
0.370626 0.189792 0.246433
0.618494 0.163912 0.247623
0.812253 0.15874 0.260334
0.974395 0.167514 0.281239
1 0.182071 0.306523
0 0.325567 0.14583
0 0.341955 0.166232
0.0358587 0.362387 0.190204
0.190997 0.374029 0.15256
0.425895 0.361364 0.188479
0.644678 0.359304 0.240482
0.850401 0.364523 0.262379
1 0.380118 0.289311
1 0.395972 0.31574
0 0.514275 0.0858167
0 0.543908 0.117922
0.0311894 0.576196 0.152361
0.172641 0.599588 0.182925
0.393881 0.600519 0.202808
0.65594 0.586923 0.214847
0.854704 0.586099 0.231403
1 0.591989 0.24976
1 0.595956 0.26569
0 0.720272 0.104768
0 0.752834 0.139452
0.0889143 0.782879 0.171893
0.221988 0.799023 0.196063
0.430426 0.788846 0.206134
0.678035 0.762737 0.207111
0.863478 0.750362 0.213474
1 0.746563 0.22327
1 0.743084 0.232624
0 0.904112 0.143069
0.0469825 0.925078 0.167483
0.135103 0.942168 0.18851
0.255634 0.947417 0.203052
0.45391 0.92845 0.205356
0.694102 0.895903 0.200641
0.874067 0.878782 0.202808
1 0.871275 0.209339
1 0.865034 0.216251
0 1 0.152148
0.0726329 1 0.169406
0.154177 1 0.185397
0.269734 1 0.196139
0.46424 1 0.19556
0.701473 1 0.188586
0.879637 0.996201 0.189364
1 0.987686 0.19501
1 0.981048 0.201572
0 0.0105592 0.413016
0 0.00749218 0.416236
0.027924 0.00389105 0.418982
0.126513 0 0.416739
0.304601 0 0.403571
0.526375 0 0.384756
0.689738 0 0.374228
0.817823 0 0.369055
0.94081 0 0.365743
0 0.0643931 0.404791
0 0.0603952 0.407172
0.0269017 0.0566262 0.409766
0.126268 0.043534 0.408118
0.306081 0.00856031 0.396277
0.530739 0 0.379675
0.69839 0 0.372412
0.832441 0 0.371801
0.963668 0 0.374807
0 0.118242 0.396521
0 0.116167 0.400595
0.0327001 0.115297 0.405753
0.136767 0.10631 0.407706
0.323186 0.0770428 0.400931
0.557107 0.0390631 0.391424
0.737118 0.0219883 0.393622
0.885374 0.0187076 0.403891
1 0.0213169 0.418616
0 0.19443 0.370382
0 0.198764 0.380133
0.0345159 0.206653 0.393011
0.151598 0.208927 0.404944
0.353246 0.192889 0.409827
0.60296 0.168582 0.412406
0.798245 0.164752 0.426291
0.961852 0.174777 0.44831
1 0.190188 0.474357
0 0.327962 0.308614
0 0.345525 0.330053
0.0205539 0.367269 0.355169
0.153201 0.383017 0.378988
0.37174 0.379797 0.393179
0.63357 0.367819 0.408667
0.839353 0.373083 0.430594
1 0.388525 0.457404
1 0.403601 0.483131
0 0.521035 0.252461
0 0.551827 0.285557
0.0199741 0.584604 0.320439
0.161685 0.60824 0.351217
0.382177 0.608515 0.37052
0.643183 0.594003 0.38175
0.84065 0.59205 0.397314
0.997803 0.596506 0.414405
1 0.599084 0.429099
0 0.728878 0.27303
0 0.760586 0.30695
0.0749676 0.788922 0.337896
0.207034 0.804196 0.361288
0.41416 0.792889 0.370367
0.660288 0.765484 0.370199
0.845075 0.752544 0.376059
0.992035 0.74815 0.385336
1 0.744259 0.394324
0 0.908751 0.307805
0.0299382 0.92845 0.331121
0.117189 0.944778 0.351461
0.237034 0.949447 0.365499
0.434745 0.929976 0.367361
0.674174 0.896773 0.362081
0.854047 0.879561 0.364157
0.997192 0.87187 0.370535
1 0.865522 0.37734
0 1 0.314336
0.0532235 1 0.331243
0.134432 1 0.34696
0.249668 1 0.357458
0.443946 1 0.356695
0.680964 1 0.349554
0.85919 0.996612 0.350393
1 0.988113 0.356054
1 0.981369 0.362524
0 0.00474556 0.610559
0 0.00155642 0.613657
0 0 0.616266
0.0929732 0 0.613931
0.271122 0 0.600809
0.493034 0 0.582116
0.656657 0 0.571771
0.785061 0 0.566842
0.908476 0 0.563867
0 0.0582589 0.602029
0 0.0542916 0.60444
0 0.0506447 0.607141
0.0931411 0.037705 0.605615
0.273518 0.00321965 0.594217
0.498741 0 0.578058
0.667094 0 0.571313
0.802014 0 0.571389
0.93463 0 0.575448
0 0.112596 0.594186
0 0.110887 0.598596
0.000900282 0.110628 0.604288
0.10576 0.102312 0.606851
0.293492 0.0741894 0.601068
0.528756 0.0373693 0.592584
0.710033 0.0213931 0.595758
0.860197 0.0197757 0.607492
1 0.0239567 0.623606
0 0.190723 0.569772
0 0.196353 0.580652
0.0071107 0.205783 0.594919
0.125582 0.209277 0.607904
0.328603 0.1944 0.613809
0.579858 0.171435 0.617578
0.776638 0.168902 0.632624
0.942077 0.180529 0.656046
1 0.196674 0.682734
0 0.328878 0.512093
0 0.347829 0.534737
0 0.370703 0.560876
0.132235 0.387732 0.585824
0.350515 0.386099 0.603433
0.614862 0.374487 0.617212
0.820554 0.379675 0.639078
0.989731 0.394537 0.66537
1 0.408713 0.690318
0 0.526421 0.459861
0 0.558007 0.493675
0.00106813 0.591104 0.528847
0.142901 0.614832 0.559701
0.362387 0.614252 0.578241
0.621698 0.59826 0.588174
0.81796 0.59527 0.602823
0.9738 0.598581 0.618891
1 0.600031 0.632609
0 0.73521 0.48127
0 0.766049 0.514427
0.0534218 0.793149 0.544289
0.183673 0.806821 0.566278
0.389364 0.794278 0.574258
0.634531 0.766049 0.573358
0.818723 0.752575 0.578744
0.965072 0.747662 0.587564
1 0.743175 0.596017
0 0.911177 0.512627
0.00454719 0.92932 0.534554
0.0910964 0.945037 0.55436
0.210315 0.949172 0.567926
0.407584 0.929305 0.569436
0.646647 0.895796 0.563867
0.826185 0.878309 0.565713
0.9691 0.870405 0.571893
1 0.863722 0.578408
0 1 0.516594
0.0255589 1 0.532937
0.106722 1 0.548623
0.221729 1 0.558938
0.415595 1 0.557855
0.652735 1 0.55082
0.83093 0.994995 0.551629
0.97322 0.986557 0.557336
1 0.979919 0.563882
0 0.00166323 0.753552
0 0 0.756481
0 0 0.758999
0.0700389 0 0.756634
0.248249 0 0.743557
0.470298 0 0.724971
0.634195 0 0.714824
0.763073 0 0.710262
0.887037 0 0.707713
0 0.0548409 0.744747
0 0.0509804 0.747234
0 0.0474861 0.750072
0.0707561 0.0347753 0.748745
0.251606 0.000671397 0.737697
0.477516 0 0.722057
0.646647 0 0.715923
0.782834 0 0.71696
0.916777 0 0.722042
0 0.109865 0.737499
0 0.108537 0.742229
0 0.108736 0.748333
0.0856336 0.10132 0.75169
0.274861 0.0744945 0.747066
0.511864 0.0391852 0.73991
0.69453 0.0243992 0.744137
0.846036 0.0239567 0.756909
0.995987 0.0295262 0.774243
0 0.190066 0.714916
0 0.196857 0.726833
0 0.207721 0.742336
0.110796 0.212909 0.756832
0.315358 0.199374 0.763943
0.568032 0.177646 0.768795
0.766201 0.176318 0.784894
0.933013 0.189136 0.809384
1 0.206073 0.836759
0 0.332723 0.661204
0 0.353246 0.685252
0 0.377371 0.712474
0.12256 0.395804 0.738674
0.341787 0.39498 0.757
0.60621 0.383444 0.77084
0.812345 0.389013 0.793057
0.980529 0.403006 0.818586
1 0.41593 0.84242
0 0.534936 0.613123
0 0.567269 0.647593
0 0.600488 0.682857
0.134401 0.623926 0.713451
0.352987 0.622553 0.731304
0.610513 0.60502 0.739864
0.805188 0.600656 0.753307
0.959625 0.602747 0.768292
1 0.603342 0.781247
0 0.743862 0.634638
0 0.773663 0.66688
0.0420386 0.799725 0.695827
0.170687 0.812024 0.716594
0.374777 0.798093 0.723339
0.619028 0.769055 0.721736
0.802594 0.755062 0.726665
0.948486 0.749752 0.735134
1 0.744854 0.743236
0 0.915862 0.66247
0 0.932906 0.683452
0.0754559 0.947951 0.702647
0.193988 0.951476 0.715679
0.390585 0.931044 0.716686
0.629511 0.897398 0.711009
0.808835 0.879713 0.712688
0.951492 0.871595 0.718669
1 0.864866 0.725155
0 1 0.66421
0.00866712 1 0.680247
0.0894636 1 0.695659
0.204257 1 0.705821
0.397986 1 0.704631
0.635065 1 0.697551
0.813245 0.996124 0.698344
0.955383 0.987564 0.703944
1 0.981247 0.710781
0 0.000244144 0.863218
0 0 0.865965
0 0 0.868391
0.0535286 0 0.865995
0.231891 0 0.85304
0.454124 0 0.834577
0.618173 0 0.824567
0.7476 0 0.820417
0.872251 0 0.818387
0 0.0531167 0.854139
0 0.0493782 0.856748
0 0.0460975 0.859785
0.0550698 0.0336919 0.858732
0.236332 0 0.848005
0.462867 0 0.832837
0.632914 0 0.827405
0.770642 0 0.829618
0.906294 0 0.836011
0 0.108934 0.847608
0 0.108125 0.852811
0 0.108904 0.859403
0.0723125 0.102296 0.863493
0.262898 0.0766461 0.859892
0.501747 0.0429389 0.854154
0.686168 0.0296788 0.859739
0.8392 0.0305638 0.873671
0.99057 0.0373541 0.892088
0 0.191699 0.827283
0 0.19968 0.840253
0 0.211841 0.856916
0.102663 0.218387 0.872602
0.309071 0.206455 0.881117
0.563073 0.18587 0.886976
0.762936 0.186007 0.904387
0.930709 0.199649 0.929595
1 0.216907 0.957275
0 0.33872 0.777432
0 0.360342 0.802457
0 0.386175 0.831189
0.119844 0.405982 0.858595
0.33994 0.405905 0.877577
0.604517 0.394491 0.891539
0.810346 0.399802 0.913512
0.9776 0.413001 0.938338
1 0.424186 0.960632
0 0.545251 0.73315
0 0.577905 0.76791
0 0.611521 0.803525
0.131899 0.634272 0.833539
0.349416 0.631983 0.850568
0.605646 0.613336 0.858137
0.798688 0.607553 0.870314
0.951522 0.60824 0.884092
1 0.607874 0.896178
0 0.753994 0.754513
0 0.782254 0.785397
0.036286 0.807263 0.813413
0.163607 0.818418 0.833173
0.366201 0.803174 0.838758
0.609857 0.773632 0.836713
0.792721 0.75903 0.841108
0.93814 0.753307 0.84921
1 0.74815 0.857069
0 0.921584 0.77847
0 0.937881 0.798779
0.0660868 0.952346 0.817472
0.184039 0.955367 0.83006
0.380041 0.934417 0.83061
0.618723 0.900572 0.82475
0.797818 0.882704 0.826246
0.940291 0.874418 0.83209
1 0.867674 0.83856
0 1 0.778378
0 1 0.794186
0.078645 1 0.809369
0.193149 1 0.819303
0.386786 1 0.818067
0.62385 1 0.810956
0.802029 0.998932 0.811765
0.944213 0.990387 0.81738
1 0.984253 0.824384
0 0 0.966857
0 0 0.969482
0 0 0.971771
0.0382391 0 0.969451
0.216754 0 0.956619
0.439231 0 0.938354
0.603616 0 0.928588
0.733455 0 0.924758
0.858747 0 0.923217
0 0.0517128 0.957641
0 0.0480964 0.960357
0 0.0449683 0.963516
0.0406958 0.033051 0.962905
0.222538 0 0.952621
0.44976 0 0.937972
0.620706 0 0.933242
0.759808 0 0.936507
0.897429 0 0.944396
0 0.10837 0.951843
0 0.108156 0.957565
0 0.109697 0.964843
0.060853 0.104189 0.969894
0.252766 0.0796979 0.967315
0.492973 0.0471656 0.962615
0.679179 0.0354467 0.969558
0.834043 0.0379187 0.984894
0.987015 0.0460975 1
0 0.194003 0.934051
0 0.203464 0.948333
0 0.216907 0.966125
0.0962387 0.224643 0.982864
0.304173 0.214023 0.992538
0.559884 0.194934 0.999725
0.761364 0.19646 1
0.929976 0.210849 1
1 0.228153 1
0 0.345754 0.88838
0 0.368521 0.914412
0 0.395621 0.944259
0.118425 0.416571 0.972671
0.339178 0.417075 0.992172
0.603937 0.405829 1
0.809018 0.410483 1
0.97525 0.422782 1
1 0.432822 1
0 0.556146 0.847517
0 0.589273 0.882689
0 0.622797 0.918227
0.130282 0.644709 0.947478
0.345861 0.640726 0.963027
0.601099 0.62121 0.969833
0.792813 0.614282 0.981003
0.944198 0.613733 0.993667
1 0.612741 1
0 0.763912 0.868025
0 0.791165 0.898009
0.0310674 0.814572 0.924605
0.156954 0.824475 0.943267
0.358663 0.808469 0.94818
0.601648 0.778347 0.945617
0.783932 0.763241 0.949554
0.928573 0.756848 0.957061
1 0.751614 0.964874
0 0.927077 0.888045
0 0.94284 0.907881
0.0575265 0.956756 0.926101
0.175036 0.959396 0.938338
0.370687 0.93814 0.938613
0.609049 0.904005 0.932509
0.787915 0.885939 0.933837
0.930129 0.877424 0.939483
1 0.870771 0.946029
0 1 0.886397
0 1 0.902068
0.0688792 1 0.917067
0.182986 1 0.926711
0.376745 1 0.925536
0.613764 1 0.91841
0.792004 1 0.919249
0.934295 0.993637 0.924971
1 0.987106 0.931624
