assets/luts/LUTs/CinePacks_MVP2__Natural_DLOG_01.CUBE
LUT_3D_SIZE 16
0.000000 0.000000 0.000000
0.000000 -0.000206 -0.000206
0.017854 -0.000454 -0.000454
0.086721 -0.000718 -0.000718
0.161722 -0.000992 -0.000992
0.245203 -0.001270 -0.001270
0.339629 -0.001552 -0.001552
0.443397 -0.001838 -0.001838
0.549464 -0.002122 -0.002122
0.652823 -0.002404 -0.002404
0.750787 -0.002692 -0.002692
0.839544 -0.002992 -0.002992
0.912864 -0.003307 -0.003307
0.972082 -0.003621 -0.003621
1.000000 -0.003895 -0.003895
0.999980 -0.004057 -0.004057
-0.000341 0.000000 -0.000341
0.000000 0.000000 -0.000380
0.017854 0.008927 -0.000557
0.086721 0.028906 -0.000786
0.161722 0.040432 -0.001040
0.245203 0.049036 -0.001307
0.339629 0.056603 -0.001581
0.443397 0.063335 -0.001862
0.549464 0.068678 -0.002142
0.652823 0.072526 -0.002421
0.750787 0.075063 -0.002707
0.839544 0.076300 -0.003006
0.912864 0.076049 -0.003319
0.972082 0.074751 -0.003632
1.000000 0.071394 -0.003905
0.999980 0.066634 -0.004065
-0.000752 0.017854 -0.000752
0.008927 0.017854 -0.000770
0.017853 0.017853 -0.000839
0.086721 0.057810 -0.001011
0.161722 0.080862 -0.001218
0.245203 0.098071 -0.001450
0.339629 0.113209 -0.001698
0.443397 0.126679 -0.001960
0.549464 0.137369 -0.002225
0.652822 0.145066 -0.002493
0.750787 0.150146 -0.002770
0.839544 0.152624 -0.003061
0.912864 0.152140 -0.003369
0.972082 0.149548 -0.003677
1.000000 0.142836 -0.003946
1.000000 0.133321 -0.004101
-0.001191 0.086721 -0.001191
0.028905 0.086721 -0.001201
0.057810 0.086721 -0.001245
0.086721 0.086721 -0.001327
0.161722 0.121295 -0.001497
0.245203 0.147125 -0.001691
0.339629 0.169821 -0.001906
0.443397 0.190025 -0.002140
0.549464 0.206059 -0.002382
0.652822 0.217608 -0.002630
0.750787 0.225234 -0.002891
0.839544 0.228965 -0.003170
0.912864 0.228219 -0.003468
0.972082 0.224346 -0.003767
1.000000 0.214266 -0.004027
0.999980 0.200003 -0.004174
-0.001644 0.161722 -0.001644
0.040429 0.161722 -0.001651
0.080861 0.161722 -0.001682
0.121294 0.161722 -0.001742
0.161721 0.161721 -0.001832
0.245202 0.196157 -0.001999
0.339628 0.226428 -0.002185
0.443397 0.253359 -0.002390
0.549464 0.274746 -0.002606
0.652822 0.290131 -0.002831
0.750786 0.300308 -0.003072
0.839544 0.305274 -0.003334
0.912864 0.304289 -0.003618
0.972082 0.299115 -0.003905
0.999980 0.285698 -0.004153
0.999980 0.266670 -0.004286
-0.002106 0.245202 -0.002106
0.049032 0.245202 -0.002111
0.098068 0.245202 -0.002135
0.147124 0.245202 -0.002181
0.196157 0.245202 -0.002252
0.245202 0.245202 -0.002347
0.339628 0.283041 -0.002511
0.443396 0.316704 -0.002692
0.549463 0.343443 -0.002884
0.652822 0.362707 -0.003086
0.750786 0.375392 -0.003306
0.839544 0.381617 -0.003550
0.912864 0.380368 -0.003817
0.972082 0.373901 -0.004090
1.000000 0.357112 -0.004323
1.000000 0.333345 -0.004438
-0.002573 0.339628 -0.002573
0.056595 0.339628 -0.002578
0.113206 0.339628 -0.002596
0.169819 0.339628 -0.002633
0.226427 0.339628 -0.002690
0.283041 0.339627 -0.002768
0.339627 0.339627 -0.002868
0.443396 0.380058 -0.003032
0.549463 0.412112 -0.003203
0.652822 0.435213 -0.003384
0.750786 0.450475 -0.003584
0.839544 0.457919 -0.003810
0.912863 0.456436 -0.004061
0.972082 0.448687 -0.004319
0.999980 0.428537 -0.004535
1.000000 0.400012 -0.004630
-0.003047 0.443396 -0.003047
0.063323 0.443396 -0.003050
0.126673 0.443396 -0.003065
0.190022 0.443396 -0.003096
0.253358 0.443396 -0.003143
0.316703 0.443395 -0.003209
0.380057 0.443395 -0.003293
0.443395 0.443395 -0.003396
0.549502 0.480858 -0.003551
0.652821 0.507793 -0.003714
0.750786 0.525592 -0.003897
0.839543 0.534261 -0.004106
0.912863 0.532531 -0.004342
0.972081 0.523492 -0.004585
0.999980 0.499984 -0.004784
1.000000 0.466714 -0.004856
-0.003518 0.549502 -0.003518
0.068667 0.549502 -0.003520
0.137369 0.549502 -0.003533
0.206069 0.549502 -0.003559
0.274760 0.549502 -0.003599
0.343459 0.549502 -0.003655
0.412122 0.549502 -0.003727
0.480857 0.549501 -0.003816
0.549501 0.549501 -0.003921
0.652821 0.580272 -0.004069
0.750785 0.600604 -0.004236
0.839543 0.610529 -0.004431
0.912863 0.608582 -0.004654
0.972081 0.598221 -0.004883
1.000000 0.571386 -0.005065
1.000000 0.533342 -0.005115
-0.003985 0.652821 -0.003985
0.072499 0.652821 -0.003988
0.145056 0.652821 -0.003999
0.217600 0.652821 -0.004020
0.290127 0.652821 -0.004055
0.362704 0.652821 -0.004103
0.435211 0.652821 -0.004166
0.507792 0.652821 -0.004244
0.580271 0.652820 -0.004336
0.652820 0.652820 -0.004442
0.750785 0.675724 -0.004597
0.839542 0.686865 -0.004780
0.912863 0.684668 -0.004991
0.972081 0.673031 -0.005208
1.000000 0.642785 -0.005374
1.000000 0.600015 -0.005400
-0.004463 0.750785 -0.004463
0.075032 0.750785 -0.004465
0.150135 0.750785 -0.004474
0.225235 0.750785 -0.004493
0.300302 0.750785 -0.004523
0.375387 0.750785 -0.004566
0.450473 0.750785 -0.004621
0.525590 0.750784 -0.004689
0.600608 0.750784 -0.004771
0.675723 0.750784 -0.004866
0.750784 0.750784 -0.004974
0.839541 0.763222 -0.005148
0.912862 0.760705 -0.005349
0.972080 0.747797 -0.005555
1.000000 0.714236 -0.005706
1.000000 0.666695 -0.005710
-0.004960 0.839541 -0.004960
0.076257 0.839541 -0.004962
0.152612 0.839541 -0.004971
0.228955 0.839541 -0.004988
0.305266 0.839541 -0.005014
0.381611 0.839541 -0.005052
0.457915 0.839541 -0.005101
0.534258 0.839541 -0.005162
0.610527 0.839541 -0.005236
0.686864 0.839541 -0.005321
0.763222 0.839540 -0.005419
0.839540 0.839540 -0.005528
0.912862 0.836812 -0.005723
0.972080 0.822582 -0.005920
1.000000 0.785703 -0.006058
1.000000 0.733329 -0.006039
-0.005482 0.912862 -0.005482
0.075998 0.912862 -0.005484
0.152115 0.912862 -0.005491
0.228202 0.912862 -0.005506
0.304293 0.912862 -0.005530
0.380361 0.912862 -0.005564
0.456432 0.912862 -0.005608
0.532527 0.912862 -0.005664
0.608580 0.912862 -0.005730
0.684667 0.912862 -0.005808
0.760740 0.912861 -0.005898
0.836812 0.912861 -0.005998
0.912861 0.912861 -0.006110
0.972080 0.897383 -0.006300
1.000000 0.857076 -0.006425
1.000000 0.800048 -0.006384
-0.006003 0.972080 -0.006003
0.074687 0.972080 -0.006005
0.149521 0.972080 -0.006012
0.224336 0.972080 -0.006025
0.299116 0.972080 -0.006047
0.373892 0.972080 -0.006078
0.448682 0.972080 -0.006118
0.523488 0.972080 -0.006168
0.598219 0.972080 -0.006229
0.673030 0.972080 -0.006301
0.747795 0.972080 -0.006382
0.822581 0.972079 -0.006475
0.897383 0.972079 -0.006578
0.972079 0.972079 -0.006690
1.000000 0.928475 -0.006805
1.000000 0.866650 -0.006743
-0.006458 1.000000 -0.006458
0.071322 1.000000 -0.006459
0.142805 1.000000 -0.006465
0.214255 0.999980 -0.006477
0.285686 0.999980 -0.006497
0.357103 1.000000 -0.006524
0.428532 1.000000 -0.006561
0.499980 1.000000 -0.006607
0.571384 1.000000 -0.006662
0.642784 1.000000 -0.006727
0.714234 1.000000 -0.006801
0.785702 1.000000 -0.006886
0.857075 0.999980 -0.006980
0.928475 1.000000 -0.007084
1.000000 1.000000 -0.007197
0.999980 0.933410 -0.007115
-0.006725 1.000000 -0.006725
0.066554 1.000000 -0.006726
0.133292 1.000000 -0.006731
0.199989 1.000000 -0.006742
0.266658 1.000000 -0.006760
0.333338 1.000000 -0.006784
0.400004 1.000000 -0.006816
0.466709 1.000000 -0.006857
0.533339 1.000000 -0.006906
0.600013 1.000000 -0.006964
0.666694 1.000000 -0.007030
0.733408 0.999980 -0.007106
0.800047 1.000000 -0.007190
0.866650 1.000000 -0.007283
0.933410 1.000000 -0.007385
0.999980 0.999980 -0.007495
-0.000131 -0.000131 0.000000
0.000000 -0.000232 0.000000
0.017854 -0.000466 0.008927
0.086721 -0.000725 0.028906
0.161722 -0.000997 0.040432
0.245203 -0.001274 0.049036
0.339629 -0.001555 0.056603
0.443397 -0.001840 0.063335
0.549464 -0.002124 0.068678
0.652823 -0.002406 0.072526
0.750787 -0.002693 0.075063
0.839544 -0.002993 0.076300
0.912864 -0.003308 0.076050
0.972082 -0.003622 0.074751
0.999980 -0.003896 0.071394
0.999980 -0.004057 0.066635
-0.000355 0.000000 0.000000
0.000000 0.000000 0.000000
0.030059 0.000000 0.000000
0.096952 0.000000 0.000000
0.169638 0.000000 0.000000
0.251651 0.000000 0.000000
0.345112 0.000000 0.000000
0.447995 0.000000 0.000000
0.553219 0.000000 0.000000
0.655819 0.000000 0.000000
0.753085 0.000000 0.000000
0.841106 0.000000 0.000000
0.913894 0.000000 0.000000
0.972840 0.000000 0.000000
1.000000 0.000000 0.000000
1.000000 0.000000 0.000000
-0.000758 0.017854 0.008927
0.000000 0.019967 0.000000
0.018326 0.018326 0.000000
0.090588 0.057069 0.000000
0.166302 0.077348 0.000000
0.249776 0.092345 0.000000
0.343990 0.105656 0.000000
0.447294 0.117541 0.000000
0.552826 0.126983 0.000000
0.655539 0.133748 0.000000
0.752948 0.138194 0.000000
0.840995 0.140272 0.000000
0.913831 0.139686 0.000000
0.972806 0.137243 0.000000
1.000000 0.130967 0.000000
1.000000 0.122235 0.000000
-0.001194 0.086721 0.028905
0.000000 0.088069 0.000000
0.055229 0.087674 0.000000
0.087022 0.087022 0.000000
0.163562 0.120760 0.000000
0.247780 0.145417 0.000000
0.342581 0.167008 0.000000
0.446290 0.186163 0.000000
0.552154 0.201341 0.000000
0.655110 0.212173 0.000000
0.752676 0.219287 0.000000
0.840829 0.222627 0.000000
0.913760 0.221707 0.000000
0.972738 0.217838 0.000000
1.000000 0.207900 0.000000
1.000000 0.194027 0.000000
-0.001647 0.161722 0.040429
0.000000 0.162689 0.000000
0.075604 0.162544 0.000000
0.119822 0.162285 0.000000
0.161965 0.161965 0.000000
0.246307 0.195783 0.000000
0.341281 0.225352 0.000000
0.445310 0.251589 0.000000
0.551443 0.272329 0.000000
0.654630 0.287155 0.000000
0.752349 0.296878 0.000000
0.840605 0.301443 0.000000
0.913594 0.300241 0.000000
0.972659 0.295016 0.000000
1.000000 0.281582 0.000000
1.000000 0.262806 0.000000
-0.002108 0.245202 0.049032
0.000000 0.245976 0.000000
0.090913 0.245908 0.000000
0.144247 0.245788 0.000000
0.195218 0.245600 0.000000
0.245393 0.245393 0.000000
0.340388 0.282787 0.000000
0.444528 0.315954 0.000000
0.550742 0.342174 0.000000
0.654138 0.360984 0.000000
0.751919 0.373273 0.000000
0.840377 0.379140 0.000000
0.913426 0.377685 0.000000
0.972553 0.371110 0.000000
0.999980 0.354230 0.000000
1.000000 0.330628 0.000000
-0.002575 0.339628 0.056595
0.000000 0.340274 0.000000
0.104488 0.340204 0.000000
0.165823 0.340117 0.000000
0.224549 0.340045 0.000000
0.282381 0.339904 0.000000
0.339805 0.339805 0.000000
0.443935 0.379820 0.000000
0.550254 0.411518 0.000000
0.653682 0.434233 0.000000
0.751647 0.449178 0.000000
0.840183 0.456278 0.000000
0.913323 0.454567 0.000000
0.972497 0.446699 0.000000
1.000000 0.426428 0.000000
1.000000 0.397980 0.000000
-0.003048 0.443396 0.063323
0.000000 0.443924 0.000000
0.116651 0.443914 0.000000
0.185150 0.443867 0.000000
0.250739 0.443807 0.000000
0.315388 0.443733 0.000000
0.379621 0.443653 0.000000
0.443553 0.443553 0.000000
0.549917 0.480683 0.000000
0.653304 0.507291 0.000000
0.751381 0.524796 0.000000
0.839994 0.533182 0.000000
0.913170 0.531224 0.000000
0.972412 0.522048 0.000000
1.000000 0.498413 0.000000
0.999980 0.465156 0.000000
-0.003519 0.549502 0.068667
0.000000 0.549926 0.000000
0.126310 0.549905 0.000000
0.200507 0.549905 0.000000
0.271549 0.549859 0.000000
0.341591 0.549791 0.000000
0.411150 0.549761 0.000000
0.480498 0.549718 0.000000
0.549630 0.549630 0.000000
0.653119 0.580123 0.000000
0.751207 0.600218 0.000000
0.839813 0.609828 0.000000
0.913109 0.607645 0.000000
0.972288 0.597175 0.000000
1.000000 0.570194 0.000000
1.000000 0.532140 0.000000
-0.003986 0.652821 0.072499
0.000000 0.653137 0.000000
0.133264 0.653130 0.000000
0.211536 0.653122 0.000000
0.286505 0.653128 0.000000
0.360432 0.653099 0.000000
0.433849 0.653065 0.000000
0.507013 0.652970 0.000000
0.579981 0.652939 0.000000
0.652908 0.652908 0.000000
0.751005 0.675582 0.000000
0.839697 0.686487 0.000000
0.913022 0.683995 0.000000
0.972215 0.672247 0.000000
1.000000 0.641929 0.000000
0.999980 0.599091 0.000000
-0.004463 0.750785 0.075032
0.000000 0.751022 0.000000
0.137840 0.751017 0.000000
0.218837 0.751109 0.000000
0.296381 0.751039 0.000000
0.372834 0.751019 0.000000
0.448786 0.750995 0.000000
0.524530 0.750967 0.000000
0.600053 0.750936 0.000000
0.675514 0.750926 0.000000
0.750930 0.750930 0.000000
0.839652 0.763066 0.000000
0.912955 0.760360 0.000000
0.972216 0.747329 0.000000
0.999980 0.713607 0.000000
1.000000 0.666008 0.000000
-0.004961 0.839541 0.076257
0.000000 0.839669 0.000000
0.140046 0.839664 0.000000
0.222299 0.839656 0.000000
0.301105 0.839652 0.000000
0.378819 0.839679 0.000000
0.455972 0.839663 0.000000
0.532956 0.839692 0.000000
0.609701 0.839663 0.000000
0.686404 0.839631 0.000000
0.762983 0.839599 0.000000
0.839566 0.839566 0.000000
0.912876 0.836605 0.000000
0.972140 0.822250 0.000000
1.000000 0.785219 0.000000
1.000000 0.732846 0.000000
-0.005483 0.912862 0.075998
0.000000 0.912923 0.000000
0.139548 0.912921 0.000000
0.221512 0.912918 0.000000
0.300037 0.912913 0.000000
0.377446 0.912906 0.000000
0.454349 0.912897 0.000000
0.531034 0.912886 0.000000
0.607506 0.912875 0.000000
0.683896 0.912862 0.000000
0.760301 0.912872 0.000000
0.836590 0.912859 0.000000
0.912907 0.912907 0.000000
0.972111 0.897212 0.000000
1.000000 0.856824 0.000000
1.000000 0.799668 0.000000
-0.006004 0.972080 0.074687
0.000000 0.972153 0.000000
0.137153 0.972152 0.000000
0.217705 0.972150 0.000000
0.294860 0.972146 0.000000
0.370980 0.972142 0.000000
0.446548 0.972136 0.000000
0.521931 0.972129 0.000000
0.597049 0.972119 0.000000
0.672185 0.972111 0.000000
0.747262 0.972102 0.000000
0.822218 0.972093 0.000000
0.897216 0.972116 0.000000
0.972108 0.972108 0.000000
1.000000 0.928379 0.000000
1.000000 0.866441 0.000000
-0.006458 1.000000 0.071322
0.000000 1.000000 0.000000
0.130967 1.000000 0.000000
0.207900 0.999980 0.000000
0.281582 1.000000 0.000000
0.354230 1.000000 0.000000
0.426428 0.999980 0.000000
0.498413 0.999980 0.000000
0.570194 1.000000 0.000000
0.641929 0.999980 0.000000
0.713607 1.000000 0.000000
0.785219 1.000000 0.000000
0.856824 1.000000 0.000000
0.928379 0.999980 0.000000
0.999980 0.999980 0.000000
1.000000 0.933300 0.000000
-0.006725 1.000000 0.066554
0.000000 1.000000 0.000000
0.122235 1.000000 0.000000
0.194027 1.000000 0.000000
0.262806 1.000000 0.000000
0.330628 0.999980 0.000000
0.397980 1.000000 0.000000
0.465156 1.000000 0.000000
0.532140 1.000000 0.000000
0.599091 1.000000 0.000000
0.666008 0.999980 0.000000
0.732846 1.000000 0.000000
0.799668 0.999980 0.000000
0.866441 1.000000 0.000000
0.933300 1.000000 0.000000
1.000000 1.000000 0.000000
-0.000289 -0.000289 0.017854
0.008927 -0.000348 0.017854
0.017854 -0.000513 0.017854
0.086721 -0.000755 0.057811
0.161722 -0.001018 0.080862
0.245203 -0.001290 0.098071
0.339629 -0.001568 0.113210
0.443397 -0.001851 0.126680
0.549464 -0.002133 0.137369
0.652823 -0.002413 0.145066
0.750787 -0.002700 0.150146
0.839544 -0.002999 0.152625
0.912864 -0.003313 0.152140
0.972082 -0.003627 0.149548
1.000000 -0.003900 0.142837
0.999980 -0.004061 0.133321
-0.000450 0.008927 0.017854
0.000000 0.000000 0.035598
0.027477 0.000000 0.027477
0.095872 0.000000 0.060395
0.169164 0.000000 0.078679
0.251420 0.000000 0.092952
0.344980 0.000000 0.105952
0.447910 0.000000 0.117701
0.553187 0.000000 0.127067
0.655789 0.000000 0.133800
0.753063 0.000000 0.138210
0.841085 0.000000 0.140286
0.913885 0.000000 0.139695
0.972833 0.000000 0.137246
1.000000 0.000000 0.130967
0.999980 0.000000 0.122235
-0.000783 0.017853 0.017853
0.000000 0.019331 0.019331
0.017853 0.017853 0.017853
0.107579 0.005221 0.005221
0.192913 0.000000 0.000000
0.277706 0.000000 0.000000
0.370559 0.000000 0.000000
0.470965 0.000000 0.000000
0.572949 0.000000 0.000000
0.672139 0.000000 0.000000
0.765849 0.000000 0.000000
0.850253 0.000000 0.000000
0.920234 0.000000 0.000000
0.977627 0.000000 0.000000
1.000000 0.000000 0.000000
1.000000 0.000000 0.000000
-0.001209 0.086721 0.057810
0.000000 0.087912 0.055384
0.000000 0.092963 0.000000
0.088653 0.088653 0.000000
0.174635 0.117308 0.000000
0.263435 0.136210 0.000000
0.360318 0.152482 0.000000
0.463896 0.166634 0.000000
0.568277 0.177554 0.000000
0.669034 0.185111 0.000000
0.763991 0.189747 0.000000
0.849109 0.191358 0.000000
0.919524 0.189726 0.000000
0.977174 0.185935 0.000000
1.000000 0.176515 0.000000
1.000000 0.164671 0.000000
-0.001657 0.161722 0.080861
0.000000 0.162633 0.075645
0.000000 0.167515 0.000000
0.111320 0.165719 0.000000
0.163404 0.163404 0.000000
0.253078 0.194803 0.000000
0.351452 0.221424 0.000000
0.456969 0.244342 0.000000
0.563161 0.261953 0.000000
0.665446 0.274099 0.000000
0.761555 0.281574 0.000000
0.847614 0.284376 0.000000
0.918682 0.282170 0.000000
0.976668 0.276626 0.000000
1.000000 0.262786 0.000000
1.000000 0.245138 0.000000
-0.002116 0.245202 0.098068
0.000000 0.245948 0.090930
0.000000 0.250108 0.000000
0.128861 0.249227 0.000000
0.190893 0.248009 0.000000
0.246569 0.246569 0.000000
0.345055 0.282415 0.000000
0.451375 0.313565 0.000000
0.558653 0.337590 0.000000
0.661979 0.354226 0.000000
0.759130 0.364631 0.000000
0.846112 0.368780 0.000000
0.917708 0.366196 0.000000
0.976052 0.359150 0.000000
1.000000 0.341419 0.000000
1.000000 0.318467 0.000000
-0.002581 0.339628 0.113206
0.000000 0.340257 0.104501
0.000000 0.343858 0.000000
0.145300 0.343361 0.000000
0.215849 0.342638 0.000000
0.279712 0.341760 0.000000
0.340756 0.340756 0.000000
0.447250 0.379596 0.000000
0.554992 0.409773 0.000000
0.659071 0.430889 0.000000
0.756934 0.444215 0.000000
0.844591 0.449773 0.000000
0.916750 0.446933 0.000000
0.975309 0.438495 0.000000
0.999980 0.417112 0.000000
1.000000 0.389119 0.000000
-0.003053 0.443396 0.126673
0.000000 0.443915 0.116656
0.000000 0.446938 0.000000
0.160416 0.446628 0.000000
0.238599 0.446242 0.000000
0.309612 0.445678 0.000000
0.377722 0.445026 0.000000
0.444305 0.444305 0.000000
0.552260 0.480413 0.000000
0.656637 0.505851 0.000000
0.755016 0.522070 0.000000
0.843251 0.529099 0.000000
0.915877 0.526072 0.000000
0.974655 0.516322 0.000000
1.000000 0.491472 0.000000
0.999980 0.458465 0.000000
-0.003523 0.549502 0.137369
0.000000 0.549919 0.126313
0.000000 0.552414 0.000000
0.172555 0.552255 0.000000
0.256742 0.551977 0.000000
0.333325 0.551598 0.000000
0.406955 0.551219 0.000000
0.479109 0.550780 0.000000
0.550232 0.550232 0.000000
0.654828 0.579851 0.000000
0.753415 0.598911 0.000000
0.842132 0.607401 0.000000
0.915028 0.604235 0.000000
0.974048 0.593173 0.000000
1.000000 0.564967 0.000000
1.000000 0.527022 0.000000
-0.003990 0.652821 0.145056
0.000000 0.653134 0.133265
0.000000 0.655154 0.000000
0.181238 0.655065 0.000000
0.269731 0.654917 0.000000
0.350329 0.654696 0.000000
0.427849 0.654426 0.000000
0.503894 0.654159 0.000000
0.578906 0.653748 0.000000
0.653408 0.653408 0.000000
0.752295 0.675302 0.000000
0.841149 0.685181 0.000000
0.914374 0.681851 0.000000
0.973563 0.669509 0.000000
1.000000 0.638008 0.000000
0.999980 0.595156 0.000000
-0.004466 0.750785 0.150135
0.000000 0.751020 0.137841
0.000000 0.752558 0.000000
0.186913 0.752527 0.000000
0.278211 0.752431 0.000000
0.361373 0.752365 0.000000
0.441419 0.752151 0.000000
0.520002 0.751992 0.000000
0.597578 0.751769 0.000000
0.674546 0.751515 0.000000
0.751272 0.751272 0.000000
0.840390 0.762572 0.000000
0.913844 0.759185 0.000000
0.973124 0.745500 0.000000
1.000000 0.710674 0.000000
0.999980 0.662986 0.000000
-0.004964 0.839541 0.152612
0.000000 0.839667 0.140044
0.000000 0.840749 0.000000
0.189481 0.840737 0.000000
0.282043 0.840651 0.000000
0.366386 0.840569 0.000000
0.447603 0.840482 0.000000
0.527292 0.840377 0.000000
0.606056 0.840285 0.000000
0.684332 0.840133 0.000000
0.762225 0.839967 0.000000
0.839785 0.839785 0.000000
0.913422 0.836170 0.000000
0.972727 0.821194 0.000000
1.000000 0.783261 0.000000
1.000000 0.730707 0.000000
-0.005485 0.912862 0.152115
0.000000 0.912922 0.139548
0.000000 0.913655 0.000000
0.188497 0.913655 0.000000
0.280614 0.913606 0.000000
0.364520 0.913562 0.000000
0.445362 0.913506 0.000000
0.524698 0.913425 0.000000
0.603156 0.913408 0.000000
0.681023 0.913316 0.000000
0.758628 0.913193 0.000000
0.835934 0.913130 0.000000
0.913024 0.913024 0.000000
0.972475 0.896821 0.000000
1.000000 0.855561 0.000000
0.999980 0.798139 0.000000
-0.006006 0.972080 0.149521
0.000000 0.972153 0.137153
0.000000 0.972654 0.000000
0.185060 0.972678 0.000000
0.275494 0.972643 0.000000
0.357904 0.972622 0.000000
0.437270 0.972608 0.000000
0.515209 0.972585 0.000000
0.592221 0.972498 0.000000
0.668750 0.972474 0.000000
0.744962 0.972410 0.000000
0.820880 0.972336 0.000000
0.896624 0.972289 0.000000
0.972224 0.972224 0.000000
1.000000 0.927771 0.000000
1.000000 0.865488 0.000000
-0.006460 1.000000 0.142805
0.000000 1.000000 0.130967
0.000000 1.000000 0.000000
0.176515 0.999980 0.000000
0.262786 1.000000 0.000000
0.341419 0.999980 0.000000
0.417112 0.999980 0.000000
0.491472 0.999980 0.000000
0.564967 1.000000 0.000000
0.638008 1.000000 0.000000
0.710674 0.999980 0.000000
0.783261 1.000000 0.000000
0.855561 0.999980 0.000000
0.927771 0.999980 0.000000
1.000000 1.000000 0.000000
0.999980 0.932857 0.000000
-0.006727 1.000000 0.133292
0.000000 0.999980 0.122235
0.000000 1.000000 0.000000
0.164670 1.000000 0.000000
0.245138 1.000000 0.000000
0.318467 1.000000 0.000000
0.389119 0.999980 0.000000
0.458465 1.000000 0.000000
0.527022 0.999980 0.000000
0.595156 0.999980 0.000000
0.662986 1.000000 0.000000
0.730707 1.000000 0.000000
0.798139 0.999980 0.000000
0.865488 0.999980 0.000000
0.932857 1.000000 0.000000
1.000000 1.000000 0.000000
-0.000458 -0.000458 0.086721
0.028906 -0.000496 0.086721
0.057811 -0.000625 0.086721
0.086721 -0.000811 0.086721
0.161722 -0.001059 0.121295
0.245203 -0.001322 0.147125
0.339629 -0.001593 0.169822
0.443397 -0.001872 0.190025
0.549464 -0.002150 0.206060
0.652823 -0.002428 0.217608
0.750787 -0.002713 0.225235
0.839544 -0.003011 0.228966
0.912864 -0.003323 0.228220
0.972082 -0.003636 0.224347
1.000000 -0.003909 0.214267
1.000000 -0.004069 0.200003
-0.000573 0.028906 0.086721
0.000000 0.000000 0.111037
0.064068 0.000000 0.101698
0.094080 0.000000 0.094080
0.168315 0.000000 0.124274
0.250963 0.000000 0.147281
0.344755 0.000000 0.168095
0.447773 0.000000 0.186769
0.553126 0.000000 0.201683
0.655705 0.000000 0.212378
0.753042 0.000000 0.219392
0.841104 0.000000 0.222682
0.913867 0.000000 0.221739
0.972847 0.000000 0.217865
1.000000 0.000000 0.207900
1.000000 0.000000 0.194027
-0.000876 0.057810 0.086721
0.000000 0.058839 0.093402
0.010973 0.010973 0.111373
0.105936 0.000097 0.105936
0.190231 0.000000 0.127789
0.275704 0.000000 0.142558
0.369314 0.000000 0.156292
0.470106 0.000000 0.168845
0.572438 0.000000 0.178851
0.671750 0.000000 0.185857
0.765668 0.000000 0.190153
0.850108 0.000000 0.191590
0.920130 0.000000 0.189832
0.977599 0.000000 0.186002
0.999980 0.000000 0.176515
1.000000 0.000000 0.164671
-0.001239 0.086721 0.086721
0.000000 0.087659 0.087659
0.000000 0.091389 0.091389
0.086721 0.086721 0.086721
0.188655 0.074134 0.074134
0.295003 0.053744 0.053744
0.400719 0.035971 0.035971
0.505225 0.022297 0.022297
0.606281 0.011905 0.011905
0.701646 0.003915 0.003915
0.790114 0.000000 0.000000
0.868095 0.000000 0.000000
0.933021 0.000000 0.000000
0.987880 0.000000 0.000000
1.000000 0.000000 0.000000
0.999980 0.057268 0.057268
-0.001678 0.161722 0.121294
0.000000 0.162539 0.120003
0.000000 0.166865 0.112093
0.045140 0.173182 0.045140
0.166579 0.166579 0.038463
0.269135 0.186769 0.030242
0.375725 0.204832 0.020542
0.484901 0.219889 0.012205
0.591191 0.230593 0.005251
0.691069 0.237058 0.000000
0.783135 0.240045 0.000000
0.863872 0.239533 0.000000
0.930426 0.235631 0.000000
0.986140 0.229926 0.000000
1.000000 0.216039 0.000000
1.000000 0.205225 0.056938
-0.002132 0.245202 0.147124
0.000000 0.245906 0.144317
0.000000 0.249794 0.129154
0.018773 0.257883 0.018773
0.175944 0.254128 0.015920
0.249637 0.249637 0.012468
0.356467 0.280570 0.008586
0.467996 0.306633 0.003759
0.577530 0.325587 0.000000
0.680719 0.337532 0.000000
0.775884 0.343765 0.000000
0.859373 0.344399 0.000000
0.927598 0.339563 0.000000
0.984162 0.331650 0.000000
0.999980 0.312273 0.000000
1.000000 0.293230 0.056439
-0.002594 0.339628 0.169819
0.000000 0.340202 0.165867
0.000000 0.343675 0.145436
0.004603 0.351276 0.004603
0.190078 0.349098 0.003235
0.272556 0.346311 0.001649
0.343212 0.343212 0.000097
0.455351 0.379119 0.000000
0.566526 0.405818 0.000000
0.671882 0.423275 0.000000
