assets/luts/LUTs/CinePacks_MVP2_Radar.CUBE
TITLE "Generate by Resolve"
LUT_3D_SIZE 33
0 0.107256 0.0113527
0 0.108354 0.00906386
0 0.109743 0.00759899
0 0.111299 0.00663767
0 0.112673 0.00540169
0 0.113741 0.0034638
0 0.114305 0.00030518
0 0.114107 0
0.0239567 0.112291 0
0.0634928 0.108385 0
0.109285 0.100847 0
0.195407 0.0503548 0
0.25597 0.0412909 0
0.318303 0.0313725 0
0.380621 0.0207218 0
0.434989 0.00993362 0
0.487022 0 0
0.539727 0 0
0.59176 0 0
0.64184 0 0
0.689204 0 0
0.732982 0 0
0.7729 0 0
0.809125 0 0
0.840925 0 0
0.86566 0 0
0.882597 0 0
0.895216 0 0
0.905364 0 0
0.914275 0 0
0.922683 0 0
0.931334 0 0
0.940581 0 0
0 0.117586 0.0136416
0 0.1187 0.0113222
0 0.11989 0.00953689
0 0.120928 0.0078584
0 0.121828 0.00601205
0 0.12253 0.00361639
0 0.122896 0.000137331
0 0.122591 0
0.0171054 0.120699 0
0.0573739 0.116106 0
0.101961 0.110903 0
0.191363 0.0576638 0
0.251942 0.0486 0
0.314351 0.0387427 0
0.37673 0.0281071 0
0.431586 0.0168307 0
0.483406 0.00561532 0
0.536049 0 0
0.588037 0 0
0.638102 0 0
0.685359 0 0
0.729107 0 0
0.769039 0 0
0.805341 0 0
0.837217 0 0
0.862013 0 0
0.879072 0 0
0.891951 0 0
0.902434 0 0
0.91162 0 0
0.920317 0 0
0.929366 0 0
0.939147 0 0
0 0.100801 0
0 0.127291 0.0135042
0 0.128099 0.0111391
0 0.128908 0.00915541
0 0.129625 0.00703441
0 0.130114 0.0043183
0 0.130312 0.000610361
0 0.129839 0
0.0122835 0.127962 0
0.0530556 0.12311 0
0.0978103 0.118517 0
0.189212 0.0643931 0
0.249836 0.055436 0
0.312215 0.0456397 0
0.37464 0.035172 0
0.429648 0.024094 0
0.481422 0.0130465 0
0.534005 0.00140383 0
0.585992 0 0
0.636042 0 0
0.68336 0 0
0.727123 0 0
0.767071 0 0
0.803525 0 0
0.835615 0 0
0.860639 0 0
0.877943 0 0
0.891081 0 0
0.902022 0 0
0.91191 0 0
0.921248 0 0
0.930846 0 0
0.94139 0 0
0 0.108049 0
0 0.106508 0
0 0.135256 0.0128023
0 0.135897 0.010544
0 0.136492 0.00823987
0 0.136965 0.00547799
0 0.137072 0.00158694
0 0.136553 0
0.00917067 0.134676 0
0.0502327 0.129717 0
0.096025 0.124834 0
0.188876 0.071107 0
0.249454 0.0622873 0
0.311772 0.0526589 0
0.374121 0.0423743 0
0.428992 0.0315557 0
0.480995 0.0204623 0
0.533501 0.00967422 0
0.585443 0 0
0.635508 0 0
0.682948 0 0
0.72694 0 0
0.767147 0 0
0.803693 0 0
0.835996 0 0
0.861479 0 0
0.879423 0 0
0.893202 0 0
0.904799 0 0
0.915526 0 0
0.926207 0 0
0.937469 0 0
0.949508 0 0
0 0.114733 0
0 0.11313 0
0 0.142031 0.0142367
0 0.142657 0.0119173
0 0.143221 0.00955215
0 0.143618 0.00665293
0 0.14374 0.00273136
0 0.143297 0
0.00691234 0.141527 0
0.0483711 0.136599 0
0.0952621 0.131228 0
0.189395 0.0781872 0
0.250095 0.0696574 0
0.312535 0.0604105 0
0.374853 0.0504616 0
0.429313 0.0400397 0
0.481346 0.0292821 0
0.534157 0.018616 0
0.586236 0.0087892 0
0.636454 0 0
0.684001 0 0
0.728313 0 0
0.768948 0 0
0.806043 0 0
0.838819 0 0
0.864866 0 0
0.88394 0 0
0.899184 0 0
0.912367 0 0
0.924468 0 0
0.936339 0 0
0.948898 0 0
0.962722 0 0
0 0.121569 0
0 0.119951 0
0 0.118822 0
0 0.149645 0.0128786
0 0.150286 0.0105898
0 0.15079 0.0077821
0 0.150988 0.00390631
0 0.150591 0
0.00459297 0.149004 0
0.0465248 0.144167 0
0.131228 0.093904 0
0.1906 0.0863813 0
0.251347 0.078172 0
0.314031 0.0694591 0
0.376608 0.0602121 0
0.430564 0.0504005 0
0.482719 0.0401923 0
0.535683 0.0301213 0
0.588205 0.0206607 0
0.638941 0.0127108 0
0.687007 0.00505074 0
0.73164 0 0
0.772839 0 0
0.811017 0 0
0.845273 0 0
0.872969 0 0
0.893126 0 0
0.909514 0 0
0.924071 0.00163272 0
0.937789 0.00758373 0
0.951186 0.0137636 0
0.96524 0.0198215 0
0.979889 0.0261234 0
0 0.129137 0
0 0.127672 0
0 0.126619 0
0 0.125902 0
0 0.125231 0
0 0.158892 0.00849927
0 0.15935 0.00491341
0 0.159213 0
0.00149538 0.157702 0
0.0439155 0.153017 0
0.132357 0.103349 0
0.19237 0.0964981 0
0.25359 0.0889601 0
0.316365 0.080766 0
0.378973 0.0721599 0
0.432547 0.0633249 0
0.485328 0.0543374 0
0.53875 0.0452888 0
0.591745 0.0368811 0
0.643229 0.0296483 0
0.692515 0.0238651 0
0.738628 0.019501 0
0.780987 0.0167086 0
0.820111 0.0146029 0
0.855589 0.014374 0
0.884489 0.0161593 0
0.906264 0.0196689 0
0.92401 0.0247654 0
0.939635 0.0305943 0
0.95462 0.0372931 0
0.969162 0.0441138 0
0.984039 0.0509804 0
0.999634 0.0577249 0
0 0.138277 0
0 0.136904 0
0 0.136095 0
0 0.135653 0
0 0.135225 0
0 0.134615 0
0 0.169589 0.00505074
0 0.169787 0
0 0.168688 0
0.0396582 0.164553 0
0.132891 0.115434 0
0.19379 0.109438 0
0.255955 0.102922 0
0.319509 0.0958419 0
0.382345 0.0881819 0
0.435279 0.0803235 0
0.489036 0.0728923 0
0.543969 0.0660716 0
0.598306 0.0596628 0
0.650767 0.0538643 0
0.700816 0.049134 0
0.74789 0.0458381 0
0.791821 0.0441291 0
0.832364 0.0434272 0
0.868711 0.0437629 0
0.898512 0.0460517 0
0.921202 0.0505531 0
0.940063 0.0563058 0
0.956985 0.0629892 0
0.972717 0.0698253 0
0.988663 0.0768597 0
1 0.084123 0
1 0.0914473 0
0 0.150179 0
0 0.149004 0
0 0.148425 0
0 0.148348 0
0 0.148531 0
0 0.14844 0
0 0.147799 0
0 0.146136 0
0.0266423 0.142596 0
0.0315862 0.180224 0
0.13257 0.132158 0
0.194186 0.126925 0
0.257404 0.121523 0
0.322515 0.116136 0
0.38703 0.110628 0
0.439994 0.104768 0
0.494667 0.0987106 0
0.550195 0.0927901 0
0.605493 0.087602 0
0.65919 0.0832685 0
0.710353 0.0796979 0
0.758404 0.0773022 0
0.803037 0.0760662 0
0.844373 0.0758679 0
0.881712 0.0769055 0
0.912413 0.0797284 0
0.93608 0.084535 0
0.95671 0.0909285 0
0.97496 0.0978256 0
0.992142 0.105211 0
1 0.112795 0
1 0.120485 0
1 0.128603 0
0 0.166735 0
0 0.166094 0
0 0.165972 0
0 0.166369 0
0 0.16701 0
0 0.167727 0
0 0.168093 0
0 0.167315 0
0.0131228 0.16466 0
0.0672313 0.159655 0
0.127749 0.155596 0
0.192477 0.152407 0
0.257633 0.148653 0
0.32372 0.144427 0
0.388907 0.140261 0
0.442283 0.135668 0
0.497978 0.130877 0
0.554376 0.125978 0
0.610269 0.121447 0
0.664668 0.117754 0
0.716854 0.115145 0
0.765591 0.113268 0
0.810819 0.112398 0
0.853117 0.112505 0
0.891798 0.113939 0
0.924193 0.117494 0
0.94931 0.12311 0
0.970199 0.129641 0
0.988983 0.136995 0
1 0.144976 0
1 0.153323 0
1 0.161944 0
1 0.170413 0.00947585
0 0.188067 0
0 0.188083 0
0 0.188846 0
0 0.190036 0
0 0.191379 0
0 0.192905 0
0 0.194522 0
0 0.195819 0
0 0.195087 0
0.0567025 0.190829 0
0.121401 0.186511 0
0.18822 0.184115 0
0.255268 0.181827 0
0.323293 0.179217 0
0.38854 0.175677 0
0.442405 0.17171 0
0.498665 0.167544 0
0.555764 0.163439 0
0.61239 0.159625 0
0.667521 0.156588 0
0.720378 0.154116 0
0.770367 0.152773 0
0.816983 0.152529 0
0.860243 0.153231 0
0.899611 0.155245 0
0.932616 0.15938 0
0.958251 0.165454 0
0.97998 0.172763 0
0.99939 0.180713 0
1 0.18912 0
1 0.198367 0.000534066
1 0.207416 0.0121767
1 0.216434 0.0238346
0 0.213993 0
0 0.214588 0
0 0.21619 0
0 0.218784 0
0 0.221897 0
0 0.224948 0
0 0.227832 0
0 0.229908 0
0 0.230457 0
0.0459297 0.227573 0
0.115343 0.223224 0
0.184695 0.220768 0
0.252949 0.219364 0
0.321447 0.217227 0
0.387533 0.214496 0
0.441917 0.211139 0
0.498589 0.207462 0
0.556817 0.204181 0
0.614466 0.200977 0
0.670527 0.198337 0
0.724102 0.196414 0
0.774594 0.195499 0
0.821836 0.195834 0
0.866239 0.19762 0
0.906233 0.200244 0
0.939574 0.204654 0
0.965667 0.211154 0
0.987961 0.218967 0
1 0.22771 0
1 0.23711 0
1 0.246464 0.0111849
1 0.256031 0.0232853
1 0.265675 0.0355077
0 0.244862 0
0 0.247074 0
0 0.249928 0
0 0.253376 0
0 0.257542 0
0 0.261906 0
0 0.26598 0
0 0.269139 0
0 0.270604 0
0.033875 0.268605 0
0.10721 0.264515 0
0.180423 0.261646 0
0.24947 0.260121 0
0.318654 0.258442 0
0.385992 0.256291 0
0.441276 0.253651 0
0.499245 0.25095 0
0.557702 0.247776 0
0.615854 0.244999 0
0.672557 0.242969 0
0.726955 0.241794 0
0.778134 0.24155 0
0.826246 0.242725 0
0.870771 0.244648 0
0.911421 0.247929 0
0.945525 0.253162 0
0.972259 0.26038 0
0.995071 0.268849 0
1 0.278386 0
1 0.288121 0.00730907
1 0.298131 0.0199588
1 0.308156 0.0325933
1 0.31812 0.0451667
0 0.281117 0
0 0.284443 0
0 0.28864 0
0 0.293507 0
0 0.298543 0
0 0.303548 0
0 0.308385 0
0 0.312428 0
0 0.314717 0
0.0203708 0.313756 0
0.0954299 0.309697 0
0.173007 0.306172 0
0.244999 0.304692 0
0.31545 0.303532 0
0.384039 0.301854 0
0.440299 0.300114 0
0.498619 0.297765 0
0.55787 0.295354 0
0.616617 0.293156 0
0.673793 0.291554 0
0.729091 0.291279 0
0.781033 0.291768 0
0.82948 0.293278 0
0.874556 0.295735 0
0.915618 0.299413 0
0.950149 0.305074 0
0.977905 0.313313 0
1 0.322301 0
1 0.331945 0.000686656
1 0.342061 0.0133364
1 0.352499 0.0263066
1 0.363088 0.0393835
1 0.374029 0.052842
0 0.32256 0
0 0.326635 0
0 0.331777 0
0 0.337316 0
0 0.34313 0
0 0.348867 0
0 0.35433 0
0 0.359289 0
0 0.362753 0
0.00531014 0.362615 0
0.0813458 0.359258 0
0.162676 0.3552 0
0.238651 0.353094 0
0.311666 0.352422 0
0.381811 0.351553 0
0.438529 0.34992 0
0.497322 0.347997 0
0.557137 0.346151 0
0.616663 0.344656 0
0.674876 0.344091 0
0.730343 0.343954 0
0.782635 0.344793 0
0.831571 0.346822 0
0.877226 0.349889 0
0.918776 0.354131 0
0.954116 0.360693 0
0.981674 0.368917 0
1 0.378424 0
1 0.388754 0.00415045
1 0.399542 0.0171206
1 0.410498 0.0302434
1 0.421897 0.0439155
1 0.432685 0.0568856
0 0.367575 0
0 0.372747 0
0 0.378424 0
0 0.384695 0
0 0.391394 0
0 0.398184 0
0 0.404776 0
0 0.410758 0
0 0.415091 0
0 0.416114 0
0.0653086 0.413764 0
0.150103 0.409705 0
0.231006 0.407004 0
0.306691 0.405844 0
0.378271 0.405158 0
0.436408 0.404242 0
0.495796 0.402869 0
0.556039 0.401389 0
0.616419 0.400732 0
0.6748 0.400305 0
0.73077 0.400687 0
0.783505 0.402014 0
0.832715 0.404395 0
0.878965 0.408194 0
0.920974 0.413031 0
0.956161 0.419654 0
0.983932 0.428305 0
1 0.438117 0
1 0.448569 0.00508125
1 0.459815 0.018616
1 0.470832 0.0318151
1 0.481743 0.044892
1 0.492424 0.0577401
0 0.416419 0
0 0.422492 0
0 0.429343 0
0 0.436683 0
0 0.444251 0
0 0.452506 0
0 0.460136 0
0 0.466911 0
0 0.471885 0
0 0.473487 0
0.0491493 0.471962 0
0.137057 0.46865 0
0.222354 0.465278 0
0.301366 0.46334 0
0.374884 0.462409 0
0.434241 0.461738 0
0.494408 0.461173 0
0.555444 0.460502 0
0.615732 0.459754 0
0.674372 0.459602 0
0.730602 0.460258 0
0.783673 0.461936 0
0.833494 0.464942 0
0.879744 0.468727 0
0.921691 0.473503 0
0.956909 0.480156 0
0.984695 0.488838 0
1 0.49865 0
1 0.509468 0.00442512
1 0.520211 0.0173342
1 0.530922 0.0301976
1 0.541527 0.0429236
1 0.551965 0.0554818
0 0.469276 0
0 0.476051 0
0 0.483864 0
0 0.492348 0
0 0.50132 0
0 0.509728 0
0 0.517845 0
0 0.525231 0
0 0.531014 0
0 0.533455 0
0.0357824 0.532753 0
0.124361 0.529503 0
0.213306 0.525826 0
0.296147 0.523384 0
0.372274 0.522087 0
0.433097 0.521523 0
0.493675 0.521096 0
0.554757 0.520455 0
0.615381 0.520073 0
0.674281 0.520165 0
0.730648 0.520974 0
0.784222 0.523171 0
0.833753 0.525887 0
0.879866 0.529534 0
0.921813 0.53431 0
0.956954 0.540887 0
0.984833 0.549645 0
1 0.559396 0
1 0.569512 0.0016022
1 0.57995 0.0141604
1 0.590402 0.0267033
1 0.600595 0.0389563
1 0.610803 0.0512551
0 0.524834 0
0 0.532616 0
0 0.541009 0
0 0.550378 0
0 0.55967 0
0 0.568856 0
0 0.577554 0
0 0.585351 0
0 0.592004 0
0 0.59498 0
0.0257115 0.594629 0
0.11519 0.591867 0
0.206226 0.588037 0
0.292073 0.584939 0
0.371206 0.583505 0
0.433082 0.582544 0
0.494057 0.581689 0
0.555291 0.581003 0
0.615946 0.580636 0
0.674998 0.580911 0
0.731716 0.582071 0
0.784802 0.583764 0
0.834226 0.586374 0
0.880095 0.589776 0
0.921752 0.594263 0
0.956863 0.600793 0
0.984497 0.609308 0
1 0.61854 0
1 0.628199 0
1 0.638041 0.00987259
1 0.648005 0.0218509
1 0.658122 0.0339971
1 0.667689 0.0455482
0 0.581949 0
0 0.590845 0
0 0.600015 0
0 0.609476 0
0 0.61915 0
0 0.628779 0
0 0.638056 0
0 0.646845 0
0 0.653422 0
0 0.656672 0
0.0203708 0.656703 0
0.110536 0.654368 0
0.20267 0.65066 0
0.291066 0.647471 0
0.371405 0.644846 0
0.434012 0.643336 0
0.495796 0.642069 0
0.557397 0.641123 0
0.618128 0.640696 0
0.677256 0.641047 0
0.733379 0.641596 0
0.786175 0.642985 0
0.83534 0.64535 0
0.880995 0.648524 0
0.922744 0.653117 0
0.957107 0.658885 0
0.983948 0.66659 0
1 0.67538 0
1 0.684657 0
1 0.694148 0.00587472
1 0.703639 0.0173037
1 0.712718 0.0282597
1 0.721599 0.0390021
0 0.640421 0
0 0.649439 0
0 0.659052 0
0 0.669078 0
0 0.679225 0
0 0.689143 0
0 0.699123 0
0 0.707759 0
0 0.714656 0
0 0.718181 0
0.0207218 0.71841 0
0.111772 0.71664 0
0.203647 0.712963 0
0.29218 0.708934 0
0.373663 0.705623 0
0.436423 0.703487 0
0.499001 0.701534 0
0.561364 0.70042 0
0.621973 0.699397 0
0.680507 0.699031 0
0.73637 0.699321 0
0.788739 0.700298 0
0.837415 0.702129 0
0.882948 0.70518 0
0.923858 0.708919 0
0.957809 0.714275 0
0.98407 0.72137 0
1 0.729397 0
1 0.738125 0
1 0.74725 0.00218204
1 0.755993 0.012726
1 0.764385 0.0228885
1 0.772442 0.0326543
0 0.698894 0
0 0.708202 0
0 0.718059 0
0 0.728389 0
0 0.739132 0
0 0.749508 0
0 0.759213 0
0 0.76791 0
0 0.774838 0
0 0.778393 0
0.0274052 0.77908 0
0.117678 0.777005 0
0.208392 0.773236 0
0.29662 0.768765 0
0.376761 0.764736 0
0.440284 0.761822 0
0.504189 0.75964 0
0.566522 0.757336 0
0.627054 0.75555 0
0.685191 0.754452 0
0.740581 0.754208 0
0.792599 0.754803 0
0.841169 0.756542 0
0.885634 0.758511 0
0.925795 0.761486 0
0.959182 0.766247 0
0.984985 0.7729 0
1 0.780774 0
1 0.788602 0
1 0.796643 0
1 0.804791 0.00892653
1 0.812711 0.0185245
1 0.820249 0.0276951
0 0.75671 0
0 0.766339 0
0 0.776455 0
0 0.787213 0
0 0.797864 0
0 0.808103 0
0 0.817823 0
0 0.82652 0
0 0.833387 0
0 0.837247 0
0.0386206 0.837293 0
0.127794 0.834943 0
0.216907 0.831067 0
0.304189 0.826291 0
0.381689 0.822065 0
0.446128 0.818235 0
0.510094 0.814542 0
0.572839 0.811444 0
0.633509 0.808972 0
0.691386 0.807141 0
0.746532 0.806439 0
0.797848 0.806287 0
0.845487 0.80708 0
0.889494 0.808576 0
0.929061 0.810925 0
0.961654 0.814878 0
0.987106 0.821164 0
1 0.828107 0
1 0.835447 0
1 0.842817 0
1 0.850126 0.00646983
1 0.857359 0.015259
1 0.864622 0.0241093
0 0.813794 0
0 0.823575 0
0 0.834089 0
0 0.844526 0
0 0.854978 0
0 0.86511 0
0 0.874601 0
0 0.883238 0
0 0.890043 0
0 0.893217 0
0.054139 0.892973 0
0.141161 0.890318 0
0.228153 0.88603 0
0.314061 0.881071 0
0.387793 0.876234 0
0.452735 0.871473 0
0.517113 0.866743 0
0.579934 0.862486 0
0.640574 0.859068 0
0.698665 0.856901 0
0.753155 0.855207 0
0.8038 0.854246 0
0.850629 0.854185 0
0.893996 0.855024 0
0.933074 0.856886 0
0.965499 0.86067 0
0.989837 0.865812 0
1 0.871931 0
1 0.878645 0
1 0.885527 0
1 0.892622 0.00582895
1 0.899062 0.0136873
1 0.905211 0.0212406
0 0.8692 0
0 0.87921 0
0 0.889204 0
0 0.899382 0
0 0.909529 0
0 0.919402 0
0 0.928847 0
0 0.937179 0
0 0.943252 0
0 0.945846 0
0.07393 0.945144 0
0.158175 0.942275 0
0.243534 0.938079 0
0.326421 0.932204 0
0.39559 0.926589 0
0.460853 0.920928 0
0.525628 0.915389 0
0.588907 0.91046 0
0.649531 0.906142 0
0.706905 0.902617 0
0.760983 0.900145 0
0.811261 0.898604 0
0.857511 0.897887 0
0.900343 0.898177 0
0.938735 0.899336 0
0.970245 0.90219 0
0.994125 0.906859 0
1 0.912352 0
1 0.918257 0
1 0.924712 0
1 0.930892 0.00650034
1 0.936568 0.0134585
1 0.941527 0.0196078
0 0.921386 0
0 0.930678 0
0 0.940429 0
0 0.950347 0
0 0.960159 0
0 0.969879 0
0 0.978592 0
0 0.986236 0
0 0.991897 0
0.0234989 0.993912 0
0.10135 0.992599 0
0.182208 0.989517 0
0.264088 0.984573 0
0.344015 0.978393 0
0.408011 0.972351 0
0.473106 0.965667 0
0.538094 0.959319 0
0.601465 0.953552 0
0.661936 0.948318 0
0.71899 0.943938 0
0.772457 0.94049 0
0.822171 0.93817 0
0.868193 0.937118 0
0.910369 0.936706 0
0.947997 0.937072 0
0.978714 0.939116 0
1 0.94313 0
1 0.948013 0
1 0.953292 0
1 0.958083 0.00401312
1 0.962768 0.00979629
1 0.967285 0.0154116
1 0.971252 0.0203861
0 0.968978 0
0 0.977798 0
0 0.986969 0
0 0.996414 0
0 1 0
0 1 0
0 1 0
0 1 0
0 1 0
0.0616922 1 0
0.135882 1 0
0.212924 1 0
0.290898 1 0
0.361822 1 0
0.425513 1 0
0.490867 1 0
0.555444 0.998306 0
0.618296 0.991333 0
0.678553 0.985321 0
0.735393 0.980331 0
0.788632 0.976349 0
0.837858 0.973388 0
0.882963 0.971283 0
0.924437 0.970123 0
0.961395 0.969802 0
0.991073 0.970779 0
1 0.973465 0
1 0.977066 0.00262455
1 0.981003 0.00764477
1 0.984741 0.0123445
1 0.987869 0.0163272
1 0.990387 0.0195926
1 0.992676 0.0226139
0 1 0
0 1 0
0 1 0
0 1 0
0 1 0
0 1 0
0 1 0
0 1 0
0.0411994 1 0
