assets/luts/LUTs/CinePacks_MVP2_Airdrop.CUBE
LUT_3D_SIZE 6
0.028870 0.031769 0.037903
0.145654 0.034089 0.036975
0.362958 0.041358 0.036603
0.566303 0.045447 0.037024
0.595648 0.046930 0.037231
0.612186 0.048033 0.037323
0.027478 0.114954 0.038831
0.101094 0.107599 0.038447
0.327546 0.097691 0.036739
0.578508 0.094138 0.038112
0.617983 0.080519 0.038193
0.630608 0.076544 0.038055
0.032178 0.265674 0.044947
0.057936 0.257677 0.044880
0.313065 0.268473 0.051298
0.686973 0.269441 0.063016
0.765832 0.245627 0.057311
0.778501 0.239294 0.056311
0.055798 0.477161 0.068695
0.069015 0.467786 0.067474
0.261398 0.512513 0.098289
0.736556 0.602156 0.166742
0.863601 0.525412 0.134095
0.873270 0.506330 0.126603
0.119659 0.674890 0.118396
0.136778 0.678549 0.119613
0.235720 0.711853 0.138409
0.667516 0.827583 0.230548
0.878737 0.810356 0.232374
0.912211 0.802499 0.230061
0.133340 0.705395 0.127610
0.151326 0.709698 0.129032
0.217136 0.735552 0.141464
0.615544 0.850210 0.227658
0.857615 0.855898 0.241249
0.913216 0.856568 0.243128
0.029248 0.033588 0.152716
0.138763 0.033086 0.142391
0.360773 0.037668 0.118301
0.560665 0.043557 0.100392
0.591218 0.044506 0.089797
0.607482 0.044775 0.085486
0.028229 0.113065 0.114160
0.099758 0.106429 0.107879
0.343875 0.098490 0.091503
0.582275 0.092079 0.076711
0.618467 0.077997 0.064544
0.631204 0.074805 0.061401
0.031958 0.262813 0.075415
0.055694 0.255706 0.068482
0.307898 0.264109 0.067930
0.684094 0.266531 0.076726
0.766175 0.242820 0.071763
0.779416 0.236735 0.070735
0.054964 0.474988 0.084489
0.068698 0.467427 0.084009
0.254403 0.506593 0.110261
0.735111 0.600505 0.180454
0.863357 0.520283 0.145672
0.873210 0.501641 0.138400
0.120683 0.676173 0.133589
0.137894 0.681141 0.134226
0.239648 0.714097 0.152744
0.665404 0.827168 0.243430
0.878483 0.809757 0.245670
0.912992 0.801448 0.242916
0.134164 0.706154 0.142893
0.153679 0.713096 0.143559
0.220358 0.738488 0.156453
0.612916 0.850793 0.241020
0.856384 0.857409 0.254285
0.914040 0.857692 0.257085
0.031415 0.032776 0.332276
0.125392 0.032540 0.326538
0.339455 0.034215 0.308094
0.573287 0.040009 0.278157
0.608925 0.040488 0.260006
0.625151 0.040923 0.252907
0.032223 0.105752 0.299648
0.094597 0.101137 0.303340
0.321463 0.083257 0.279956
0.587086 0.077921 0.250509
0.627570 0.065305 0.227991
0.638074 0.063016 0.222055
0.036689 0.273093 0.270939
0.056135 0.264234 0.262771
0.305346 0.292653 0.277028
0.698193 0.282173 0.249221
0.783926 0.253449 0.216760
0.794650 0.245485 0.209316
0.074974 0.535027 0.256818
0.085167 0.518074 0.242122
0.223766 0.517058 0.220562
0.738469 0.610091 0.271146
0.867908 0.519444 0.215837
0.876786 0.498339 0.203163
0.129097 0.694236 0.213042
0.146222 0.697528 0.208304
0.249579 0.728615 0.212831
0.663510 0.827989 0.277168
0.876903 0.807682 0.266192
0.913991 0.799079 0.261180
0.141897 0.718801 0.197756
0.159822 0.723935 0.193152
0.223202 0.746560 0.190595
0.608111 0.852566 0.258470
0.853327 0.858682 0.267497
0.914852 0.859119 0.270428
0.033807 0.032055 0.454413
0.114947 0.032267 0.455667
0.315300 0.035053 0.476653
0.533749 0.039671 0.466317
0.584319 0.039929 0.453751
0.607558 0.039960 0.449080
0.035840 0.097951 0.454255
0.089784 0.092688 0.459381
0.276222 0.078556 0.465725
0.526226 0.068864 0.446865
0.597791 0.057730 0.429289
0.618662 0.056915 0.423527
0.043712 0.270177 0.490374
0.061049 0.261587 0.484078
0.245861 0.306387 0.548516
0.636152 0.253663 0.483374
0.768746 0.231479 0.449708
0.782050 0.223802 0.439528
0.140304 0.663862 0.650275
0.151913 0.649743 0.636935
0.252110 0.642248 0.628944
0.690142 0.664952 0.614324
0.893586 0.585245 0.523456
0.903342 0.562668 0.503151
0.177084 0.804950 0.543414
0.193023 0.803249 0.534386
0.245626 0.804832 0.522082
0.573628 0.848068 0.526756
0.888270 0.831906 0.465782
0.930166 0.823667 0.453303
0.178946 0.804685 0.484711
0.196380 0.804518 0.472396
0.228304 0.804912 0.450319
0.533297 0.870618 0.468038
0.856743 0.871064 0.412331
0.924570 0.870682 0.402917
0.034082 0.032013 0.469226
0.110690 0.032233 0.471541
0.305255 0.034976 0.498672
0.523653 0.039758 0.498233
0.579307 0.039918 0.495018
0.603879 0.040051 0.494630
0.036126 0.093029 0.477963
0.085858 0.088160 0.487817
0.261158 0.074807 0.504804
0.504183 0.064399 0.501158
0.589087 0.056578 0.496334
0.612160 0.055723 0.495127
0.045066 0.261421 0.548943
0.061441 0.254030 0.548799
0.231071 0.303356 0.638789
0.564728 0.225598 0.575417
0.712159 0.204751 0.561780
0.726979 0.198401 0.559195
0.147870 0.672158 0.814193
0.161237 0.661704 0.812113
0.260278 0.659696 0.822820
0.672176 0.702066 0.850741
0.900020 0.673588 0.825481
0.915877 0.661842 0.818735
0.183921 0.839522 0.836511
0.199732 0.839663 0.835893
0.241357 0.837181 0.833711
0.493720 0.856751 0.843453
0.885257 0.867763 0.831611
0.938568 0.858451 0.819441
0.187416 0.860325 0.827055
0.203014 0.862235 0.822792
0.224981 0.863945 0.812969
0.432059 0.892899 0.821966
0.841110 0.924117 0.794733
0.946392 0.924770 0.765851
0.034302 0.032013 0.481547
0.109046 0.032172 0.484610
0.299523 0.034931 0.512606
0.519681 0.039740 0.512410
0.576707 0.040331 0.509151
0.601831 0.040739 0.508767
0.036278 0.091571 0.490500
0.085003 0.086838 0.501413
0.257275 0.073748 0.518714
0.498139 0.063184 0.515099
0.585819 0.056285 0.510440
0.609237 0.055365 0.509177
0.045220 0.258343 0.560476
0.061411 0.251280 0.561071
0.228846 0.301677 0.652752
0.559536 0.225291 0.591668
0.707973 0.203889 0.576601
0.721183 0.195274 0.572299
0.147941 0.670706 0.829386
0.161660 0.659771 0.827836
0.258144 0.657133 0.837996
0.668915 0.701166 0.867139
0.898342 0.673404 0.845144
0.913950 0.658929 0.838453
0.185825 0.840234 0.857945
0.200532 0.839362 0.859355
0.241309 0.836776 0.863541
0.491234 0.854907 0.882475
0.882349 0.870097 0.892273
0.935782 0.860309 0.889240
0.189540 0.861577 0.860079
0.205966 0.863146 0.862714
0.226265 0.866621 0.864504
0.429773 0.891449 0.881737
0.819886 0.928810 0.903913
0.946807 0.936338 0.906461
