assets/luts/LUTs/CinePacks_MVP2_Aerospace .CUBE
TITLE "Generate by Resolve"
LUT_3D_SIZE 5
0.0394446 0.0842603 0.0883345
0.199542 0.0833906 0.0794232
0.511025 0.0647746 0.0506142
0.702892 0.0419623 0.030457
0.900221 0.0206912 0.00946059
0.0375219 0.187198 0.0789807
0.139727 0.181628 0.0761425
0.521172 0.191287 0.0554665
0.73994 0.180179 0.0456092
0.939483 0.161929 0.0356298
0.0149233 0.368551 0.0612802
0.113924 0.361868 0.0658732
0.512764 0.442329 0.0496529
0.793408 0.43949 0.0443885
0.966644 0.408682 0.0410468
0.00631724 0.56553 0.0457771
0.107836 0.558679 0.0525826
0.425025 0.652247 0.0411688
0.810224 0.700236 0.0344549
0.970535 0.689143 0.0326238
0.000289921 0.760357 0.0271153
0.102617 0.764553 0.0361944
0.266697 0.810529 0.0300603
0.782177 0.893187 0.0273747
0.97203 0.890227 0.0254063
0.0385901 0.0941634 0.221637
0.195056 0.0713512 0.237217
0.520333 0.0420539 0.203998
0.715282 0.0202182 0.172335
0.912154 0.00254826 0.142794
0.0163577 0.197345 0.206439
0.132982 0.184283 0.191562
0.542199 0.14786 0.157687
0.764263 0.14052 0.138827
0.947646 0.132845 0.131167
0.0193332 0.377508 0.176699
0.118654 0.369451 0.178012
0.504005 0.44358 0.142031
0.800305 0.440055 0.136629
0.971084 0.407691 0.132342
0.0124056 0.570199 0.161013
0.113954 0.561349 0.162432
0.411154 0.651209 0.130312
0.810925 0.702998 0.132235
0.975586 0.690501 0.125658
0.0065919 0.764309 0.13521
0.109224 0.767788 0.142
0.260014 0.801541 0.135836
0.77937 0.895171 0.117281
0.977203 0.893339 0.115023
0.0321508 0.0997635 0.403754
0.174914 0.0649729 0.450538
0.519219 0.0375067 0.434699
0.719387 0.0153811 0.413535
0.911757 0 0.391653
0.0286564 0.210407 0.410208
0.12224 0.203616 0.403464
0.535042 0.144671 0.469932
0.767498 0.133532 0.453803
0.942596 0.111543 0.426978
0 0.418631 0.430045
0.0929427 0.410742 0.429297
0.473472 0.467613 0.478202
0.825299 0.454719 0.460212
0.974517 0.414588 0.430274
0.0137942 0.607721 0.408911
0.116213 0.600168 0.400122
0.284398 0.68304 0.415656
0.830762 0.733974 0.372641
0.97995 0.718288 0.343679
0.00820935 0.796994 0.368124
0.111467 0.797971 0.367926
0.237003 0.813764 0.370962
0.791775 0.924056 0.335134
0.982071 0.918059 0.340856
0.0250095 0.098085 0.590768
0.152407 0.0739605 0.63769
0.516869 0.0364538 0.646799
0.720439 0.0153658 0.625406
0.909514 0 0.60267
0.0235599 0.212024 0.604166
0.118639 0.206851 0.597971
0.522866 0.139757 0.719554
0.764019 0.125124 0.704723
0.940505 0.107958 0.674815
0.0155032 0.423285 0.643091
0.116274 0.415259 0.641672
0.427619 0.462715 0.77171
0.818021 0.452354 0.768536
0.973816 0.413642 0.747662
0.013138 0.624918 0.642374
0.115236 0.623713 0.645106
0.278233 0.697169 0.727199
0.82295 0.75845 0.753826
0.981247 0.745327 0.739788
0.00791943 0.82414 0.629404
0.111208 0.828534 0.639963
0.228931 0.831952 0.64889
0.7673 0.950652 0.725429
0.983322 0.946471 0.721813
0.0177157 0.0927138 0.801434
0.129122 0.0869306 0.822721
0.512871 0.03122 0.874769
0.72517 0.0122835 0.864363
0.907042 0 0.845838
0.0191958 0.2103 0.823117
0.114824 0.206332 0.820737
0.516197 0.157717 0.959106
0.769955 0.133242 0.949508
0.940734 0.11284 0.926741
0.0136721 0.421241 0.866148
0.114794 0.41416 0.867033
0.390219 0.454658 1
0.811749 0.445258 1
0.972839 0.407889 0.994034
0.0118715 0.625376 0.8701
0.114458 0.62591 0.878248
0.273289 0.684596 0.95317
0.813931 0.758694 1
0.980972 0.745663 1
0.00704967 0.828794 0.867369
0.110567 0.833341 0.879179
0.229847 0.835355 0.887831
0.721798 0.959457 1
0.98294 0.9523 0.991638
