assets/luts/LUTs/CinePacks_MVP2_Low Altitude.CUBE
TITLE "Generate by Resolve"
LUT_3D_SIZE 33
0.030457 0.0316472 0.0322576
0.0429847 0.0326238 0.0327001
0.0548104 0.0336614 0.0332341
0.0663005 0.034638 0.0337224
0.077821 0.0355383 0.0341192
0.0897536 0.036286 0.0343633
0.102617 0.0369268 0.0344091
0.116655 0.0370336 0.033875
0.132815 0.0365301 0.032578
0.152056 0.035172 0.0302281
0.175128 0.0327916 0.0266423
0.201389 0.029572 0.0220035
0.23151 0.025452 0.0162356
0.264744 0.0203708 0.00927749
0.300298 0.0146792 0.00154116
0.336614 0.0087892 0
0.372061 0.00314336 0
0.404929 0 0
0.434379 0 0
0.460533 0 0
0.484352 0 0
0.506813 0 0
0.528328 0 0
0.549142 0 0
0.569253 0 0
0.589029 0 0
0.608469 0 0
0.627832 0 0
0.647242 0 0
0.666789 0 0
0.686442 0 0
0.706523 0 0
0.726452 0 0
0.0323033 0.0461433 0.0350042
0.0445563 0.0468299 0.0351415
0.056199 0.0476539 0.035462
0.0675669 0.0485084 0.0358282
0.079057 0.0493782 0.0362097
0.0908827 0.0500191 0.0363317
0.103487 0.0504005 0.0361181
0.117433 0.0504158 0.0354925
0.133547 0.0498512 0.0341344
0.152758 0.0484627 0.0317693
0.175906 0.0461585 0.0282444
0.202426 0.0428016 0.0238346
0.232441 0.0385595 0.0179599
0.265415 0.0336004 0.0107881
0.301015 0.0279545 0.00309758
0.337407 0.0221408 0
0.373007 0.0166934 0
0.405829 0.0118715 0
0.43537 0.00794995 0
0.461692 0.00497444 0
0.485725 0.00265507 0
0.50837 0.000747692 0
0.530114 0 0
0.551019 0 0
0.57142 0 0
0.591546 0 0
0.611261 0 0
0.6309 0 0
0.65069 0 0
0.670619 0 0
0.690806 0 0
0.711315 0 0
0.73164 0 0
0.0341497 0.0597391 0.0376593
0.0462806 0.0603037 0.0376745
0.0577859 0.0609903 0.0378576
0.0691081 0.061799 0.0381781
0.0804761 0.0625315 0.038407
0.0922408 0.0631113 0.038468
0.104814 0.063447 0.0382239
0.11873 0.0634318 0.0375677
0.134813 0.0628519 0.0361791
0.154131 0.0615549 0.0339055
0.177218 0.0591745 0.0304417
0.2038 0.0558938 0.0259861
0.23389 0.0517281 0.0201724
0.267216 0.0467231 0.0133364
0.302892 0.0411383 0.00573739
0.339239 0.0356603 0
0.374899 0.0302739 0
0.407889 0.0256199 0
0.437598 0.0218662 0
0.464042 0.0190433 0
0.488411 0.0170748 0
0.51136 0.0154726 0
0.533318 0.0141909 0
0.554482 0.0131685 0
0.575128 0.0124208 0
0.595636 0.0119783 0
0.616022 0.0119631 0
0.636118 0.0119326 0
0.656214 0.0119783 0
0.676555 0.0122377 0
0.697353 0.0127718 0
0.718746 0.0135195 0
0.739986 0.0145876 0
0.0358129 0.0728161 0.0401312
0.0478981 0.0733196 0.0400854
0.0594797 0.0740826 0.0403296
0.0707103 0.0747692 0.0405432
0.0820172 0.0754406 0.0407111
0.0937667 0.0760052 0.0407416
0.106355 0.0763561 0.0405127
0.120378 0.0764477 0.0399634
0.136584 0.0759747 0.0386969
0.155871 0.0746471 0.0363928
0.179004 0.0723278 0.0328679
0.205676 0.0691234 0.0286107
0.235889 0.0650797 0.0229343
0.269505 0.0603647 0.0163729
0.305394 0.0549935 0.00900282
0.342046 0.0494087 0.00135805
0.37789 0.0441749 0
0.410864 0.0398871 0
0.440894 0.0364691 0
0.467765 0.0340734 0
0.492256 0.0322271 0
0.515496 0.0308995 0
0.537881 0.030045 0
0.559579 0.0295415 0
0.580697 0.0292668 0
0.60174 0.0293431 0
0.622446 0.0296483 0
0.643275 0.0303197 0
0.66421 0.03122 0
0.685237 0.0321508 0
0.706661 0.0332799 0
0.728985 0.0349432 0
0.751232 0.0369726 0
0.0373236 0.0858167 0.0424201
0.0494545 0.0863508 0.0424201
0.0609293 0.0869917 0.0425574
0.0721599 0.0877089 0.042771
0.0835431 0.0884413 0.0429999
0.0953689 0.0890669 0.043122
0.10808 0.0895399 0.0430152
0.122164 0.0896925 0.0425116
0.138415 0.0892805 0.0413062
0.15787 0.0881056 0.0391546
0.181201 0.0859846 0.0358129
0.208026 0.0829328 0.0317235
0.238483 0.079118 0.026276
0.272236 0.0745403 0.019852
0.308385 0.0694133 0.0127565
0.345373 0.0641794 0.00546273
0.381491 0.059205 0
0.415 0.0550393 0
0.445518 0.052079 0
0.472755 0.0500343 0
0.49749 0.0488136 0
0.521141 0.0478981 0
0.543923 0.047425 0
0.566323 0.0476234 0
0.588266 0.0481422 0
0.609964 0.0488746 0
0.631312 0.0497902 0
0.65275 0.0510719 0
0.674586 0.0528267 0
0.697108 0.0552224 0
0.719722 0.0575113 0
0.742702 0.0598154 0
0.765637 0.062501 0
0.038468 0.0990005 0.0443885
0.0505989 0.0995346 0.0443732
0.0621347 0.100252 0.0445716
0.0734417 0.10103 0.0448615
0.0848859 0.101823 0.0451667
0.0969558 0.102693 0.0455024
0.109789 0.103288 0.0455329
0.123995 0.103563 0.0451514
0.140414 0.103304 0.0440986
0.160006 0.102281 0.0420996
0.183627 0.100435 0.0390326
0.210864 0.0977798 0.0353399
0.24155 0.0941939 0.0301366
0.275517 0.0898146 0.0239261
0.311925 0.0849622 0.0170901
0.349294 0.0800946 0.010193
0.386023 0.0757305 0.00383001
0.420096 0.0721141 0
0.450843 0.0693828 0
0.478523 0.0677501 0
0.504189 0.0670481 0
0.528679 0.0669566 0
0.552361 0.0673686 0
0.575265 0.06804 0
0.597879 0.0692302 0
0.620615 0.0709697 0
0.643244 0.0731518 0
0.665782 0.0754864 0
0.688624 0.0782483 0
0.711635 0.081117 0
0.735195 0.0843366 0
0.759289 0.0877241 0
0.783093 0.0912795 0.00161746
0.0389715 0.112642 0.0457618
0.051194 0.113268 0.0458381
0.0628824 0.114122 0.0461891
0.0743877 0.115099 0.0466773
0.0861219 0.116182 0.0472572
0.0982071 0.117067 0.0476234
0.111208 0.11783 0.0478218
0.125689 0.118379 0.047715
0.142443 0.118441 0.0469825
0.162371 0.117754 0.0453346
0.186267 0.116182 0.0425422
0.213718 0.113741 0.0390478
0.244846 0.110597 0.0343023
0.279347 0.106752 0.0286259
0.316213 0.102327 0.0222324
0.35404 0.0979171 0.0157931
0.391272 0.0940414 0.00994888
0.426001 0.0910811 0.00517281
0.457603 0.089189 0.00166323
0.485954 0.0882277 0
0.512215 0.0880903 0
0.537743 0.0890059 0
0.562432 0.090425 0
0.586557 0.0922866 0
0.610117 0.0943923 3.0518e-05
0.633555 0.0968338 0.00151064
0.657145 0.0999466 0.00369268
0.680812 0.10341 0.00624094
0.704479 0.106966 0.00886549
0.728252 0.110582 0.0115663
0.752468 0.114412 0.0144656
0.777356 0.118593 0.0176852
0.802533 0.123476 0.0216373
0.0386969 0.127275 0.0464485
0.0510719 0.128038 0.0466926
0.0628977 0.129046 0.0471809
0.0747234 0.130327 0.0479744
0.0866407 0.131594 0.0487526
0.0990616 0.13283 0.0494545
0.112337 0.133852 0.0499123
0.127047 0.13463 0.0500343
0.144289 0.13518 0.0498054
0.164675 0.134951 0.0486
0.188998 0.133791 0.0462348
0.216846 0.131746 0.0431525
0.248371 0.129 0.0387884
0.283482 0.12575 0.0337224
0.321309 0.122286 0.0282902
0.359869 0.118593 0.0225834
0.39762 0.115221 0.017258
0.43299 0.112886 0.0131228
0.465522 0.111894 0.0105592
0.495216 0.112261 0.00955215
0.522805 0.113451 0.00950637
0.548943 0.114961 0.00987259
0.574334 0.117052 0.0108797
0.599313 0.119753 0.0125582
0.623972 0.122942 0.0147707
0.648554 0.126497 0.0173495
0.672801 0.130236 0.0201572
0.697047 0.134249 0.0232395
0.721614 0.138689 0.0267491
0.746517 0.143389 0.0305028
0.771649 0.14815 0.0343023
0.797498 0.153246 0.0384222
0.823133 0.158602 0.0428321
0.0369268 0.143282 0.0458076
0.0497444 0.144518 0.0464942
0.0618906 0.14583 0.047303
0.0738384 0.147234 0.0482338
0.0859998 0.148775 0.0492714
0.0988174 0.150393 0.05037
0.112612 0.151934 0.0513466
0.127962 0.153353 0.0521248
0.145434 0.154131 0.0521248
0.166262 0.154345 0.0513466
0.191241 0.153841 0.0496529
0.219944 0.152636 0.0474098
0.252232 0.150637 0.0437934
0.288075 0.148104 0.0394598
0.326467 0.145205 0.0345922
0.366094 0.14255 0.0299535
0.405127 0.140459 0.0259098
0.44155 0.139147 0.0228122
0.474907 0.138979 0.0210574
0.505425 0.140139 0.0208591
0.533837 0.142123 0.0216068
0.561074 0.144701 0.0230411
0.58732 0.147631 0.0248875
0.61294 0.150973 0.0272068
0.638666 0.1552 0.0304265
0.664103 0.159579 0.0338293
0.689311 0.164248 0.0375525
0.714366 0.169055 0.041413
0.73959 0.174121 0.0455329
0.765408 0.179736 0.0501717
0.791775 0.185687 0.0551614
0.818402 0.191562 0.059678
0.844388 0.197635 0.0648051
0.0335546 0.161425 0.0437476
0.0462654 0.162921 0.0447395
0.058854 0.164691 0.0460059
0.0713054 0.166629 0.0474556
0.0839094 0.168597 0.0489357
0.0971084 0.170611 0.0500496
0.111574 0.172854 0.0517281
0.12752 0.174868 0.0531014
0.14583 0.176486 0.0539254
0.1673 0.177325 0.0538186
0.192874 0.177432 0.0527047
0.222629 0.177264 0.0515145
0.256077 0.176425 0.0490578
0.292988 0.174945 0.0457771
0.332296 0.17293 0.0418097
0.37261 0.170962 0.0378576
0.412436 0.169635 0.0345922
0.450202 0.16965 0.0328374
0.48452 0.170413 0.0320287
0.515618 0.172137 0.0323644
0.544671 0.174731 0.0337377
0.572732 0.178119 0.0359808
0.600137 0.182193 0.0389715
0.627054 0.186786 0.0425116
0.653178 0.191394 0.046128
0.679255 0.196414 0.0501411
0.705318 0.201907 0.0546731
0.731472 0.207797 0.0592966
0.757778 0.213947 0.0644083
0.784329 0.220249 0.069749
0.811048 0.226535 0.0750744
0.838056 0.233127 0.0806897
0.865156 0.239948 0.0865339
0.0276341 0.182437 0.0394141
0.0406806 0.184329 0.0407874
0.0536355 0.186481 0.0424659
0.0666819 0.189029 0.0445258
0.0802319 0.191959 0.0469673
0.0942245 0.194766 0.0492714
0.109133 0.197436 0.0513771
0.125719 0.200092 0.0533913
0.144961 0.202655 0.0551766
0.167697 0.204761 0.0563058
0.194644 0.206226 0.0565957
0.224994 0.206668 0.0556344
0.259129 0.2065 0.0538491
0.296925 0.205905 0.0514382
0.337331 0.204974 0.0485695
0.378592 0.203922 0.0455329
0.419409 0.203571 0.0432441
0.457572 0.203967 0.0418708
0.492821 0.205646 0.0419776
0.525017 0.208453 0.0434119
0.554971 0.211933 0.045655
0.583749 0.216007 0.0485847
0.6121 0.220996 0.0524758
0.639704 0.226276 0.0566873
0.666911 0.231922 0.061326
0.693812 0.237766 0.0657969
0.720455 0.243839 0.0708934
0.7476 0.250675 0.0767529
0.774533 0.257404 0.0825208
0.801648 0.264256 0.0884108
0.828962 0.271107 0.0942855
0.856306 0.27805 0.100237
0.883803 0.285267 0.106462
0.0200504 0.206363 0.0336461
0.0341802 0.209033 0.0357977
0.0475166 0.211994 0.0383001
0.061265 0.215259 0.0410925
0.0754559 0.218845 0.0442054
0.0905013 0.222705 0.0475776
0.106661 0.226642 0.0509499
0.124239 0.230304 0.0539712
0.144198 0.23357 0.0564584
0.167926 0.236667 0.0586099
0.195636 0.23888 0.059617
0.227039 0.240375 0.0597238
0.261997 0.241032 0.0587625
0.300435 0.241047 0.0569772
0.341863 0.241138 0.0551156
0.384207 0.241154 0.0531624
0.425788 0.24155 0.051606
0.464744 0.242725 0.0510109
0.500633 0.245014 0.0517281
0.533608 0.248569 0.0539101
0.564981 0.253452 0.057557
0.59472 0.258473 0.0614176
0.623484 0.263859 0.0656901
0.651637 0.269673 0.0702678
0.679469 0.275959 0.0753338
0.707225 0.282582 0.0809491
0.735027 0.289784 0.0871748
0.762249 0.296696 0.0931106
0.789502 0.303716 0.0991531
0.816907 0.310842 0.105303
0.844572 0.318044 0.111498
0.872267 0.325368 0.11783
0.90013 0.332921 0.124392
0.0115511 0.233921 0.0271763
0.026566 0.237552 0.0303044
0.0414893 0.241794 0.0341039
0.0559854 0.246204 0.0380865
0.0709697 0.250599 0.0420233
0.0866712 0.255146 0.046067
0.103624 0.259876 0.050248
0.122438 0.264759 0.0545205
0.143511 0.269154 0.0581369
0.167697 0.272709 0.0607309
0.196048 0.275563 0.0623941
0.22829 0.277897 0.0633249
0.264347 0.279622 0.0634318
0.304021 0.280873 0.0628977
0.345968 0.281437 0.0615244
0.388907 0.282048 0.0601511
0.431357 0.283299 0.0594644
0.471397 0.285542 0.0599222
0.508202 0.288716 0.0615244
0.542184 0.293263 0.0646982
0.573754 0.298329 0.0684977
0.604212 0.304051 0.0730449
0.633799 0.310262 0.0777752
0.662623 0.316701 0.0831464
0.690867 0.323369 0.0887922
0.71931 0.330678 0.0950942
0.747021 0.337789 0.101213
0.774594 0.345022 0.107469
0.80209 0.352285 0.113741
0.829557 0.359457 0.119936
0.857206 0.36701 0.126497
0.884825 0.373892 0.132357
0.912032 0.380819 0.138277
0.00369268 0.266377 0.0215915
0.0194858 0.270863 0.0256199
0.0349279 0.275654 0.029984
0.0502785 0.28098 0.0349126
0.066331 0.286473 0.0399634
0.0829328 0.29192 0.0449378
0.100694 0.297459 0.0499428
0.120165 0.303014 0.0548714
0.142077 0.308248 0.0593271
0.167346 0.312886 0.0630198
0.196551 0.316579 0.0655222
0.229435 0.319539 0.0670939
0.26656 0.322332 0.0682689
0.30695 0.324285 0.0684215
0.349874 0.325826 0.0680095
0.393606 0.327214 0.0674144
0.436637 0.329 0.067277
0.477546 0.332082 0.0685893
0.515267 0.336172 0.0710765
0.549661 0.341115 0.0746471
0.581765 0.346716 0.0789807
0.612573 0.352758 0.0838483
0.642451 0.359243 0.088838
0.671977 0.366384 0.0949111
0.700618 0.373419 0.100908
0.728817 0.380468 0.10695
0.756497 0.387549 0.113039
0.783871 0.394583 0.119081
0.811063 0.401541 0.125063
0.838697 0.408881 0.131395
0.86566 0.415763 0.137285
0.892912 0.422278 0.142794
0.919509 0.428595 0.148119
0 0.302541 0.016846
0.013138 0.307927 0.0218357
0.0293278 0.313512 0.027039
0.0455634 0.319402 0.0325322
0.06215 0.325811 0.0385443
0.0800183 0.332555 0.044831
0.0986496 0.338979 0.050721
0.11873 0.345129 0.05626
0.141253 0.350973 0.0613413
0.167315 0.35639 0.0658122
0.197726 0.361288 0.0695201
0.23183 0.365454 0.072282
0.269276 0.368551 0.0737774
0.310201 0.371023 0.0744488
0.353765 0.373205 0.0746777
0.398337 0.375402 0.074876
0.442344 0.378164 0.0757153
0.483619 0.381582 0.0773632
0.521492 0.385824 0.0800031
0.556191 0.391058 0.0838483
0.588647 0.396979 0.0885023
0.61973 0.403311 0.0936446
0.650065 0.410239 0.0990768
0.679225 0.416999 0.104768
0.707546 0.423728 0.11046
0.735439 0.430472 0.116197
0.76289 0.437308 0.122026
0.78999 0.444068 0.12781
0.817151 0.450996 0.133745
0.843656 0.457221 0.138994
0.869871 0.463355 0.144137
0.896529 0.469291 0.149065
0.922621 0.475105 0.153872
0 0.341527 0.0140688
0.00860609 0.347784 0.0200046
0.0258488 0.354467 0.0263523
0.043061 0.361364 0.0328679
0.060502 0.368658 0.0397955
0.0787823 0.375799 0.046479
0.0982986 0.383108 0.0532692
0.119432 0.390326 0.0598764
0.14284 0.39704 0.0658274
0.169635 0.403189 0.0710155
0.200717 0.408743 0.0753796
0.235309 0.413397 0.078645
0.273579 0.417304 0.0809339
0.315145 0.420401 0.0822156
0.359106 0.42295 0.082826
0.404395 0.425834 0.0837262
0.448463 0.428656 0.084596
0.489906 0.432242 0.0864118
0.528023 0.436698 0.0892653
0.562753 0.441962 0.0931411
0.59527 0.447944 0.0978408
0.626291 0.454185 0.102907
0.655985 0.460487 0.107713
0.68481 0.466926 0.113069
0.712825 0.473335 0.118456
0.740185 0.479561 0.123659
0.767147 0.485924 0.129015
0.793652 0.492103 0.134218
0.819867 0.4981 0.139223
0.845823 0.503777 0.143923
0.871244 0.509117 0.148287
0.896864 0.514031 0.152193
0.922316 0.519219 0.15639
0 0.383352 0.0154574
0.00784314 0.390249 0.0220645
0.0261692 0.398016 0.0295109
0.0443122 0.405844 0.0369726
0.0627756 0.413809 0.0445411
0.0815137 0.421775 0.052079
0.101579 0.429633 0.0594034
0.123339 0.437461 0.0666056
0.147936 0.44535 0.0737469
0.175387 0.452125 0.0795605
0.206729 0.457923 0.0841688
0.241657 0.462898 0.0877241
0.280217 0.467079 0.0902876
0.322225 0.470603 0.0920119
0.366842 0.473793 0.0932326
0.411856 0.476402 0.0938582
0.455894 0.479179 0.0946975
0.497124 0.482551 0.0962692
0.534936 0.486702 0.0988327
0.569604 0.491875 0.102617
0.601892 0.497627 0.107103
0.632303 0.503288 0.111559
0.661387 0.508965 0.11574
0.689433 0.514641 0.120348
0.716793 0.520409 0.125078
0.743893 0.52636 0.130022
0.770108 0.531991 0.134646
0.795575 0.537148 0.138827
0.820722 0.542107 0.142809
0.845838 0.546975 0.1467
0.870924 0.551614 0.150347
0.895888 0.556222 0.153964
0.920043 0.560143 0.156909
0 0.426947 0.0222324
0.0130312 0.435157 0.0301061
0.0316777 0.443214 0.0378119
0.05037 0.451575 0.0457771
0.0695048 0.460182 0.0539864
0.0890822 0.468971 0.0623178
0.109865 0.477516 0.0703136
0.132479 0.486168 0.0783551
0.156985 0.49395 0.0853437
0.184741 0.501015 0.0914473
0.216434 0.507149 0.096376
0.251652 0.512383 0.100191
0.290379 0.516716 0.102892
0.332555 0.520378 0.104753
0.376593 0.522972 0.105379
0.421317 0.525292 0.105699
0.46511 0.52781 0.106279
0.506081 0.530907 0.107591
0.543847 0.534997 0.110094
0.5776 0.5393 0.112978
0.608911 0.544076 0.116487
0.638758 0.549157 0.120378
0.667308 0.554314 0.124056
0.694759 0.559411 0.128069
0.72137 0.564431 0.132067
0.747219 0.569162 0.13579
0.772549 0.573922 0.139544
0.797391 0.57847 0.143114
0.821744 0.582635 0.146319
0.845945 0.586618 0.14931
0.870176 0.590417 0.152132
0.894118 0.594003 0.154742
0.917754 0.597421 0.157183
0.00331121 0.472099 0.0347906
0.0231632 0.480644 0.0429389
0.042649 0.489494 0.0513771
0.0619821 0.498436 0.0599069
0.0812238 0.507469 0.068513
0.101778 0.516838 0.0773785
0.122942 0.525734 0.0857252
0.145495 0.534295 0.0936294
0.17023 0.542275 0.100816
0.198001 0.54934 0.106905
0.229541 0.555306 0.11165
0.264927 0.560662 0.115587
0.303319 0.564645 0.117937
0.3449 0.567697 0.119173
0.388617 0.569955 0.119478
0.432807 0.571725 0.119234
0.475883 0.57351 0.119097
0.516518 0.576288 0.120073
0.553338 0.579446 0.12163
0.586557 0.583185 0.12398
0.617029 0.587152 0.126665
0.645838 0.591226 0.129198
0.673564 0.595544 0.132387
0.700496 0.600122 0.135897
0.726192 0.604257 0.138994
0.751125 0.608087 0.141817
0.775357 0.611765 0.144518
0.799298 0.615427 0.147204
0.823178 0.619135 0.149935
0.846876 0.622614 0.152438
0.870283 0.62562 0.154467
0.893492 0.628473 0.156359
0.916564 0.631312 0.158236
0.0180972 0.517937 0.0521553
0.0383459 0.526772 0.0605173
0.0581674 0.535882 0.0691844
0.0778668 0.545144 0.0780041
0.0978256 0.554833 0.0872206
0.118242 0.564019 0.0958877
0.13933 0.572808 0.104082
0.161669 0.581125 0.111742
0.18613 0.5888 0.118608
0.213672 0.595621 0.124407
0.245411 0.601755 0.129
0.279973 0.606287 0.132067
0.317739 0.609613 0.133761
0.358572 0.611917 0.134249
0.401679 0.61355 0.133913
0.445365 0.614801 0.133165
0.488151 0.616312 0.132723
0.527489 0.617746 0.132753
0.563287 0.619883 0.133303
0.595697 0.622858 0.134508
0.625559 0.626215 0.136599
0.653956 0.629862 0.139071
0.680568 0.633097 0.141192
0.706172 0.636347 0.143389
0.731106 0.639735 0.145739
0.755489 0.64303 0.148028
0.779217 0.64622 0.150225
0.802686 0.649424 0.152453
0.825727 0.652293 0.154376
0.848768 0.655131 0.156222
0.871839 0.657801 0.157931
0.894728 0.660349 0.159503
0.917449 0.662852 0.161044
0.0362097 0.563943 0.0725109
0.0567788 0.573022 0.0810712
0.0767224 0.582193 0.0897688
0.0964981 0.591821 0.0989242
0.116167 0.600793 0.107378
0.136248 0.609598 0.115633
0.157122 0.618143 0.123568
0.179187 0.626169 0.130922
0.203479 0.633677 0.137224
0.230442 0.639872 0.142443
0.261036 0.644831 0.146181
0.295048 0.648798 0.148714
0.332311 0.651606 0.149889
0.372412 0.653162 0.14963
0.414832 0.654108 0.148608
0.457603 0.654429 0.146929
0.499306 0.654856 0.145418
0.538033 0.655711 0.144488
0.572992 0.657023 0.144228
0.604334 0.658915 0.144701
0.633509 0.661585 0.14612
0.660914 0.664256 0.147616
0.687022 0.666987 0.149233
0.712032 0.669657 0.150835
0.736202 0.672297 0.152453
0.759976 0.674998 0.154147
0.783505 0.677974 0.156146
0.806424 0.680629 0.157839
0.829084 0.683146 0.15938
0.851682 0.685557 0.16083
0.874418 0.687892 0.162188
0.897124 0.690242 0.163561
0.919738 0.692638 0.164996
0.0558328 0.609537 0.0941176
0.0763561 0.618494 0.102525
0.096025 0.627695 0.111223
0.115496 0.636561 0.11957
0.134844 0.645182 0.127657
0.15436 0.653391 0.135317
0.174502 0.661204 0.142153
0.19617 0.668803 0.149065
0.219806 0.675608 0.155047
0.246098 0.681117 0.159564
0.275853 0.685222 0.162448
0.308843 0.688151 0.163943
0.345235 0.690074 0.164248
0.384985 0.691264 0.163607
0.42649 0.691279 0.161669
0.468269 0.690639 0.15903
0.508904 0.689982 0.156451
0.546761 0.689982 0.154665
0.581155 0.69073 0.153826
0.612253 0.692393 0.154086
0.640467 0.694102 0.154543
0.667124 0.69604 0.155322
0.692683 0.698238 0.15639
0.717327 0.700542 0.157641
0.741451 0.703136 0.159197
0.764813 0.705409 0.160479
0.787655 0.707729 0.161822
0.810269 0.710094 0.16321
0.832715 0.712383 0.164538
0.85507 0.714565 0.165743
0.877729 0.716823 0.167041
0.900069 0.718807 0.168048
0.922271 0.72079 0.16907
0.0757916 0.653971 0.115816
0.0960098 0.662562 0.123842
0.114855 0.670832 0.131594
0.133593 0.678935 0.139162
0.152377 0.686976 0.146304
0.171405 0.694682 0.15346
0.191272 0.702174 0.160327
0.211734 0.708568 0.166033
0.234226 0.714199 0.170855
0.259754 0.718944 0.174594
0.288914 0.722438 0.176867
0.32134 0.724788 0.177783
0.356847 0.725826 0.177203
0.395285 0.725719 0.175265
0.435996 0.724926 0.172534
0.477256 0.723751 0.169375
0.517342 0.72256 0.166247
0.554665 0.722042 0.163943
0.588464 0.722179 0.162509
0.618799 0.723079 0.16202
0.646693 0.724483 0.162158
0.673014 0.726085 0.1626
0.698146 0.727855 0.163256
0.722637 0.730022 0.164355
0.746258 0.732113 0.165423
0.76939 0.734188 0.166491
0.791974 0.736233 0.167559
0.814252 0.738262 0.168627
0.836423 0.740291 0.16968
0.858824 0.742489 0.170932
0.881071 0.74435 0.171817
0.903181 0.74612 0.17261
0.925124 0.74786 0.173388
0.0946059 0.696086 0.136187
0.113787 0.703929 0.143465
0.132433 0.71162 0.15024
0.150423 0.718944 0.157046
0.168292 0.72604 0.163607
0.186648 0.733043 0.170047
0.205463 0.739467 0.17586
0.225315 0.745235 0.180941
0.246967 0.750027 0.184909
0.271427 0.753689 0.187579
0.299763 0.756374 0.189029
0.331563 0.758083 0.189319
0.36643 0.758465 0.188083
0.404257 0.757733 0.185534
0.444221 0.756207 0.182071
0.484886 0.754437 0.178317
0.524727 0.753002 0.174945
0.561654 0.752087 0.172244
0.594995 0.751781 0.170352
0.624903 0.752255 0.169451
0.652461 0.753323 0.169268
0.678553 0.754696 0.169467
0.703716 0.756481 0.170138
0.727672 0.758114 0.170718
0.750942 0.759869 0.171435
0.773831 0.761685 0.172259
0.796231 0.763577 0.173159
0.818509 0.765591 0.174228
0.840482 0.767437 0.175097
0.862394 0.769162 0.175875
0.884459 0.77084 0.176577
0.906447 0.772473 0.177249
0.928252 0.774075 0.177874
0.11133 0.735592 0.154376
0.129824 0.742306 0.16051
0.147616 0.749111 0.166781
0.165057 0.755871 0.173022
0.182437 0.762448 0.179049
0.199573 0.768246 0.184283
0.217334 0.773587 0.189014
0.236362 0.778546 0.193271
0.25745 0.782757 0.196674
0.281682 0.786191 0.1991
0.309224 0.788052 0.199756
0.340139 0.788876 0.199161
0.374487 0.788739 0.197406
0.411963 0.787671 0.194522
0.451713 0.785916 0.190829
0.492134 0.783902 0.186816
0.531411 0.781903 0.182895
0.567956 0.780591 0.179797
0.601068 0.780056 0.177691
0.630732 0.780301 0.176547
0.658091 0.78117 0.176165
0.683986 0.782345 0.176181
0.70869 0.783688 0.17641
0.732479 0.785153 0.176822
0.75555 0.786709 0.17734
0.77818 0.788281 0.177905
0.800519 0.790097 0.178744
0.822538 0.791852 0.179553
0.844327 0.793515 0.18024
0.866087 0.795087 0.180865
0.887938 0.796567 0.181369
0.909773 0.798047 0.181888
0.93164 0.799725 0.182589
0.125994 0.772091 0.170382
0.143725 0.778042 0.175753
0.160815 0.784115 0.181277
0.177188 0.789792 0.186419
0.193576 0.795377 0.19147
0.210224 0.800671 0.196185
0.227405 0.805447 0.200366
0.245747 0.809689 0.203922
0.266423 0.813504 0.206912
0.289937 0.81619 0.208606
0.317159 0.817746 0.208942
0.347723 0.818219 0.207996
0.381643 0.81767 0.205814
0.418845 0.816281 0.202625
0.458427 0.814374 0.198779
0.498466 0.811978 0.1944
0.537469 0.809705 0.190188
0.573678 0.808057 0.18677
0.606516 0.807263 0.184405
0.636103 0.807416 0.183169
0.66331 0.808118 0.18262
0.688869 0.808972 0.182315
0.713298 0.81004 0.182284
0.736889 0.811322 0.182498
0.759823 0.812726 0.182879
0.782544 0.814389 0.183551
0.804547 0.815869 0.184054
0.826291 0.81738 0.184588
0.847959 0.818891 0.185153
0.869596 0.820371 0.185657
0.891493 0.821881 0.186206
0.913268 0.823301 0.186664
0.934813 0.824659 0.187045
0.137942 0.80531 0.183627
0.155383 0.810941 0.188678
0.171649 0.81619 0.193378
0.187396 0.821241 0.197894
0.203067 0.826093 0.202213
0.21912 0.830793 0.206348
0.23595 0.835203 0.210132
0.254215 0.839368 0.213611
0.274266 0.842542 0.215961
0.297337 0.8448 0.217243
0.324254 0.846036 0.217258
0.354604 0.846296 0.216083
0.38854 0.845747 0.213931
0.425361 0.843992 0.210376
0.464454 0.841581 0.206012
0.50425 0.838941 0.201404
0.543084 0.836484 0.197024
0.579156 0.834699 0.193469
0.611948 0.83386 0.191043
0.641184 0.833661 0.189471
0.668086 0.834058 0.188632
0.693507 0.834791 0.188174
0.7178 0.835721 0.188006
0.741283 0.836881 0.188113
0.764172 0.83827 0.188464
0.786557 0.839582 0.188785
0.808454 0.840955 0.189197
0.830091 0.842359 0.189624
0.851606 0.843732 0.190036
0.873243 0.845182 0.190539
0.895018 0.846586 0.190967
0.91664 0.847868 0.191272
0.938109 0.849134 0.191592
0.148379 0.836698 0.195331
0.164813 0.841321 0.199359
0.180591 0.846067 0.203571
0.196017 0.850782 0.207752
0.211353 0.855314 0.211734
0.227237 0.859831 0.215686
0.243687 0.863859 0.219104
0.261418 0.867491 0.222034
0.281254 0.870451 0.224186
