assets/luts/LUTs/CinePacks_MVP2_Aerospace .CUBE
TITLE "Generate by Resolve"
LUT_3D_SIZE 33
0.0394446 0.0842603 0.0883345
0.0504921 0.0834363 0.0879377
0.0619516 0.0827649 0.0876173
0.0730602 0.0823224 0.0872358
0.0838788 0.0816968 0.0866865
0.0975967 0.0813611 0.0864424
0.130159 0.0820783 0.085832
0.167285 0.0831464 0.0819867
0.199542 0.0833906 0.0794232
0.230213 0.0827802 0.0779126
0.270329 0.082002 0.0746014
0.320912 0.0804913 0.0703288
0.372396 0.0775311 0.0659342
0.414984 0.0734569 0.0597391
0.450858 0.0703746 0.0559854
0.481834 0.0675212 0.0536049
0.511025 0.0647746 0.0506142
0.538155 0.061799 0.0481117
0.563149 0.0592966 0.0455177
0.586252 0.0564126 0.0430152
0.609583 0.053666 0.0406195
0.632425 0.050721 0.0380407
0.65565 0.0477607 0.035462
0.679179 0.0449531 0.033051
0.702892 0.0419623 0.030457
0.72697 0.0391546 0.0279698
0.751522 0.0363622 0.0251469
0.775952 0.0336309 0.022385
0.800778 0.0310063 0.0196536
0.825544 0.0282139 0.0168612
0.850278 0.0255283 0.0141756
0.875257 0.0231479 0.0118715
0.900221 0.0206912 0.00946059
0.0397955 0.0968032 0.0868849
0.0508125 0.0961624 0.0863661
0.0620127 0.0953231 0.0859236
0.073106 0.0946517 0.0856184
0.0840314 0.0939803 0.0852674
0.0948043 0.0932937 0.0849012
0.122591 0.0938888 0.0844129
0.159396 0.0944533 0.0814527
0.19617 0.0953841 0.0777295
0.225742 0.0950942 0.0761578
0.263355 0.0940261 0.0731975
0.312779 0.092607 0.068864
0.366247 0.0901503 0.0657816
0.411444 0.0866102 0.0595254
0.448569 0.0833295 0.0556802
0.481331 0.079881 0.0513313
0.511284 0.0768749 0.0480659
0.538979 0.0740826 0.0452735
0.564996 0.0717937 0.0426947
0.588083 0.068986 0.0403296
0.611368 0.0663005 0.0380865
0.634256 0.0634775 0.0357061
0.657557 0.0608072 0.0334936
0.681224 0.0580758 0.0312047
0.705013 0.055314 0.0288396
0.729152 0.0526741 0.0265354
0.753307 0.0498665 0.0240635
0.777401 0.0471656 0.0216678
0.801999 0.0446479 0.01944
0.826551 0.0420691 0.0171817
0.851347 0.039765 0.015198
0.875959 0.0373236 0.0130617
0.900328 0.0349432 0.011017
0.0399329 0.108965 0.0859083
0.0510262 0.108263 0.0854505
0.0622263 0.107424 0.0848249
0.0732891 0.106752 0.0843671
0.0842145 0.106035 0.0838941
0.0949569 0.105272 0.0834669
0.114656 0.105409 0.0827955
0.151614 0.106188 0.0809949
0.190265 0.106798 0.0758831
0.221347 0.106493 0.0748302
0.258289 0.105714 0.071397
0.304463 0.104829 0.069398
0.359625 0.102495 0.0635691
0.408438 0.100145 0.0593729
0.446571 0.0968948 0.0564736
0.480995 0.0931563 0.0516823
0.510948 0.0903944 0.0484321
0.539559 0.0880293 0.0449226
0.566232 0.0855116 0.0422217
0.590768 0.0828107 0.0397345
0.614084 0.0801404 0.0374762
0.636912 0.077348 0.0350652
0.660227 0.0746014 0.032639
0.683787 0.0717632 0.0302281
0.707561 0.0689555 0.0280308
0.731975 0.0665141 0.0260777
0.75639 0.0639963 0.0240482
0.780896 0.0616922 0.0222324
0.805615 0.0593118 0.0203403
0.830274 0.0568551 0.0183871
0.855146 0.0546273 0.0166476
0.879713 0.0523384 0.0147402
0.904326 0.0501411 0.0130159
0.0402533 0.12137 0.0850385
0.0513619 0.120607 0.0846265
0.062501 0.119692 0.0840162
0.0735332 0.11899 0.0836194
0.0844587 0.118318 0.0832074
0.0950637 0.117571 0.0826429
0.110063 0.117006 0.0822156
0.142977 0.117678 0.0801099
0.183597 0.11841 0.0748302
0.218616 0.118303 0.0733196
0.254078 0.117998 0.0710307
0.297414 0.117006 0.0677958
0.352148 0.11516 0.063798
0.403311 0.113558 0.0598611
0.445075 0.110536 0.0566262
0.480217 0.106889 0.0513161
0.51136 0.104402 0.0484321
0.540749 0.102281 0.045304
0.567926 0.0999619 0.0426795
0.594156 0.0977646 0.040238
0.617212 0.09514 0.0382544
0.640513 0.0925765 0.0362249
0.664149 0.0899367 0.0342718
0.688289 0.0874952 0.032517
0.712398 0.0848859 0.0306096
0.736858 0.0824598 0.0288548
0.761013 0.079881 0.0269627
0.785473 0.0772869 0.0250401
0.810208 0.0749828 0.0233005
0.834775 0.0724804 0.0214237
0.859632 0.070222 0.0198367
0.884153 0.0678874 0.0181582
0.90901 0.0657816 0.0165408
0.0403754 0.13373 0.0842451
0.0514229 0.132921 0.0837873
0.062623 0.131975 0.0832227
0.0735943 0.131197 0.0827802
0.0844587 0.130404 0.0823377
0.0951553 0.129488 0.0818341
0.105974 0.128679 0.0814984
0.133959 0.129335 0.0794537
0.175113 0.130068 0.0743725
0.215854 0.130419 0.0714275
0.24976 0.130266 0.0701152
0.290654 0.129641 0.0677348
0.344503 0.128618 0.0632639
0.398215 0.126986 0.059205
0.443412 0.1252 0.0561837
0.480995 0.122469 0.0529335
0.512917 0.11931 0.0482185
0.541741 0.1178 0.0476692
0.570657 0.115816 0.0442664
0.598154 0.113909 0.0423133
0.621469 0.111406 0.040589
0.645411 0.109026 0.03888
0.669352 0.106401 0.0370489
0.693614 0.104067 0.0354162
0.717876 0.101564 0.0336156
0.742214 0.0992447 0.0319982
0.766827 0.0968795 0.0303197
0.79147 0.0944381 0.0285649
0.816327 0.0922103 0.0270085
0.840955 0.0897993 0.0251774
0.865568 0.0875563 0.0236057
0.890379 0.0852979 0.022034
0.915053 0.0829633 0.0204013
0.0403296 0.146166 0.0833143
0.0514382 0.145434 0.082887
0.062562 0.144579 0.0822614
0.073579 0.143832 0.0817578
0.084535 0.143099 0.0813306
0.0952468 0.142245 0.0807965
0.106096 0.141512 0.0803845
0.127474 0.14139 0.0794537
0.165896 0.142504 0.0747539
0.210315 0.143664 0.0704814
0.244953 0.143069 0.0681773
0.285481 0.14284 0.0675059
0.336263 0.142535 0.0627909
0.39411 0.141512 0.0580911
0.441947 0.139345 0.0547341
0.481056 0.137957 0.0546731
0.515206 0.134859 0.0498817
0.544106 0.134386 0.0498817
0.573724 0.133272 0.0479438
0.601831 0.131716 0.0450904
0.625757 0.129305 0.043473
0.64979 0.126894 0.0419928
0.673808 0.124453 0.0402533
0.698222 0.121981 0.0385901
0.722927 0.119692 0.0371099
0.747433 0.11722 0.0354467
0.772396 0.114885 0.0339361
0.797238 0.112352 0.0322118
0.822324 0.110094 0.0306859
0.847105 0.107668 0.0289921
0.871855 0.105364 0.0274052
0.89688 0.103273 0.0260319
0.921614 0.100984 0.0244602
0.0400244 0.158694 0.0820935
0.0510414 0.157855 0.0815595
0.0622416 0.15697 0.0809186
0.0733501 0.156176 0.0804608
0.0842908 0.155383 0.0799878
0.095079 0.154528 0.0794537
0.105989 0.153857 0.0790875
0.122408 0.153063 0.0786908
0.155169 0.155352 0.075227
0.20116 0.156863 0.0698711
0.241733 0.157168 0.0677348
0.282353 0.156741 0.066453
0.329564 0.157504 0.0647288
0.387915 0.157 0.0592966
0.439475 0.155795 0.0564736
0.481636 0.154772 0.0561227
0.518715 0.152148 0.0519417
0.548165 0.150622 0.0502937
0.577035 0.151003 0.0517739
0.605829 0.150072 0.0476539
0.631403 0.148806 0.0464485
0.655253 0.146304 0.0449226
0.679637 0.143984 0.0435492
0.703746 0.141466 0.0419165
0.728222 0.139178 0.040528
0.75285 0.136645 0.0389563
0.777554 0.134081 0.0373541
0.802533 0.131716 0.0359503
0.827359 0.129137 0.0343481
0.852201 0.126955 0.0328985
0.877241 0.124544 0.031342
0.902495 0.122377 0.0300298
0.927474 0.120058 0.0285496
0.0391852 0.172274 0.0805982
0.0501259 0.171359 0.0800336
0.0615702 0.170504 0.0796674
0.072755 0.169741 0.0793622
0.0837262 0.168933 0.078996
0.094667 0.168185 0.0786603
0.105653 0.167391 0.078294
0.117754 0.166537 0.0778515
0.145602 0.167681 0.0761425
0.191409 0.170397 0.0696574
0.238682 0.171496 0.0675364
0.277241 0.171695 0.0657969
0.323934 0.172595 0.0645304
0.381964 0.17406 0.0610208
0.436042 0.1738 0.057847
0.48127 0.172839 0.0570993
0.520302 0.171298 0.0539712
0.552132 0.169482 0.0524147
0.581125 0.169085 0.0511177
0.609522 0.169299 0.0499275
0.637339 0.168765 0.0486152
0.661387 0.166583 0.0474861
0.685466 0.164172 0.0461128
0.709941 0.161913 0.044892
0.734371 0.159411 0.0434272
0.758938 0.157061 0.0419623
0.783688 0.15462 0.0405585
0.808515 0.152239 0.0392157
0.833295 0.149874 0.0379034
0.858289 0.147402 0.0364538
0.883391 0.145159 0.0351415
0.908293 0.142718 0.0336614
0.933394 0.14052 0.0324712
0.0375219 0.187198 0.0789807
0.0488594 0.186175 0.0786145
0.0603189 0.185138 0.0781262
0.0716259 0.184146 0.0778058
0.0826734 0.183047 0.0774243
0.0937972 0.182147 0.0771649
0.104891 0.181521 0.0770123
0.11577 0.180804 0.0766918
0.139727 0.181628 0.0761425
0.178149 0.185763 0.0689403
0.233875 0.188647 0.067216
0.273533 0.188891 0.0656443
0.318257 0.190066 0.0636912
0.375189 0.19237 0.0615702
0.433112 0.193133 0.0591135
0.480995 0.193027 0.0577249
0.521172 0.191287 0.0554665
0.554696 0.1897 0.0539559
0.584436 0.18851 0.0526741
0.612589 0.188739 0.0515145
0.640925 0.188769 0.0502327
0.665553 0.186587 0.0490272
0.690288 0.184527 0.0479591
0.714885 0.182254 0.0466926
0.73994 0.180179 0.0456092
0.764843 0.177859 0.0442969
0.789731 0.175845 0.0431067
0.814771 0.17348 0.0417639
0.839704 0.171023 0.0404364
0.864836 0.168795 0.039292
0.889784 0.166369 0.0379797
0.914778 0.164248 0.0369421
0.939483 0.161929 0.0356298
0.0350347 0.203952 0.0761425
0.0466163 0.202899 0.0761273
0.0583352 0.201755 0.0760052
0.0695659 0.200717 0.0757458
0.0809644 0.199741 0.0757305
0.092256 0.19881 0.0757153
0.103334 0.197742 0.0754711
0.114656 0.196811 0.0753033
0.132662 0.196704 0.0750744
0.158419 0.20177 0.0690929
0.221851 0.206027 0.0663767
0.269932 0.208865 0.0650339
0.314534 0.210422 0.0636301
0.367803 0.211933 0.0617075
0.427375 0.214969 0.0596323
0.480705 0.215 0.0575113
0.522438 0.213886 0.0558328
0.557916 0.212268 0.0543679
0.587228 0.212161 0.0532235
0.616342 0.211017 0.0522316
0.643992 0.212009 0.0512856
0.670665 0.210132 0.0501259
0.694804 0.207385 0.0488136
0.719524 0.204746 0.047837
0.743969 0.201923 0.0466316
0.768795 0.199359 0.045655
0.793667 0.196597 0.044419
0.818921 0.194553 0.0432898
0.844129 0.192279 0.0420539
0.869596 0.190249 0.041062
0.894697 0.188067 0.0399023
0.919875 0.185916 0.0387732
0.945235 0.183948 0.0378119
0.0312505 0.223041 0.0736858
0.0428473 0.221775 0.0734874
0.0548562 0.220508 0.0732891
0.0665751 0.219318 0.0731365
0.0781567 0.218143 0.0729839
0.0894484 0.216938 0.072694
0.100893 0.215915 0.0725719
0.112459 0.21503 0.0727398
0.123949 0.214023 0.0728618
0.152392 0.218036 0.0715801
0.207477 0.226917 0.0652018
0.266499 0.231418 0.0639353
0.310567 0.234211 0.0627146
0.361563 0.23563 0.0615091
0.421729 0.238392 0.0594644
0.478538 0.239475 0.0574655
0.523461 0.238544 0.0559091
0.56025 0.237034 0.0545815
0.590417 0.237186 0.0535134
0.619486 0.235904 0.05243
0.647623 0.235843 0.0513619
0.674784 0.236042 0.0502785
0.699397 0.233509 0.0495155
0.724208 0.230701 0.0484474
0.749264 0.228092 0.0475624
0.774273 0.225223 0.0464332
0.799435 0.222629 0.0453651
0.824399 0.219791 0.0442206
0.849454 0.217212 0.0433661
0.874479 0.21442 0.0422522
0.899596 0.211917 0.0412299
0.924559 0.209125 0.0401465
0.949737 0.206622 0.0393072
0.0273289 0.244587 0.0705882
0.0391546 0.243107 0.0704662
0.0512398 0.241611 0.0704967
0.0631266 0.240421 0.070634
0.0747539 0.239322 0.0706493
0.0864118 0.238163 0.0707866
0.0979477 0.236912 0.0708476
0.109728 0.235798 0.0710307
0.121431 0.23473 0.0709087
0.14464 0.237263 0.0710155
0.184024 0.247913 0.0633707
0.259937 0.25626 0.0626078
0.305348 0.258747 0.0618296
0.355459 0.261189 0.0606699
0.414969 0.264332 0.0588388
0.4757 0.266728 0.0570382
0.524147 0.265827 0.0555276
0.562921 0.265538 0.0543069
0.595575 0.264973 0.0532845
0.623575 0.264439 0.052369
0.652552 0.263874 0.0513313
0.680217 0.264347 0.0503548
0.705013 0.261875 0.0496376
0.729519 0.258686 0.0486763
0.754253 0.255726 0.0479133
0.778836 0.252628 0.0467536
0.803708 0.249683 0.0459907
0.828763 0.246754 0.0449683
0.854231 0.244114 0.0441291
0.879377 0.241352 0.0429389
0.904875 0.238758 0.0421454
0.930129 0.235981 0.0411536
0.955352 0.233539 0.0404822
0.0237278 0.268513 0.0683604
0.0359503 0.267079 0.068574
0.0482185 0.265431 0.0686046
0.0603037 0.263981 0.0687724
0.0721599 0.262837 0.0688487
0.0840925 0.261631 0.0691844
0.0960098 0.260426 0.0694133
0.107561 0.259098 0.0692912
0.119631 0.257862 0.0694743
0.137881 0.258808 0.0702373
0.170993 0.269688 0.0659648
0.245106 0.283024 0.0611734
0.300816 0.288502 0.0603189
0.351843 0.292088 0.0593423
0.40972 0.295293 0.0579995
0.47216 0.297307 0.0561837
0.524712 0.297444 0.0548409
0.566644 0.295949 0.0535744
0.600137 0.295674 0.0527657
0.629084 0.294301 0.0519417
0.657465 0.293034 0.0510872
0.686366 0.293675 0.0501869
0.712749 0.292576 0.0492714
0.737255 0.28957 0.0486
0.761944 0.286519 0.0479591
0.786404 0.283238 0.0470588
0.811124 0.280293 0.0462196
0.835859 0.277058 0.0452888
0.860853 0.274083 0.0446174
0.885557 0.270924 0.0435492
0.910704 0.267979 0.0428473
0.935531 0.264775 0.0419471
0.960494 0.261936 0.0411841
0.0210422 0.293477 0.0666819
0.0333715 0.292317 0.0670481
0.0459144 0.291127 0.0672923
0.0579538 0.289815 0.0674144
0.0699474 0.288777 0.0675975
0.0820478 0.287465 0.0679789
0.0941482 0.286183 0.0683604
0.106096 0.284947 0.0686503
0.118074 0.283421 0.068864
0.132586 0.282231 0.0692912
0.161746 0.293462 0.0691844
0.217166 0.311238 0.0594186
0.296025 0.31931 0.0587625
0.347402 0.323095 0.0577859
0.403128 0.327428 0.0567025
0.467277 0.331258 0.0551766
0.524346 0.332372 0.0537118
0.569726 0.331136 0.0526741
0.605722 0.330114 0.0518654
0.635737 0.329168 0.0511177
0.664485 0.328496 0.0504158
0.693523 0.329229 0.0496223
0.720836 0.329229 0.0488746
0.745357 0.32517 0.048127
0.770214 0.321263 0.0475624
0.794965 0.317464 0.0468452
0.81973 0.313298 0.0460365
0.844678 0.30959 0.0452735
0.869703 0.306035 0.0446174
0.894392 0.3028 0.0438697
0.919081 0.29987 0.0431525
0.943709 0.29659 0.0423438
0.962463 0.293828 0.0419928
0.0189059 0.318471 0.0646525
0.031342 0.317433 0.0651865
0.0439765 0.31632 0.0657664
0.0561532 0.315343 0.0661784
0.0681773 0.314122 0.0665446
0.080354 0.313176 0.0670939
0.0924392 0.3122 0.0674601
0.104555 0.311238 0.0678264
0.116884 0.310231 0.0682536
0.129168 0.308949 0.0684215
0.154101 0.315587 0.0695354
0.19472 0.336187 0.060029
0.289876 0.351217 0.0567483
0.341619 0.3561 0.0561227
0.397894 0.361318 0.0552071
0.461173 0.367193 0.0539254
0.524208 0.369955 0.0524453
0.57113 0.369116 0.0513924
0.610025 0.367819 0.0506752
0.641947 0.366629 0.0502327
0.671366 0.365545 0.0495003
0.699702 0.366232 0.0487526
0.729717 0.367773 0.0480354
0.754314 0.363912 0.0472725
0.77911 0.360037 0.0467842
0.803708 0.356283 0.0461585
0.828504 0.3523 0.0455024
0.853254 0.348455 0.0448005
0.878218 0.34461 0.0443122
0.902907 0.340536 0.0435798
0.927855 0.336782 0.0429236
0.949081 0.333013 0.0425422
0.964248 0.32958 0.0421912
0.0171511 0.343236 0.0635233
0.0294957 0.342397 0.0638285
0.0419318 0.34139 0.0639963
0.0543832 0.340581 0.0644541
0.0667124 0.339788 0.0650645
0.0787671 0.338994 0.0654002
0.0907607 0.338018 0.0657969
0.103075 0.337087 0.066453
0.11548 0.33611 0.0670787
0.127916 0.335149 0.0675059
0.147616 0.338094 0.0683146
0.177737 0.35877 0.0640116
0.271 0.380407 0.0547189
0.334874 0.388647 0.0542916
0.391882 0.395346 0.0534371
0.45359 0.401495 0.0524147
0.520043 0.40679 0.0509346
0.573709 0.409247 0.0501106
0.613947 0.406912 0.049485
0.647349 0.404791 0.0488746
0.67718 0.403784 0.0482338
0.705959 0.404242 0.0475471
0.735195 0.405341 0.0467231
0.761715 0.403326 0.0463264
0.786557 0.3991 0.045716
0.811658 0.395422 0.0451362
0.836835 0.391608 0.0447242
0.86186 0.387594 0.0440375
0.886992 0.383871 0.043473
0.912139 0.379934 0.0429694
0.934142 0.376165 0.0423285
0.950393 0.372549 0.0420996
0.965789 0.369085 0.0419623
0.0149233 0.368551 0.0612802
0.027512 0.367803 0.0619974
0.0403143 0.366873 0.0625925
0.0526894 0.365896 0.0631266
0.0648356 0.365072 0.0635538
0.0771954 0.364294 0.064271
0.0895247 0.363531 0.0650492
0.101701 0.362661 0.0655528
0.113924 0.361868 0.0658732
0.126619 0.361059 0.0663767
0.141451 0.361257 0.0670787
0.171725 0.379004 0.066743
0.24152 0.405814 0.0530404
0.328344 0.420737 0.0523842
0.384787 0.427726 0.0517739
0.44419 0.434928 0.0509346
0.512764 0.442329 0.0496529
0.571557 0.446357 0.0485237
0.615778 0.446571 0.0479286
0.651301 0.444327 0.0473945
0.682872 0.442237 0.0469368
0.712077 0.442405 0.0463417
0.740978 0.443412 0.0456245
0.76846 0.443473 0.0448768
0.793408 0.43949 0.0443885
0.81857 0.435645 0.0439765
0.843687 0.431785 0.043473
0.868879 0.427726 0.0428931
0.894041 0.423819 0.0423133
0.919005 0.419913 0.0419623
0.935195 0.416175 0.0415961
0.951293 0.412253 0.0412299
0.966644 0.408682 0.0410468
0.0133974 0.393179 0.0590372
0.0256809 0.392569 0.0594186
0.0383764 0.392081 0.0599527
0.0509804 0.39147 0.0607919
0.0634775 0.390875 0.0616464
0.0756085 0.390097 0.0623331
0.0878004 0.389578 0.063035
0.100267 0.389029 0.0639353
0.11281 0.38822 0.0647898
0.125307 0.387121 0.0652934
0.138598 0.386343 0.0658122
0.170977 0.399558 0.0672465
0.203326 0.427298 0.0542
0.321172 0.45127 0.0505837
0.376364 0.458366 0.0502785
0.435004 0.466621 0.0495613
0.504295 0.47509 0.0485237
0.567544 0.481621 0.0473335
0.61619 0.483421 0.0466926
0.654902 0.482887 0.0460975
0.687526 0.480644 0.0455177
0.717174 0.479942 0.044892
0.745296 0.480568 0.0441596
0.774395 0.481666 0.0434119
0.79971 0.478309 0.0430762
0.82472 0.474754 0.0423133
0.850065 0.471382 0.0419471
0.875441 0.467643 0.0416114
0.900359 0.463737 0.0408789
0.919478 0.46009 0.0406348
0.935775 0.456458 0.0403906
0.95201 0.452949 0.040116
0.967468 0.449439 0.0400549
0.0115358 0.417014 0.0568856
0.0242313 0.416648 0.0577249
0.0371557 0.416205 0.0585489
0.0495766 0.415915 0.0591592
0.0618753 0.415381 0.0597086
0.0743267 0.415076 0.0604868
0.0867781 0.414786 0.061265
0.0989853 0.414237 0.061799
0.111345 0.413977 0.0624704
0.124163 0.413382 0.0633402
0.137148 0.412726 0.0641489
0.159243 0.419898 0.0652323
0.190524 0.446036 0.0588846
0.300557 0.476646 0.0493935
0.367727 0.489158 0.0488136
0.426261 0.497292 0.0482795
0.492714 0.507164 0.0472877
0.561318 0.515999 0.0460517
0.615381 0.51989 0.0452125
0.656672 0.51957 0.0446326
0.690349 0.518837 0.044007
0.721431 0.517082 0.0434882
0.749416 0.516762 0.0428321
0.77847 0.517128 0.0422217
0.804379 0.514839 0.0414893
0.830167 0.511574 0.0410773
0.855924 0.508263 0.0406958
0.88127 0.504829 0.0399176
0.903593 0.501503 0.0396277
0.919982 0.498268 0.0394446
0.936141 0.495003 0.0390173
0.9523 0.491615 0.0386816
0.967788 0.488533 0.0386358
0.010193 0.440574 0.0545968
0.0229038 0.440452 0.0554513
0.0356603 0.440131 0.0561227
0.048249 0.439963 0.0569314
0.0606241 0.439887 0.0576791
0.0731518 0.439612 0.0586404
0.085359 0.439139 0.0593729
0.0979324 0.438865 0.0603342
0.110582 0.43859 0.0612802
0.123293 0.438163 0.0620737
0.136004 0.437705 0.062623
0.153536 0.439963 0.0635996
0.192676 0.463447 0.062974
0.268925 0.497292 0.0478828
0.359014 0.515282 0.0477913
0.417395 0.525811 0.0470893
0.481117 0.535729 0.0463111
0.551736 0.546929 0.045243
0.611704 0.553521 0.044358
0.657023 0.555428 0.0433661
0.693339 0.555703 0.0426795
0.725185 0.554406 0.0420386
0.753674 0.554055 0.0415045
0.781842 0.553124 0.0409094
0.808804 0.551644 0.040238
0.834348 0.548257 0.0398871
0.859419 0.544686 0.0391699
0.884871 0.54136 0.0388495
0.904067 0.538109 0.0384985
0.92015 0.534752 0.0380102
0.936568 0.53167 0.0378271
0.952926 0.528603 0.0376745
0.968246 0.525719 0.0374456
0.00903334 0.463706 0.0525063
0.0218204 0.46363 0.0534066
0.0345312 0.463279 0.0540475
0.0472572 0.463218 0.054963
0.0598917 0.463172 0.0559091
0.071931 0.46302 0.0564736
0.0844434 0.463004 0.0574502
0.0970321 0.462974 0.0583963
0.109438 0.46273 0.0591287
0.122301 0.462638 0.0600748
0.135409 0.462516 0.0610208
0.148699 0.462196 0.0616312
0.181216 0.480278 0.0624552
0.230198 0.514229 0.0463264
0.350118 0.541085 0.0467231
0.407691 0.551293 0.0461128
0.469825 0.562921 0.0455787
0.539681 0.574807 0.0442512
0.603891 0.584497 0.0429236
0.653361 0.587533 0.0420996
0.692485 0.587625 0.0413825
0.725475 0.586862 0.0407111
0.754849 0.586572 0.0402686
0.783459 0.585412 0.0396277
0.811719 0.585336 0.0389563
0.83772 0.582849 0.0386664
0.863584 0.580072 0.0380865
0.888182 0.577676 0.0376287
0.904418 0.575067 0.037232
0.920867 0.572549 0.0370642
0.937148 0.56939 0.036759
0.953536 0.566217 0.0366369
0.969009 0.563073 0.0365759
0.00813306 0.485924 0.0506142
0.0207828 0.485893 0.0514534
0.0336614 0.485908 0.0522011
0.0464179 0.486107 0.0531319
0.0590677 0.486336 0.054078
0.0711528 0.486458 0.0546731
0.083711 0.486656 0.0556649
0.0963455 0.486686 0.056672
0.108782 0.486458 0.057435
0.121721 0.486381 0.0584421
0.134844 0.486305 0.0593729
0.14789 0.485939 0.0598001
0.18088 0.497856 0.0619821
0.216648 0.529854 0.0529641
0.3308 0.5617 0.0455329
0.398352 0.575036 0.0453956
0.458427 0.58613 0.0444648
0.526223 0.599329 0.0432746
0.594781 0.6112 0.0419318
0.648005 0.616968 0.0407874
0.690028 0.618647 0.0401923
0.724926 0.618708 0.0395819
0.755337 0.617945 0.0389868
0.784131 0.617533 0.0383307
0.812131 0.616785 0.0377508
0.838483 0.61474 0.0374609
0.864454 0.612024 0.036759
0.888487 0.609583 0.0365301
0.904997 0.607263 0.036408
0.921248 0.604639 0.0360418
0.93756 0.602411 0.0357366
0.953994 0.600076 0.0356298
0.969573 0.597894 0.0356298
0.00738537 0.509804 0.0481117
0.0199435 0.509529 0.0488441
0.0330205 0.509468 0.049836
0.0458228 0.509453 0.0509499
0.0581216 0.509285 0.0517739
0.0706188 0.509346 0.0528572
0.0832227 0.509407 0.0540322
0.0956741 0.509346 0.0549935
0.108324 0.509529 0.0559396
0.121279 0.509728 0.0569619
0.134432 0.509926 0.0578775
0.147524 0.509834 0.0583047
0.165576 0.514229 0.0591287
0.208484 0.544213 0.057084
0.304112 0.578973 0.0446174
0.388602 0.598169 0.0443885
0.447349 0.608942 0.0434577
0.511467 0.622019 0.0422065
0.581506 0.635218 0.0408331
0.640894 0.64445 0.0397192
0.686091 0.647166 0.0387427
0.722881 0.647257 0.0381323
0.754284 0.647166 0.037583
0.783703 0.646174 0.037232
0.81236 0.645319 0.0366827
0.83856 0.644419 0.0361334
0.864927 0.64239 0.035874
0.888701 0.640131 0.0354314
0.905211 0.638254 0.0352789
0.921584 0.636439 0.0350042
0.937881 0.634333 0.0346685
0.954345 0.632425 0.0345617
0.969955 0.630289 0.0345922
0.00654612 0.535439 0.0465095
0.01944 0.534691 0.0473793
0.0325322 0.533898 0.0482032
0.0453651 0.533639 0.0491646
0.0577554 0.53344 0.0499123
0.0702373 0.533593 0.0508278
0.0828717 0.533654 0.051957
0.0952468 0.533471 0.0528267
0.108034 0.533516 0.0538796
0.121035 0.533516 0.0549935
0.133928 0.533242 0.055848
0.147402 0.53315 0.056733
0.161196 0.532967 0.0576028
0.197772 0.560403 0.0568093
0.257954 0.594919 0.0432898
0.378393 0.619623 0.043122
0.43566 0.631006 0.0425879
0.497826 0.642893 0.0412299
0.566537 0.657481 0.0397803
0.629923 0.667597 0.0386206
0.679896 0.673274 0.0375982
0.71902 0.674708 0.0369726
0.753033 0.674983 0.0364996
0.783139 0.674617 0.035996
0.811734 0.673945 0.0356451
0.838682 0.673472 0.035172
0.864912 0.671656 0.0345617
0.888945 0.669673 0.0343938
0.905394 0.667689 0.0341802
0.921798 0.66569 0.0339513
0.938354 0.663813 0.033875
0.954772 0.661997 0.0337072
0.970047 0.66006 0.0333867
0.00631724 0.56553 0.0457771
0.0189517 0.564294 0.046479
0.0320897 0.563256 0.0473487
0.0447547 0.562341 0.0481117
0.0575265 0.561563 0.0490578
0.0699626 0.560678 0.0498207
0.0825513 0.559976 0.0507515
0.0950484 0.559365 0.0516518
0.107836 0.558679 0.0525826
0.120867 0.558068 0.0534829
0.133776 0.557794 0.0542
0.147341 0.557687 0.055024
0.161089 0.557549 0.0556954
0.189029 0.57641 0.0560006
0.238849 0.610941 0.0419776
0.362539 0.63949 0.0421912
0.425025 0.652247 0.0411688
0.485161 0.664088 0.0401312
0.552087 0.677836 0.0388647
0.618814 0.690364 0.0376745
0.672221 0.697353 0.0366217
0.715206 0.700771 0.0360723
0.750134 0.701732 0.0354772
0.780758 0.70132 0.0349889
0.810224 0.700236 0.0344549
0.837278 0.699763 0.0342565
0.86363 0.697963 0.033753
0.889128 0.696513 0.0334173
0.90547 0.694835 0.0330663
0.922026 0.693431 0.0329747
0.938613 0.692027 0.0328985
0.954879 0.69041 0.032578
0.970535 0.689143 0.0326238
0.00561532 0.596567 0.0440223
0.018616 0.595605 0.0451362
0.031342 0.59443 0.0458228
0.0442206 0.593439 0.0469062
0.0570535 0.592508 0.0480507
0.0697795 0.591562 0.049134
0.0822309 0.590707 0.0499275
0.0947127 0.589563 0.050721
0.107546 0.588602 0.0517586
0.120531 0.58764 0.0527047
0.133623 0.586694 0.0534676
0.146975 0.585565 0.0540017
0.160906 0.584604 0.0547189
0.185946 0.593317 0.055314
0.238025 0.627832 0.0460059
0.340581 0.657801 0.04094
0.415808 0.674098 0.0398871
0.474586 0.68542 0.0389258
0.537255 0.697856 0.0377966
0.604852 0.71107 0.0366827
0.663935 0.720027 0.0358129
0.708614 0.724575 0.0348974
0.7458 0.726101 0.0344549
0.77847 0.726696 0.0339208
0.807767 0.726131 0.033463
0.83592 0.725414 0.0332494
0.862242 0.723934 0.0327611
0.888579 0.722438 0.0322118
0.905653 0.721233 0.0321202
0.92224 0.71989 0.0320439
