assets/luts/LUTs/DAWN.CUBE
LUT_3D_SIZE 6
0.000000 0.000000 0.000000
0.006534 0.001454 0.000000
0.269408 0.022522 0.000000
0.622469 0.000000 0.091377
0.824067 0.000000 0.134919
0.830281 0.000000 0.145764
0.000000 0.000000 0.000000
0.002384 0.002660 0.000000
0.258618 0.116914 0.000000
0.611669 0.000000 0.074200
0.820897 0.000000 0.129574
0.827380 0.000000 0.141250
0.000000 0.189538 0.073624
0.000000 0.188870 0.074189
0.215058 0.213702 0.000000
0.635436 0.316851 0.000000
0.845986 0.330147 0.000000
0.844478 0.316963 0.000000
0.000000 0.540354 0.200902
0.000000 0.540181 0.200855
0.000000 0.537663 0.206149
0.541369 0.514712 0.000000
0.845775 0.572944 0.000000
0.843593 0.569816 0.000000
-0.018402 0.809305 0.291743
-0.018423 0.809307 0.291744
-0.018599 0.809356 0.291738
0.356274 0.847906 0.044806
0.791089 0.760114 0.000000
0.832993 0.763454 0.000000
-0.019195 0.823658 0.296726
-0.047013 0.823621 0.296685
-0.106087 0.823648 0.296750
0.156506 0.868477 0.118157
0.764802 0.772334 0.000000
0.833394 0.779903 0.000000
0.000000 -0.208742 0.000000
0.000896 -0.202166 0.000888
0.293890 -0.201286 0.114006
0.673956 -0.210354 0.159238
0.857277 -0.190721 0.191934
0.859715 -0.187854 0.197886
-0.011617 0.000000 0.000000
0.000000 0.000000 0.000000
0.268172 0.053665 0.000000
0.656536 0.000000 0.140121
0.848136 0.000000 0.164252
0.854229 0.000000 0.171175
0.000000 0.182036 0.079288
0.000000 0.182575 0.078124
0.215159 0.213752 0.000000
0.636937 0.305451 0.000000
0.848077 0.309734 0.000000
0.844428 0.296045 0.000000
0.000000 0.539142 0.200492
0.000000 0.539145 0.200483
0.000000 0.536649 0.205589
0.541017 0.513881 0.000000
0.845939 0.571271 0.000000
0.843798 0.567599 0.000000
-0.018541 0.809338 0.291753
-0.018548 0.809340 0.291734
-0.018717 0.809388 0.291748
0.351744 0.848292 0.049521
0.790822 0.759575 0.000000
0.833006 0.762873 0.000000
-0.014110 0.823681 0.295564
-0.044437 0.823610 0.295270
-0.111710 0.823603 0.295355
0.119667 0.867403 0.122633
0.762668 0.772310 0.000000
0.831897 0.779690 0.000000
-0.002499 -0.206313 0.129414
0.062416 -0.202774 0.140945
0.254923 -0.190572 0.207721
0.697945 -0.199392 0.308965
0.885216 -0.183128 0.332584
0.882192 -0.179615 0.335239
0.000000 0.044229 0.129745
0.000000 0.019229 0.132888
0.240142 0.000000 0.197012
0.684615 0.000000 0.291306
0.880646 0.000000 0.311192
0.880173 0.000000 0.313697
0.000000 0.131724 0.130999
-0.016675 0.131444 0.130876
0.182414 0.196550 0.200330
0.678699 0.227041 0.210271
0.890652 0.186499 0.219989
0.888985 0.164425 0.235047
0.000000 0.477027 0.274683
0.000000 0.479174 0.272803
-0.043765 0.479859 0.268840
0.569659 0.549404 0.158329
0.873038 0.589461 0.135106
0.872320 0.586305 0.142861
-0.017509 0.805856 0.293909
-0.017744 0.807812 0.291382
-0.017539 0.807631 0.291337
0.337357 0.845384 0.061534
0.788932 0.755727 0.000000
0.832463 0.758641 0.000000
-0.000001 0.823632 0.291165
-0.026755 0.823599 0.290809
-0.098356 0.823422 0.288513
0.101840 0.864991 0.144356
0.760424 0.772633 0.000000
0.831702 0.779896 -0.011721
0.000000 -0.168918 0.333943
-0.011863 -0.169258 0.334063
0.305603 -0.068879 0.435787
0.544848 -0.159702 0.459267
0.771651 -0.189608 0.527627
0.766673 -0.186111 0.527291
0.000000 0.086265 0.333806
-0.007504 0.086273 0.333874
0.277298 0.024966 0.440594
0.534696 0.000000 0.451837
0.774469 0.000000 0.518566
0.773352 0.000000 0.518444
0.000000 0.110391 0.327464
0.000000 0.108313 0.327683
0.177166 0.051070 0.455794
0.520570 0.000000 0.443881
0.775524 0.000000 0.513842
0.774724 0.000000 0.513385
0.000000 0.359770 0.370547
0.000000 0.359751 0.370609
-0.054924 0.358300 0.369674
0.610767 0.603479 0.601881
0.939762 0.619534 0.586551
0.938161 0.614324 0.587806
0.000000 0.624586 0.461440
0.000000 0.625241 0.460989
0.000000 0.626103 0.459942
0.240593 0.749627 0.542615
0.867532 0.865896 0.579728
0.917582 0.862124 0.582191
0.000000 0.664905 0.465914
0.000000 0.665804 0.465169
-0.091199 0.666834 0.459750
0.085565 0.732213 0.502704
0.856508 0.915695 0.563892
0.923011 0.906229 0.568067
0.000000 0.081030 0.663292
0.000000 0.081048 0.663503
0.285351 0.047829 0.755395
0.543657 -0.054156 0.611062
0.689129 -0.189429 0.632412
0.682906 -0.186656 0.631504
0.000000 0.172969 0.657629
0.000000 0.173035 0.657880
0.232574 0.109177 0.751289
0.531175 0.022784 0.610220
0.695623 0.012711 0.637715
0.694702 0.012728 0.637650
0.000000 0.170370 0.648281
0.000000 0.170487 0.648749
0.029196 0.162444 0.695629
0.520623 0.023214 0.607420
0.695965 0.012526 0.636284
0.694585 0.012536 0.635562
0.000000 0.360506 0.555870
0.000000 0.359564 0.556258
-0.038750 0.356311 0.556016
0.584416 0.530368 0.865258
0.843937 0.495226 0.782948
0.846870 0.487844 0.780804
0.000000 0.551942 0.568213
0.000000 0.551881 0.568229
0.000000 0.551501 0.568323
0.213645 0.635550 0.656033
0.888735 0.874727 0.861363
0.956639 0.876349 0.858867
-0.053818 0.616998 0.577479
-0.053829 0.617045 0.577288
-0.089423 0.617385 0.577449
0.000000 0.654350 0.617022
0.859697 0.968203 0.876626
0.955817 0.956599 0.865308
0.058287 0.123327 0.773957
0.058287 0.123327 0.773957
0.247958 0.069664 0.795559
0.546693 0.000000 0.640331
0.690585 -0.183988 0.653399
0.684009 -0.188107 0.651449
0.054066 0.194230 0.768536
0.054066 0.194230 0.768536
0.178244 0.122782 0.791558
0.532854 0.028476 0.641755
0.697342 0.015466 0.663209
0.696239 0.015558 0.662921
0.054066 0.194230 0.768536
0.054066 0.194230 0.768536
0.038044 0.207009 0.769786
0.522180 0.029648 0.641198
0.697624 0.015440 0.663240
0.696239 0.015558 0.662921
-0.029994 0.357986 0.613508
-0.032479 0.355933 0.612576
-0.045143 0.351295 0.610466
0.570258 0.475113 0.908988
0.812336 0.420775 0.793129
0.817188 0.409982 0.790267
0.000000 0.551799 0.621576
0.000000 0.551448 0.621574
0.000000 0.550418 0.621675
0.206435 0.628304 0.716078
0.880668 0.859946 0.919332
0.956717 0.857767 0.920747
0.000000 0.604216 0.623042
0.000000 0.604192 0.623055
0.000000 0.603985 0.623108
0.018014 0.634492 0.656043
0.851843 0.929428 0.918362
0.951408 0.939340 0.924201
