assets/luts/LUTs/DAWN.CUBE
LUT_3D_SIZE 16
0.000000 0.000000 0.000000
0.000000 0.000000 0.000000
0.000000 0.000000 0.000000
0.006534 0.001454 0.000000
0.069916 0.010696 0.000000
0.155032 0.020411 0.000000
0.269408 0.022522 0.000000
0.386463 0.000000 0.041198
0.503961 0.000000 0.067546
0.622469 0.000000 0.091377
0.725938 0.000000 0.111088
0.808013 0.000000 0.125026
0.824067 0.000000 0.134919
0.827330 0.000000 0.141082
0.829356 0.000000 0.144290
0.830281 0.000000 0.145764
0.000000 0.000000 0.000000
0.000000 0.000000 0.000000
0.000000 0.000000 0.000000
0.002292 0.001099 0.000000
0.067776 0.024278 0.000000
0.152554 0.040870 0.000000
0.267976 0.038283 0.000000
0.385521 0.000000 0.038938
0.502801 0.000000 0.066001
0.621709 0.000000 0.090023
0.725447 0.000000 0.110111
0.807492 0.000000 0.124232
0.823734 0.000000 0.134248
0.826924 0.000000 0.140474
0.828907 0.000000 0.143720
0.829825 0.000000 0.145205
0.000000 0.000000 0.000000
0.000000 0.000000 0.000000
0.000000 0.000000 0.000000
0.000000 0.000000 0.000000
0.065631 0.039243 0.000000
0.147446 0.066595 0.000000
0.263595 0.083331 0.000000
0.379921 0.058855 0.000000
0.500253 0.000000 0.064806
0.619643 0.000000 0.087259
0.723978 0.000000 0.107608
0.806252 0.000000 0.122152
0.822668 0.000000 0.132519
0.825933 0.000000 0.138918
0.828065 0.000000 0.142265
0.828994 0.000000 0.143791
0.000000 0.000000 0.000000
0.000000 0.000000 0.000000
0.000000 0.000000 0.000000
0.002384 0.002660 0.000000
0.060910 0.049295 0.000000
0.142902 0.087039 0.000000
0.258618 0.116914 0.000000
0.375148 0.124181 0.000000
0.490239 0.092536 0.000000
0.611669 0.000000 0.074200
0.721927 0.000000 0.106043
0.804679 0.000000 0.119439
0.820897 0.000000 0.129574
0.824192 0.000000 0.136144
0.826415 0.000000 0.139648
0.827380 0.000000 0.141250
-0.007050 0.036626 0.015469
-0.018313 0.036453 0.015397
0.000000 0.036695 0.013702
0.025199 0.045106 0.000000
0.058820 0.062517 0.000000
0.133746 0.103429 0.000000
0.250585 0.143674 0.000000
0.374279 0.169025 0.000000
0.496720 0.178494 0.000000
0.598823 0.159867 0.000000
0.703461 0.091457 0.000000
0.793258 0.000000 0.097250
0.817820 0.000000 0.130941
0.821071 0.000000 0.136147
0.823502 0.000000 0.138807
0.824628 0.000000 0.139993
-0.021858 0.092450 0.034860
-0.022735 0.092359 0.034825
-0.030786 0.092042 0.034669
0.000000 0.093620 0.032471
0.069233 0.117220 0.000000
0.124565 0.128579 0.000000
0.237670 0.170135 0.000000
0.374899 0.210713 0.000000
0.506093 0.233624 0.000000
0.620729 0.244470 0.000000
0.714959 0.243786 0.000000
0.800053 0.230332 0.000000
0.810024 0.201965 0.000000
0.803088 0.171466 0.000000
0.798583 0.145357 0.000000
0.798790 0.127663 0.000000
0.000000 0.189538 0.073624
0.000000 0.189497 0.073605
0.000000 0.189332 0.073599
0.000000 0.188870 0.074189
0.000000 0.189718 0.070402
0.111344 0.217139 0.000000
0.215058 0.213702 0.000000
0.362408 0.256690 -0.016840
0.506596 0.294682 0.000000
0.635436 0.316851 0.000000
0.735314 0.328362 0.000000
0.825814 0.335582 0.000000
0.845986 0.330147 0.000000
0.845049 0.323537 0.000000
0.844748 0.319453 0.000000
0.844478 0.316963 0.000000
0.000000 0.304411 0.115776
0.000000 0.304379 0.115761
0.000000 0.304259 0.115715
0.000000 0.304077 0.115711
0.000000 0.303532 0.116615
0.000000 0.304803 0.112528
0.195839 0.337378 0.026451
0.326009 0.313171 0.000000
0.479639 0.349870 0.000000
0.623448 0.386892 0.000000
0.735365 0.408842 0.000000
0.829147 0.422805 0.000000
0.856808 0.424679 0.000000
0.855675 0.422088 0.000000
0.855665 0.420496 0.000000
0.855509 0.419059 0.000000
0.000000 0.423027 0.159609
0.000000 0.423166 0.159627
0.000000 0.423041 0.159584
0.000000 0.422910 0.159543
0.000000 0.422704 0.159546
0.000000 0.421740 0.161599
0.023159 0.434501 0.129902
0.295200 0.445378 0.015152
0.439564 0.416117 0.000000
0.580243 0.443295 0.000000
0.713823 0.476673 0.000000
0.813552 0.495663 0.000000
0.853048 0.501952 0.000000
0.851634 0.500200 0.000000
0.851721 0.499067 0.000000
0.851678 0.498040 0.000000
0.000000 0.540354 0.200902
0.000000 0.540357 0.200905
0.000000 0.540281 0.200881
0.000000 0.540181 0.200855
0.000000 0.539988 0.200780
0.000000 0.539557 0.200967
0.000000 0.537663 0.206149
0.175703 0.573591 0.089955
0.412067 0.545122 0.000000
0.541369 0.514712 0.000000
0.673841 0.535744 0.000000
0.786839 0.561083 0.000000
0.845775 0.572944 0.000000
0.843467 0.571545 0.000000
0.843472 0.570730 0.000000
0.843593 0.569816 0.000000
0.000000 0.655835 0.241067
0.000000 0.655796 0.241056
0.000000 0.655920 0.241062
0.000000 0.655770 0.241014
0.000000 0.655609 0.240970
0.000000 0.655343 0.240891
0.000000 0.654368 0.242186
0.000000 0.664411 0.229847
0.310070 0.682573 0.043560
0.534440 0.635785 0.000000
0.640181 0.611860 0.000000
0.751866 0.624016 0.000000
0.827436 0.638209 0.000000
0.832869 0.638567 0.000000
0.832639 0.637835 0.000000
0.832799 0.636987 0.000000
0.000000 0.749778 0.273136
0.000000 0.749755 0.273129
0.000000 0.749848 0.273129
0.000000 0.749759 0.273099
0.000000 0.749590 0.273058
0.000000 0.749479 0.273011
0.000000 0.748862 0.273003
-0.038035 0.746894 0.276576
0.117013 0.781140 0.164942
0.436276 0.758101 0.000000
0.643342 0.720917 0.000000
0.729267 0.700141 0.000000
0.804802 0.708251 0.000000
0.829484 0.710514 0.000000
0.828706 0.709919 0.000000
0.828544 0.708787 0.000000
-0.018402 0.809305 0.291743
-0.018405 0.809305 0.291743
-0.018411 0.809304 0.291743
-0.018423 0.809307 0.291744
-0.018447 0.809315 0.291746
-0.018499 0.809330 0.291750
-0.018599 0.809356 0.291738
-0.052373 0.808748 0.291753
0.000000 0.827424 0.272009
0.356274 0.847906 0.044806
0.613123 0.796389 0.000000
0.734586 0.775578 0.000000
0.791089 0.760114 0.000000
0.833067 0.764331 0.000000
0.833138 0.763815 0.000000
0.832993 0.763454 0.000000
0.000000 0.807040 0.291170
0.000000 0.807040 0.291170
0.000000 0.807040 0.291170
0.000000 0.807040 0.291170
0.000000 0.807040 0.291170
0.000000 0.807040 0.291170
0.000000 0.807040 0.291170
-0.027240 0.806832 0.291124
-0.091012 0.805896 0.293544
0.277279 0.851110 0.078484
0.577722 0.802163 0.000000
0.725950 0.782328 0.000000
0.777855 0.760264 0.000000
0.824138 0.766455 0.000000
0.833772 0.767404 0.000000
0.833413 0.767396 0.000000
0.000000 0.807040 0.291170
0.000000 0.807040 0.291170
0.000000 0.807040 0.291170
0.000000 0.807040 0.291170
0.000000 0.807040 0.291170
0.000000 0.807040 0.291170
0.000000 0.807040 0.291170
-0.006527 0.807030 0.291166
-0.087463 0.805373 0.292816
0.236343 0.852311 0.102785
0.551669 0.807789 0.000000
0.717918 0.783072 0.000000
0.770088 0.758849 0.000000
0.817087 0.765538 0.000000
0.833704 0.767266 0.000000
0.833398 0.767206 0.000000
-0.019195 0.823658 0.296726
-0.024891 0.823653 0.296715
-0.034761 0.823637 0.296687
-0.047013 0.823621 0.296685
-0.062107 0.823617 0.296692
-0.082051 0.823626 0.296733
-0.106087 0.823648 0.296750
-0.131504 0.823665 0.296729
-0.167493 0.822391 0.297628
0.156506 0.868477 0.118157
0.527929 0.826459 0.000000
0.711681 0.800033 0.000000
0.764802 0.772334 0.000000
0.812462 0.777600 0.000000
0.832951 0.779891 0.000000
0.833394 0.779903 0.000000
0.000000 -0.206896 0.000000
0.000000 -0.206742 0.000000
0.000000 -0.205101 0.000000
0.009807 -0.202223 0.005367
0.073141 -0.203191 0.030156
0.162359 -0.202385 0.051025
0.281510 -0.206383 0.057140
0.404253 -0.208066 0.071707
0.523613 -0.209986 0.094378
0.639345 -0.210940 0.120633
0.737760 -0.205070 0.143634
0.816218 -0.195004 0.160214
0.830171 -0.189569 0.168072
0.831860 -0.187690 0.172401
0.833117 -0.187411 0.174707
0.833947 -0.187364 0.175773
0.000000 0.000000 0.000000
0.000000 0.000000 0.000000
0.000000 0.000000 0.000000
0.000786 0.000173 0.000000
0.065817 0.013121 0.000000
0.153304 0.019539 0.000000
0.271885 0.000000 0.031749
0.391972 0.000000 0.058380
0.510074 0.000000 0.079545
0.626941 0.000000 0.100243
0.728858 0.000000 0.117560
0.810709 0.000000 0.130392
0.826663 0.000000 0.139445
0.829789 0.000000 0.145140
0.831900 0.000000 0.148131
0.832950 0.000000 0.149517
0.000000 0.000000 0.000000
0.000000 0.000000 0.000000
0.000000 0.000000 0.000000
0.000000 0.000000 0.000000
0.063887 0.035564 0.000000
0.147853 0.060260 0.000000
0.267003 0.074444 0.000000
0.385190 0.030054 0.000000
0.507415 0.000000 0.078247
0.624889 0.000000 0.097904
0.727533 0.000000 0.115411
0.809446 0.000000 0.128517
0.825867 0.000000 0.137860
0.828887 0.000000 0.143704
0.830956 0.000000 0.146783
0.831963 0.000000 0.148182
0.000000 0.000000 0.000000
0.000000 0.000000 0.000000
0.000000 0.000000 0.000000
0.000614 0.000692 0.000000
0.060552 0.048152 0.000000
0.143105 0.084600 0.000000
0.261739 0.113396 0.000000
0.377569 0.117201 0.000000
0.493638 0.076520 0.000000
0.617018 0.000000 0.088838
0.725668 0.000000 0.114158
0.807572 0.000000 0.126091
0.824287 0.000000 0.135187
0.827348 0.000000 0.141176
0.829332 0.000000 0.144367
0.830361 0.000000 0.145847
-0.006195 0.035267 0.016355
-0.017655 0.035267 0.016159
0.000000 0.035165 0.014789
0.022660 0.043110 0.000000
0.057663 0.061219 0.000000
0.134090 0.102949 0.000000
0.253030 0.142348 0.000000
0.375386 0.166033 0.000000
0.497182 0.173872 0.000000
0.598863 0.152136 0.000000
0.706284 0.070741 0.000000
0.796159 0.000000 0.109043
0.820864 0.000000 0.136573
0.824443 0.000000 0.141234
0.826763 0.000000 0.143608
0.827958 0.000000 0.144671
-0.021807 0.091837 0.034724
-0.022628 0.091846 0.034649
-0.030425 0.091530 0.034506
0.000000 0.092934 0.032553
0.068540 0.116411 0.000000
0.124169 0.128105 0.000000
0.237700 0.169819 0.000000
0.374917 0.209955 0.000000
0.506539 0.231688 0.000000
0.620857 0.241630 0.000000
0.714852 0.240082 0.000000
0.800028 0.225424 0.000000
0.809630 0.195841 0.000000
0.802227 0.163140 0.000000
0.798665 0.134273 0.000000
0.799757 0.114156 0.000000
0.000000 0.189122 0.073464
0.000000 0.189123 0.073466
0.000000 0.188971 0.073456
0.000000 0.188505 0.074038
0.000000 0.189302 0.070544
0.110784 0.216728 0.000000
0.214894 0.213439 0.000000
0.362297 0.256433 -0.019178
0.506486 0.294310 0.000000
0.635287 0.316364 0.000000
0.735254 0.327734 0.000000
0.826066 0.333560 0.000000
0.846443 0.327819 0.000000
0.845346 0.321028 0.000000
0.845032 0.316917 0.000000
0.844777 0.314232 0.000000
0.000000 0.304119 0.115664
0.000000 0.304127 0.115667
0.000000 0.304046 0.115639
0.000000 0.303889 0.115629
0.000000 0.303278 0.116488
0.000000 0.304363 0.112877
0.195464 0.337181 0.026446
0.325929 0.312985 0.000000
0.479640 0.349704 0.000000
0.623465 0.386576 0.000000
0.735345 0.408472 0.000000
0.829121 0.422377 0.000000
0.856745 0.424159 0.000000
0.855631 0.421686 0.000000
0.855633 0.419957 0.000000
0.855485 0.418580 0.000000
0.000000 0.422923 0.159548
0.000000 0.422934 0.159552
0.000000 0.422884 0.159539
0.000000 0.422796 0.159495
0.000000 0.422517 0.159487
0.000000 0.421613 0.161533
0.022352 0.434222 0.130385
0.294997 0.445263 0.015253
0.439526 0.416014 0.000000
0.580267 0.443148 0.000000
0.713802 0.476535 0.000000
0.813577 0.495453 0.000000
0.853104 0.501614 0.000000
0.851646 0.499896 0.000000
0.851617 0.498751 0.000000
0.851739 0.497720 0.000000
0.000000 0.540190 0.200857
0.000000 0.540198 0.200859
0.000000 0.540169 0.200851
0.000000 0.540048 0.200801
0.000000 0.539893 0.200728
0.000000 0.539422 0.200919
0.000000 0.537490 0.206088
0.174588 0.573326 0.090057
0.411838 0.545038 0.000000
0.541354 0.514603 0.000000
0.673830 0.535630 0.000000
0.786940 0.560970 0.000000
0.845636 0.572718 0.000000
0.843476 0.571321 0.000000
0.843569 0.570485 0.000000
0.843578 0.569510 0.000000
0.000000 0.655779 0.241017
0.000000 0.655791 0.241021
0.000000 0.655701 0.240993
0.000000 0.655644 0.240990
0.000000 0.655443 0.240913
0.000000 0.655269 0.240836
0.000000 0.654159 0.242108
0.000000 0.664262 0.230005
0.309539 0.682603 0.043989
0.534394 0.635724 0.000000
0.640179 0.611807 0.000000
0.751852 0.623878 0.000000
0.827456 0.638142 0.000000
0.832856 0.638413 0.000000
0.832711 0.637735 0.000000
0.832789 0.636786 0.000000
0.000000 0.749764 0.273102
0.000000 0.749772 0.273104
0.000000 0.749721 0.273087
0.000000 0.749636 0.273075
0.000000 0.749482 0.273046
0.000000 0.749356 0.272986
0.000000 0.748747 0.272977
-0.037490 0.746860 0.276568
0.116303 0.780808 0.165692
0.435699 0.758073 0.000000
0.643303 0.720914 0.000000
0.729281 0.700161 0.000000
0.804822 0.708256 0.000000
0.829472 0.710437 0.000000
0.828675 0.709632 0.000000
0.828561 0.708798 0.000000
-0.018420 0.809305 0.291744
-0.018421 0.809306 0.291744
-0.018427 0.809308 0.291744
-0.018438 0.809312 0.291745
-0.018462 0.809320 0.291747
-0.018513 0.809335 0.291751
-0.018614 0.809361 0.291740
-0.052245 0.808760 0.291755
0.000000 0.827282 0.272306
0.355882 0.847901 0.045205
0.612882 0.796322 0.000000
0.734547 0.775494 0.000000
0.791044 0.760024 0.000000
0.833064 0.764255 0.000000
0.833130 0.763729 0.000000
0.832984 0.763363 0.000000
0.000000 0.807040 0.291170
0.000000 0.807040 0.291170
0.000000 0.807040 0.291170
0.000000 0.807040 0.291170
0.000000 0.807040 0.291170
0.000000 0.807040 0.291170
0.000000 0.807040 0.291170
-0.027140 0.806835 0.291125
-0.090941 0.805886 0.293526
0.276333 0.851109 0.079146
0.577234 0.802172 0.000000
0.725970 0.782365 0.000000
0.777773 0.760242 0.000000
0.824105 0.766449 0.000000
0.833774 0.767408 0.000000
0.833414 0.767399 0.000000
0.000000 0.807040 0.291170
0.000000 0.807040 0.291170
0.000000 0.807040 0.291170
0.000000 0.807040 0.291170
0.000000 0.807040 0.291170
0.000000 0.807040 0.291170
0.000000 0.807040 0.291170
-0.006495 0.807030 0.291166
-0.087307 0.805377 0.292801
0.235072 0.852227 0.103362
0.551215 0.807963 0.000000
0.717719 0.783176 0.000000
0.770000 0.758856 0.000000
0.817008 0.765517 0.000000
0.833699 0.767264 0.000000
0.833398 0.767206 0.000000
-0.018384 0.823667 0.296471
-0.024333 0.823661 0.296452
-0.034403 0.823645 0.296405
-0.046675 0.823631 0.296398
-0.062050 0.823625 0.296422
-0.082726 0.823621 0.296411
-0.108127 0.823632 0.296436
-0.135039 0.823654 0.296429
-0.171014 0.822394 0.297374
0.150337 0.868262 0.118335
0.526752 0.826645 0.000000
0.711180 0.799988 0.000000
0.764323 0.772357 0.000000
0.812057 0.777472 0.000000
0.832521 0.779803 0.000000
0.832962 0.779838 0.000000
0.000000 -0.207788 0.000000
0.000000 -0.207589 0.000000
0.000000 -0.205680 0.000000
0.009121 -0.203113 0.006737
0.070328 -0.204594 0.038572
0.165282 -0.202050 0.069816
0.287198 -0.203781 0.088407
0.422613 -0.206845 0.100931
0.544395 -0.210191 0.117152
0.654581 -0.211054 0.137610
0.747793 -0.205443 0.156655
0.825694 -0.195939 0.170979
0.839569 -0.190254 0.177668
0.842082 -0.188203 0.181475
0.843927 -0.187828 0.183538
0.844904 -0.187722 0.184479
0.000000 0.000000 0.000000
0.000000 0.000000 0.000000
0.000000 0.000000 0.000000
0.000000 0.000000 0.000000
0.062882 0.000000 0.029283
0.155937 0.000000 0.053806
0.277675 0.000000 0.073807
0.410973 0.000000 0.090300
0.531335 0.000000 0.106720
0.642548 0.000000 0.121304
0.738996 0.000000 0.134731
0.820049 0.000000 0.145541
0.836099 0.000000 0.152488
0.840039 0.000000 0.157035
0.842615 0.000000 0.159475
0.843852 0.000000 0.160597
0.000000 0.000000 0.000000
0.000000 0.000000 0.000000
0.000000 0.000000 0.000000
0.000000 0.000000 0.000000
0.060946 0.020389 0.000000
0.148177 0.031669 0.000000
0.271169 0.000000 0.014956
0.404739 0.000000 0.078362
0.527151 0.000000 0.103764
0.639418 0.000000 0.118062
0.736701 0.000000 0.131590
0.818095 0.000000 0.142659
0.833889 0.000000 0.149935
0.837550 0.000000 0.154687
0.840111 0.000000 0.157212
0.841474 0.000000 0.158399
-0.010496 0.000000 0.000000
0.000000 0.000000 0.000000
0.000000 0.000000 0.000000
0.000000 0.000000 0.000000
0.057625 0.042564 0.000000
0.142990 0.075305 0.000000
0.266251 0.098093 0.000000
0.390921 0.091789 0.000000
0.509964 0.000000 0.059388
0.634091 0.000000 0.114689
0.734730 0.000000 0.130615
0.816298 0.000000 0.140685
0.832240 0.000000 0.147827
0.835845 0.000000 0.152675
0.838231 0.000000 0.155304
0.839506 0.000000 0.156502
-0.004308 0.031412 0.019232
-0.016372 0.031330 0.019141
0.000000 0.031058 0.018316
0.007409 0.036276 0.000000
0.053359 0.056682 0.000000
0.135027 0.100849 0.000000
0.259042 0.138202 0.000000
0.382589 0.157694 0.000000
0.499991 0.159420 0.000000
0.602100 0.127032 0.000000
0.714932 0.000000 0.076184
0.805770 0.000000 0.132266
0.829496 0.000000 0.149170
0.832998 0.000000 0.152781
0.835517 0.000000 0.154575
0.836460 0.000000 0.155371
-0.021674 0.088952 0.039903
-0.022342 0.088951 0.039748
-0.029310 0.088910 0.039202
0.000000 0.089015 0.038093
0.061644 0.110848 0.000000
0.123465 0.128239 0.000000
0.241254 0.169524 0.000000
0.377402 0.204936 0.000000
0.508695 0.224822 0.000000
0.621206 0.232956 0.000000
0.714859 0.229353 0.000000
0.798974 0.211903 0.000000
0.808171 0.177921 0.000000
0.800635 0.136353 0.002919
0.800853 0.094287 0.005650
0.803447 0.052703 0.007018
0.000000 0.188139 0.072816
0.000000 0.188108 0.072817
0.000000 0.188082 0.072854
0.000000 0.187616 0.073422
0.000000 0.188135 0.070746
0.109149 0.215545 0.000000
0.214480 0.212804 0.000000
0.362164 0.255558 -0.017614
0.506369 0.293083 0.000000
0.635211 0.314005 0.000000
0.735441 0.322886 0.000000
0.826999 0.327072 0.000000
0.847179 0.320724 0.000000
0.846019 0.313694 0.000000
0.845597 0.309462 0.000000
0.845172 0.307032 0.000000
0.000000 0.303443 0.115401
0.000000 0.303466 0.115411
0.000000 0.303403 0.115391
0.000000 0.303236 0.115387
0.000000 0.302657 0.116201
0.000000 0.303252 0.113912
0.194054 0.336361 0.026453
0.325715 0.312541 0.000000
0.479694 0.349139 0.000000
0.623581 0.385841 0.000000
0.735403 0.407484 0.000000
0.829162 0.421114 0.000000
0.856720 0.422562 0.000000
0.855598 0.419877 0.000000
0.855472 0.418027 0.000000
0.855389 0.416469 0.000000
0.000000 0.422458 0.159372
0.000000 0.422441 0.159367
0.000000 0.422415 0.159367
0.000000 0.422388 0.159340
0.000000 0.422073 0.159332
0.000000 0.421116 0.161311
0.019990 0.433362 0.131775
0.294073 0.445062 0.015637
0.439402 0.415698 0.000000
0.580388 0.442669 0.000000
0.713950 0.475925 0.000000
0.813623 0.494651 0.000000
0.853234 0.500784 0.000000
0.851596 0.498871 0.000000
0.851736 0.497771 0.000000
0.851865 0.496630 0.000000
0.000000 0.539829 0.200709
0.000000 0.539820 0.200705
0.000000 0.539809 0.200714
0.000000 0.539665 0.200678
0.000000 0.539538 0.200631
0.000000 0.539083 0.200796
0.000000 0.537226 0.205898
0.171693 0.572603 0.090297
0.410883 0.544816 0.000000
0.541210 0.514333 0.000000
0.674001 0.535329 0.000000
0.786998 0.560501 0.000000
0.845730 0.572158 0.000000
0.843592 0.570695 0.000000
0.843589 0.569737 0.000000
0.843770 0.568817 0.000000
0.000000 0.655419 0.240909
0.000000 0.655409 0.240906
0.000000 0.655401 0.240903
0.000000 0.655290 0.240870
0.000000 0.655345 0.240876
0.000000 0.655062 0.240793
0.000000 0.653955 0.242004
0.000000 0.663846 0.230515
0.307937 0.682358 0.045149
0.533839 0.635530 0.000000
0.640052 0.611570 0.000000
0.751819 0.623485 0.000000
0.827600 0.637742 0.000000
0.833018 0.637985 0.000000
0.832716 0.637163 0.000000
0.832993 0.636215 0.000000
0.000000 0.749415 0.273023
0.000000 0.749410 0.273021
0.000000 0.749407 0.273020
0.000000 0.749432 0.273007
0.000000 0.749385 0.272995
0.000000 0.749269 0.272914
0.000000 0.748687 0.272889
-0.035717 0.746489 0.276490
0.113575 0.780250 0.168589
0.434440 0.758119 0.000000
0.642976 0.720818 0.000000
0.729295 0.700015 0.000000
0.804763 0.707971 0.000000
0.829464 0.710082 0.000000
0.828621 0.709240 0.000000
0.828492 0.708204 0.000000
-0.018464 0.809320 0.291747
-0.018465 0.809320 0.291747
-0.018467 0.809321 0.291747
-0.018478 0.809325 0.291748
-0.018502 0.809331 0.291750
-0.018552 0.809342 0.291735
-0.018652 0.809368 0.291742
-0.051799 0.808790 0.291759
0.000000 0.826693 0.273232
0.354311 0.848010 0.046863
0.612033 0.796235 0.000000
0.734568 0.775593 0.000000
0.790923 0.759892 0.000000
0.833047 0.764162 0.000000
0.833108 0.763593 0.000000
0.832958 0.763100 0.000000
0.000000 0.807040 0.291170
0.000000 0.807040 0.291170
0.000000 0.807040 0.291170
0.000000 0.807040 0.291170
0.000000 0.807040 0.291170
0.000000 0.807040 0.291170
0.000000 0.807040 0.291170
-0.026815 0.806843 0.291127
-0.090721 0.805879 0.293478
0.273455 0.851081 0.081138
0.575819 0.802525 0.000000
0.725688 0.782521 0.000000
0.777768 0.760246 0.000000
0.824092 0.766508 0.000000
0.833777 0.767416 0.000000
0.833415 0.767409 0.000000
0.000000 0.807040 0.291170
0.000000 0.807040 0.291170
0.000000 0.807040 0.291170
0.000000 0.807040 0.291170
0.000000 0.807040 0.291170
0.000000 0.807040 0.291170
0.000000 0.807040 0.291170
-0.006404 0.807030 0.291166
-0.086853 0.805388 0.292744
0.231370 0.852168 0.105016
0.549554 0.808103 0.000000
0.717398 0.783208 0.000000
0.769715 0.758770 0.000000
0.817065 0.765532 0.000000
0.833686 0.767261 0.000000
0.833399 0.767207 0.000000
-0.016906 0.823677 0.296075
-0.023200 0.823670 0.296045
-0.033111 0.823649 0.295996
-0.045554 0.823631 0.295969
-0.061959 0.823630 0.296005
-0.083653 0.823622 0.296013
-0.110217 0.823618 0.296000
-0.138491 0.823637 0.296000
-0.174732 0.822399 0.296953
0.137154 0.867863 0.119357
0.523877 0.826926 0.000000
0.710211 0.800118 0.000000
0.763558 0.772303 0.000000
0.811082 0.777406 0.000000
0.831915 0.779697 0.000000
0.832388 0.779739 0.000000
0.000000 -0.208742 0.000000
0.000000 -0.208444 0.000000
0.000000 -0.206437 0.000000
0.000896 -0.202166 0.000888
0.068384 -0.205308 0.047250
0.169971 -0.202963 0.088127
0.293890 -0.201286 0.114006
0.439373 -0.205052 0.130805
0.565511 -0.209701 0.143967
0.673956 -0.210354 0.159238
0.764763 -0.205236 0.174478
0.843339 -0.196396 0.186261
0.857277 -0.190721 0.191934
0.858343 -0.188465 0.195282
0.859246 -0.187982 0.197079
0.859715 -0.187854 0.197886
0.000000 0.000000 0.000000
0.000000 0.000000 0.000000
0.000000 0.000000 0.000000
0.006722 0.000000 0.007538
0.061506 0.000000 0.042524
0.161801 0.000000 0.079769
0.284283 0.000000 0.101320
0.428045 0.000000 0.120223
0.552903 0.000000 0.134665
0.662024 0.000000 0.144515
0.755571 0.000000 0.154983
0.837205 0.000000 0.163963
0.853415 0.000000 0.169480
0.855961 0.000000 0.173176
0.857701 0.000000 0.175143
0.858299 0.000000 0.176038
0.000000 0.000000 0.000000
0.000000 0.000000 0.000000
0.000000 0.000000 0.000000
0.000000 0.000000 0.000000
0.058966 0.000000 0.037281
0.150843 0.000000 0.063152
0.277534 0.000000 0.087697
0.425387 0.000000 0.117171
0.550958 0.000000 0.132587
0.659817 0.000000 0.142201
0.753302 0.000000 0.152833
0.834880 0.000000 0.161973
0.851551 0.000000 0.167521
0.854210 0.000000 0.171264
0.856154 0.000000 0.173296
0.856844 0.000000 0.174199
-0.011617 0.000000 0.000000
-0.005603 0.000000 0.000000
0.000000 0.000000 0.000000
0.000000 0.000000 0.000000
0.049178 0.021922 0.003261
0.141378 0.043955 0.004720
0.268172 0.053665 0.000000
0.409841 0.000000 0.059624
0.540065 0.000000 0.116952
0.656536 0.000000 0.140121
0.750084 0.000000 0.150181
0.831146 0.000000 0.158825
0.848136 0.000000 0.164252
0.851333 0.000000 0.168070
0.853328 0.000000 0.170175
0.854229 0.000000 0.171175
-0.003363 0.026474 0.021012
-0.015219 0.026366 0.020922
0.000000 0.026143 0.020585
0.000000 0.027699 0.018931
0.042480 0.047448 0.000000
0.134629 0.093456 0.004261
0.262481 0.125562 0.000000
0.399523 0.139178 0.000000
0.515868 0.130399 0.000000
0.621043 0.059738 0.000000
0.734707 0.000000 0.131211
0.824012 0.000000 0.156999
0.845384 0.000000 0.165376
0.849099 0.000000 0.167924
0.851255 0.000000 0.169225
0.851973 0.000000 0.169826
-0.020062 0.084074 0.051227
-0.020684 0.084044 0.051132
-0.027020 0.083964 0.050821
0.000000 0.083495 0.049809
0.030428 0.097201 0.000000
0.122038 0.129706 0.009475
0.247628 0.168099 0.000000
0.388857 0.197862 0.000000
0.515680 0.213281 0.000000
0.623087 0.219029 0.000000
0.715400 0.211501 0.000000
0.799107 0.188333 0.009687
0.809491 0.141706 0.016289
0.810009 0.062478 0.020395
0.819894 0.000000 0.098120
0.825992 0.000000 0.120615
0.000000 0.182036 0.079288
0.000000 0.182126 0.079123
0.000000 0.182360 0.078553
0.000000 0.182575 0.078124
0.000000 0.182497 0.077210
0.098926 0.211238 0.005818
0.215159 0.213752 0.000000
0.364846 0.253917 0.000000
0.508748 0.287805 0.000000
0.636937 0.305451 0.000000
0.736702 0.312751 0.000000
0.827925 0.316206 0.000000
0.848077 0.309734 0.000000
0.846259 0.302720 0.000000
0.845416 0.298756 0.000000
0.844428 0.296045 0.000000
0.000000 0.302319 0.114648
0.000000 0.302303 0.114648
0.000000 0.302287 0.114668
