assets/luts/LUTs/DJI D-LOG.CUBE
# Created by: Adobe Lightroom Export LUT Plugin
LUT_3D_SIZE 32
DOMAIN_MIN 0.0 0.0 0.0
DOMAIN_MAX 1.0 1.0 1.0
0.000000 0.000000 0.000000
0.018158 0.000000 0.000000
0.038666 0.000000 0.000000
0.069459 0.000000 0.000000
0.103578 0.000000 0.000000
0.138582 0.000000 0.000000
0.174624 0.000000 0.000000
0.210788 0.000000 0.000000
0.247593 0.000000 0.000000
0.285039 0.000000 0.000000
0.323644 0.000000 0.000000
0.363409 0.000000 0.000000
0.404730 0.000000 0.000000
0.447120 0.000000 0.000000
0.490883 0.000000 0.000000
0.535821 0.000000 0.000000
0.581903 0.000000 0.000000
0.629389 0.004150 0.000000
0.678492 0.015900 0.000000
0.727932 0.030304 0.000000
0.775845 0.045777 0.000000
0.821530 0.061189 0.000000
0.864042 0.073396 0.000000
0.904265 0.083619 0.000000
0.942382 0.092927 0.000000
0.978607 0.100252 0.000000
1.000000 0.105592 0.000000
1.000000 0.110536 0.000000
1.000000 0.113588 0.000000
1.000000 0.115236 0.000000
1.000000 0.115145 0.000000
1.000000 0.114321 0.000000
0.000702 0.007507 0.002136
0.014191 0.009735 0.000000
0.040803 0.006683 0.000000
0.071412 0.005097 0.000000
0.104463 0.004761 0.000000
0.138857 0.004059 0.000000
0.174044 0.003143 0.000000
0.210117 0.002472 0.000000
0.246708 0.000946 0.000000
0.284031 0.000000 0.000000
0.322484 0.000000 0.000000
0.362432 0.000000 0.000000
0.403540 0.000000 0.000000
0.445808 0.000000 0.000000
0.489448 0.001648 0.000000
0.534264 0.006134 0.000000
0.580407 0.013489 0.000000
0.627924 0.022736 0.000000
0.677119 0.034485 0.000000
0.726162 0.048096 0.000000
0.773739 0.062440 0.000000
0.819272 0.074556 0.000000
0.861753 0.085695 0.000000
0.902007 0.095216 0.000000
0.940185 0.103212 0.000000
0.976562 0.109499 0.000000
1.000000 0.115175 0.000000
1.000000 0.119295 0.000000
1.000000 0.122103 0.000000
1.000000 0.123293 0.000000
1.000000 0.123293 0.000000
1.000000 0.122103 0.000000
0.000793 0.016968 0.004944
0.002930 0.017273 0.001678
0.032502 0.021210 0.000000
0.070130 0.019409 0.000000
0.105440 0.012818 0.000000
0.139193 0.012696 0.000000
0.173953 0.012818 0.000000
0.209628 0.012329 0.000000
0.246159 0.012238 0.000000
0.283330 0.011780 0.000000
0.321874 0.010925 0.000000
0.361486 0.011627 0.000000
0.402625 0.012360 0.000000
0.444770 0.014771 0.000000
0.488472 0.018891 0.000000
0.533196 0.024506 0.000000
0.579370 0.032258 0.000000
0.626856 0.042206 0.000000
0.676081 0.054261 0.000000
0.724941 0.066529 0.000000
0.772335 0.077729 0.000000
0.817807 0.089174 0.000000
0.860441 0.098360 0.000000
0.900694 0.107118 0.000000
0.938903 0.114076 0.000000
0.975250 0.120089 0.000000
1.000000 0.124575 0.000000
1.000000 0.128756 0.000000
1.000000 0.130495 0.000000
1.000000 0.131899 0.000000
1.000000 0.131624 0.000000
1.000000 0.130098 0.000000
0.000641 0.029847 0.008667
0.009766 0.025269 0.007752
0.010651 0.029847 0.002106
0.056428 0.039521 0.000000
0.100465 0.040528 0.000000
0.138949 0.031189 0.000000
0.174228 0.026184 0.000000
0.209567 0.026764 0.000000
0.245640 0.027802 0.000000
0.282933 0.028229 0.000000
0.321263 0.029450 0.000000
0.360784 0.031189 0.000000
0.401648 0.033661 0.000000
0.443793 0.038117 0.000000
0.487160 0.043091 0.000000
0.531914 0.049653 0.000000
0.577874 0.057191 0.000000
0.625452 0.066072 0.000000
0.674372 0.076020 0.000000
0.722621 0.085664 0.000000
0.769650 0.096162 0.000000
0.815091 0.105837 0.000000
0.857877 0.114046 0.000000
0.898497 0.121859 0.000000
0.937163 0.128176 0.000000
0.973907 0.133730 0.000000
1.000000 0.137850 0.000000
1.000000 0.140688 0.000000
1.000000 0.143160 0.000000
1.000000 0.143496 0.000000
1.000000 0.142977 0.000000
1.000000 0.141695 0.000000
0.000000 0.047150 0.013245
0.008698 0.041413 0.012970
0.008240 0.042908 0.008087
0.023255 0.048585 0.001495
0.082643 0.061646 0.000000
0.131075 0.066072 0.000000
0.171725 0.058717 0.000000
0.209689 0.045411 0.000000
0.244999 0.048005 0.000000
0.281712 0.050019 0.000000
0.320073 0.052216 0.000000
0.359411 0.055421 0.000000
0.400244 0.058961 0.000000
0.442390 0.063355 0.000000
0.485756 0.068757 0.000000
0.530480 0.074586 0.000000
0.576623 0.081361 0.000000
0.624323 0.089754 0.000000
0.673396 0.098329 0.000000
0.721309 0.107637 0.000000
0.768307 0.116274 0.000000
0.813565 0.125277 0.000000
0.856474 0.132876 0.000000
0.897337 0.139498 0.000000
0.936065 0.145510 0.000000
0.973022 0.149935 0.000000
1.000000 0.153536 0.000000
1.000000 0.156344 0.000000
1.000000 0.157839 0.000000
1.000000 0.158022 0.000000
1.000000 0.157046 0.000000
1.000000 0.155184 0.000000
0.000000 0.066773 0.019959
0.002777 0.062287 0.018769
0.013916 0.057221 0.018097
0.003418 0.064515 0.006409
0.042664 0.069764 0.000549
0.110506 0.086030 0.000000
0.162997 0.092561 0.000000
0.204929 0.086763 0.000000
0.245090 0.075746 0.000000
0.282963 0.069673 0.000000
0.320043 0.073518 0.000000
0.358953 0.078157 0.000000
0.399756 0.082307 0.000000
0.441901 0.087343 0.000000
0.485328 0.092287 0.000000
0.530114 0.098512 0.000000
0.576226 0.105226 0.000000
0.624231 0.113283 0.000000
0.672938 0.121675 0.000000
0.721035 0.130190 0.000000
0.767727 0.138399 0.000000
0.813291 0.146365 0.000000
0.867674 0.156893 0.000000
0.907927 0.162509 0.000000
0.946136 0.167330 0.000000
0.982391 0.170993 0.000000
1.000000 0.173678 0.000000
1.000000 0.175357 0.000000
1.000000 0.176211 0.000000
1.000000 0.175814 0.000000
1.000000 0.174716 0.000000
1.000000 0.172244 0.000000
0.000000 0.089815 0.029114
0.000000 0.085481 0.028107
0.007935 0.080568 0.027131
0.011017 0.080781 0.020722
0.005158 0.088746 0.004303
0.068818 0.093874 0.000000
0.141848 0.112947 0.000000
0.197391 0.121401 0.000000
0.240696 0.116701 0.000000
0.283696 0.107485 0.000000
0.324804 0.093965 0.000000
0.363653 0.097810 0.000000
0.403510 0.103151 0.000000
0.444800 0.109468 0.000000
0.487617 0.116304 0.000000
0.532433 0.122683 0.000000
0.578882 0.129671 0.000000
0.627619 0.137819 0.000000
0.676600 0.146395 0.000000
0.725002 0.154696 0.000000
0.772580 0.162783 0.000000
0.818631 0.170504 0.000000
0.862425 0.177066 0.000000
0.903868 0.182803 0.000000
0.943023 0.187015 0.000000
0.979889 0.190433 0.000000
1.000000 0.192691 0.000000
1.000000 0.194095 0.000000
1.000000 0.194430 0.000000
1.000000 0.193851 0.000000
1.000000 0.192142 0.000000
1.000000 0.189639 0.000000
0.000000 0.113252 0.041108
0.000000 0.109560 0.039734
0.000000 0.105104 0.038941
0.019074 0.098573 0.037598
0.002136 0.105928 0.020813
0.019715 0.113588 0.002655
0.096132 0.118715 0.000000
0.172671 0.140414 0.000000
0.231205 0.150515 0.000000
0.276005 0.146304 0.000000
0.321355 0.139315 0.000000
0.364019 0.127718 0.000000
0.405890 0.122255 0.000000
0.447028 0.128328 0.000000
0.489509 0.135134 0.000000
0.533074 0.143069 0.000000
0.578607 0.152163 0.000000
0.626642 0.160830 0.000000
0.675074 0.169253 0.000000
0.723079 0.177157 0.000000
0.770138 0.185245 0.000000
0.816159 0.192508 0.000000
0.859953 0.198825 0.000000
0.901549 0.203952 0.000000
0.940826 0.208194 0.000000
0.977905 0.211093 0.000000
1.000000 0.213107 0.000000
1.000000 0.214145 0.000000
1.000000 0.213962 0.000000
1.000000 0.213077 0.000000
1.000000 0.211337 0.000000
1.000000 0.208103 0.000000
0.000000 0.138491 0.055238
0.000000 0.135012 0.054170
0.000000 0.131075 0.052796
0.001648 0.125368 0.051392
0.011872 0.124086 0.043946
0.000000 0.133181 0.016449
0.044923 0.140169 0.000000
0.125154 0.145266 0.000000
0.205417 0.169406 0.000000
0.266606 0.181003 0.000000
0.312657 0.178012 0.000000
0.359625 0.171969 0.000000
0.405188 0.162631 0.000000
0.449805 0.149294 0.000000
0.492195 0.154910 0.000000
0.536156 0.162539 0.000000
0.581506 0.171176 0.000000
0.628138 0.180819 0.000000
0.674861 0.191409 0.000000
0.722011 0.200290 0.000000
0.769009 0.207919 0.000000
0.814908 0.215213 0.000000
0.858762 0.221286 0.000000
0.900359 0.226352 0.000000
0.939818 0.229953 0.000000
0.976928 0.232853 0.000000
1.000000 0.234318 0.000000
1.000000 0.235019 0.000000
1.000000 0.234684 0.000000
1.000000 0.233402 0.000000
1.000000 0.231174 0.000000
1.000000 0.228092 0.000000
0.000000 0.165194 0.070405
0.000000 0.161837 0.069032
0.000000 0.158236 0.067964
0.000000 0.152865 0.066285
0.015747 0.145846 0.065187
0.000000 0.152010 0.046387
0.000000 0.161837 0.006317
0.074708 0.167666 0.000000
0.156100 0.174197 0.000000
0.238987 0.199710 0.000000
0.302556 0.212985 0.000000
0.350378 0.210788 0.000000
0.398474 0.206119 0.000000
0.446967 0.198703 0.000000
0.493477 0.187533 0.000000
0.539544 0.182925 0.000000
0.584619 0.191287 0.000000
0.631128 0.200748 0.000000
0.677760 0.210575 0.000000
0.723659 0.220371 0.000000
0.769039 0.230198 0.000000
0.814237 0.238224 0.000000
0.857633 0.244053 0.000000
0.898833 0.248722 0.000000
0.938079 0.252140 0.000000
0.975189 0.254643 0.000000
1.000000 0.255985 0.000000
1.000000 0.256291 0.000000
1.000000 0.255924 0.000000
1.000000 0.254276 0.000000
1.000000 0.251926 0.000000
1.000000 0.248631 0.000000
0.000000 0.192416 0.085969
0.000000 0.189364 0.084627
0.000000 0.186130 0.083467
0.000000 0.181186 0.081910
0.000000 0.174899 0.080842
0.009094 0.172000 0.074311
0.000000 0.181186 0.044404
0.000000 0.190494 0.001984
0.104921 0.196445 0.000000
0.188632 0.205447 0.000000
0.273655 0.231724 0.000000
0.340032 0.246464 0.000000
0.389441 0.245579 0.000000
0.439277 0.242008 0.000000
0.490089 0.236179 0.000000
0.538781 0.226627 0.000000
0.587732 0.214511 0.000000
0.634180 0.221408 0.000000
0.680354 0.230716 0.000000
0.725856 0.240024 0.000000
0.770779 0.249302 0.000000
0.815091 0.258366 0.000000
0.857023 0.266941 0.000000
0.898283 0.271519 0.000000
0.937346 0.274907 0.000000
0.974487 0.277165 0.000000
1.000000 0.278233 0.000000
1.000000 0.278477 0.000000
1.000000 0.277714 0.000000
1.000000 0.275761 0.000000
1.000000 0.273075 0.000000
1.000000 0.269688 0.000000
0.000000 0.220829 0.102632
0.000000 0.218143 0.101472
0.000000 0.215030 0.100160
0.000000 0.210605 0.098878
0.000000 0.204532 0.097230
0.001404 0.196902 0.096040
0.000000 0.201755 0.078523
0.000000 0.211795 0.035676
0.006806 0.220310 0.000000
0.136507 0.226566 0.000000
0.221927 0.237980 0.000000
0.309819 0.265476 0.000000
0.383062 0.285985 0.000000
0.435737 0.286473 0.000000
0.487739 0.284123 0.000000
0.540581 0.279698 0.000000
0.592889 0.272435 0.000000
0.643854 0.261295 0.000000
0.692134 0.256046 0.000000
0.737392 0.264805 0.000000
0.782071 0.273747 0.000000
0.825254 0.281895 0.000000
0.866423 0.289220 0.000000
0.905486 0.295964 0.000000
0.943297 0.300450 0.000000
0.979828 0.302129 0.000000
1.000000 0.302831 0.000000
1.000000 0.302312 0.000000
1.000000 0.300908 0.000000
1.000000 0.298741 0.000000
1.000000 0.295628 0.000000
1.000000 0.291814 0.000000
0.000000 0.251713 0.121218
0.000000 0.249393 0.120241
0.000000 0.246433 0.119020
0.000000 0.242313 0.117617
0.000000 0.236423 0.115785
0.000000 0.228977 0.114199
0.000305 0.224155 0.108553
0.000000 0.233860 0.079683
0.000000 0.244785 0.018341
0.047333 0.252506 0.000000
0.169497 0.259403 0.000000
0.259129 0.274113 0.000000
0.348913 0.303502 0.000000
0.421973 0.323064 0.000000
0.476081 0.324804 0.000000
0.529595 0.323156 0.000000
0.583886 0.319890 0.000000
0.638483 0.314092 0.000000
0.688472 0.303136 0.000000
0.737636 0.289128 0.000000
0.782650 0.293980 0.000000
0.825742 0.301732 0.000000
0.866697 0.308598 0.000000
0.905730 0.314733 0.000000
0.942870 0.320378 0.000000
0.978363 0.324895 0.000000
1.000000 0.325353 0.000000
1.000000 0.324834 0.000000
1.000000 0.323247 0.000000
1.000000 0.320836 0.000000
1.000000 0.317571 0.000000
1.000000 0.313512 0.000000
0.000000 0.282200 0.140169
0.000000 0.279759 0.139071
0.000000 0.277073 0.137850
0.000000 0.273014 0.136385
0.000000 0.267521 0.134554
0.000000 0.260594 0.132601
0.000000 0.252110 0.131228
0.000000 0.255650 0.115145
0.000000 0.266331 0.077607
0.000000 0.277562 0.002167
0.090883 0.284764 0.000000
0.202945 0.291966 0.000000
0.294163 0.309667 0.000000
0.386481 0.340398 0.000000
0.461769 0.361913 0.000000
0.517388 0.364691 0.000000
0.572473 0.363806 0.000000
0.627405 0.361089 0.000000
0.681666 0.355047 0.000000
0.732265 0.344610 0.000000
0.781460 0.331487 0.000000
0.827237 0.323033 0.000000
0.868009 0.329412 0.000000
0.907042 0.335058 0.000000
0.944030 0.339971 0.000000
0.979431 0.344182 0.000000
1.000000 0.348089 0.000000
1.000000 0.347692 0.000000
1.000000 0.345830 0.000000
1.000000 0.343297 0.000000
1.000000 0.339788 0.000000
1.000000 0.335515 0.000000
0.000000 0.313664 0.160342
0.000000 0.311711 0.159487
0.000000 0.309209 0.158328
0.000000 0.305333 0.156863
0.000000 0.300206 0.155032
0.000000 0.293584 0.152865
0.000000 0.285557 0.151247
0.000000 0.278782 0.146914
0.000000 0.288853 0.119295
0.000000 0.300298 0.069001
0.000000 0.310887 0.000000
0.129549 0.318273 0.000000
0.236667 0.325719 0.000000
0.330602 0.346777 0.000000
0.424018 0.378729 0.000000
0.502434 0.402564 0.000000
0.560388 0.406226 0.000000
0.615869 0.405829 0.000000
0.670253 0.402258 0.000000
0.723995 0.396063 0.000000
0.776303 0.386633 0.000000
0.823819 0.372808 0.000000
0.869261 0.355261 0.000000
0.908721 0.356237 0.000000
0.945586 0.360571 0.000000
0.980774 0.364355 0.000000
1.000000 0.367346 0.000000
1.000000 0.369848 0.000000
1.000000 0.368811 0.000000
1.000000 0.366033 0.000000
1.000000 0.362402 0.000000
1.000000 0.357885 0.000000
0.000000 0.346899 0.182284
0.000000 0.344915 0.181338
0.000000 0.342321 0.180148
0.000000 0.338842 0.178653
0.000000 0.333959 0.176608
0.000000 0.327520 0.174380
0.000000 0.320134 0.172488
0.000000 0.311101 0.170748
0.000000 0.312932 0.156008
0.000000 0.324010 0.120729
0.000000 0.336217 0.050782
0.000000 0.345861 0.000000
0.166323 0.353429 0.000000
0.270939 0.360967 0.000000
0.367590 0.385168 0.000000
0.462318 0.418341 0.000000
0.543328 0.444404 0.000000
0.602502 0.448463 0.000000
0.657496 0.447272 0.000000
0.712398 0.443702 0.000000
0.766659 0.437751 0.000000
0.818021 0.427741 0.000000
0.864103 0.412726 0.000000
0.907622 0.395178 0.000000
0.947814 0.382116 0.000000
0.982849 0.385290 0.000000
1.000000 0.387823 0.000000
1.000000 0.389685 0.000000
1.000000 0.391272 0.000000
1.000000 0.389044 0.000000
1.000000 0.385046 0.000000
1.000000 0.380316 0.000000
0.000000 0.380499 0.204715
0.000000 0.378485 0.203830
0.000000 0.376196 0.202762
0.000000 0.372808 0.201144
0.000000 0.368170 0.199222
0.000000 0.362402 0.197177
0.000000 0.355230 0.194736
0.000000 0.346471 0.192569
0.000000 0.337499 0.189822
0.000000 0.348028 0.162722
0.000000 0.359808 0.117342
0.000000 0.372961 0.013153
0.008087 0.381140 0.000000
0.202152 0.389014 0.000000
0.305486 0.396979 0.000000
0.404669 0.424720 0.000000
0.501305 0.459327 0.000000
0.584802 0.487373 0.000000
0.643885 0.491035 0.000000
0.699886 0.489815 0.000000
0.755276 0.485908 0.000000
0.807553 0.478126 0.000000
0.857053 0.466773 0.000000
0.902190 0.451698 0.000000
0.944182 0.433265 0.000000
0.984039 0.412543 0.000000
1.000000 0.409003 0.000000
1.000000 0.410376 0.000000
1.000000 0.411292 0.000000
1.000000 0.411658 0.000000
1.000000 0.407996 0.000000
1.000000 0.403052 0.000000
0.000000 0.415991 0.229068
0.000000 0.414160 0.228122
0.000000 0.415747 0.229740
0.000000 0.412512 0.228214
0.000000 0.407904 0.226047
0.000000 0.402502 0.223819
0.000000 0.395361 0.221317
0.000000 0.387030 0.218845
0.000000 0.377295 0.216709
0.000000 0.377325 0.203250
0.000000 0.388861 0.168795
0.000000 0.401556 0.110353
0.000000 0.413977 0.000000
0.077058 0.422400 0.000000
0.240055 0.430671 0.000000
0.343328 0.438819 0.000000
0.446448 0.470954 0.000000
0.545373 0.506340 0.000000
0.630274 0.534691 0.000000
0.689662 0.537530 0.000000
0.745357 0.534997 0.000000
0.798398 0.528710 0.000000
0.848478 0.518853 0.000000
0.895842 0.505852 0.000000
0.939910 0.489693 0.000000
0.979797 0.470466 0.000000
1.000000 0.448951 0.000000
1.000000 0.431861 0.000000
1.000000 0.431983 0.000000
1.000000 0.431891 0.000000
1.000000 0.430976 0.000000
1.000000 0.425788 0.000000
0.000000 0.455238 0.256382
0.000000 0.453742 0.255741
0.000000 0.452125 0.254887
0.000000 0.449287 0.253574
0.000000 0.445228 0.251652
0.000000 0.440040 0.249454
0.000000 0.433265 0.246708
0.000000 0.425330 0.244022
0.000000 0.415991 0.241520
0.000000 0.405158 0.239414
0.000000 0.415595 0.212253
0.000000 0.428046 0.169345
0.000000 0.441474 0.091951
0.000000 0.453040 0.000000
0.127810 0.461738 0.000000
0.275883 0.470710 0.000000
0.379980 0.479622 0.000000
0.485542 0.515282 0.000000
0.585840 0.550713 0.000000
0.673060 0.579828 0.000000
0.731350 0.580499 0.000000
0.785519 0.575830 0.000000
0.836484 0.567742 0.000000
0.884764 0.556115 0.000000
0.930388 0.541650 0.000000
0.973236 0.524743 0.000000
1.000000 0.504784 0.000000
1.000000 0.483253 0.000000
1.000000 0.459724 0.000000
1.000000 0.452461 0.000000
1.000000 0.451270 0.000000
1.000000 0.448463 0.000000
0.000000 0.495674 0.284886
0.000000 0.494148 0.284123
0.000000 0.492470 0.283268
0.000000 0.489876 0.282048
0.000000 0.486183 0.280247
0.000000 0.481178 0.277958
0.000000 0.474678 0.275090
0.000000 0.467018 0.272282
0.000000 0.458198 0.269566
0.000000 0.447608 0.266941
0.000000 0.445747 0.254765
0.000000 0.458015 0.220401
0.000000 0.471412 0.166567
0.000000 0.485908 0.054200
0.000000 0.496437 0.000000
0.171542 0.505791 0.000000
0.313298 0.515099 0.000000
0.420111 0.525719 0.000000
0.527276 0.562432 0.000000
0.628321 0.597192 0.000000
0.716182 0.625208 0.000000
0.771603 0.621942 0.000000
0.823545 0.615106 0.000000
0.872801 0.604913 0.000000
0.919310 0.591913 0.000000
0.963134 0.576226 0.000000
1.000000 0.558251 0.000000
1.000000 0.537774 0.000000
1.000000 0.515801 0.000000
1.000000 0.491920 0.000000
1.000000 0.471809 0.000000
1.000000 0.469764 0.000000
0.000000 0.539269 0.316197
0.000000 0.538109 0.315618
0.000000 0.536614 0.314824
0.000000 0.534081 0.313542
0.000000 0.530663 0.311772
0.000000 0.525811 0.309453
0.000000 0.519768 0.306737
0.000000 0.512352 0.303624
0.000000 0.503807 0.300603
0.000000 0.493874 0.297704
0.000000 0.482277 0.295079
0.000000 0.491371 0.269017
0.000000 0.504692 0.226261
0.000000 0.518914 0.157992
0.000000 0.533654 0.000000
0.000000 0.543084 0.000000
0.213809 0.552514 0.000000
0.352331 0.561944 0.000000
0.461616 0.575616 0.000000
0.571038 0.612268 0.000000
0.671626 0.644495 0.000000
0.758816 0.670100 0.000000
0.811704 0.663416 0.000000
0.861936 0.654139 0.000000
0.909667 0.642115 0.000000
0.954345 0.627619 0.000000
0.996551 0.610620 0.000000
1.000000 0.591730 0.000000
1.000000 0.570794 0.000000
1.000000 0.548058 0.000000
1.000000 0.523857 0.000000
1.000000 0.498451 0.000000
0.000000 0.587671 0.351659
0.000000 0.586450 0.350988
0.000000 0.584619 0.349920
0.000000 0.582238 0.348608
0.000000 0.578637 0.346715
0.000000 0.574029 0.344274
0.000000 0.568261 0.341619
0.000000 0.561517 0.338659
0.000000 0.553491 0.335546
0.000000 0.544182 0.332586
0.000000 0.533471 0.329747
0.000000 0.529442 0.319127
0.000000 0.542229 0.283024
0.000000 0.556054 0.230716
0.000000 0.570764 0.141665
0.000000 0.583978 0.000000
0.000000 0.593439 0.000000
0.255741 0.602655 0.000000
0.392828 0.611810 0.000000
0.505333 0.627619 0.000000
0.613306 0.660487 0.000000
0.712520 0.688563 0.000000
0.798795 0.711513 0.000000
0.848447 0.701534 0.000000
0.896452 0.689723 0.000000
0.942443 0.675959 0.000000
0.985595 0.659968 0.000000
1.000000 0.641901 0.000000
1.000000 0.622065 0.000000
1.000000 0.600580 0.000000
1.000000 0.577508 0.000000
1.000000 0.553246 0.000000
0.000000 0.635431 0.387488
0.000000 0.634058 0.386542
0.000000 0.632532 0.385748
0.000000 0.630213 0.384466
0.000000 0.626917 0.382666
0.000000 0.622797 0.380499
0.000000 0.617365 0.377813
0.000000 0.611261 0.375097
0.000000 0.603662 0.371923
0.000000 0.595270 0.369085
0.000000 0.585199 0.366186
0.000000 0.573968 0.363867
0.000000 0.581018 0.338293
0.000000 0.594354 0.294713
0.000000 0.608576 0.230564
0.000000 0.623713 0.111025
0.000000 0.635401 0.000000
0.000000 0.644465 0.000000
0.297856 0.653040 0.000000
0.433509 0.661097 0.000000
0.547234 0.677089 0.000000
0.653681 0.705776 0.000000
0.751186 0.730220 0.000000
0.837217 0.751095 0.000000
0.883513 0.737331 0.000000
0.929198 0.723293 0.000000
0.973449 0.708125 0.000000
1.000000 0.690730 0.000000
1.000000 0.671809 0.000000
1.000000 0.651118 0.000000
1.000000 0.628962 0.000000
1.000000 0.605463 0.000000
0.000000 0.684840 0.425483
0.000000 0.683894 0.424994
0.000000 0.682521 0.424170
0.000000 0.680385 0.422980
0.000000 0.677424 0.421332
0.000000 0.673671 0.419318
0.000000 0.668513 0.416693
0.000000 0.663050 0.414160
0.000000 0.656031 0.411200
0.000000 0.647974 0.408209
0.000000 0.638758 0.405371
0.000000 0.628138 0.402716
0.000000 0.621729 0.393591
0.000000 0.634516 0.356359
0.000000 0.647730 0.303655
0.000000 0.661585 0.224796
0.000000 0.676020 0.045075
0.000000 0.684627 0.000000
0.112551 0.692378 0.000000
0.340337 0.699825 0.000000
0.473091 0.706630 0.000000
0.587213 0.722591 0.000000
0.692226 0.747433 0.000000
0.787350 0.768307 0.000000
0.872435 0.786801 0.000000
0.917388 0.771542 0.000000
0.960510 0.755215 0.000000
1.000000 0.738674 0.000000
1.000000 0.720180 0.000000
1.000000 0.700221 0.000000
1.000000 0.678767 0.000000
1.000000 0.655909 0.000000
0.000000 0.729152 0.460731
0.000000 0.728298 0.460426
0.000000 0.727230 0.459815
0.000000 0.725490 0.458900
0.000000 0.723049 0.457588
0.000000 0.719875 0.456031
0.000000 0.715938 0.454139
0.000000 0.711055 0.452094
0.000000 0.705318 0.449775
0.000000 0.698634 0.447608
0.000000 0.691035 0.445594
0.000000 0.681941 0.443549
0.000000 0.671534 0.442054
0.000000 0.676112 0.417975
0.000000 0.688167 0.373388
0.000000 0.700771 0.311406
0.000000 0.713893 0.215640
0.000000 0.726101 0.011780
0.000000 0.733059 0.000000
0.188144 0.739590 0.000000
0.383215 0.745754 0.000000
0.512749 0.751247 0.000000
0.626581 0.766629 0.000000
0.729458 0.787778 0.000000
0.823301 0.805478 0.000000
0.906462 0.820981 0.000000
0.950530 0.804623 0.000000
0.991241 0.786282 0.000000
1.000000 0.768429 0.000000
1.000000 0.748928 0.000000
1.000000 0.728084 0.000000
1.000000 0.705165 0.000000
0.000000 0.772824 0.496956
0.000000 0.772091 0.496651
0.000000 0.771023 0.496193
0.000000 0.769497 0.495338
0.000000 0.767361 0.494301
0.000000 0.764553 0.493019
0.000000 0.761135 0.491524
0.000000 0.756985 0.489937
0.000000 0.751980 0.488228
0.000000 0.746304 0.486610
0.000000 0.739651 0.485176
0.000000 0.731960 0.484016
0.000000 0.723079 0.483192
0.000000 0.716030 0.478126
0.000000 0.727016 0.439460
0.000000 0.738521 0.388190
0.000000 0.750393 0.316808
0.000000 0.762753 0.203342
0.000000 0.772305 0.034730
0.000000 0.778286 0.000000
0.250919 0.783780 0.000000
0.426032 0.788846 0.000000
0.551904 0.793149 0.000000
0.664973 0.807675 0.000000
0.765988 0.825376 0.000000
0.857450 0.840055 0.000000
0.938720 0.852811 0.000000
0.981964 0.835477 0.000000
1.000000 0.815183 0.000000
1.000000 0.796262 0.000000
1.000000 0.775479 0.000000
1.000000 0.752956 0.000000
0.000000 0.813779 0.532341
0.000000 0.813107 0.532097
0.000000 0.812222 0.531731
0.000000 0.810910 0.531151
0.000000 0.809140 0.530571
0.000000 0.806882 0.529778
0.000000 0.804288 0.529015
0.000000 0.801022 0.528252
0.000000 0.797238 0.527642
0.000000 0.792691 0.527153
0.000000 0.787442 0.526879
0.000000 0.781216 0.526940
0.000000 0.774044 0.527459
0.000000 0.765743 0.528496
0.000000 0.768185 0.507927
0.000000 0.778714 0.464637
0.000000 0.789639 0.406897
0.000000 0.800900 0.327214
0.000000 0.812558 0.196353
0.000000 0.819516 0.087526
0.000000 0.824521 0.000000
0.313207 0.828946 0.000000
0.471565 0.832731 0.000000
0.593683 0.835843 0.000000
0.704494 0.849027 0.000000
0.803189 0.863279 0.000000
0.892638 0.874907 0.000000
0.972045 0.884916 0.000000
1.000000 0.866880 0.000000
1.000000 0.843778 0.000000
1.000000 0.822965 0.000000
1.000000 0.800626 0.000000
0.000000 0.855100 0.570245
0.000000 0.854459 0.570092
0.000000 0.853666 0.569818
0.000000 0.852506 0.569543
0.000000 0.850828 0.568994
0.000000 0.848875 0.568536
0.000000 0.846342 0.568078
0.000000 0.843351 0.567651
0.000000 0.839872 0.567468
0.000000 0.835721 0.567407
0.000000 0.830961 0.567681
0.000000 0.825345 0.568383
0.000000 0.819028 0.569726
0.000000 0.811643 0.571618
0.000000 0.804288 0.572473
0.000000 0.813840 0.535515
0.000000 0.823880 0.487922
0.000000 0.834287 0.425116
0.000000 0.845060 0.337804
0.000000 0.855863 0.198215
