assets/luts/LUTs/DJI D-LOG.CUBE
# Created by: Adobe Lightroom Export LUT Plugin
LUT_3D_SIZE 5
DOMAIN_MIN 0.000000 0.000000 0.000000
DOMAIN_MAX 0.903226 0.903226 0.903226
0.000000 0.000000 0.000000
0.210788 0.000000 0.000000
0.490883 0.000000 0.000000
0.821530 0.061189 0.000000
1.000000 0.113588 0.000000
0.000000 0.113252 0.041108
0.172671 0.140414 0.000000
0.489509 0.135134 0.000000
0.816159 0.192508 0.000000
1.000000 0.213962 0.000000
0.000000 0.313664 0.160342
0.000000 0.278782 0.146914
0.424018 0.378729 0.000000
0.823819 0.372808 0.000000
1.000000 0.368811 0.000000
0.000000 0.587671 0.351659
0.000000 0.561517 0.338659
0.000000 0.570764 0.141665
0.712520 0.688563 0.000000
1.000000 0.622065 0.000000
0.000000 0.891600 0.606104
0.000000 0.881712 0.606226
0.000000 0.844633 0.616022
0.000000 0.897795 0.197238
0.950866 0.930602 0.000000
0.000000 0.082185 0.109773
0.179446 0.016358 0.095583
0.487587 0.000000 0.015259
0.809232 0.058961 0.000000
1.000000 0.170779 0.000000
0.000000 0.165682 0.123232
0.186191 0.147005 0.105257
0.488777 0.129366 0.025849
0.813321 0.169375 0.000000
1.000000 0.229526 0.000000
0.000000 0.356085 0.194980
0.000000 0.341131 0.202884
0.432044 0.385687 0.000000
0.827237 0.338689 0.000000
1.000000 0.356054 0.000000
0.000000 0.635645 0.391852
0.000000 0.610590 0.385809
0.000000 0.580316 0.284398
0.717525 0.694087 0.000000
1.000000 0.606012 0.000000
0.000000 0.906706 0.623224
0.000000 0.896361 0.626795
0.000000 0.863035 0.638514
0.000000 0.900999 0.310033
0.952819 0.932494 0.000000
0.000000 0.240970 0.335271
0.000000 0.158114 0.340978
0.441596 0.036561 0.300175
0.813931 0.000000 0.228000
1.000000 0.000000 0.023255
0.000000 0.297093 0.351873
0.000000 0.264103 0.350805
0.450111 0.167330 0.313298
0.815457 0.092775 0.218143
1.000000 0.138491 0.031891
0.000000 0.434699 0.383917
0.000000 0.428046 0.376776
0.437049 0.390112 0.331212
0.813382 0.372412 0.251408
1.000000 0.336828 0.009583
0.000000 0.673304 0.439490
0.000000 0.677821 0.447211
0.200839 0.658106 0.485481
0.726925 0.704829 0.212833
1.000000 0.553491 0.000000
0.000000 0.931548 0.631495
0.000000 0.932433 0.640803
0.000000 0.905669 0.690669
0.373053 0.895109 0.581048
0.953429 0.933928 0.160281
0.000000 0.444617 0.661738
0.000000 0.399359 0.665736
0.000000 0.138674 0.665583
0.752132 0.101106 0.606317
1.000000 0.180941 0.517388
0.000000 0.483894 0.669551
0.000000 0.456062 0.670558
0.000000 0.225345 0.672877
0.754849 0.218143 0.615381
1.000000 0.286046 0.520439
0.000000 0.577600 0.683772
0.000000 0.562097 0.680354
0.000000 0.500267 0.674342
0.741207 0.418128 0.624048
1.000000 0.481025 0.537591
0.000000 0.743038 0.719539
0.000000 0.741146 0.717250
0.000000 0.734096 0.707912
0.711666 0.705257 0.661463
1.000000 0.659815 0.568811
0.000000 0.951263 0.732021
0.000000 0.953765 0.718166
0.000000 0.957855 0.691646
0.620966 0.917662 0.803830
0.947967 0.936156 0.614649
0.000000 0.593744 0.909239
0.000000 0.565240 0.910704
0.000000 0.457618 0.915801
0.498817 0.270939 0.912657
0.990723 0.391852 0.874846
0.000000 0.617914 0.907256
0.000000 0.596826 0.908293
0.000000 0.502586 0.912932
0.468269 0.324132 0.910674
0.984405 0.442267 0.873869
0.000000 0.678126 0.911101
0.000000 0.665095 0.910643
0.000000 0.617731 0.911345
0.337377 0.451179 0.911772
0.971069 0.577630 0.880034
0.000000 0.786313 0.924132
0.000000 0.778714 0.923339
0.000000 0.753719 0.923705
0.000000 0.717372 0.922820
0.952819 0.764065 0.899413
0.000000 0.941375 0.947478
0.000000 0.941070 0.947051
0.000000 0.941527 0.947234
0.000000 0.940612 0.941436
0.923857 0.929686 0.915984
