assets/luts/LUTs/DJI D-LOG.CUBE
# Created by: Adobe Lightroom Export LUT Plugin
LUT_3D_SIZE 8
DOMAIN_MIN 0.000000 0.000000 0.000000
DOMAIN_MAX 0.903226 0.903226 0.903226
0.000000 0.000000 0.000000
0.103578 0.000000 0.000000
0.247593 0.000000 0.000000
0.404730 0.000000 0.000000
0.581903 0.000000 0.000000
0.775845 0.045777 0.000000
0.942382 0.092927 0.000000
1.000000 0.113588 0.000000
0.000000 0.047150 0.013245
0.082643 0.061646 0.000000
0.244999 0.048005 0.000000
0.400244 0.058961 0.000000
0.576623 0.081361 0.000000
0.768307 0.116274 0.000000
0.936065 0.145510 0.000000
1.000000 0.157839 0.000000
0.000000 0.138491 0.055238
0.011872 0.124086 0.043946
0.205417 0.169406 0.000000
0.405188 0.162631 0.000000
0.581506 0.171176 0.000000
0.769009 0.207919 0.000000
0.939818 0.229953 0.000000
1.000000 0.234684 0.000000
0.000000 0.251713 0.121218
0.000000 0.236423 0.115785
0.000000 0.244785 0.018341
0.348913 0.303502 0.000000
0.583886 0.319890 0.000000
0.782650 0.293980 0.000000
0.942870 0.320378 0.000000
1.000000 0.323247 0.000000
0.000000 0.380499 0.204715
0.000000 0.368170 0.199222
0.000000 0.337499 0.189822
0.008087 0.381140 0.000000
0.501305 0.459327 0.000000
0.755276 0.485908 0.000000
0.944182 0.433265 0.000000
1.000000 0.411292 0.000000
0.000000 0.539269 0.316197
0.000000 0.530663 0.311772
0.000000 0.503807 0.300603
0.000000 0.504692 0.226261
0.213809 0.552514 0.000000
0.671626 0.644495 0.000000
0.909667 0.642115 0.000000
1.000000 0.570794 0.000000
0.000000 0.729152 0.460731
0.000000 0.723049 0.457588
0.000000 0.705318 0.449775
0.000000 0.671534 0.442054
0.000000 0.713893 0.215640
0.383215 0.745754 0.000000
0.823301 0.805478 0.000000
1.000000 0.768429 0.000000
0.000000 0.891600 0.606104
0.000000 0.888029 0.605798
0.000000 0.878630 0.606683
0.000000 0.860777 0.613123
0.000000 0.854704 0.562280
0.000000 0.893523 0.248508
0.558526 0.905547 0.000000
0.950866 0.930602 0.000000
0.000000 0.029419 0.042390
0.085878 0.010376 0.033936
0.242832 0.000000 0.010681
0.396155 0.000000 0.000000
0.570123 0.033722 0.000000
0.758236 0.101015 0.000000
0.927764 0.140871 0.000000
1.000000 0.149416 0.000000
0.000000 0.076356 0.048249
0.092348 0.067018 0.039338
0.238468 0.057557 0.017548
0.398138 0.056489 0.000000
0.572778 0.085512 0.000000
0.758541 0.134981 0.000000
0.925444 0.176272 0.000000
1.000000 0.182315 0.000000
0.000000 0.162173 0.073548
0.057893 0.155398 0.079683
0.213413 0.175021 0.005707
0.407324 0.142794 0.000000
0.580713 0.163180 0.000000
0.764706 0.199771 0.000000
0.930083 0.236301 0.000000
1.000000 0.247837 0.000000
0.000000 0.278019 0.139834
0.000000 0.263340 0.138277
0.050141 0.249424 0.096376
0.351049 0.305241 0.000000
0.582208 0.305211 0.000000
0.775448 0.285161 0.000000
0.937591 0.310521 0.000000
1.000000 0.327398 0.000000
0.000000 0.402747 0.223026
0.000000 0.390021 0.218814
0.000000 0.357427 0.207797
0.000000 0.386419 0.030976
0.501671 0.459693 0.000000
0.755062 0.477790 0.000000
0.944244 0.418677 0.000000
1.000000 0.405768 0.000000
0.000000 0.556268 0.333410
0.000000 0.546410 0.327520
0.000000 0.520073 0.315404
0.000000 0.505699 0.264164
0.204196 0.556481 0.000000
0.672724 0.645350 0.000000
0.910826 0.637812 0.000000
1.000000 0.562005 0.000000
0.000000 0.738186 0.472023
0.000000 0.731350 0.467903
0.000000 0.714015 0.459754
0.000000 0.681392 0.451698
0.000000 0.713130 0.267857
0.376349 0.746944 0.000000
0.822293 0.804501 0.000000
1.000000 0.764981 0.000000
0.000000 0.895384 0.612024
0.000000 0.892119 0.611963
0.000000 0.882750 0.612482
0.000000 0.865141 0.618524
0.000000 0.855070 0.589837
0.000000 0.894560 0.287999
0.556420 0.906340 0.000000
0.951019 0.930755 0.000000
0.000000 0.101808 0.135897
0.000000 0.051362 0.138460
0.214115 0.018219 0.119509
0.396155 0.000000 0.093446
0.581445 0.000000 0.014313
0.770443 0.000000 0.000000
0.935607 0.092256 0.000000
1.000000 0.153964 0.000000
0.000000 0.134920 0.142000
0.000000 0.118257 0.141268
0.220066 0.080751 0.125521
0.397101 0.036957 0.086305
0.579248 0.034730 0.019928
0.767910 0.076417 0.000000
0.934752 0.133516 0.000000
1.000000 0.179507 0.000000
0.000000 0.199161 0.152682
0.000000 0.195102 0.149111
0.219852 0.176974 0.130861
0.397192 0.165652 0.100496
0.582788 0.160189 0.027253
0.772152 0.177737 0.000000
0.938781 0.206729 0.000000
1.000000 0.234043 0.000000
0.000000 0.297826 0.160159
0.000000 0.301030 0.165255
0.159548 0.288426 0.181918
0.362524 0.314092 0.073518
0.591028 0.278904 0.015564
0.780392 0.282109 0.000000
0.945434 0.297673 0.000000
1.000000 0.308934 0.000000
0.000000 0.431342 0.247776
0.000000 0.433265 0.252476
0.000000 0.414008 0.256535
0.142214 0.400336 0.178256
0.512932 0.470558 0.000000
0.767117 0.465248 0.000000
0.952026 0.398535 0.000000
1.000000 0.396796 0.000000
0.000000 0.593713 0.362188
0.000000 0.594171 0.365850
0.000000 0.568231 0.360632
0.108003 0.519738 0.345098
0.180911 0.571038 0.113680
0.678248 0.651118 0.000000
0.918212 0.629969 0.000000
1.000000 0.542199 0.000000
0.000000 0.767910 0.495277
0.000000 0.761654 0.496315
0.000000 0.744686 0.493721
0.000000 0.713558 0.483955
0.000000 0.716670 0.378943
0.362737 0.755520 0.031647
0.826444 0.808499 0.000000
1.000000 0.761044 0.000000
0.000000 0.910430 0.622431
0.000000 0.905882 0.628046
0.000000 0.896269 0.631373
0.000000 0.879454 0.636927
0.225589 0.852171 0.649104
0.000000 0.893645 0.405158
0.553033 0.909361 0.157565
0.952331 0.932006 0.000000
0.000000 0.190341 0.259434
0.000000 0.163973 0.263127
0.103059 0.042420 0.263066
0.362676 0.024109 0.232578
0.561181 0.000000 0.217044
0.775204 0.000000 0.128756
0.943755 0.000000 0.005951
1.000000 0.000000 0.000000
0.000000 0.216709 0.267521
0.000000 0.201328 0.268406
0.021393 0.093629 0.269169
0.367926 0.090089 0.238743
0.564385 0.041382 0.215183
0.772519 0.000000 0.135256
0.942870 0.002441 0.012268
1.000000 0.081788 0.000000
0.000000 0.267216 0.278935
0.000000 0.259220 0.278264
0.000000 0.228031 0.273075
0.372381 0.185397 0.247898
0.570886 0.173800 0.207431
0.771695 0.170138 0.148074
0.946014 0.175265 0.029511
1.000000 0.185031 0.000000
0.000000 0.350011 0.297154
0.000000 0.347539 0.294560
0.000000 0.338689 0.285130
0.362890 0.312718 0.255314
0.570428 0.303319 0.221378
0.772030 0.296361 0.161166
0.947143 0.291875 0.030671
1.000000 0.285893 0.000000
0.000000 0.456733 0.308354
0.000000 0.459907 0.302861
0.000000 0.465248 0.293309
0.286595 0.446448 0.323247
0.522271 0.480385 0.197208
0.777371 0.435828 0.161349
0.953338 0.407385 0.030396
1.000000 0.391119 0.000000
0.000000 0.617395 0.391211
0.000000 0.620844 0.395789
0.000000 0.624689 0.406592
0.000000 0.602014 0.420752
0.237461 0.590753 0.303593
0.686976 0.660609 0.085054
0.930266 0.614496 0.000000
1.000000 0.506218 0.000000
0.000000 0.785397 0.515496
0.000000 0.786740 0.518700
0.000000 0.788815 0.528954
0.000000 0.763882 0.539971
0.269993 0.719081 0.531273
0.348058 0.767941 0.271672
0.831144 0.813657 0.000000
1.000000 0.752529 0.000000
0.000000 0.928893 0.629145
0.000000 0.929015 0.632929
0.000000 0.923919 0.645655
0.000000 0.903410 0.668360
0.239780 0.875883 0.680873
0.278599 0.888762 0.565942
0.553918 0.912902 0.338506
0.953979 0.933959 0.000000
0.000000 0.296147 0.421118
0.000000 0.277165 0.424292
0.000000 0.201022 0.427436
0.288823 0.054871 0.419562
0.523980 0.049622 0.375799
0.734401 0.000000 0.366125
0.940032 0.000000 0.280644
1.000000 0.000000 0.195590
0.000000 0.318303 0.428595
0.000000 0.304814 0.430335
0.000000 0.243046 0.432410
0.271244 0.108461 0.424933
0.527611 0.109682 0.381323
0.736568 0.077272 0.366003
0.941100 0.000000 0.276249
1.000000 0.053285 0.199435
0.000000 0.361334 0.441352
0.000000 0.352819 0.441291
0.000000 0.322454 0.439551
0.195377 0.193423 0.434455
0.532158 0.202823 0.391455
0.739345 0.199466 0.363745
0.938964 0.162692 0.277317
1.000000 0.189425 0.205234
0.000000 0.429755 0.458198
0.000000 0.424506 0.457038
0.000000 0.408331 0.453223
0.011231 0.365698 0.442176
0.533776 0.324529 0.406775
0.748013 0.328191 0.361273
0.935912 0.328710 0.300999
1.000000 0.296300 0.204105
0.000000 0.525383 0.479927
0.000000 0.523644 0.477974
0.000000 0.518242 0.471962
0.000000 0.505333 0.456641
0.513756 0.475227 0.417456
0.749538 0.464240 0.376532
0.940642 0.440314 0.307164
1.000000 0.402625 0.197482
0.000000 0.639307 0.494423
0.000000 0.642084 0.491524
0.000000 0.646113 0.479347
0.000000 0.651148 0.450294
0.412085 0.629786 0.500450
0.687434 0.664240 0.354070
0.936156 0.588647 0.319188
1.000000 0.522728 0.217441
0.000000 0.800687 0.541100
0.000000 0.801755 0.542535
0.000000 0.804044 0.547173
0.000000 0.806149 0.563928
0.265537 0.780453 0.605066
0.405341 0.773587 0.481361
0.832456 0.817075 0.303471
1.000000 0.737392 0.204074
0.000000 0.935515 0.637324
0.000000 0.936278 0.639246
0.000000 0.937407 0.646082
0.000000 0.936461 0.668910
0.188876 0.908690 0.719356
0.536217 0.878080 0.723537
0.571496 0.914153 0.515435
0.953277 0.934722 0.311772
0.000000 0.417151 0.616663
0.000000 0.401709 0.618708
0.000000 0.350683 0.621759
0.000000 0.177890 0.623590
0.468116 0.088167 0.601160
0.706508 0.084199 0.558343
0.894133 0.134493 0.528862
1.000000 0.110689 0.456092
0.000000 0.434699 0.619348
0.000000 0.421576 0.620417
0.000000 0.375097 0.622400
0.000000 0.232609 0.623560
0.458015 0.133059 0.605158
0.707210 0.138338 0.561151
0.893675 0.182437 0.528740
1.000000 0.171969 0.456306
0.000000 0.470130 0.629450
0.000000 0.462135 0.629633
0.000000 0.434821 0.629847
0.000000 0.339666 0.628931
0.428382 0.214969 0.619226
0.712062 0.232242 0.572290
0.895995 0.274479 0.532341
1.000000 0.278111 0.460792
0.000000 0.527123 0.642481
0.000000 0.521202 0.642023
0.000000 0.504570 0.641321
0.000000 0.463569 0.639399
0.342168 0.328679 0.634272
0.716762 0.354864 0.590143
0.898894 0.396063 0.541833
1.000000 0.404181 0.473030
0.000000 0.604334 0.656641
0.000000 0.601038 0.656092
0.000000 0.591638 0.654536
0.000000 0.570245 0.650233
0.156558 0.524071 0.638880
0.704952 0.497505 0.602686
0.897185 0.524102 0.550896
1.000000 0.522026 0.495399
0.000000 0.703151 0.674861
0.000000 0.702907 0.674495
0.000000 0.700771 0.671870
0.000000 0.695979 0.665980
0.000000 0.685542 0.651575
0.674525 0.662196 0.614618
0.894163 0.647944 0.574823
1.000000 0.603082 0.493996
0.000000 0.820798 0.691585
0.000000 0.822599 0.689662
0.000000 0.826139 0.682368
0.000000 0.830869 0.663508
0.000000 0.833066 0.619318
0.601526 0.799069 0.696284
0.830014 0.821805 0.572076
1.000000 0.739132 0.525689
0.000000 0.948119 0.689845
0.000000 0.948913 0.683650
0.000000 0.950866 0.670375
0.000000 0.952789 0.676783
0.000000 0.948486 0.704738
0.559472 0.915465 0.785641
0.636072 0.912840 0.694911
0.949401 0.935912 0.559045
0.000000 0.520073 0.786709
0.000000 0.508507 0.789609
0.000000 0.471199 0.791623
0.000000 0.384436 0.794949
0.000000 0.190341 0.794614
0.632898 0.186343 0.769406
0.875822 0.200931 0.740627
1.000000 0.307225 0.675196
0.000000 0.530083 0.780056
0.000000 0.519646 0.783200
0.000000 0.484901 0.785061
0.000000 0.404944 0.787625
0.000000 0.212528 0.787289
0.620203 0.206973 0.761227
0.864042 0.221195 0.729549
1.000000 0.315679 0.665064
0.000000 0.560266 0.790127
0.000000 0.553491 0.790433
0.000000 0.529046 0.790036
0.000000 0.462470 0.791257
0.000000 0.280247 0.791623
0.605676 0.274052 0.770047
0.868406 0.305913 0.740566
1.000000 0.402472 0.680568
0.000000 0.607355 0.801419
0.000000 0.601526 0.800961
0.000000 0.585168 0.799527
0.000000 0.550072 0.800015
0.000000 0.447639 0.799130
0.575525 0.375280 0.789609
0.869932 0.425452 0.755886
1.000000 0.506554 0.697841
0.000000 0.665095 0.804410
0.000000 0.659937 0.802670
0.000000 0.647761 0.800656
0.000000 0.625574 0.800534
0.000000 0.582544 0.797665
0.490822 0.484535 0.791806
0.852598 0.539849 0.756558
0.995544 0.607538 0.713039
0.000000 0.741817 0.812894
0.000000 0.739986 0.813138
0.000000 0.734615 0.813138
0.000000 0.723445 0.812924
0.000000 0.702266 0.810544
0.380743 0.680751 0.803006
0.838682 0.688960 0.774868
0.991974 0.716915 0.736355
0.000000 0.841154 0.831113
0.000000 0.841733 0.831785
0.000000 0.841093 0.830961
0.000000 0.840299 0.829557
0.000000 0.836851 0.824216
0.134463 0.831418 0.812467
0.813046 0.817288 0.786191
0.993378 0.804135 0.754879
0.000000 0.965148 0.858213
0.000000 0.965118 0.855558
0.000000 0.966491 0.850004
0.000000 0.967132 0.835752
0.000000 0.968566 0.811032
0.000000 0.961303 0.769711
0.774533 0.923400 0.856352
0.941466 0.936584 0.766201
0.000000 0.593744 0.909239
0.000000 0.584253 0.910857
0.000000 0.555993 0.910979
0.000000 0.500816 0.914214
0.000000 0.376165 0.917601
0.368017 0.270817 0.914488
0.770199 0.346654 0.891966
0.990723 0.391852 0.874846
0.000000 0.602533 0.905882
0.000000 0.593622 0.907286
0.000000 0.567254 0.908293
0.000000 0.514275 0.910979
0.000000 0.401312 0.914305
0.349035 0.287846 0.911986
0.763424 0.357244 0.888945
0.985901 0.402777 0.871092
0.000000 0.623346 0.906554
0.000000 0.617853 0.907012
0.000000 0.597436 0.907225
0.000000 0.551598 0.911833
0.000000 0.464607 0.913329
0.297795 0.334356 0.911803
0.753323 0.399603 0.890562
0.981323 0.451545 0.871946
0.000000 0.656611 0.909575
0.000000 0.652277 0.910552
0.000000 0.639185 0.910704
0.000000 0.610742 0.912749
0.000000 0.543481 0.914977
0.162387 0.410071 0.916716
0.738399 0.472816 0.898528
0.976043 0.535424 0.878233
0.000000 0.703670 0.913024
0.000000 0.700191 0.913909
0.000000 0.689052 0.913725
0.000000 0.668849 0.914855
0.000000 0.632593 0.915068
0.088319 0.559655 0.914763
0.705348 0.554314 0.906096
0.966918 0.629328 0.884977
0.000000 0.765377 0.918151
0.000000 0.762081 0.917510
0.000000 0.753567 0.916350
0.000000 0.738613 0.916564
0.000000 0.714015 0.918730
0.000000 0.690455 0.921080
0.666773 0.677211 0.919219
0.957519 0.741329 0.898650
0.000000 0.844785 0.929961
0.000000 0.843259 0.929870
0.000000 0.839048 0.929473
0.000000 0.832059 0.930205
0.000000 0.820493 0.931334
0.000000 0.807492 0.932372
0.605097 0.822599 0.925811
0.939147 0.836088 0.904265
0.000000 0.941375 0.947478
0.000000 0.941192 0.947265
0.000000 0.941070 0.947051
0.000000 0.941466 0.947326
0.000000 0.941314 0.946654
0.000000 0.940673 0.943114
0.515648 0.939574 0.934173
0.923857 0.929686 0.915984
