assets/luts/LUTs/EXECUTOR.CUBE
LUT_3D_SIZE 16
0.004456 0.008209 0.009094
0.014160 0.008508 0.008033
0.033061 0.009356 0.005447
0.070916 0.011603 0.002727
0.130126 0.016003 0.000132
0.210677 0.021371 0.000019
0.313331 0.023174 0.000031
0.445433 0.024696 0.000008
0.538344 0.024119 0.000020
0.617787 0.023854 0.000007
0.691256 0.024022 0.000010
0.754716 0.024853 0.000014
0.786141 0.024556 0.000000
0.792389 0.022032 0.000057
0.796675 0.020215 0.000114
0.798730 0.019344 0.000141
0.008869 0.015106 0.011129
0.014934 0.014944 0.009554
0.029160 0.015720 0.006497
0.056876 0.016627 0.003516
0.107203 0.019431 0.000532
0.184270 0.024578 0.000035
0.295463 0.025778 0.000022
0.443100 0.025196 0.000006
0.537183 0.024503 0.000021
0.616563 0.024228 0.000004
0.689966 0.024378 0.000008
0.753462 0.025215 0.000013
0.785253 0.024873 0.000000
0.791058 0.022596 0.000040
0.795409 0.020752 0.000098
0.797495 0.019867 0.000124
0.015198 0.027630 0.014436
0.019396 0.026459 0.013469
0.031170 0.025421 0.009843
0.051615 0.026497 0.005902
0.090697 0.027960 0.001498
0.153558 0.032632 0.000008
0.249097 0.035095 0.000001
0.405346 0.029353 0.000013
0.533393 0.025353 0.000023
0.615039 0.024693 0.000002
0.688345 0.024827 0.000007
0.751856 0.025679 0.000012
0.784117 0.025279 0.000000
0.789357 0.023317 0.000018
0.793793 0.021437 0.000076
0.795922 0.020535 0.000104
0.023022 0.052819 0.023161
0.024624 0.051582 0.022703
0.035400 0.046422 0.020655
0.052943 0.043827 0.014747
0.087462 0.044466 0.005021
0.145275 0.049605 0.000005
0.232427 0.056496 0.000011
0.344523 0.045100 0.000004
0.496897 0.033412 0.000023
0.606557 0.026844 0.000004
0.685904 0.025502 0.000005
0.749520 0.026357 0.000010
0.782320 0.025921 0.000000
0.787287 0.024130 0.000003
0.791242 0.022518 0.000043
0.793446 0.021584 0.000072
0.034256 0.090723 0.042296
0.034172 0.090446 0.042149
0.039448 0.088397 0.041260
0.057628 0.081267 0.037836
0.087790 0.075111 0.025545
0.151585 0.078082 0.001966
0.234936 0.091769 0.000004
0.350224 0.095997 0.000003
0.458829 0.075259 0.000021
0.556368 0.046636 0.000009
0.664679 0.034134 0.000003
0.744079 0.028716 0.000007
0.778505 0.027407 0.000001
0.783893 0.025359 0.000000
0.786869 0.024296 0.000000
0.788708 0.023573 0.000013
0.053393 0.142413 0.072305
0.053312 0.142235 0.072194
0.053212 0.142015 0.072058
0.058460 0.140522 0.070317
0.090144 0.131264 0.065650
0.149159 0.121716 0.036403
0.248885 0.131562 0.000491
0.369708 0.151614 0.000000
0.482895 0.158317 0.000011
0.566314 0.150691 0.000023
0.631804 0.131110 0.000004
0.690860 0.098106 0.000002
0.729056 0.063147 0.000022
0.758605 0.045734 0.000024
0.769035 0.038678 0.000000
0.772949 0.035498 0.000003
0.091431 0.212513 0.115111
0.091367 0.212404 0.115049
0.091290 0.212271 0.114974
0.091181 0.212086 0.114870
0.093258 0.211013 0.113144
0.139405 0.204661 0.106389
0.252271 0.190472 0.034224
0.399815 0.212846 0.001771
0.525338 0.234029 0.000402
0.623516 0.249101 0.000007
0.686447 0.255290 0.000023
0.745012 0.256572 0.000016
0.769135 0.251919 0.000013
0.764787 0.243350 0.000019
0.761550 0.236371 0.000021
0.759059 0.229941 0.000019
0.134691 0.297259 0.157271
0.134665 0.297194 0.157245
0.134632 0.297113 0.157213
0.134587 0.297000 0.157168
0.134500 0.296784 0.157082
0.137486 0.296791 0.154600
0.227440 0.296284 0.150251
0.390469 0.286354 0.039412
0.551021 0.313681 0.005272
0.663397 0.338569 0.002612
0.738176 0.354971 0.001773
0.795159 0.365929 0.000903
0.834876 0.372699 0.007824
0.834381 0.369456 0.006153
0.833538 0.366493 0.004822
0.832063 0.363419 0.003980
0.161407 0.384539 0.184387
0.161398 0.384496 0.184376
0.161386 0.384442 0.184365
0.161369 0.384364 0.184347
0.161336 0.384218 0.184314
0.161272 0.383921 0.184247
0.181596 0.389605 0.181668
0.352157 0.386482 0.166020
0.523183 0.391430 0.040357
0.659836 0.418171 0.014058
0.756005 0.444380 0.007225
0.816850 0.459777 0.004795
0.863795 0.487575 0.076236
0.865844 0.488856 0.083650
0.865600 0.487213 0.082452
0.865231 0.484742 0.080726
0.172665 0.470124 0.195881
0.172662 0.470090 0.195879
0.172659 0.470047 0.195876
0.172655 0.469984 0.195871
0.172647 0.469868 0.195863
0.172631 0.469626 0.195847
0.172768 0.469609 0.195367
0.253919 0.496775 0.184572
0.484395 0.494989 0.125452
0.626213 0.498643 0.040468
0.749520 0.523672 0.024829
0.822632 0.542343 0.014887
0.869619 0.573490 0.095973
0.875665 0.581977 0.126523
0.875678 0.581126 0.126227
0.875593 0.579413 0.126112
0.171920 0.566804 0.194724
0.171922 0.566773 0.194727
0.171925 0.566735 0.194729
0.171929 0.566677 0.194733
0.171936 0.566569 0.194741
0.171952 0.566345 0.194758
0.171985 0.565849 0.194795
0.186719 0.577232 0.189642
0.409185 0.592968 0.161435
0.592401 0.594329 0.082634
0.719625 0.601609 0.039435
0.815360 0.616722 0.034089
0.867678 0.640191 0.087296
0.877153 0.654317 0.137745
0.877170 0.653854 0.137536
0.877217 0.652186 0.136969
0.156057 0.665081 0.180948
0.156063 0.665055 0.180953
0.156072 0.665022 0.180960
0.156084 0.664972 0.180969
0.156108 0.664877 0.180986
0.156156 0.664681 0.181023
0.156265 0.664242 0.181105
0.156457 0.663467 0.181249
0.250311 0.703992 0.149744
0.543655 0.682370 0.096456
0.688336 0.691795 0.046009
0.799076 0.699865 0.039316
0.856821 0.710542 0.068536
0.872872 0.726333 0.153331
0.872893 0.725965 0.153416
0.873035 0.724285 0.153710
0.131052 0.743221 0.164656
0.131058 0.743206 0.164659
0.131064 0.743188 0.164664
0.131074 0.743160 0.164670
0.131093 0.743107 0.164682
0.131132 0.742998 0.164706
0.131221 0.742752 0.164762
0.131377 0.742318 0.164859
0.164799 0.752123 0.153093
0.479942 0.756148 0.083783
0.655065 0.750929 0.039017
0.782559 0.764925 0.033127
0.847676 0.770923 0.047744
0.868714 0.780683 0.119569
0.871288 0.783034 0.142270
0.871283 0.781878 0.142361
0.123688 0.760437 0.160583
0.123688 0.760437 0.160583
0.123688 0.760437 0.160583
0.123688 0.760437 0.160583
0.123688 0.760437 0.160583
0.123688 0.760437 0.160583
0.123688 0.760437 0.160583
0.123688 0.760437 0.160583
0.124667 0.764330 0.157251
0.407878 0.782250 0.087480
0.628105 0.762673 0.040198
0.766650 0.778722 0.026229
0.839869 0.787349 0.042836
0.865668 0.794712 0.092951
0.871429 0.799896 0.141479
0.871429 0.799896 0.141479
0.123688 0.760437 0.160583
0.123688 0.760437 0.160583
0.123688 0.760437 0.160583
0.123688 0.760437 0.160583
0.123688 0.760437 0.160583
0.123688 0.760437 0.160583
0.123688 0.760437 0.160583
0.123688 0.760437 0.160583
0.123688 0.760437 0.160583
0.347730 0.790866 0.097135
0.608441 0.761417 0.044854
0.754242 0.777113 0.024605
0.833621 0.786662 0.041899
0.863139 0.792963 0.076855
0.871419 0.799887 0.141392
0.871429 0.799896 0.141479
0.123688 0.760437 0.160583
0.123688 0.760437 0.160583
0.123688 0.760437 0.160583
0.123688 0.760437 0.160583
0.123688 0.760437 0.160583
0.123688 0.760437 0.160583
0.123688 0.760437 0.160583
0.123688 0.760437 0.160583
0.123688 0.760437 0.160583
0.304708 0.797517 0.103769
0.594196 0.761004 0.048441
0.745114 0.775931 0.023977
0.829244 0.786210 0.041389
0.861554 0.791855 0.066663
0.870638 0.799152 0.134501
0.871429 0.799896 0.141479
0.002831 0.009634 0.012527
0.011177 0.009826 0.013635
0.032098 0.009781 0.011894
0.070882 0.011335 0.008904
0.131863 0.014057 0.004010
0.214039 0.017078 0.000159
0.314202 0.019013 0.000031
0.452367 0.020642 0.000022
0.547242 0.020341 0.000006
0.627433 0.020282 0.000019
0.702339 0.020498 0.000016
0.764423 0.021494 0.000035
0.797097 0.020037 0.000119
0.803616 0.017273 0.000205
0.807413 0.015664 0.000254
0.809225 0.014896 0.000279
0.003811 0.014895 0.015621
0.009407 0.015213 0.016067
0.025578 0.014983 0.014013
0.056394 0.015874 0.010305
0.113318 0.018034 0.005464
0.199253 0.020125 0.000574
0.306828 0.021190 0.000027
0.449168 0.021924 0.000022
0.543844 0.021515 0.000008
0.624041 0.021418 0.000017
0.698562 0.021623 0.000013
0.761118 0.022628 0.000022
0.793265 0.021661 0.000069
0.800035 0.018791 0.000158
0.803975 0.017121 0.000209
0.805874 0.016316 0.000235
0.009029 0.026121 0.018919
0.012543 0.025855 0.018474
0.025307 0.025004 0.016417
0.047127 0.025601 0.011776
0.088028 0.026861 0.007521
0.158169 0.028903 0.001747
0.259993 0.029878 0.000001
0.419780 0.025166 0.000015
0.540533 0.022267 0.000010
0.622149 0.021952 0.000016
0.696612 0.022147 0.000013
0.759408 0.023139 0.000018
0.791576 0.022361 0.000050
0.798329 0.019514 0.000136
0.802343 0.017813 0.000188
0.804279 0.016992 0.000214
0.018784 0.049013 0.025457
0.020541 0.049037 0.024651
0.031439 0.045069 0.022961
0.049485 0.042162 0.017789
0.083802 0.042748 0.009243
0.145274 0.045648 0.001435
0.232014 0.049827 0.000020
0.349433 0.038325 0.000003
0.507484 0.028747 0.000018
0.615806 0.023513 0.000013
0.693966 0.022862 0.000012
0.757111 0.023801 0.000015
0.789406 0.023236 0.000030
0.795921 0.020535 0.000104
0.800040 0.018789 0.000158
0.802037 0.017943 0.000184
0.031789 0.087744 0.042732
0.032489 0.088153 0.042206
0.036689 0.086668 0.041467
0.055272 0.079754 0.038149
0.085914 0.073424 0.026424
0.149739 0.075920 0.003255
0.233061 0.088195 0.000007
0.346351 0.089781 0.000010
0.457209 0.066273 0.000019
0.566597 0.041080 0.000007
0.675215 0.029613 0.000004
0.752254 0.025547 0.000014
0.785474 0.024818 0.000007
0.791261 0.022501 0.000045
0.795511 0.020709 0.000099
0.797645 0.019805 0.000127
0.052818 0.141045 0.071468
0.052852 0.141128 0.071519
0.052751 0.140880 0.071368
0.057493 0.139488 0.069767
0.088939 0.130240 0.065076
0.148266 0.120587 0.035990
0.247849 0.130123 0.000455
0.368133 0.149646 0.000001
0.480608 0.154598 0.000013
0.562624 0.143885 0.000022
0.630999 0.122241 0.000017
0.693724 0.088692 0.000004
0.740955 0.056590 0.000026
0.768588 0.041117 0.000010
0.776600 0.035177 0.000005
0.780624 0.031971 0.000011
0.090959 0.211707 0.114657
0.091008 0.211791 0.114705
0.090922 0.211645 0.114623
0.090812 0.211458 0.114518
0.092713 0.210432 0.112915
0.138180 0.204139 0.106022
0.251836 0.189802 0.033728
0.399235 0.211912 0.001691
0.524502 0.232853 0.000380
0.622325 0.247547 0.000007
0.684951 0.252868 0.000024
0.743751 0.253223 0.000014
0.768165 0.247752 0.000012
0.763597 0.238540 0.000018
0.760370 0.230999 0.000015
0.757751 0.224132 0.000013
0.134497 0.296777 0.157079
0.134516 0.296824 0.157098
0.134481 0.296736 0.157063
0.134435 0.296621 0.157018
0.134348 0.296404 0.156932
0.137190 0.296380 0.154568
0.226177 0.295980 0.150313
0.390199 0.285962 0.039340
0.550865 0.313024 0.005143
0.663170 0.337749 0.002566
0.737757 0.353822 0.001713
0.794682 0.364613 0.000865
0.834051 0.371112 0.007363
0.833468 0.367761 0.005733
0.832620 0.364775 0.004450
0.831076 0.361707 0.003748
0.161337 0.384219 0.184314
0.161345 0.384254 0.184322
0.161332 0.384195 0.184309
0.161315 0.384117 0.184291
0.161283 0.383969 0.184258
0.161218 0.383674 0.184191
0.180667 0.389118 0.181634
0.351263 0.386122 0.166467
0.523056 0.391114 0.040269
0.659779 0.417736 0.013947
0.755921 0.443745 0.007159
0.816718 0.459046 0.004742
0.863658 0.486620 0.075708
0.865683 0.487776 0.082907
0.865424 0.486036 0.081638
0.865050 0.483533 0.079887
0.172648 0.469873 0.195864
0.172650 0.469903 0.195866
0.172646 0.469856 0.195863
0.172642 0.469793 0.195858
0.172634 0.469676 0.195850
0.172617 0.469434 0.195834
0.172743 0.469389 0.195382
0.252273 0.496580 0.184643
0.483818 0.494746 0.125676
0.626141 0.498422 0.040430
0.749491 0.523340 0.024760
0.822573 0.541915 0.014799
0.869594 0.572984 0.095909
0.875638 0.581435 0.126487
0.875647 0.580523 0.126193
0.875558 0.578766 0.126078
0.171936 0.566577 0.194740
0.171934 0.566607 0.194739
0.171937 0.566564 0.194742
0.171940 0.566507 0.194746
0.171948 0.566400 0.194754
0.171963 0.566176 0.194770
0.171997 0.565682 0.194807
0.186065 0.576546 0.189881
0.407962 0.592822 0.161875
0.592052 0.594142 0.082791
0.719563 0.601437 0.039423
0.815354 0.616400 0.034036
0.867673 0.639887 0.087191
0.877166 0.653890 0.137593
0.877185 0.653356 0.137363
0.877231 0.651674 0.136800
0.156105 0.664886 0.180985
0.156099 0.664914 0.180980
0.156108 0.664877 0.180987
0.156120 0.664827 0.180996
0.156144 0.664733 0.181013
0.156192 0.664537 0.181050
0.156300 0.664101 0.181131
0.156492 0.663326 0.181275
0.248074 0.703891 0.150100
0.542907 0.682305 0.096707
0.687971 0.691636 0.046117
0.799033 0.699725 0.039313
0.856816 0.710303 0.068542
0.872896 0.726017 0.153388
0.872921 0.725629 0.153477
0.873067 0.723899 0.153778
0.131091 0.743114 0.164681
0.131085 0.743129 0.164677
0.131093 0.743109 0.164682
0.131103 0.743081 0.164688
0.131122 0.743028 0.164700
0.131161 0.742920 0.164724
0.131249 0.742675 0.164779
0.131405 0.742242 0.164876
0.163162 0.751566 0.153680
0.478900 0.756205 0.084065
0.654633 0.750803 0.039164
0.782372 0.764812 0.033106
0.847649 0.770821 0.047717
0.868710 0.780541 0.119550
0.871287 0.782831 0.142287
0.871283 0.781710 0.142377
0.123688 0.760437 0.160583
0.123688 0.760437 0.160583
0.123688 0.760437 0.160583
0.123688 0.760437 0.160583
0.123688 0.760437 0.160583
0.123688 0.760437 0.160583
0.123688 0.760437 0.160583
0.123688 0.760437 0.160583
0.124622 0.764129 0.157435
0.406290 0.782500 0.087784
0.627338 0.762645 0.040384
0.766258 0.778670 0.026191
0.839791 0.787340 0.042824
0.865658 0.794705 0.092882
0.871429 0.799896 0.141479
0.871429 0.799896 0.141479
0.123688 0.760437 0.160583
0.123688 0.760437 0.160583
0.123688 0.760437 0.160583
0.123688 0.760437 0.160583
0.123688 0.760437 0.160583
0.123688 0.760437 0.160583
0.123688 0.760437 0.160583
0.123688 0.760437 0.160583
0.123688 0.760437 0.160583
0.345481 0.791199 0.097539
0.607452 0.761448 0.045094
0.753788 0.777053 0.024601
0.833462 0.786647 0.041887
0.863111 0.792942 0.076666
0.871419 0.799887 0.141390
0.871429 0.799896 0.141479
0.123688 0.760437 0.160583
0.123688 0.760437 0.160583
0.123688 0.760437 0.160583
0.123688 0.760437 0.160583
0.123688 0.760437 0.160583
0.123688 0.760437 0.160583
0.123688 0.760437 0.160583
0.123688 0.760437 0.160583
0.123688 0.760437 0.160583
0.301938 0.797934 0.104217
0.593114 0.761074 0.048712
0.744551 0.775857 0.023995
0.829120 0.786199 0.041386
0.861529 0.791838 0.066501
0.870625 0.799140 0.134384
0.871429 0.799896 0.141479
0.001032 0.011754 0.016081
0.007953 0.012215 0.021487
0.026124 0.012239 0.021959
0.068323 0.012341 0.019671
0.132030 0.013837 0.013173
0.219031 0.012382 0.004463
0.324985 0.011475 0.000599
0.466379 0.014278 0.000202
0.562621 0.015061 0.000045
0.642157 0.015514 0.000029
0.716323 0.015912 0.000360
0.778227 0.016033 0.000431
0.810193 0.014471 0.000755
0.815729 0.012088 0.001981
0.818894 0.010710 0.003165
0.820385 0.010061 0.003723
0.001074 0.015509 0.019061
0.005153 0.015336 0.020818
0.020467 0.015393 0.022747
0.057963 0.014773 0.019904
0.120134 0.015994 0.013548
0.208666 0.014868 0.004759
0.320256 0.012863 0.000339
0.463277 0.015208 0.000130
0.559706 0.015870 0.000033
0.639798 0.016187 0.000009
0.713975 0.016681 0.000237
0.776077 0.016842 0.000358
0.808357 0.015256 0.000510
0.814036 0.012821 0.001472
0.817273 0.011416 0.002559
0.818794 0.010754 0.003128
0.001465 0.024705 0.025643
0.003410 0.024699 0.026197
0.014588 0.025619 0.028189
0.040549 0.024967 0.023786
0.085984 0.025953 0.018047
0.166473 0.025520 0.008436
0.284329 0.021414 0.000137
0.450586 0.018063 0.000012
0.553294 0.017763 0.000013
0.634355 0.017807 0.000014
0.708519 0.018463 0.000024
0.770677 0.018934 0.000177
0.803506 0.017320 0.000204
0.809559 0.014753 0.000316
0.813008 0.013270 0.001036
0.814639 0.012561 0.001617
0.010178 0.044800 0.031369
0.010887 0.044672 0.031309
0.021449 0.044192 0.030861
0.041377 0.041256 0.027596
0.076740 0.041402 0.019977
0.143946 0.041568 0.008996
0.238047 0.039831 0.000086
0.370919 0.030022 0.000015
0.527153 0.022378 0.000024
0.631215 0.018615 0.000017
0.706040 0.019103 0.000022
0.767950 0.019900 0.000104
0.801248 0.018277 0.000174
0.807438 0.015653 0.000255
0.811065 0.014114 0.000368
0.812744 0.013385 0.000944
0.024007 0.082076 0.047059
0.024395 0.082064 0.046786
0.027942 0.082146 0.045861
0.047634 0.077610 0.042593
0.080180 0.070975 0.033325
0.145448 0.071423 0.009850
0.230408 0.078607 0.000028
0.339521 0.076895 0.000010
0.461374 0.053616 0.000018
0.584137 0.033206 0.000019
0.689683 0.024498 0.000012
0.763228 0.021471 0.000032
0.796920 0.020111 0.000117
0.803374 0.017376 0.000202
0.807170 0.015767 0.000252
0.809030 0.014979 0.000284
0.047343 0.136791 0.073527
0.047699 0.136915 0.073256
0.048787 0.137489 0.072630
0.052781 0.136491 0.071545
0.084090 0.128167 0.066543
0.144735 0.118449 0.040730
0.244040 0.125429 0.000409
0.362057 0.143189 0.000006
0.473560 0.144964 0.000018
0.557127 0.130391 0.000009
0.633258 0.106720 0.000012
0.702833 0.073917 0.000002
0.759112 0.047371 0.000026
0.782679 0.033920 0.000031
0.790716 0.027989 0.000041
0.794666 0.024980 0.000049
0.090372 0.210714 0.114104
0.090371 0.210711 0.114102
0.090403 0.210762 0.114127
0.090287 0.210564 0.114016
0.091871 0.209633 0.112636
0.135663 0.203559 0.105495
0.251150 0.188801 0.032791
0.398380 0.210240 0.001524
0.522563 0.230108 0.000327
0.618563 0.242962 0.000003
0.680838 0.246470 0.000026
0.740625 0.245025 0.000007
0.765562 0.238303 0.000009
0.760600 0.227609 0.000003
0.757109 0.218760 0.000003
0.754143 0.210725 0.000005
0.134259 0.296183 0.156844
0.134255 0.296173 0.156840
0.134279 0.296231 0.156863
0.134230 0.296112 0.156816
0.134144 0.295895 0.156730
0.136647 0.295811 0.154620
0.223554 0.295651 0.150703
0.389831 0.285429 0.039244
0.550706 0.311818 0.004902
0.662794 0.335821 0.002438
0.736828 0.351082 0.001581
0.793541 0.361313 0.000759
0.831803 0.367056 0.006308
0.831009 0.363237 0.004833
0.830037 0.359936 0.003679
0.828298 0.356616 0.003181
0.161250 0.383821 0.184224
0.161250 0.383817 0.184223
0.161260 0.383866 0.184234
0.161243 0.383786 0.184216
0.161210 0.383639 0.184183
0.161147 0.383347 0.184117
0.178213 0.388138 0.181633
0.349300 0.385591 0.167618
0.522883 0.390685 0.040151
0.659756 0.416793 0.013730
0.755809 0.442318 0.006984
0.816447 0.457245 0.004615
0.863356 0.484256 0.074588
0.865254 0.484903 0.080942
0.864969 0.482990 0.079541
0.864578 0.480383 0.077706
0.172626 0.469559 0.195842
0.172626 0.469557 0.195842
0.172629 0.469603 0.195845
0.172624 0.469539 0.195841
0.172616 0.469421 0.195833
0.172600 0.469184 0.195817
0.172703 0.469075 0.195427
0.247399 0.496461 0.184881
0.482141 0.494370 0.126423
0.626044 0.498123 0.040379
0.749502 0.522581 0.024576
0.822472 0.540756 0.014583
0.869554 0.571729 0.095849
0.875551 0.579978 0.126451
0.875549 0.578915 0.126163
0.875454 0.577048 0.126041
0.171955 0.566294 0.194762
0.171955 0.566293 0.194762
0.171952 0.566340 0.194758
0.171956 0.566282 0.194763
0.171963 0.566174 0.194770
0.171978 0.565954 0.194787
0.172011 0.565469 0.194823
0.184230 0.574829 0.190544
0.404779 0.592661 0.163017
0.591005 0.593855 0.083318
0.719479 0.601205 0.039406
0.815362 0.615865 0.033941
0.867692 0.639144 0.087130
0.877198 0.652882 0.137241
0.877217 0.652243 0.136989
0.877266 0.650369 0.136369
0.156166 0.664642 0.181030
0.156166 0.664642 0.181030
0.156155 0.664686 0.181022
0.156168 0.664635 0.181032
0.156191 0.664542 0.181049
0.156239 0.664350 0.181085
0.156345 0.663922 0.181164
0.156535 0.663151 0.181308
0.241441 0.703920 0.151017
0.540290 0.682392 0.097476
0.687301 0.691408 0.046312
0.798974 0.699535 0.039308
0.856835 0.709803 0.068617
0.872950 0.725359 0.153505
0.872988 0.724826 0.153617
0.873153 0.722911 0.153945
0.131139 0.742979 0.164711
0.131139 0.742979 0.164711
0.131130 0.743005 0.164705
0.131141 0.742976 0.164711
0.131159 0.742925 0.164723
0.131197 0.742818 0.164747
0.131284 0.742578 0.164801
0.131439 0.742148 0.164898
0.158336 0.749986 0.155417
0.475916 0.756459 0.084832
0.653234 0.750557 0.039582
0.781875 0.764631 0.033018
0.847614 0.770684 0.047680
0.868708 0.780301 0.119562
0.871286 0.782475 0.142316
0.871280 0.781266 0.142414
0.123688 0.760437 0.160583
0.123688 0.760437 0.160583
0.123688 0.760437 0.160583
0.123688 0.760437 0.160583
0.123688 0.760437 0.160583
0.123688 0.760437 0.160583
0.123688 0.760437 0.160583
0.123688 0.760437 0.160583
0.124482 0.763547 0.157944
0.401443 0.783272 0.088725
0.625315 0.762574 0.040877
0.765337 0.778547 0.026111
0.839633 0.787322 0.042801
0.865643 0.794695 0.092787
0.871429 0.799896 0.141479
0.871429 0.799896 0.141479
0.123688 0.760437 0.160583
0.123688 0.760437 0.160583
0.123688 0.760437 0.160583
0.123688 0.760437 0.160583
0.123688 0.760437 0.160583
0.123688 0.760437 0.160583
0.123688 0.760437 0.160583
0.123688 0.760437 0.160583
0.123688 0.760437 0.160583
0.338745 0.792200 0.098747
0.605029 0.761537 0.045682
0.752540 0.776888 0.024600
0.833154 0.786616 0.041865
0.863061 0.792905 0.076324
0.871419 0.799886 0.141387
0.871429 0.799896 0.141479
0.123688 0.760437 0.160583
0.123688 0.760437 0.160583
0.123688 0.760437 0.160583
0.123688 0.760437 0.160583
0.123688 0.760437 0.160583
0.123688 0.760437 0.160583
0.123688 0.760437 0.160583
0.123688 0.760437 0.160583
0.123688 0.760437 0.160583
0.293798 0.799150 0.105545
0.590063 0.761292 0.049475
0.742914 0.775643 0.024059
0.828693 0.786162 0.041376
0.861444 0.791779 0.065956
0.870592 0.799109 0.134095
0.871429 0.799896 0.141479
0.000000 0.014966 0.020316
0.002727 0.017019 0.027945
0.016681 0.018495 0.039429
0.057068 0.017446 0.038905
0.126407 0.017073 0.034109
0.218295 0.012944 0.021151
0.341165 0.003438 0.007216
0.491358 0.005588 0.002593
0.585962 0.007747 0.002879
0.664659 0.008018 0.002829
0.736100 0.008844 0.003476
0.795558 0.009060 0.004393
0.826210 0.007544 0.006319
0.829587 0.006156 0.009382
0.831510 0.005369 0.011202
0.832414 0.004996 0.011983
0.000015 0.016878 0.021981
0.001358 0.017286 0.024967
0.012610 0.019117 0.035830
0.049310 0.018410 0.037849
0.118897 0.017831 0.033197
0.213420 0.013715 0.020358
0.338624 0.003946 0.006552
0.489296 0.006027 0.001725
0.583744 0.008328 0.002168
0.662552 0.008640 0.002280
0.734438 0.009372 0.002878
0.794011 0.009629 0.003680
0.824819 0.008142 0.005636
0.828608 0.006553 0.008362
0.830727 0.005670 0.010034
0.831723 0.005253 0.010747
0.000065 0.024719 0.028721
0.000592 0.024549 0.028983
0.007269 0.025621 0.032489
0.033522 0.025466 0.036073
0.088999 0.024645 0.032259
0.179359 0.022980 0.021524
0.313343 0.011281 0.006616
0.483085 0.007553 0.001180
0.579177 0.009605 0.000993
0.657671 0.010169 0.001304
0.730593 0.010648 0.001453
0.790368 0.011017 0.001934
0.821270 0.009677 0.004074
0.825997 0.007627 0.006019
0.828741 0.006439 0.007188
0.830042 0.005873 0.007677
0.001806 0.040992 0.038430
0.001881 0.040794 0.038509
0.007242 0.041155 0.040542
0.026426 0.041790 0.044027
0.069483 0.041321 0.037546
0.141709 0.041600 0.027641
0.256288 0.033508 0.010265
0.416189 0.017632 0.000606
0.560541 0.013399 0.000243
0.650560 0.012388 0.000686
0.723899 0.012951 0.000941
0.784564 0.013258 0.001067
0.816085 0.011926 0.002314
0.821142 0.009731 0.004007
0.824124 0.008433 0.005122
0.825574 0.007802 0.005664
0.010134 0.075848 0.052571
0.010226 0.075685 0.052393
0.012339 0.075572 0.052313
0.032347 0.075200 0.052910
0.069873 0.071202 0.047868
0.138138 0.070764 0.029669
0.236616 0.068233 0.004760
0.348755 0.059457 0.000158
0.486106 0.038631 0.000018
0.613304 0.023061 0.000104
0.712346 0.016602 0.000416
0.780240 0.014767 0.000614
0.812639 0.013412 0.001469
0.817928 0.011130 0.002820
0.821014 0.009787 0.003958
0.822527 0.009129 0.004524
0.034355 0.130361 0.078000
0.034576 0.130332 0.077837
0.035344 0.130489 0.077474
0.040075 0.130443 0.076844
0.073408 0.125840 0.073568
0.137487 0.116457 0.053427
0.240024 0.117548 0.000764
0.355145 0.132682 0.000011
0.466479 0.130666 0.000010
0.555382 0.111286 0.000007
0.644944 0.085065 0.000006
0.727177 0.054965 0.000007
0.787698 0.033334 0.000216
0.803483 0.022910 0.000696
0.810320 0.017799 0.001205
0.813393 0.015417 0.001569
0.085668 0.207150 0.116817
0.085808 0.207209 0.116662
0.086267 0.207453 0.116221
0.086969 0.207845 0.115588
0.088215 0.207011 0.114734
0.128303 0.201465 0.106714
0.247457 0.186006 0.035403
0.392978 0.204850 0.001280
0.514850 0.222761 0.000245
0.610690 0.234002 0.000009
0.675121 0.235714 0.000015
0.736573 0.232790 0.000011
0.761595 0.223582 0.000008
0.756040 0.210544 0.000019
0.751854 0.198954 0.000020
0.749376 0.189608 0.000020
0.133884 0.295320 0.156559
0.133903 0.295320 0.156522
0.133923 0.295346 0.156512
0.133933 0.295371 0.156522
0.133847 0.295156 0.156437
0.135872 0.294992 0.154677
0.219740 0.295175 0.151247
0.389228 0.284605 0.039069
