assets/luts/LUTs/EXECUTOR.CUBE
LUT_3D_SIZE 6
0.004456 0.008209 0.009094
0.070916 0.011603 0.002727
0.313331 0.023174 0.000031
0.617787 0.023854 0.000007
0.786141 0.024556 0.000000
0.798730 0.019344 0.000141
0.023022 0.052819 0.023161
0.052943 0.043827 0.014747
0.232427 0.056496 0.000011
0.606557 0.026844 0.000004
0.782320 0.025921 0.000000
0.793446 0.021584 0.000072
0.091431 0.212513 0.115111
0.091181 0.212086 0.114870
0.252271 0.190472 0.034224
0.623516 0.249101 0.000007
0.769135 0.251919 0.000013
0.759059 0.229941 0.000019
0.172665 0.470124 0.195881
0.172655 0.469984 0.195871
0.172768 0.469609 0.195367
0.626213 0.498643 0.040468
0.869619 0.573490 0.095973
0.875593 0.579413 0.126112
0.131052 0.743221 0.164656
0.131074 0.743160 0.164670
0.131221 0.742752 0.164762
0.479942 0.756148 0.083783
0.847676 0.770923 0.047744
0.871283 0.781878 0.142361
0.123688 0.760437 0.160583
0.123688 0.760437 0.160583
0.123688 0.760437 0.160583
0.304708 0.797517 0.103769
0.829244 0.786210 0.041389
0.871429 0.799896 0.141479
0.000000 0.014966 0.020316
0.057068 0.017446 0.038905
0.341165 0.003438 0.007216
0.664659 0.008018 0.002829
0.826210 0.007544 0.006319
0.832414 0.004996 0.011983
0.001806 0.040992 0.038430
0.026426 0.041790 0.044027
0.256288 0.033508 0.010265
0.650560 0.012388 0.000686
0.816085 0.011926 0.002314
0.825574 0.007802 0.005664
0.085668 0.207150 0.116817
0.086969 0.207845 0.115588
0.247457 0.186006 0.035403
0.610690 0.234002 0.000009
0.761595 0.223582 0.000008
0.749376 0.189608 0.000020
0.172594 0.469094 0.195810
0.172599 0.469168 0.195816
0.172645 0.468623 0.195487
0.625902 0.497689 0.040306
0.869449 0.569586 0.095500
0.875252 0.574096 0.125328
0.131214 0.742773 0.164757
0.131195 0.742823 0.164746
0.131334 0.742438 0.164832
0.467708 0.757307 0.086249
0.847561 0.770485 0.047627
0.871278 0.780610 0.142470
0.123688 0.760437 0.160583
0.123688 0.760437 0.160583
0.123688 0.760437 0.160583
0.283170 0.798292 0.108307
0.828059 0.786107 0.041361
0.871429 0.799896 0.141479
0.000000 0.054190 0.069954
0.000000 0.065009 0.085459
0.268284 0.068313 0.194092
0.676268 0.040547 0.175443
0.842284 0.015055 0.173920
0.842147 0.017218 0.179941
0.000000 0.053615 0.069276
0.000000 0.057737 0.074985
0.261192 0.068214 0.192398
0.677634 0.034248 0.165257
0.841968 0.011412 0.160267
0.842072 0.012708 0.165623
0.000009 0.185992 0.177101
0.000009 0.185588 0.176954
0.161414 0.213206 0.224376
0.672289 0.205668 0.173513
0.875188 0.103835 0.135341
0.865810 0.050394 0.130627
0.146092 0.491489 0.251051
0.151174 0.489307 0.244715
0.162161 0.484287 0.231293
0.622678 0.518191 0.112404
0.872161 0.573649 0.124799
0.878377 0.578454 0.160839
0.132488 0.739318 0.165538
0.132357 0.739658 0.165461
0.132142 0.740213 0.165333
0.426472 0.759351 0.094166
0.846816 0.767715 0.046977
0.871273 0.776240 0.142939
0.123688 0.760437 0.160583
0.123688 0.760437 0.160583
0.123688 0.760437 0.160583
0.241125 0.791146 0.120601
0.825008 0.785845 0.041285
0.871429 0.799896 0.141479
0.000000 0.128628 0.158670
0.000000 0.128641 0.158685
0.116889 0.207023 0.326731
0.543134 0.155740 0.410057
0.764956 0.130699 0.437822
0.764130 0.131293 0.440126
0.000000 0.128478 0.158491
0.000000 0.128516 0.158536
0.088549 0.203159 0.302966
0.542084 0.155702 0.409672
0.766226 0.129762 0.434480
0.765865 0.129989 0.435584
0.000000 0.141152 0.171034
0.000000 0.136804 0.166681
0.006721 0.173397 0.224073
0.535368 0.155432 0.407207
0.769730 0.127318 0.425178
0.770076 0.127059 0.424431
0.000000 0.456801 0.437009
0.000000 0.456679 0.436989
0.000000 0.455908 0.436864
0.601705 0.610031 0.604847
0.912076 0.618698 0.560148
0.921080 0.613036 0.559752
0.000000 0.761573 0.473286
0.000000 0.762545 0.470312
0.000000 0.764336 0.462874
0.239266 0.838409 0.523094
0.881035 0.856513 0.586185
0.920565 0.856084 0.614791
0.000000 0.796967 0.464396
0.000035 0.797732 0.459564
0.000219 0.799285 0.447823
0.016196 0.827132 0.453145
0.856569 0.887398 0.551520
0.920206 0.893577 0.616173
0.000000 0.191101 0.235630
0.000000 0.191112 0.235642
0.025630 0.232831 0.303503
0.520113 0.239232 0.546634
0.714944 0.190456 0.623461
0.715086 0.190722 0.624754
0.000000 0.190995 0.235490
0.000000 0.191026 0.235531
0.015717 0.219279 0.281063
0.514636 0.241244 0.544111
0.714823 0.190430 0.623237
0.715010 0.190515 0.623785
0.000000 0.190277 0.234548
0.000000 0.190349 0.234642
0.000000 0.190545 0.234900
0.496418 0.247114 0.536433
0.713128 0.190372 0.621696
0.714790 0.189914 0.620920
0.000000 0.437954 0.545298
0.000000 0.432782 0.539722
0.000000 0.419486 0.523382
0.474183 0.548507 0.797590
0.836365 0.510851 0.782098
0.850325 0.500620 0.779543
0.000000 0.715314 0.678466
0.000000 0.715241 0.678481
0.000000 0.714778 0.678572
0.102308 0.773447 0.733102
0.888534 0.863424 0.837720
0.944583 0.865622 0.830865
0.000000 0.782836 0.673435
0.000000 0.782696 0.672265
0.000000 0.782416 0.669931
0.000000 0.783504 0.670643
0.868732 0.939413 0.834546
0.942068 0.930271 0.847417
0.000000 0.209839 0.260590
0.000000 0.209839 0.260590
0.006547 0.232768 0.298040
0.496146 0.278285 0.571237
0.717022 0.200742 0.660263
0.718689 0.200348 0.660858
0.000000 0.209839 0.260590
0.000000 0.209839 0.260590
0.002596 0.223905 0.283544
0.489511 0.280122 0.570977
0.716634 0.200834 0.660124
0.718689 0.200348 0.660858
0.000000 0.209839 0.260590
0.000000 0.209839 0.260590
0.000000 0.209839 0.260590
0.472444 0.281745 0.581987
0.714367 0.201370 0.659315
0.718689 0.200348 0.660858
0.000000 0.408057 0.528627
0.000000 0.399628 0.517622
0.000000 0.379149 0.488848
0.408738 0.488906 0.816747
0.799040 0.414707 0.784008
0.814966 0.395440 0.782388
0.000000 0.706778 0.738975
0.000000 0.705352 0.738717
0.000000 0.702037 0.738151
0.082169 0.756019 0.800364
0.878011 0.853576 0.897544
0.941975 0.851501 0.896796
0.000000 0.792312 0.747650
0.000000 0.792275 0.747663
0.000000 0.792041 0.747745
0.000000 0.790319 0.748231
0.858447 0.935703 0.898414
0.946091 0.933033 0.906722
