assets/luts/LUTs/FIREFLY.CUBE
LUT_3D_SIZE 16
0.000000 0.000000 0.000000
0.000000 0.000000 0.000000
0.000000 0.000000 0.000000
0.000000 0.000000 0.000000
0.019765 0.004212 0.000000
0.065767 0.012850 0.000000
0.154359 0.029278 0.000000
0.273142 0.048468 0.000000
0.396695 0.066692 0.000000
0.529904 0.084866 0.000000
0.664919 0.101779 0.000000
0.775523 0.114672 0.000000
0.783488 0.110896 0.000000
0.783761 0.107828 0.000000
0.785174 0.106370 0.000000
0.786399 0.105772 0.000000
0.000000 0.000000 0.000000
0.000000 0.000000 0.000000
0.000000 0.000000 0.000000
0.000000 0.000000 0.000000
0.021261 0.006215 0.000000
0.067717 0.017555 0.000000
0.154659 0.031619 0.000000
0.272634 0.048592 0.000000
0.396446 0.067357 0.000000
0.529636 0.085772 0.000000
0.664672 0.102679 0.000000
0.775537 0.115587 0.000000
0.783468 0.111810 0.000000
0.783737 0.108706 0.000000
0.785150 0.107250 0.000000
0.786378 0.106641 0.000000
0.000000 0.000000 0.000000
0.000000 0.000000 0.000000
0.000000 0.000000 0.000000
0.000000 0.000000 0.000000
0.025359 0.011713 0.000000
0.072524 0.027854 0.000000
0.157694 0.045823 0.000000
0.274075 0.059066 0.000000
0.395269 0.067070 0.000000
0.529005 0.087150 0.000000
0.664188 0.104576 0.000000
0.775256 0.117518 0.000000
0.783459 0.113731 0.000000
0.783722 0.110597 0.000000
0.785091 0.109096 0.000000
0.786382 0.108464 0.000000
0.000000 0.000000 0.000000
0.000000 0.000000 0.000000
0.000000 0.000000 0.000000
0.000000 0.000000 0.000000
0.028167 0.015723 0.000000
0.079690 0.039407 0.000000
0.168018 0.065554 0.000000
0.278796 0.083046 0.000000
0.397773 0.090296 0.000000
0.528405 0.089864 0.000000
0.663036 0.104054 0.000000
0.774823 0.118974 0.000000
0.783324 0.116091 0.000000
0.783725 0.113093 0.000000
0.785096 0.111581 0.000000
0.786434 0.110885 0.000000
0.000000 0.000000 0.000000
0.000000 0.000000 0.000000
0.000000 0.000000 0.000000
0.003627 0.004764 0.000000
0.031556 0.025376 0.000000
0.080464 0.045209 0.000000
0.178031 0.085999 0.000000
0.297366 0.118373 0.000000
0.409865 0.133336 0.000000
0.534947 0.143526 0.000000
0.664992 0.134440 0.000000
0.774698 0.123291 0.000000
0.781588 0.106023 0.000000
0.782341 0.104992 0.000000
0.783726 0.105182 0.000000
0.785197 0.105626 0.000000
0.008138 0.034858 0.000000
0.008318 0.034764 0.000000
0.007957 0.034401 0.000000
0.009997 0.034865 0.000000
0.039264 0.055213 0.000000
0.087379 0.073079 0.000000
0.179466 0.099046 0.000000
0.310580 0.149498 0.000000
0.441114 0.192788 0.000000
0.567583 0.213618 0.000000
0.688773 0.225109 0.000000
0.790912 0.228147 0.000000
0.799446 0.214523 0.000000
0.796423 0.199592 0.000000
0.794596 0.184987 0.000000
0.794116 0.174503 0.000000
0.019237 0.114322 0.000000
0.019782 0.114259 0.000000
0.020695 0.114119 0.000000
0.019126 0.113657 0.000000
0.000000 0.112294 0.002899
0.085092 0.144007 0.000000
0.190734 0.166318 0.000000
0.318890 0.184853 0.000000
0.454756 0.237607 0.000000
0.599559 0.290118 0.000000
0.744299 0.339038 0.000000
0.860274 0.363528 0.000000
0.868445 0.356657 0.000000
0.864255 0.350060 0.000000
0.862818 0.345459 0.000000
0.861075 0.340180 0.000000
0.029850 0.226102 0.000000
0.030581 0.226044 0.000000
0.032039 0.225952 0.000000
0.033318 0.225802 0.000000
0.029079 0.225166 0.000000
0.000000 0.222365 0.041238
0.179550 0.283311 0.000000
0.343408 0.304740 0.000000
0.468513 0.298639 0.000000
0.611631 0.345085 0.000000
0.759370 0.398736 0.000000
0.890950 0.442754 0.000000
0.910908 0.448603 0.000000
0.909694 0.446971 0.000000
0.910406 0.445542 0.000000
0.910232 0.443076 0.000000
0.039619 0.341438 0.000000
0.040476 0.341363 0.000000
0.042142 0.341274 0.000000
0.043792 0.341260 0.000000
0.045114 0.340951 0.000000
0.019166 0.339468 0.000000
0.018669 0.341123 0.000000
0.337219 0.447148 0.000000
0.500021 0.447497 0.000000
0.625044 0.420958 0.000000
0.768664 0.454334 0.000000
0.906158 0.504531 0.000000
0.942732 0.517278 0.000000
0.940557 0.515585 0.000000
0.940897 0.514153 0.000000
0.941246 0.511479 0.000000
0.049275 0.465285 0.000000
0.050223 0.465263 0.000000
0.052058 0.465175 0.000000
0.053890 0.465112 0.000000
0.055697 0.464932 0.000000
0.055321 0.464458 0.000000
-0.028205 0.459885 0.070159
0.211965 0.505455 0.001865
0.512802 0.623718 0.000000
0.663105 0.600661 0.000000
0.788278 0.560410 0.001986
0.915537 0.563756 0.001135
0.979590 0.589981 0.000129
0.976628 0.589480 0.000000
0.977175 0.588296 0.000000
0.977103 0.585174 0.000000
0.059029 0.591592 0.009613
0.060047 0.591575 0.009619
0.062010 0.591534 0.009613
0.063975 0.591435 0.009599
0.065880 0.591387 0.009588
0.067760 0.591025 0.009551
0.051781 0.589488 0.009247
-0.055884 0.583474 0.088098
0.401180 0.696318 0.016212
0.685870 0.793181 0.006909
0.829478 0.756979 0.010679
0.941498 0.709252 0.014667
0.998741 0.691676 0.036274
0.997028 0.689106 0.040984
0.998365 0.686634 0.039633
0.999611 0.680288 0.036739
0.069081 0.707514 0.023057
0.070120 0.707533 0.023053
0.072123 0.707406 0.023049
0.074111 0.707247 0.023037
0.076099 0.707085 0.023030
0.078016 0.706990 0.022993
0.078440 0.706257 0.022868
0.000000 0.701878 0.080364
0.257004 0.728485 0.035854
0.595638 0.881335 0.025924
0.866410 0.947917 0.017794
0.978967 0.897506 0.026179
0.995710 0.830635 0.052958
0.995523 0.829815 0.058649
0.997038 0.828990 0.058129
0.998237 0.823471 0.057691
0.074734 0.765989 0.029763
0.075768 0.765991 0.029763
0.077797 0.765996 0.029764
0.079788 0.766005 0.029765
0.081794 0.766010 0.029766
0.083740 0.766040 0.029771
0.085633 0.765992 0.029772
0.060307 0.765102 0.029262
0.096686 0.762335 0.037064
0.514380 0.899748 0.039559
0.814276 0.999153 0.042321
0.983574 1.001259 0.056715
0.996514 0.946766 0.062553
0.995529 0.900878 0.064548
0.997007 0.901545 0.064308
0.998202 0.900762 0.064230
0.074310 0.762980 0.029259
0.075345 0.762980 0.029259
0.077380 0.762980 0.029259
0.079369 0.762980 0.029259
0.081383 0.762980 0.029259
0.083332 0.762980 0.029259
0.085273 0.762980 0.029259
0.082892 0.762857 0.029115
-0.127684 0.752840 0.104987
0.461274 0.871892 0.039084
0.781148 0.992880 0.040919
0.973108 0.999389 0.054803
0.997134 0.966179 0.061186
0.995486 0.909205 0.063998
0.997009 0.902886 0.064392
0.998202 0.903878 0.064355
0.074319 0.764207 0.029259
0.075354 0.764207 0.029259
0.077385 0.764207 0.029259
0.079372 0.764207 0.029259
0.081386 0.764207 0.029259
0.083333 0.764207 0.029259
0.085273 0.764207 0.029259
0.087144 0.764206 0.029258
-0.100856 0.755777 0.105235
0.424702 0.855514 0.040474
0.757583 0.990799 0.038001
0.962118 1.000019 0.053542
0.997954 0.977235 0.060672
0.995440 0.916444 0.063582
0.997023 0.903167 0.064384
0.998207 0.904377 0.064314
0.077757 0.793359 0.032974
0.078566 0.793358 0.032976
0.079980 0.793357 0.032988
0.080681 0.793385 0.033012
0.079638 0.793383 0.033038
0.072052 0.793377 0.033070
0.033002 0.793378 0.033408
0.000000 0.793339 0.092560
-0.159106 0.787900 0.109335
0.385182 0.875600 0.044614
0.739701 1.016462 0.041041
0.960936 1.031911 0.056904
1.010309 1.015732 0.065008
1.008359 0.954155 0.068117
1.009722 0.933647 0.069307
1.010984 0.934739 0.069244
-0.035644 -0.273586 -0.028043
-0.028480 -0.273561 -0.028255
0.000000 -0.273499 -0.028696
0.000000 -0.273432 -0.031118
0.017165 -0.273403 -0.034026
0.068769 -0.273375 -0.035397
0.162419 -0.272640 -0.036574
0.285339 -0.271117 -0.036856
0.409724 -0.276101 -0.036941
0.536269 -0.298769 -0.037253
0.659956 -0.324959 -0.037800
0.761848 -0.334155 -0.039939
0.764706 -0.328745 -0.042780
0.763684 -0.316033 -0.044135
0.764915 -0.307427 -0.044614
0.766411 -0.305649 -0.044717
0.000000 0.000000 0.000000
0.000000 0.000000 0.000000
0.000000 0.000000 0.000000
0.000000 0.000000 0.000000
0.020477 0.004252 0.000000
0.066926 0.013359 0.000000
0.154181 0.026958 0.000000
0.272746 0.045327 0.000000
0.396485 0.064044 0.000000
0.529776 0.082334 0.000000
0.664728 0.099633 0.000000
0.775533 0.112754 0.000000
0.783660 0.109194 0.000000
0.783820 0.106234 0.000000
0.785288 0.104821 0.000000
0.786497 0.104235 0.000000
0.000000 0.000000 0.000000
0.000000 0.000000 0.000000
0.000000 0.000000 0.000000
0.000000 0.000000 0.000000
0.024860 0.010636 0.000000
0.071576 0.025391 0.000000
0.157856 0.042829 0.000000
0.273942 0.054300 0.000000
0.395387 0.063925 0.000000
0.529066 0.083827 0.000000
0.664241 0.101568 0.000000
0.775370 0.114790 0.000000
0.783598 0.111194 0.000000
0.783761 0.108185 0.000000
0.785224 0.106752 0.000000
0.786437 0.106139 0.000000
0.000000 0.000000 0.000000
0.000000 0.000000 0.000000
0.000000 0.000000 0.000000
0.000000 0.000000 0.000000
0.027768 0.015319 0.000000
0.079212 0.038819 0.000000
0.166000 0.063015 0.000000
0.278086 0.080554 0.000000
0.397985 0.085399 0.000000
0.528273 0.085337 0.000000
0.663093 0.101024 0.000000
0.774828 0.116334 0.000000
0.783486 0.113531 0.000000
0.783741 0.110641 0.000000
0.785151 0.109174 0.000000
0.786371 0.108533 0.000000
0.000000 0.000000 0.000000
0.000000 0.000000 0.000000
0.000000 0.000000 0.000000
0.002451 0.003284 0.000000
0.030872 0.024731 0.000000
0.080312 0.045120 0.000000
0.177689 0.085819 0.000000
0.295627 0.116127 0.000000
0.407736 0.130726 0.000000
0.535140 0.141034 0.000000
0.665224 0.128811 0.000000
0.774597 0.117985 0.000000
0.781785 0.103326 0.000000
0.782281 0.102576 0.000000
0.783930 0.103073 0.000000
0.785450 0.103593 0.000000
0.007890 0.034306 0.000000
0.008093 0.034373 0.000000
0.007824 0.033986 0.000000
0.009407 0.034264 0.000000
0.038550 0.054481 0.000000
0.087021 0.072638 0.000000
0.179255 0.098708 0.000000
0.310416 0.149199 0.000000
0.440511 0.191792 0.000000
0.565626 0.210944 0.000000
0.686455 0.222097 0.000000
0.790478 0.225393 0.000000
0.799016 0.211339 0.000000
0.795574 0.193819 0.000000
0.793877 0.178362 0.000000
0.793222 0.167481 0.000000
0.018722 0.113886 0.000000
0.019264 0.113958 0.000000
0.020302 0.113817 0.000000
0.018796 0.113299 0.000000
0.000000 0.111933 0.007354
0.084259 0.143380 0.000000
0.190483 0.165919 0.000000
0.318667 0.184373 0.000000
0.454697 0.237150 0.000000
0.599296 0.289492 0.000000
0.744206 0.338294 0.000000
0.858797 0.361373 0.000000
0.866523 0.354113 0.000000
0.862302 0.347447 0.000000
0.860650 0.342865 0.000000
0.858961 0.337491 0.000000
0.029195 0.225777 0.000000
0.029914 0.225854 0.000000
0.031529 0.225767 0.000000
0.032872 0.225610 0.000000
0.028680 0.224975 0.000000
-0.007188 0.222165 0.041542
0.178543 0.282745 0.000000
0.343251 0.304464 0.000000
0.468368 0.298162 0.000000
0.611547 0.344677 0.000000
0.759381 0.398186 0.000000
0.890902 0.442199 0.000000
0.910837 0.448107 0.000000
0.909454 0.446370 0.000000
0.910006 0.444839 0.000000
0.910044 0.442369 0.000000
0.038886 0.341244 0.000000
0.039721 0.341155 0.000000
0.041567 0.341148 0.000000
0.043299 0.341075 0.000000
0.044654 0.340865 0.000000
0.018502 0.339309 0.000000
0.000000 0.340866 0.011354
0.336272 0.446578 0.000000
0.499934 0.447357 0.000000
0.624894 0.420448 0.000000
0.768559 0.454128 0.000000
0.905975 0.504124 0.000000
0.942490 0.516794 0.000000
0.940188 0.515051 0.000000
0.940801 0.513574 0.000000
0.941074 0.510814 0.000000
0.048469 0.465095 0.000000
0.049383 0.465151 0.000000
0.051447 0.465066 0.000000
0.053351 0.464991 0.000000
0.055193 0.464847 0.000000
0.054881 0.464409 0.000000
-0.025716 0.459802 0.070484
0.209847 0.504713 0.002151
0.512021 0.623377 0.000000
0.663014 0.600522 0.000000
0.788065 0.559921 0.002271
0.915725 0.563551 0.001455
0.979623 0.589515 0.000153
0.976618 0.589029 0.000000
0.977240 0.587870 0.000000
0.976637 0.584702 0.000000
0.058219 0.591427 0.010187
0.059174 0.591495 0.009988
0.061362 0.591418 0.009989
0.063396 0.591348 0.009986
0.065375 0.591281 0.009967
0.067265 0.590953 0.009934
0.051440 0.589412 0.009629
-0.056149 0.583480 0.088387
0.399625 0.695448 0.016655
0.685417 0.792939 0.007304
0.829500 0.756895 0.011066
0.941496 0.708782 0.015028
0.998777 0.691238 0.036515
0.997024 0.688451 0.041137
0.998372 0.686018 0.039762
0.999638 0.679584 0.036831
0.068365 0.707232 0.023618
0.069261 0.707278 0.023424
0.071499 0.707194 0.023430
0.073580 0.707161 0.023421
0.075599 0.707001 0.023401
0.077567 0.706854 0.023375
0.078071 0.706175 0.023257
0.000000 0.701960 0.080953
0.254795 0.728151 0.036159
0.594599 0.880862 0.026339
0.866236 0.948090 0.018175
0.978988 0.897375 0.026559
0.995696 0.830451 0.053331
0.995525 0.829454 0.059017
0.997039 0.828467 0.058499
0.998238 0.823083 0.058067
0.074040 0.766002 0.030359
0.074961 0.766002 0.030141
0.077218 0.766005 0.030161
0.079314 0.766013 0.030162
0.081307 0.766019 0.030161
0.083295 0.766049 0.030165
0.085221 0.765998 0.030168
0.060221 0.765121 0.029674
0.094018 0.762340 0.037361
0.512682 0.898889 0.039969
0.813553 0.998981 0.042613
0.983886 1.001226 0.057103
0.996512 0.946692 0.062955
0.995529 0.900811 0.064933
0.997007 0.901473 0.064732
0.998202 0.900854 0.064591
0.073607 0.762980 0.029850
0.074530 0.762980 0.029640
0.076798 0.762980 0.029655
0.078837 0.762980 0.029655
0.080901 0.762980 0.029655
0.082877 0.762980 0.029655
0.084843 0.762980 0.029655
0.082546 0.762862 0.029516
-0.126890 0.752929 0.105335
0.459265 0.871018 0.039533
0.780179 0.992864 0.041223
0.972881 0.999421 0.055152
0.997159 0.966290 0.061593
0.995486 0.909232 0.064402
0.997009 0.902880 0.064766
0.998202 0.903865 0.064732
0.073618 0.764207 0.029848
0.074542 0.764207 0.029640
0.076804 0.764207 0.029655
0.078904 0.764207 0.029655
0.080901 0.764207 0.029655
0.082876 0.764207 0.029655
0.084845 0.764207 0.029655
0.086740 0.764207 0.029655
-0.099628 0.755901 0.105589
0.422337 0.854220 0.040920
0.756355 0.990221 0.038352
0.961791 1.000019 0.053891
0.998004 0.977488 0.061078
0.995436 0.916465 0.063984
0.997023 0.903212 0.064755
0.998207 0.904375 0.064682
0.077374 0.793360 0.033363
0.078081 0.793360 0.033171
0.079744 0.793360 0.033215
0.080536 0.793360 0.033252
0.079454 0.793360 0.033331
0.071848 0.793358 0.033404
0.033094 0.793377 0.034832
0.000000 0.793368 0.093015
-0.158689 0.788007 0.109688
0.382873 0.874709 0.045009
0.738200 1.016144 0.041382
0.960490 1.031961 0.057238
1.010318 1.015972 0.065392
1.008347 0.954393 0.068522
1.009714 0.933673 0.069669
1.010976 0.934772 0.069610
-0.037782 -0.273632 0.000000
-0.031253 -0.273623 0.000000
0.000000 -0.273626 0.000000
0.000000 -0.273624 -0.005738
0.016236 -0.273623 -0.022169
0.067079 -0.273613 -0.031186
0.161471 -0.273383 -0.035238
0.285555 -0.272243 -0.036033
0.409780 -0.277506 -0.035949
0.536483 -0.300223 -0.036221
0.660158 -0.326533 -0.036782
0.762303 -0.335866 -0.038974
0.764802 -0.330422 -0.041933
0.764007 -0.317747 -0.043337
0.765050 -0.309080 -0.043833
0.766541 -0.307318 -0.043943
0.000000 0.000000 0.000000
0.000000 0.000000 0.000000
0.000000 0.000000 0.000000
0.000000 0.000000 0.000000
0.019372 0.000000 0.005449
0.064780 0.000000 0.008719
0.152875 0.012228 0.000000
0.273005 0.034823 0.000000
0.396533 0.053351 0.000000
0.529900 0.072093 0.000000
0.664760 0.090222 0.000000
0.775822 0.103987 0.000000
0.783713 0.100825 0.000000
0.784182 0.097972 0.000000
0.785253 0.096594 0.000000
0.786707 0.096079 0.000000
0.000000 0.000000 0.000000
0.000000 0.000000 0.000000
0.000000 0.000000 0.000000
0.000000 0.000000 0.000000
0.022490 0.004086 0.000000
0.069938 0.015102 0.000000
0.157063 0.029324 0.000000
0.272660 0.039061 0.000000
0.395683 0.055971 0.000000
0.529373 0.075847 0.000000
0.664531 0.094291 0.000000
0.775522 0.107914 0.000000
0.783710 0.104799 0.000000
0.784101 0.101962 0.000000
0.785216 0.100517 0.000000
0.786628 0.099913 0.000000
0.000000 0.000000 0.000000
0.000000 0.000000 0.000000
0.000000 0.000000 0.000000
0.000000 0.000000 0.000000
0.026898 0.013945 0.000000
0.075991 0.033821 0.000000
0.161915 0.054987 0.000000
0.278033 0.070466 0.000000
0.397146 0.067836 0.000000
0.528106 0.074370 0.000000
0.663256 0.094239 0.000000
0.775058 0.109723 0.000000
0.783618 0.107156 0.000000
0.784038 0.104396 0.000000
0.785190 0.102986 0.000000
0.786598 0.102337 0.000000
0.000000 0.000000 0.000000
0.000000 0.000000 0.000000
0.000000 0.000000 0.000000
0.000097 0.000153 0.000000
0.028581 0.022558 0.000000
0.079892 0.044849 0.000000
0.175812 0.083568 0.000000
0.290183 0.108499 0.000000
0.404435 0.123243 0.000000
0.535432 0.129420 0.000000
0.664600 0.109514 0.000000
0.773996 0.104786 0.000000
0.782350 0.097261 0.000000
0.782868 0.097456 0.000000
0.784262 0.098454 0.000000
0.785755 0.099159 0.000000
0.000000 0.033274 0.004505
0.000000 0.033229 0.003480
0.003204 0.033095 0.000000
0.003805 0.033600 0.000000
0.034736 0.051035 0.000000
0.085386 0.071199 0.000000
0.178919 0.098621 0.000000
0.309548 0.149420 0.000000
0.437152 0.187243 0.000000
0.559427 0.202059 0.000000
0.680122 0.212168 0.000000
0.788903 0.215872 0.000000
0.797507 0.198522 0.000000
0.793395 0.174640 0.000000
0.792035 0.156468 0.000000
0.791586 0.144116 0.000000
0.018062 0.112873 0.000000
0.018513 0.112876 0.000000
0.019575 0.112942 0.000000
0.018448 0.112512 0.000000
0.000000 0.111073 0.010096
0.081578 0.141395 0.000000
0.189843 0.164937 0.000000
0.318121 0.183079 0.000000
0.454132 0.235929 0.000000
0.598618 0.287603 0.000000
0.743171 0.337190 0.000000
0.853908 0.353947 0.000000
0.860724 0.345791 0.000000
0.856016 0.338683 0.000000
0.854200 0.333357 0.000000
0.851964 0.327467 0.000000
0.027829 0.225141 0.000000
0.028483 0.225150 0.000000
0.030153 0.225255 0.000000
0.031754 0.225110 0.000000
0.027766 0.224448 0.000000
-0.013520 0.221640 0.042062
0.175045 0.280755 0.000000
0.342889 0.303792 0.000000
0.467948 0.296825 0.000000
0.611056 0.343225 0.000000
0.758776 0.396406 0.000000
0.890429 0.440394 0.000000
0.909837 0.445893 0.000000
0.908399 0.444003 0.000000
0.909079 0.442548 0.000000
0.909243 0.440057 0.000000
0.037400 0.340725 0.000000
0.038127 0.340701 0.000000
0.040000 0.340769 0.000000
0.042017 0.340743 0.000000
0.043529 0.340452 0.000000
0.017647 0.339042 0.000000
0.000000 0.340008 0.034776
0.333375 0.445216 0.000000
0.499759 0.446889 0.000000
0.624517 0.418964 0.000000
0.768405 0.452962 0.000000
0.905673 0.502769 0.000000
0.941668 0.515002 0.000000
0.939678 0.513133 0.000000
0.940192 0.511537 0.000000
0.940132 0.508722 0.000000
0.046864 0.464705 0.000000
0.047646 0.464696 0.000000
0.049709 0.464818 0.000000
0.051942 0.464694 0.000000
0.053908 0.464542 0.000000
0.053806 0.464119 0.000000
-0.013090 0.459653 0.071229
0.202945 0.502480 0.002945
0.509929 0.622666 0.000000
0.662911 0.600172 0.000000
0.787783 0.558519 0.003120
0.915177 0.562483 0.002140
0.978939 0.588290 0.000888
0.975989 0.587658 0.000129
0.976178 0.586279 0.000000
0.975781 0.583086 0.000000
0.056621 0.591199 0.011224
0.057443 0.591205 0.011159
0.059582 0.591241 0.010837
0.061974 0.591190 0.010843
0.064090 0.591003 0.010836
0.066096 0.590808 0.010803
0.050991 0.589246 0.010519
-0.057774 0.583173 0.088993
0.394549 0.693016 0.017667
0.683767 0.792424 0.008224
0.829499 0.756699 0.011947
0.941175 0.707688 0.015898
0.998724 0.689576 0.036892
0.996945 0.686479 0.041211
0.998478 0.683669 0.039672
0.999745 0.677160 0.036607
0.066883 0.706964 0.024674
0.067690 0.706981 0.024608
0.069795 0.706972 0.024297
0.072240 0.707022 0.024311
0.074392 0.706990 0.024293
0.076434 0.706456 0.024267
0.077170 0.705930 0.024152
0.000000 0.701515 0.082203
0.246347 0.726393 0.036668
0.591020 0.879227 0.027337
0.864992 0.947659 0.019089
0.978782 0.897244 0.027416
0.995731 0.829603 0.054160
0.995532 0.828583 0.059896
0.997042 0.827227 0.059332
0.998241 0.821698 0.058898
0.072689 0.766025 0.031441
0.073494 0.766023 0.031387
0.075602 0.766019 0.031032
0.078008 0.766020 0.031057
0.080179 0.766035 0.031059
0.082227 0.766068 0.031060
0.084275 0.766023 0.031066
0.060709 0.765202 0.030598
0.083570 0.762209 0.037900
0.507514 0.896385 0.040941
0.811262 0.998743 0.043187
0.983230 1.001342 0.057880
0.996510 0.946768 0.063881
0.995530 0.900610 0.065852
0.997007 0.901472 0.065614
0.998202 0.900509 0.065508
0.072244 0.762980 0.030936
0.073047 0.762980 0.030878
0.075166 0.762980 0.030528
0.077584 0.762980 0.030558
0.079761 0.762980 0.030558
0.081806 0.762980 0.030558
0.083858 0.762980 0.030558
0.081772 0.762870 0.030421
-0.123623 0.753197 0.106157
0.452585 0.867554 0.040625
0.776551 0.991764 0.041782
0.972152 0.999402 0.055999
0.997189 0.966642 0.062523
0.995488 0.909231 0.065310
0.997009 0.902874 0.065704
0.998202 0.903876 0.065668
0.072258 0.764207 0.030930
0.073064 0.764207 0.030873
0.075181 0.764207 0.030528
0.077593 0.764207 0.030558
0.079759 0.764207 0.030558
0.081804 0.764207 0.030558
0.083851 0.764207 0.030558
0.085768 0.764207 0.030558
-0.095271 0.756167 0.106382
0.414573 0.850782 0.042014
0.751964 0.989245 0.039052
0.960602 1.000019 0.054668
0.998073 0.978010 0.061969
0.995423 0.916684 0.064900
0.997025 0.903179 0.065692
0.998207 0.904355 0.065624
0.076662 0.793361 0.033992
0.077228 0.793361 0.033965
0.078779 0.793361 0.033716
0.080005 0.793361 0.033791
0.079050 0.793361 0.033860
0.071452 0.793361 0.034019
0.033520 0.793359 0.036730
0.000000 0.793374 0.093651
-0.156936 0.788204 0.110491
0.373234 0.871132 0.046037
0.732981 1.014616 0.042180
0.959007 1.032039 0.057997
1.010364 1.016742 0.066283
1.008329 0.954730 0.069447
1.009698 0.933693 0.070630
1.010963 0.934814 0.070564
-0.039116 -0.273668 0.000000
-0.030955 -0.273656 0.000000
0.000000 -0.273659 0.000000
0.000000 -0.273662 0.000000
0.009587 -0.273664 0.004541
0.066271 -0.273676 0.014504
0.157687 -0.273696 -0.023802
0.284479 -0.273279 -0.034222
0.409877 -0.278744 -0.035029
0.536953 -0.301440 -0.035226
0.660527 -0.328178 -0.035726
0.762568 -0.338200 -0.038001
0.765021 -0.332863 -0.041108
0.764141 -0.320128 -0.042577
0.765397 -0.311396 -0.043098
0.766798 -0.309552 -0.043220
0.000000 0.000000 0.000000
0.000000 0.000000 0.000000
0.000000 0.000000 0.000000
0.000000 0.000000 0.000000
0.012621 0.000000 0.006991
0.062226 0.000000 0.019672
0.148827 0.000000 0.020810
0.272132 0.016765 0.000000
0.396582 0.039146 0.000000
0.529976 0.058708 0.000000
0.664884 0.077356 0.000000
0.776024 0.091553 0.000000
0.783961 0.088668 0.000000
0.784295 0.086051 0.000000
0.785588 0.084873 0.000000
0.787014 0.084528 0.000000
0.000000 0.000000 0.000000
0.000000 0.000000 0.000000
0.000000 0.000000 0.000000
0.000000 0.000000 0.000000
0.019830 0.000000 0.009481
0.067960 0.000000 0.016875
0.152849 0.000000 0.016090
0.271866 0.020063 0.000000
0.395809 0.041913 0.000000
0.529476 0.061973 0.000000
0.664522 0.080751 0.000000
0.775748 0.094931 0.000000
0.783908 0.092076 0.000000
0.784244 0.089440 0.000000
0.785515 0.088240 0.000000
0.786917 0.087855 0.000000
0.000000 0.000000 0.000000
0.000000 0.000000 0.000000
0.000000 0.000000 0.000000
0.000000 0.000000 0.000000
0.023230 0.004877 0.000000
0.071597 0.018377 0.000000
0.160994 0.035869 0.000000
0.276713 0.044263 0.000000
0.395096 0.041662 0.000000
0.528285 0.062798 0.000000
0.663854 0.085215 0.000000
0.775534 0.100488 0.000000
0.783787 0.097705 0.000000
0.784085 0.095036 0.000000
0.785404 0.093743 0.000000
0.786813 0.093203 0.000000
0.000000 0.000000 0.000000
0.000000 0.000000 0.000000
0.000000 0.000000 0.000000
0.000000 0.000000 0.000000
0.025899 0.019434 0.000000
0.078602 0.042816 0.000000
0.170978 0.075648 0.000000
0.283253 0.095837 0.000000
0.405001 0.109976 0.000000
0.534846 0.102753 0.000000
0.661607 0.073376 0.000000
0.773532 0.089442 -0.009062
0.782742 0.089669 0.000000
0.783384 0.090822 0.000000
0.784729 0.092162 0.000000
0.786293 0.092841 0.000000
0.000000 0.029540 0.012428
0.000000 0.029694 0.012304
0.000000 0.030161 0.011984
0.000000 0.031353 0.012106
0.027218 0.045338 0.000000
0.082181 0.068541 0.000000
0.178531 0.099058 0.000000
0.307747 0.147539 0.000000
0.428920 0.175289 0.000000
0.550356 0.187800 0.000000
0.674095 0.196628 0.001653
0.788548 0.200085 0.010031
0.795374 0.170730 0.000097
0.790895 0.137817 0.000000
0.788934 0.114048 0.000000
0.788459 0.098360 0.000000
0.000000 0.111494 0.012653
0.000000 0.111471 0.010805
0.007924 0.111423 0.000000
0.012205 0.111225 0.000000
0.000000 0.111041 0.017443
0.074629 0.136528 0.000000
0.188803 0.164300 0.000000
0.317515 0.182697 0.000000
0.453548 0.236245 0.000000
0.596884 0.286864 0.000000
0.737918 0.330395 0.000000
0.844461 0.340090 0.000000
0.850075 0.330021 0.002014
0.845031 0.321462 0.007031
0.842795 0.315379 0.009970
0.841091 0.309528 0.011466
0.026957 0.224084 0.000000
0.027552 0.224098 0.000000
0.029028 0.224154 0.000000
0.030601 0.224284 0.000000
