assets/luts/LUTs/FIREFLY.CUBE
LUT_3D_SIZE 6
0.000000 0.000000 0.000000
0.000000 0.000000 0.000000
0.154359 0.029278 0.000000
0.529904 0.084866 0.000000
0.783488 0.110896 0.000000
0.786399 0.105772 0.000000
0.000000 0.000000 0.000000
0.000000 0.000000 0.000000
0.168018 0.065554 0.000000
0.528405 0.089864 0.000000
0.783324 0.116091 0.000000
0.786434 0.110885 0.000000
0.019237 0.114322 0.000000
0.019126 0.113657 0.000000
0.190734 0.166318 0.000000
0.599559 0.290118 0.000000
0.868445 0.356657 0.000000
0.861075 0.340180 0.000000
0.049275 0.465285 0.000000
0.053890 0.465112 0.000000
-0.028205 0.459885 0.070159
0.663105 0.600661 0.000000
0.979590 0.589981 0.000129
0.977103 0.585174 0.000000
0.074734 0.765989 0.029763
0.079788 0.766005 0.029765
0.085633 0.765992 0.029772
0.514380 0.899748 0.039559
0.996514 0.946766 0.062553
0.998202 0.900762 0.064230
0.077757 0.793359 0.032974
0.080681 0.793385 0.033012
0.033002 0.793378 0.033408
0.385182 0.875600 0.044614
1.010309 1.015732 0.065008
1.010984 0.934739 0.069244
-0.039116 -0.273668 0.000000
0.000000 -0.273662 0.000000
0.157687 -0.273696 -0.023802
0.536953 -0.301440 -0.035226
0.765021 -0.332863 -0.041108
0.766798 -0.309552 -0.043220
0.000000 0.000000 0.000000
0.000000 0.000000 0.000000
0.160994 0.035869 0.000000
0.528285 0.062798 0.000000
0.783787 0.097705 0.000000
0.786813 0.093203 0.000000
0.000000 0.111494 0.012653
0.012205 0.111225 0.000000
0.188803 0.164300 0.000000
0.596884 0.286864 0.000000
0.850075 0.330021 0.002014
0.841091 0.309528 0.011466
0.044978 0.464113 0.000000
0.050029 0.464282 0.000000
0.000000 0.459412 0.069857
0.662755 0.599705 0.000000
0.977956 0.586166 0.001290
0.974495 0.580384 0.000000
0.071195 0.766070 0.032615
0.076246 0.766059 0.032102
0.083029 0.766044 0.032135
0.498723 0.892194 0.042105
0.996568 0.946338 0.064934
0.998202 0.900118 0.066547
0.076629 0.793362 0.034050
0.079537 0.793362 0.034020
0.034178 0.793362 0.036219
0.357621 0.864931 0.047264
1.010453 1.017599 0.067327
1.010948 0.934764 0.071652
-0.042871 -0.273680 0.134777
0.036512 -0.273679 0.134177
0.107841 -0.273679 0.100859
0.531967 -0.300824 0.149253
0.771684 -0.340193 0.111236
0.773081 -0.316162 0.111537
0.000000 0.008210 0.127800
0.024109 0.000000 0.128507
0.096543 0.000000 0.092880
0.523374 0.000000 0.135215
0.788432 0.000000 0.094261
0.791287 0.000000 0.094875
0.000000 0.045805 0.055931
0.000000 0.045041 0.055348
0.159225 0.133064 0.131513
0.561867 0.175132 0.108094
0.817362 0.130021 0.070630
0.814656 0.075286 0.052813
0.010147 0.457478 0.139849
0.012208 0.457626 0.129604
0.000000 0.454300 0.116283
0.651959 0.593618 0.093568
0.972595 0.597793 0.107869
0.968374 0.592159 0.114912
0.052561 0.765102 0.044167
0.070691 0.765151 0.036398
0.078405 0.765684 0.035635
0.456413 0.870744 0.045898
0.996969 0.942641 0.067803
0.998202 0.895163 0.068782
0.117299 0.793362 0.000000
0.119172 0.793362 0.000000
0.096559 0.793362 0.003171
0.304421 0.841242 0.017179
1.011797 1.021617 0.048485
1.011807 0.934995 0.054030
-0.039983 -0.258713 0.525494
-0.039466 -0.261273 0.525971
0.200933 -0.266134 0.495127
0.375776 -0.293384 0.388410
0.619177 -0.345683 0.470307
0.618808 -0.329028 0.467228
0.000000 0.015674 0.511229
0.000000 0.002829 0.511382
0.188462 0.000000 0.487786
0.371340 0.000000 0.380828
0.654667 0.000000 0.462641
0.658851 0.000000 0.458871
0.009027 -0.038314 0.509741
0.016392 -0.042779 0.509785
0.130611 -0.059704 0.517023
0.350394 -0.061349 0.366752
0.651996 -0.044564 0.444830
0.657414 -0.041211 0.439532
0.000000 0.243821 0.277394
0.000000 0.243658 0.277275
-0.025698 0.238559 0.271977
0.579568 0.545129 0.526888
0.943686 0.583213 0.505758
0.941014 0.574275 0.504202
0.007979 0.581490 0.388593
0.011299 0.586021 0.386827
0.016995 0.596191 0.382703
0.399697 0.835149 0.488825
1.000019 0.963635 0.533626
0.998202 0.920446 0.540965
0.016781 0.642740 0.355578
0.020651 0.648548 0.351741
0.001459 0.660359 0.350044
0.254280 0.817022 0.442934
1.006190 1.031713 0.514662
1.017457 0.994015 0.521081
-0.017724 -0.200847 0.883430
-0.007579 -0.200940 0.883608
0.184776 -0.201136 0.885080
0.411170 -0.239667 0.721105
0.493070 -0.342940 0.580805
0.483648 -0.347704 0.578981
0.000000 0.016881 0.861747
0.000000 0.000000 0.861996
0.140330 0.000000 0.864825
0.404298 0.000000 0.714823
0.538674 0.000000 0.600629
0.541860 0.000000 0.599594
0.000000 0.021831 0.857784
0.000000 0.019349 0.858253
-0.077097 0.024186 0.860497
0.395781 0.000000 0.721854
0.541251 0.000000 0.600977
0.545429 0.000000 0.599551
-0.009433 0.315252 0.693403
0.000000 0.313450 0.697875
0.000000 0.308558 0.707247
0.535799 0.401632 0.922932
0.795507 0.375603 0.779958
0.806583 0.374099 0.783543
0.000000 0.417902 0.473895
0.000000 0.417643 0.473741
0.000000 0.416668 0.473083
0.255749 0.567015 0.600804
0.960412 0.918884 0.889990
0.999292 0.929424 0.891557
0.000000 0.522794 0.479404
0.000000 0.523649 0.479417
-0.040136 0.525397 0.481028
-0.073528 0.596634 0.564314
0.958679 1.020876 0.902261
1.022784 1.030445 0.914229
-0.018266 -0.174324 0.935522
-0.009304 -0.174362 0.935523
0.132623 -0.174323 0.936865
0.421699 -0.214194 0.779977
0.461716 -0.329542 0.567798
0.446892 -0.346992 0.560336
0.000000 0.016939 0.912745
0.000000 0.000000 0.912745
0.061640 0.000000 0.914237
0.412297 0.000000 0.773375
0.511393 0.000000 0.602037
0.513777 0.000000 0.603474
0.000000 0.024001 0.912745
0.000000 0.019618 0.912745
-0.081034 0.024323 0.913360
0.402838 0.000000 0.784792
0.511669 0.000000 0.601248
0.513750 0.000000 0.603474
0.000000 0.317068 0.797831
0.000000 0.313652 0.804787
0.000000 0.305430 0.820054
0.522104 0.346815 0.971732
0.721497 0.316600 0.770013
0.724407 0.306643 0.765034
0.000000 0.405055 0.531368
0.000000 0.405052 0.532682
0.000000 0.405112 0.536184
0.230151 0.555025 0.682175
0.949421 0.895922 0.990330
0.996057 0.890861 0.951505
0.000000 0.460069 0.525625
0.000000 0.460035 0.525632
0.000000 0.459880 0.525678
0.000000 0.512667 0.571342
0.917357 0.942049 0.925853
0.998202 0.993619 0.985628
