assets/luts/LUTs/FLASH.CUBE
LUT_3D_SIZE 6
0.000000 0.000000 0.000000
0.035693 0.007610 0.000000
0.306548 0.024580 0.000000
0.665228 0.021544 0.047092
0.860290 0.034865 0.099511
0.864872 0.032700 0.108638
0.001893 0.019882 0.000000
0.018412 0.018040 0.000000
0.300494 0.099580 0.000000
0.663186 0.024506 0.022544
0.859675 0.039233 0.089939
0.864389 0.036952 0.100611
0.021618 0.263249 0.000000
0.024714 0.262830 0.000000
0.254772 0.240692 0.000000
0.630662 0.311804 0.000000
0.833199 0.346043 0.012044
0.839283 0.339922 0.018650
0.029241 0.612481 0.000000
0.037072 0.612380 0.000000
0.000000 0.610689 0.062174
0.566551 0.536927 0.000000
0.831540 0.547261 0.005043
0.834767 0.543359 0.005029
0.035475 0.854659 0.009465
0.044259 0.854667 0.009464
0.053011 0.854679 0.009468
0.601798 0.875022 0.013062
0.796872 0.761068 0.002199
0.820443 0.751872 0.002466
0.036073 0.869234 0.010286
0.038763 0.869235 0.010302
0.000000 0.869261 0.072885
0.535055 0.888306 0.011880
0.779479 0.780332 0.000000
0.819036 0.764475 0.000000
0.008130 -0.199336 0.017184
0.029717 -0.199219 0.024952
0.312527 -0.196845 0.089934
0.673991 -0.190279 0.137389
0.867666 -0.162865 0.168148
0.871112 -0.157616 0.171458
0.000000 0.011514 0.011518
0.015176 0.012199 0.013721
0.311749 0.023594 0.020338
0.666905 0.012323 0.103713
0.863897 0.027902 0.133116
0.868483 0.025641 0.139063
0.000000 0.261886 0.030322
0.000000 0.260852 0.013444
0.252614 0.237783 0.000000
0.637631 0.307742 0.015326
0.846949 0.339466 0.055075
0.855283 0.329532 0.062728
0.017225 0.611430 0.000000
0.029770 0.611563 0.000000
0.000000 0.609933 0.062385
0.566114 0.535990 0.000000
0.831748 0.543759 0.007582
0.834912 0.539081 0.007562
0.023720 0.854695 0.012342
0.036500 0.854694 0.011958
0.047848 0.854703 0.011961
0.595671 0.875007 0.015594
0.796859 0.761029 0.004707
0.820469 0.751519 0.004994
0.036398 0.869238 0.010203
0.038759 0.869237 0.010130
0.000000 0.869225 0.073378
0.524111 0.887899 0.011316
0.778386 0.780913 0.000000
0.818865 0.764481 0.000000
0.051907 -0.196189 0.276036
0.088925 -0.196273 0.275741
0.285814 -0.194701 0.228364
0.670191 -0.193885 0.290328
0.867136 -0.168708 0.322443
0.869750 -0.162271 0.322832
0.013267 0.000000 0.269765
0.049141 0.000000 0.269948
0.276361 0.000000 0.221177
0.664716 0.000000 0.276284
0.864740 0.011401 0.305070
0.868503 0.011397 0.305294
0.000000 0.230914 0.233214
0.000000 0.230641 0.233431
0.241939 0.247534 0.258289
0.696611 0.227894 0.248851
0.910331 0.177654 0.269782
0.913208 0.159548 0.275410
0.000000 0.605390 0.228855
0.000000 0.605798 0.218207
0.000000 0.605266 0.198780
0.576920 0.560453 0.133183
0.867424 0.566653 0.166063
0.871163 0.564930 0.173929
0.011702 0.856877 0.071351
0.014878 0.856363 0.057038
0.038474 0.854640 0.015508
0.579077 0.875087 0.019224
0.795551 0.761348 0.008289
0.820396 0.750079 0.008453
0.093726 0.869257 -0.048052
0.095178 0.869257 -0.048220
0.055253 0.869251 0.000000
0.495353 0.886513 0.000000
0.776493 0.782408 -0.019602
0.819037 0.764755 -0.015214
0.084627 -0.189675 0.632156
0.087116 -0.189686 0.632313
0.383015 -0.188120 0.619030
0.627238 -0.194314 0.513190
0.828257 -0.185854 0.535283
0.831246 -0.177582 0.534287
0.015481 0.006735 0.626645
0.030821 0.006430 0.626898
0.358440 0.010721 0.616096
0.620779 0.017002 0.509251
0.828057 0.035926 0.527253
0.832064 0.035921 0.525205
0.004656 0.094684 0.619375
0.008153 0.060241 0.620804
0.255129 0.000000 0.620294
0.608512 0.000000 0.503979
0.827686 0.023364 0.517990
0.831997 0.024483 0.515436
0.000000 0.560274 0.548728
0.000000 0.560187 0.548799
0.000000 0.558647 0.548488
0.569013 0.613633 0.605923
0.885772 0.614754 0.599293
0.889110 0.609557 0.599253
0.008482 0.849045 0.587361
0.011046 0.849335 0.584414
0.014703 0.849596 0.578558
0.453405 0.894563 0.595406
0.837715 0.886538 0.578266
0.860969 0.864819 0.570839
0.008557 0.868125 0.570921
0.011088 0.868121 0.566467
0.000000 0.868241 0.561100
0.379270 0.910865 0.583329
0.842324 0.925731 0.580935
0.862691 0.899436 0.557469
0.104296 -0.183028 0.886350
0.106944 -0.183028 0.886222
0.309658 -0.182945 0.882599
0.699392 -0.187649 0.766319
0.825949 -0.196842 0.716421
0.827694 -0.195459 0.715948
0.029123 0.024267 0.882191
0.041137 0.023897 0.882338
0.260390 0.023358 0.879542
0.689883 0.031831 0.767190
0.825675 0.034976 0.718424
0.829492 0.034973 0.717152
0.024940 0.030187 0.879799
0.032120 0.026445 0.879952
0.000000 0.081699 0.880566
0.677631 0.035145 0.769543
0.826004 0.038678 0.716248
0.829541 0.038671 0.713831
0.003756 0.544021 0.802510
0.006314 0.540116 0.802941
0.006819 0.531247 0.804158
0.567607 0.549515 0.875006
0.850603 0.544489 0.812441
0.853934 0.542403 0.809725
0.005466 0.806111 0.791574
0.008002 0.806086 0.791539
0.011612 0.805504 0.791580
0.393984 0.848497 0.833934
0.819557 0.875996 0.865823
0.885918 0.880067 0.865478
0.007924 0.866917 0.800857
0.010448 0.866924 0.800128
0.000000 0.866927 0.799294
0.303649 0.902078 0.834428
0.814309 0.943046 0.878907
0.895552 0.945348 0.879405
0.105688 -0.182669 0.905426
0.108320 -0.182667 0.905427
0.266794 -0.182802 0.903658
0.704402 -0.186400 0.796144
0.826450 -0.195459 0.732892
0.827618 -0.196744 0.732790
0.030678 0.025476 0.903851
0.042168 0.025130 0.903851
0.207842 0.024372 0.902532
0.693969 0.033213 0.800328
0.825723 0.034867 0.738039
0.829447 0.034872 0.738573
0.026373 0.039363 0.903851
0.028901 0.029509 0.903851
0.000000 0.092476 0.903868
0.682876 0.036546 0.809601
0.825944 0.038553 0.737907
0.829447 0.038548 0.738495
0.005845 0.523445 0.842157
0.008420 0.517773 0.842403
0.009945 0.505803 0.843246
0.565980 0.524497 0.912492
0.847066 0.512967 0.843829
0.852377 0.508346 0.842796
0.005675 0.797671 0.837912
0.008146 0.796690 0.837680
0.011618 0.794416 0.837199
0.379294 0.835262 0.881037
0.813596 0.865661 0.914815
0.875888 0.868408 0.913176
0.009365 0.856689 0.854809
0.011880 0.856703 0.854839
0.015549 0.856785 0.855078
0.297249 0.888216 0.886458
0.809552 0.925774 0.927279
0.889648 0.930773 0.933612
