assets/luts/LUTs/FLASH.CUBE
LUT_3D_SIZE 16
0.000000 0.000000 0.000000
0.000000 0.000000 0.000000
0.000968 0.000258 0.000000
0.035693 0.007610 0.000000
0.087927 0.014205 0.000000
0.176599 0.013650 0.000000
0.306548 0.024580 0.000000
0.431903 0.029793 0.000000
0.549393 0.015168 0.011752
0.665228 0.021544 0.047092
0.781974 0.031526 0.070728
0.859864 0.037330 0.088988
0.860290 0.034865 0.099511
0.862076 0.033565 0.105047
0.863432 0.032942 0.107617
0.864872 0.032700 0.108638
0.000000 0.000000 0.000000
0.000000 0.000000 0.000000
0.000000 0.000000 0.000000
0.033284 0.012579 0.000000
0.086399 0.023566 0.000000
0.176729 0.030660 0.000000
0.306260 0.031972 0.000000
0.431438 0.032834 0.000000
0.549077 0.024415 0.011023
0.664973 0.022282 0.043449
0.781649 0.032255 0.068574
0.859729 0.038106 0.087375
0.860271 0.035623 0.098166
0.861960 0.034318 0.103832
0.863596 0.033704 0.106448
0.864897 0.033446 0.107501
0.000000 0.000000 0.000000
0.000000 0.000000 0.000000
0.000000 0.000000 0.000000
0.026851 0.017212 0.000000
0.081114 0.037731 0.000000
0.173062 0.053772 0.000000
0.305962 0.065123 0.000000
0.432281 0.054095 0.000000
0.548257 0.033475 0.009274
0.664332 0.023646 0.033655
0.781183 0.033794 0.063354
0.859589 0.039660 0.083672
0.859919 0.037220 0.095058
0.861942 0.035886 0.101035
0.863293 0.035269 0.103766
0.864719 0.034990 0.104886
0.001893 0.019882 0.000000
0.003504 0.019718 0.000000
0.011481 0.019352 0.000000
0.018412 0.018040 0.000000
0.072829 0.047376 0.000000
0.165958 0.078181 0.000000
0.300494 0.099580 0.000000
0.429776 0.102358 0.000000
0.550084 0.081163 0.006791
0.663186 0.024506 0.022544
0.780060 0.034401 0.056140
0.859256 0.041251 0.077775
0.859675 0.039233 0.089939
0.861522 0.037894 0.096411
0.862967 0.037235 0.099411
0.864389 0.036952 0.100611
0.009777 0.063614 0.000000
0.009891 0.063486 0.000000
0.015928 0.063119 0.000000
0.036372 0.062783 0.000000
0.060735 0.059053 0.000000
0.153040 0.096182 0.000000
0.290906 0.138964 0.000000
0.419909 0.155761 0.000000
0.541730 0.156112 0.000097
0.663222 0.140740 0.016626
0.782681 0.103284 0.035988
0.859695 0.042219 0.066919
0.859019 0.035576 0.086386
0.860828 0.035275 0.092371
0.862419 0.035182 0.095077
0.863630 0.035204 0.096224
0.016877 0.140235 0.000000
0.017551 0.140130 0.000000
0.018015 0.139848 0.000000
0.025362 0.139318 0.000000
0.073041 0.138338 0.000000
0.133971 0.128615 0.000000
0.277797 0.170707 0.000000
0.407781 0.209203 0.000000
0.526049 0.231112 0.000000
0.643596 0.241339 0.000129
0.763538 0.243809 0.018500
0.852968 0.229652 0.036610
0.858816 0.207717 0.045175
0.862293 0.190829 0.049869
0.863960 0.179749 0.052037
0.865575 0.171891 0.053145
0.021618 0.263249 0.000000
0.022716 0.263195 0.000000
0.024667 0.263053 0.000000
0.024714 0.262830 0.000000
0.026383 0.262333 0.000000
0.127776 0.262762 0.000000
0.254772 0.240692 0.000000
0.392948 0.256295 0.000000
0.515096 0.286547 0.000000
0.630662 0.311804 0.000000
0.744555 0.334281 0.000000
0.832375 0.349227 0.007959
0.833199 0.346043 0.012044
0.835429 0.343776 0.015061
0.837371 0.341886 0.017118
0.839283 0.339922 0.018650
0.024776 0.382797 0.000000
0.026120 0.382722 0.000000
0.028620 0.382684 0.000000
0.030922 0.382496 0.000000
0.028438 0.382200 0.000000
0.038262 0.381665 0.000000
0.248285 0.390679 0.000000
0.368169 0.345696 0.000000
0.493006 0.354545 0.000000
0.616711 0.371969 0.000000
0.733340 0.397430 0.000000
0.831079 0.417992 0.005067
0.831486 0.416403 0.004891
0.832474 0.415128 0.004768
0.833867 0.413955 0.004696
0.835012 0.412313 0.004638
0.027046 0.499550 0.000000
0.028631 0.499505 0.000000
0.031480 0.499488 0.000000
0.034220 0.499351 0.000000
0.036371 0.499173 0.000000
0.005274 0.498631 0.000000
0.106927 0.500814 0.000000
0.399351 0.516709 0.000000
0.468357 0.440972 0.000000
0.590095 0.449554 0.000000
0.715834 0.458623 0.000000
0.819211 0.479784 0.004371
0.831877 0.482258 0.005135
0.832595 0.481607 0.005100
0.834006 0.480658 0.005100
0.835188 0.479088 0.005099
0.029241 0.612481 0.000000
0.030975 0.612488 0.000000
0.034124 0.612443 0.000000
0.037072 0.612380 0.000000
0.039858 0.612281 0.000000
0.040396 0.611781 0.000000
0.000000 0.610689 0.062174
0.308379 0.627488 0.000000
0.493754 0.591214 0.000000
0.566551 0.536927 0.000000
0.685497 0.540064 0.000000
0.797243 0.546043 0.002628
0.831540 0.547261 0.005043
0.831872 0.546721 0.004983
0.833151 0.545606 0.004995
0.834767 0.543359 0.005029
0.031092 0.725021 0.000153
0.033008 0.725001 0.000153
0.036439 0.725009 0.000153
0.039683 0.724854 0.000153
0.042687 0.724587 0.000129
0.045446 0.724442 0.000129
0.021347 0.723666 0.000129
0.095897 0.725798 0.000582
0.480370 0.753411 0.005334
0.591237 0.692057 0.000000
0.663460 0.638989 0.000000
0.764375 0.631771 0.000097
0.824257 0.633874 0.003798
0.825289 0.633770 0.003783
0.826430 0.632526 0.003792
0.827811 0.629829 0.003827
0.034245 0.823173 0.007233
0.036182 0.823184 0.007234
0.039692 0.823204 0.007230
0.043025 0.823092 0.007225
0.046118 0.822881 0.007220
0.048988 0.822553 0.007190
0.050055 0.822191 0.007157
0.000000 0.820597 0.077280
0.375370 0.831704 0.009062
0.626124 0.840003 0.010630
0.684504 0.776312 0.000129
0.748343 0.728336 0.000097
0.807193 0.715967 0.002021
0.820207 0.716136 0.002863
0.821150 0.715236 0.002864
0.822511 0.712983 0.002884
0.035475 0.854659 0.009465
0.037414 0.854660 0.009465
0.040914 0.854662 0.009464
0.044259 0.854667 0.009464
0.047371 0.854676 0.009465
0.050271 0.854690 0.009466
0.053011 0.854679 0.009468
0.004215 0.854481 0.037415
0.221998 0.858705 0.010144
0.601798 0.875022 0.013062
0.694998 0.837100 0.006236
0.751799 0.787007 0.001501
0.796872 0.761068 0.002199
0.817954 0.752140 0.002466
0.819036 0.752250 0.002462
0.820443 0.751872 0.002466
0.035440 0.855181 0.009400
0.037382 0.855181 0.009400
0.040883 0.855181 0.009400
0.044229 0.855181 0.009400
0.047349 0.855181 0.009400
0.050252 0.855181 0.009400
0.053001 0.855181 0.009400
0.040216 0.855046 0.009380
0.129072 0.857241 0.009752
0.572859 0.875227 0.012923
0.691036 0.843549 0.007273
0.744283 0.792385 0.001221
0.789540 0.765155 0.002122
0.817302 0.753021 0.002460
0.819142 0.752753 0.002466
0.820468 0.752869 0.002465
0.035446 0.856297 0.009400
0.037387 0.856297 0.009400
0.040884 0.856297 0.009400
0.044226 0.856297 0.009400
0.047347 0.856297 0.009400
0.050247 0.856297 0.009400
0.052995 0.856297 0.009400
0.047493 0.856221 0.009388
0.105505 0.857202 0.009541
0.553548 0.875763 0.012820
0.689097 0.849513 0.008114
0.739927 0.796732 0.001177
0.785095 0.768169 0.002071
0.814615 0.755298 0.002413
0.819212 0.753955 0.002467
0.820472 0.754078 0.002465
0.036073 0.869234 0.010286
0.037380 0.869234 0.010289
0.039232 0.869235 0.010295
0.038763 0.869235 0.010302
0.030103 0.869234 0.010270
0.003986 0.869225 0.040188
0.000000 0.869261 0.072885
-0.061935 0.869245 0.089569
-0.065669 0.869631 0.089224
0.535055 0.888306 0.011880
0.684616 0.865251 0.006982
0.734544 0.811493 0.000000
0.779479 0.780332 0.000000
0.810277 0.766801 0.000000
0.817783 0.764302 0.000000
0.819036 0.764475 0.000000
0.000000 -0.198713 0.000000
0.000000 -0.198713 0.000000
0.000129 -0.198708 0.000086
0.036281 -0.198827 0.015620
0.089896 -0.198901 0.026369
0.180302 -0.197817 0.042225
0.311801 -0.194639 0.061431
0.438755 -0.191029 0.077834
0.556183 -0.188886 0.093381
0.670402 -0.186167 0.109838
0.785971 -0.176952 0.127159
0.863438 -0.163960 0.140587
0.863275 -0.156462 0.145255
0.864356 -0.152488 0.147994
0.865509 -0.151151 0.149319
0.866990 -0.151047 0.149845
0.000000 0.000000 0.000000
0.000000 0.000000 0.000000
0.000000 0.000000 0.000000
0.033369 0.006910 0.000000
0.086859 0.014605 0.000000
0.176849 0.013224 0.000000
0.306081 0.000000 0.020793
0.431892 0.000837 0.020794
0.549511 0.011159 0.038383
0.665594 0.020655 0.058985
0.782268 0.030817 0.078408
0.860313 0.036523 0.095071
0.860727 0.034179 0.104517
0.862405 0.032923 0.109619
0.864037 0.032340 0.112003
0.865327 0.032098 0.112962
0.000000 0.000000 0.000000
0.000000 0.000000 0.000000
0.000000 0.000000 0.000000
0.026829 0.016069 0.000000
0.081710 0.034904 0.000000
0.174756 0.048576 0.000000
0.307375 0.057342 0.000000
0.432171 0.039595 0.000968
0.548668 0.011946 0.029874
0.664763 0.022152 0.052949
0.781799 0.032430 0.074082
0.860039 0.038247 0.091595
0.860467 0.035852 0.101609
0.862413 0.034589 0.106956
0.863860 0.033989 0.109441
0.865074 0.033742 0.110450
0.000000 0.019048 0.006239
0.000000 0.019028 0.005723
0.009933 0.018534 0.000000
0.017963 0.017581 0.000000
0.072954 0.046617 0.000000
0.167461 0.076064 0.000000
0.302290 0.095474 0.000000
0.432062 0.096353 0.000000
0.551498 0.070032 0.012434
0.663596 0.021492 0.047094
0.780587 0.033066 0.068561
0.859721 0.039995 0.086401
0.860313 0.037845 0.097067
0.862002 0.036564 0.102805
0.863574 0.035952 0.105459
0.864950 0.035683 0.106569
0.000000 0.062883 0.006814
0.000000 0.062880 0.002571
0.012736 0.062515 0.000000
0.035046 0.062057 0.000000
0.060331 0.058620 0.000000
0.153518 0.095840 0.000000
0.292204 0.137305 0.000000
0.421934 0.152737 0.000000
0.544052 0.151755 0.005395
0.665913 0.134246 0.022556
0.784256 0.092993 0.041344
0.859966 0.039714 0.078996
0.859506 0.034395 0.093848
0.861505 0.034039 0.099179
0.863016 0.034013 0.101543
0.864089 0.034067 0.102507
0.016060 0.139420 0.000000
0.016978 0.139486 0.000000
0.017585 0.139199 0.000000
0.024360 0.138677 0.000000
0.072215 0.137654 0.000000
0.133472 0.127928 0.000000
0.277747 0.170220 0.000000
0.407921 0.208604 0.000000
0.527151 0.230202 0.000000
0.645388 0.239054 0.005255
0.766021 0.239853 0.024614
0.855830 0.224804 0.042488
0.861602 0.201981 0.050547
0.864021 0.183859 0.054701
0.865548 0.172265 0.056675
0.867028 0.164069 0.057671
0.020541 0.262828 0.000000
0.021684 0.262888 0.000000
0.023876 0.262697 0.000000
0.024033 0.262466 0.000000
0.024810 0.261985 0.000000
0.126775 0.262381 0.000000
0.254529 0.240300 0.000000
0.392979 0.255819 0.000000
0.515101 0.286081 0.000000
0.630676 0.311233 0.000000
0.744637 0.333649 0.000000
0.833347 0.348634 0.011331
0.833968 0.345323 0.015439
0.836627 0.342949 0.019507
0.839023 0.341071 0.022557
0.841039 0.339004 0.024506
0.023417 0.382473 0.000000
0.024846 0.382558 0.000000
0.027660 0.382500 0.000000
0.030106 0.382340 0.000000
0.027675 0.382042 0.000000
0.035376 0.381487 0.000000
0.247520 0.390603 0.000000
0.368099 0.345590 0.000000
0.493074 0.354171 0.000000
0.616725 0.371509 0.000000
0.733370 0.396975 0.000000
0.830910 0.417418 0.005394
0.831446 0.415722 0.005194
0.832462 0.414478 0.005054
0.833797 0.413342 0.004951
0.834934 0.411676 0.004892
0.025472 0.499331 0.000000
0.027120 0.499384 0.000000
0.030374 0.499354 0.000000
0.033296 0.499207 0.000000
0.035568 0.499035 0.000000
0.000000 0.498494 0.007375
0.103924 0.500532 0.000000
0.399047 0.516897 0.000000
0.468249 0.440751 0.000000
0.590135 0.449238 0.000000
0.715825 0.458189 0.000000
0.819323 0.479560 0.004828
0.831874 0.481797 0.005518
0.832593 0.481170 0.005493
0.834004 0.480242 0.005491
0.835187 0.478644 0.005491
0.027441 0.612381 0.000000
0.029297 0.612428 0.000000
0.032910 0.612356 0.000000
0.036094 0.612347 0.000000
0.038943 0.612144 0.000000
0.039637 0.611752 0.000000
0.000000 0.610598 0.062323
0.306923 0.627265 0.000000
0.493477 0.591234 0.000000
0.566504 0.536811 0.000000
0.685497 0.539879 0.000000
0.797285 0.545792 0.003051
0.831558 0.546809 0.005434
0.831973 0.546212 0.005383
0.833210 0.545140 0.005393
0.834829 0.542857 0.005422
0.029123 0.724857 0.000779
0.031188 0.724941 0.000617
0.035124 0.724800 0.000617
0.038562 0.724768 0.000629
0.041699 0.724596 0.000608
0.044565 0.724434 0.000589
0.019805 0.723458 0.000451
0.091550 0.725644 0.000937
0.479727 0.753353 0.005757
0.591116 0.692015 0.000000
0.663459 0.638993 0.000000
0.764429 0.631594 0.000129
0.824286 0.633602 0.004209
0.825327 0.633382 0.004196
0.826443 0.632085 0.004205
0.827929 0.629457 0.004238
0.032339 0.823094 0.007774
0.034359 0.823070 0.007616
0.038370 0.823067 0.007617
0.041906 0.822962 0.007610
0.045143 0.822745 0.007595
0.048121 0.822649 0.007590
0.049291 0.822067 0.007543
0.000000 0.820514 0.077345
0.373834 0.831459 0.009452
0.625934 0.840005 0.011067
0.684389 0.776307 0.000153
0.748440 0.728499 0.000129
0.807190 0.715743 0.002370
0.820224 0.716001 0.003248
0.821166 0.714998 0.003234
0.822539 0.712797 0.003261
0.033611 0.854666 0.010020
0.035610 0.854666 0.009858
0.039613 0.854668 0.009865
0.043155 0.854671 0.009865
0.046408 0.854677 0.009865
0.049397 0.854689 0.009866
0.052218 0.854681 0.009869
0.004540 0.854494 0.037754
0.218623 0.858461 0.010535
0.601064 0.875040 0.013495
0.694992 0.837224 0.006657
0.751679 0.787052 0.001936
0.797056 0.761018 0.002642
0.817953 0.752114 0.002922
0.819039 0.752201 0.002914
0.820444 0.751842 0.002919
0.033572 0.855181 0.009957
0.035576 0.855181 0.009794
0.039583 0.855181 0.009800
0.043131 0.855181 0.009800
0.046385 0.855181 0.009800
0.049378 0.855181 0.009800
0.052200 0.855181 0.009800
0.039788 0.855053 0.009777
0.124261 0.857084 0.010172
0.571789 0.875149 0.013350
0.690894 0.843607 0.007710
0.744125 0.792486 0.001757
0.789439 0.765214 0.002533
0.817301 0.753018 0.002916
0.819143 0.752749 0.002923
0.820468 0.752864 0.002922
0.033581 0.856297 0.009956
0.035582 0.856297 0.009794
0.039583 0.856297 0.009800
0.043129 0.856297 0.009800
0.046379 0.856297 0.009800
0.049367 0.856297 0.009800
0.052194 0.856297 0.009800
0.047013 0.856225 0.009787
0.100357 0.857198 0.009939
0.552491 0.875935 0.013242
0.689065 0.849403 0.008550
0.740025 0.796843 0.001654
0.785079 0.768329 0.002452
0.814603 0.755306 0.002880
0.819213 0.753951 0.002923
0.820472 0.754073 0.002922
0.035351 0.869237 0.010510
0.036621 0.869237 0.010383
0.038868 0.869237 0.010414
0.038479 0.869238 0.010413
0.029615 0.869238 0.010411
0.003989 0.869230 0.040495
0.000000 0.869213 0.073082
-0.062237 0.869255 0.089537
-0.073683 0.869534 0.089144
0.533790 0.888276 0.011777
0.684340 0.865511 0.006853
0.734448 0.811644 0.000000
0.779312 0.780236 0.000000
0.810213 0.766891 0.000000
0.817701 0.764291 0.000000
0.819085 0.764505 0.000000
0.000000 -0.199148 0.000000
0.000000 -0.199148 0.000000
0.000000 -0.199086 0.000000
0.033635 -0.199201 0.020222
0.090282 -0.199447 0.036308
0.179536 -0.198710 0.052923
0.312281 -0.195595 0.074015
0.439848 -0.192243 0.090995
0.557433 -0.190260 0.106080
0.671855 -0.187733 0.121488
0.787559 -0.178939 0.137769
0.864897 -0.166152 0.150327
0.864846 -0.158862 0.154446
0.865987 -0.154991 0.156893
0.867241 -0.153711 0.158077
0.868725 -0.153596 0.158508
0.000000 0.000000 0.000000
0.000000 0.000000 0.000000
0.000000 0.000000 0.000000
0.031386 0.000000 0.016138
0.086900 0.000000 0.028934
0.175424 0.000000 0.042533
0.306532 0.000000 0.055123
0.432889 0.000000 0.063499
0.550852 0.006602 0.074075
0.666967 0.016285 0.087010
0.783805 0.026385 0.101534
0.861915 0.032331 0.114480
0.862505 0.029790 0.121825
0.864124 0.028398 0.125958
0.865638 0.027727 0.127906
0.867107 0.027472 0.128632
0.000000 0.000000 0.000000
0.000000 0.000000 0.000000
0.000000 0.000000 0.000000
0.026451 0.005339 0.000000
0.082568 0.015341 0.000000
0.175689 0.019359 0.000000
0.308129 0.000000 0.024067
0.432293 0.000129 0.053861
0.549902 0.008159 0.066863
0.666241 0.018315 0.079873
0.783146 0.028614 0.095009
0.861514 0.034506 0.108742
0.861972 0.032142 0.116505
0.863578 0.030809 0.120889
0.865173 0.030084 0.123019
0.866709 0.029806 0.123878
0.000000 0.016412 0.010325
0.000000 0.016324 0.010240
0.000000 0.016321 0.005916
0.016588 0.016106 0.000000
0.073382 0.042794 0.000000
0.169057 0.066719 0.000000
0.307895 0.080082 0.000097
0.436373 0.072463 0.013339
0.551405 0.021611 0.041448
0.664897 0.017952 0.076781
0.781950 0.029662 0.091085
0.861082 0.036340 0.104866
0.861510 0.034249 0.112878
0.863326 0.032946 0.117464
0.864951 0.032257 0.119685
0.866227 0.031955 0.120600
0.000000 0.061128 0.023382
0.000000 0.061079 0.023047
0.000000 0.061030 0.020491
0.028239 0.060509 0.000000
0.058495 0.056995 0.000000
0.154579 0.094483 0.000000
0.296964 0.130796 0.000000
0.428335 0.142179 0.006799
0.551315 0.137234 0.021277
0.669959 0.111617 0.036955
0.785251 0.052804 0.054101
0.860698 0.033204 0.102001
0.860724 0.031346 0.110160
0.862541 0.031128 0.114199
0.864025 0.031128 0.116089
0.865587 0.031164 0.116875
0.000000 0.137971 0.020907
0.000000 0.137942 0.019537
0.000000 0.137835 0.015196
0.001254 0.137307 0.000000
0.068496 0.136276 0.000000
0.132444 0.126627 0.000000
0.280167 0.169523 0.000000
0.411619 0.207036 0.000000
0.532091 0.225314 0.005643
0.651652 0.231227 0.021679
0.773588 0.227807 0.040482
0.863583 0.209330 0.056653
0.867068 0.182819 0.062939
0.868233 0.161346 0.066194
0.869462 0.147366 0.067815
0.870733 0.137831 0.068604
0.018741 0.261753 0.000000
0.019837 0.261750 0.000000
0.022220 0.261777 0.000000
0.022699 0.261548 0.000000
0.020123 0.261059 0.000000
0.123757 0.261217 0.000000
0.253773 0.239184 0.000000
0.393011 0.254471 0.000000
0.515084 0.284674 0.000000
0.631524 0.309551 0.000000
0.747368 0.331915 0.009101
0.836585 0.346569 0.023270
0.838762 0.342973 0.030973
0.841882 0.340193 0.036085
0.844218 0.337885 0.038947
0.846259 0.335633 0.040695
0.020295 0.382006 0.000000
0.021802 0.382010 0.000000
0.025069 0.382035 0.000000
0.028037 0.381781 0.000000
0.025833 0.381472 0.000000
0.024193 0.380917 0.000000
0.245127 0.390223 0.000000
0.367828 0.344987 0.000000
0.493216 0.353105 0.000000
0.616853 0.370239 0.000000
0.733443 0.395620 0.000129
0.830920 0.415765 0.006007
0.831279 0.413825 0.005633
0.832294 0.412467 0.005407
0.833665 0.411200 0.005283
0.834803 0.409538 0.005226
0.021797 0.498986 0.000000
0.023544 0.498955 0.000000
0.027376 0.498924 0.000000
0.030882 0.498884 0.000000
0.033580 0.498704 0.000000
0.000000 0.498187 0.012964
0.093799 0.499738 0.000000
0.398408 0.517457 0.000000
0.468139 0.440520 0.000000
0.590247 0.448430 0.000000
0.716139 0.457102 0.000000
0.819300 0.478454 0.005801
0.831874 0.480534 0.006496
0.832592 0.479751 0.006475
0.834000 0.478790 0.006474
0.835183 0.477094 0.006473
0.023338 0.612051 0.000000
0.025329 0.612054 0.000000
0.029538 0.612105 0.000000
0.033442 0.612041 0.000000
0.036718 0.611780 0.000000
0.037772 0.611506 0.000000
0.000000 0.610309 0.062469
0.302231 0.626378 0.000000
0.492928 0.591296 0.000000
0.566370 0.536490 0.000000
0.685736 0.539272 0.000000
0.797434 0.544820 0.004036
0.831541 0.545646 0.006435
0.832110 0.544982 0.006379
0.833327 0.543746 0.006388
0.834902 0.541424 0.006427
0.024575 0.724694 0.001702
0.026752 0.724706 0.001645
0.031426 0.724709 0.001362
0.035701 0.724648 0.001364
0.039264 0.724428 0.001354
0.042417 0.724191 0.001319
0.016005 0.723484 0.001217
0.076542 0.725001 0.001718
0.477652 0.753472 0.006744
0.590613 0.692041 0.000000
0.663349 0.638706 0.000000
0.764386 0.631007 0.001005
0.824369 0.632861 0.005192
0.825135 0.632387 0.005184
0.826558 0.630956 0.005191
0.828016 0.628164 0.005226
0.028011 0.822738 0.008865
0.030114 0.822744 0.008805
0.034721 0.822713 0.008585
0.039059 0.822652 0.008580
0.042691 0.822468 0.008578
0.045957 0.822458 0.008559
0.047489 0.821809 0.008513
0.000000 0.820457 0.077089
0.368444 0.830839 0.010338
0.625330 0.840294 0.012109
0.683963 0.776207 0.001164
0.748273 0.728076 0.001045
0.807153 0.715352 0.003328
0.820291 0.715472 0.004231
0.821235 0.714505 0.004221
0.822635 0.712074 0.004250
0.029433 0.854680 0.011136
0.031482 0.854680 0.011079
0.036047 0.854680 0.010829
0.040349 0.854683 0.010840
0.044002 0.854689 0.010841
0.047268 0.854700 0.010841
0.050273 0.854690 0.010830
0.005688 0.854520 0.037561
0.207193 0.858009 0.011423
0.599084 0.875073 0.014461
0.694592 0.837490 0.007687
0.751423 0.787199 0.002874
0.796977 0.761026 0.003596
0.817946 0.752094 0.003882
0.819043 0.752124 0.003873
0.820455 0.751771 0.003879
0.029381 0.855181 0.011065
0.031435 0.855181 0.011013
0.036009 0.855181 0.010764
0.040318 0.855181 0.010767
0.043970 0.855181 0.010767
0.047242 0.855181 0.010767
0.050259 0.855181 0.010767
0.039488 0.855069 0.010757
0.106353 0.856665 0.011087
0.568993 0.875115 0.014320
0.690427 0.844142 0.008771
0.743985 0.792650 0.002669
0.789511 0.765285 0.003469
0.817297 0.753011 0.003873
0.819144 0.752739 0.003879
0.820468 0.752855 0.003879
0.029395 0.856297 0.011070
0.031446 0.856297 0.011010
0.036016 0.856297 0.010765
0.040314 0.856297 0.010767
0.043965 0.856297 0.010767
0.047229 0.856297 0.010767
0.050246 0.856297 0.010767
0.046300 0.856235 0.010765
0.080869 0.856908 0.010887
0.549196 0.875829 0.014188
0.688517 0.850103 0.009626
0.739615 0.797158 0.002569
0.784778 0.768402 0.003396
0.814410 0.755360 0.003832
0.819217 0.753941 0.003880
0.820472 0.754062 0.003879
0.034194 0.869239 0.010864
0.035187 0.869239 0.010813
0.037432 0.869238 0.010656
0.037540 0.869238 0.010739
0.028468 0.869238 0.010762
0.004003 0.869234 0.041542
0.000000 0.869221 0.073708
-0.062285 0.869213 0.089773
-0.092742 0.869602 0.089279
0.530175 0.888095 0.011897
0.683931 0.866252 0.007019
0.733668 0.812181 0.000000
0.778865 0.780609 0.000000
0.810216 0.766976 0.000000
0.817684 0.764322 0.000000
0.818967 0.764490 0.000000
0.008130 -0.199336 0.017184
0.009881 -0.199349 0.017157
0.013068 -0.199299 0.015417
0.029717 -0.199219 0.024952
0.085859 -0.199346 0.048935
0.179234 -0.199214 0.067686
0.312527 -0.196845 0.089934
0.441224 -0.193993 0.107670
0.559283 -0.192363 0.122591
0.673991 -0.190279 0.137389
0.789975 -0.182173 0.152890
0.867959 -0.170085 0.164681
0.867666 -0.162865 0.168148
0.868685 -0.159050 0.170211
0.869741 -0.157754 0.171183
0.871112 -0.157616 0.171458
0.000722 0.000000 0.016468
0.006505 0.000000 0.016608
0.012005 0.000000 0.015314
0.027439 0.000000 0.022835
0.082350 0.000000 0.045037
0.174385 0.000000 0.062298
0.306834 0.000000 0.079220
0.434248 0.000000 0.091384
0.552688 0.000129 0.102378
0.669088 0.009025 0.114221
0.786341 0.019087 0.126937
0.864729 0.024803 0.138018
0.865149 0.022232 0.143507
0.866794 0.020806 0.146694
0.868317 0.020128 0.148153
0.869534 0.019943 0.148602
0.000000 0.008958 0.014751
0.000000 0.008543 0.014933
0.007321 0.000000 0.015198
0.023449 0.000000 0.019851
0.079761 0.000000 0.040111
0.174639 0.000000 0.054728
0.307160 0.000000 0.072881
0.433256 0.000000 0.088007
0.551862 0.001378 0.098383
0.668384 0.011129 0.109890
0.785545 0.021330 0.122643
0.864254 0.027036 0.133965
0.864541 0.024558 0.139670
0.866333 0.023160 0.142978
0.867754 0.022504 0.144498
0.869253 0.022288 0.145003
0.000000 0.011514 0.011518
0.000000 0.011523 0.011553
0.000000 0.012379 0.012544
0.015176 0.012199 0.013721
0.073102 0.014963 0.011931
0.172354 0.032503 0.007419
0.311749 0.023594 0.020338
0.437372 0.017603 0.060932
0.551398 0.006647 0.089743
0.666905 0.012323 0.103713
0.784331 0.023919 0.115686
0.863490 0.030209 0.127060
0.863897 0.027902 0.133116
0.865712 0.026560 0.136657
0.867202 0.025893 0.138373
0.868483 0.025641 0.139063
0.000000 0.056962 0.036700
0.000000 0.056891 0.036537
0.000000 0.056871 0.035844
0.000000 0.057628 0.026196
0.056510 0.055171 0.008458
0.157353 0.089443 0.002966
0.305523 0.114839 0.015759
0.439755 0.120525 0.029764
0.560992 0.108043 0.042456
0.673424 0.054993 0.055064
0.785078 0.034529 0.104596
0.862524 0.026961 0.125262
0.862995 0.026066 0.130701
0.864904 0.025867 0.133771
0.866454 0.025857 0.135220
0.867694 0.025887 0.135814
0.000000 0.134813 0.049412
0.000000 0.134826 0.048909
0.000000 0.134789 0.047500
0.000000 0.134823 0.045339
0.054871 0.134600 0.000000
0.130747 0.125425 0.000000
0.285802 0.168170 0.003613
0.419912 0.202706 0.017344
0.542160 0.214893 0.030380
0.662680 0.216185 0.044898
0.785906 0.205692 0.061432
0.875166 0.181260 0.075233
0.873186 0.146001 0.079303
0.873286 0.115541 0.081710
0.873700 0.093549 0.082889
0.874466 0.080761 0.086632
0.000000 0.261886 0.030322
0.000000 0.261750 0.028794
0.000000 0.261404 0.023383
0.000000 0.260852 0.013444
0.000000 0.260411 0.022985
0.117644 0.259986 0.000000
0.252614 0.237783 0.000000
0.395474 0.253314 0.000000
0.519791 0.283490 0.001785
0.637631 0.307742 0.015326
0.754838 0.329366 0.032628
0.844842 0.343432 0.048438
0.846949 0.339466 0.055075
0.850731 0.335095 0.059215
0.853337 0.332102 0.061417
0.855283 0.329532 0.062728
0.017146 0.380828 0.000000
0.018866 0.380837 0.000000
0.022325 0.380819 0.000000
0.025616 0.380898 0.000000
0.023937 0.380639 0.000000
0.000000 0.380038 0.023589
