assets/luts/LUTs/FREEDOM.CUBE
LUT_3D_SIZE 16
0.000000 0.000000 0.000000
0.023718 -0.000271 -0.000271
0.053543 -0.000542 -0.000542
0.095592 -0.000813 -0.000813
0.155982 -0.001083 -0.001083
0.240284 -0.001354 -0.001354
0.345787 -0.001625 -0.001625
0.462679 -0.001896 -0.001896
0.581358 -0.002167 -0.002167
0.691823 -0.002438 -0.002438
0.784385 -0.002709 -0.002709
0.854879 -0.002980 -0.002980
0.907037 -0.003250 -0.003250
0.945717 -0.003521 -0.003521
0.975150 -0.003792 -0.003792
1.000034 -0.004063 -0.004063
-0.000449 0.023718 -0.000449
0.023718 0.023718 -0.000500
0.053543 0.026772 -0.000665
0.095592 0.031868 -0.000889
0.155982 0.038993 -0.001136
0.240284 0.048057 -0.001393
0.345787 0.057631 -0.001656
0.462679 0.066094 -0.001921
0.581358 0.072664 -0.002187
0.691823 0.076864 -0.002455
0.784385 0.078428 -0.002724
0.854879 0.077693 -0.002993
0.907037 0.075570 -0.003262
0.945717 0.072718 -0.003532
0.975150 0.069633 -0.003801
1.000034 0.066634 -0.004071
-0.000898 0.053543 -0.000898
0.026771 0.053543 -0.000919
0.053543 0.053543 -0.001001
0.095592 0.063734 -0.001144
0.155982 0.077990 -0.001331
0.240284 0.096122 -0.001546
0.345786 0.115266 -0.001778
0.462679 0.132191 -0.002022
0.581358 0.145339 -0.002272
0.691823 0.153744 -0.002528
0.784384 0.156874 -0.002787
0.854879 0.155416 -0.003048
0.907037 0.151173 -0.003311
0.945717 0.145480 -0.003576
0.975150 0.139310 -0.003841
1.000034 0.133320 -0.004108
-0.001347 0.095591 -0.001347
0.031867 0.095591 -0.001359
0.063733 0.095591 -0.001408
0.095591 0.095591 -0.001501
0.155982 0.116978 -0.001635
0.240284 0.144168 -0.001803
0.345786 0.172892 -0.001996
0.462679 0.198298 -0.002207
0.581358 0.218002 -0.002432
0.691823 0.230591 -0.002667
0.784384 0.235289 -0.002909
0.854879 0.233098 -0.003157
0.907037 0.226762 -0.003408
0.945716 0.218222 -0.003664
0.975150 0.208966 -0.003921
1.000033 0.199994 -0.004180
-0.001796 0.155981 -0.001796
0.038995 0.155981 -0.001804
0.077990 0.155981 -0.001838
0.116978 0.155981 -0.001903
0.155981 0.155981 -0.002002
0.240283 0.192230 -0.002131
0.345797 0.230531 -0.002287
0.462678 0.264395 -0.002465
0.581358 0.290687 -0.002661
0.691823 0.307475 -0.002871
0.784384 0.313759 -0.003091
0.854879 0.310846 -0.003320
0.907037 0.302347 -0.003556
0.945716 0.290960 -0.003798
0.975150 0.278648 -0.004043
1.000033 0.266656 -0.004292
-0.002245 0.240283 -0.002245
0.048051 0.240283 -0.002251
0.096119 0.240283 -0.002276
0.144167 0.240283 -0.002325
0.192230 0.240283 -0.002400
0.240283 0.240283 -0.002502
0.345797 0.288153 -0.002629
0.462678 0.330475 -0.002777
0.581357 0.363350 -0.002945
0.691823 0.384331 -0.003129
0.784384 0.392203 -0.003326
0.854879 0.388538 -0.003535
0.907037 0.377969 -0.003752
0.945716 0.363708 -0.003978
0.975150 0.348285 -0.004208
1.000033 0.333325 -0.004445
-0.002694 0.345796 -0.002694
0.057623 0.345796 -0.002699
0.115262 0.345796 -0.002718
0.172890 0.345796 -0.002756
0.230528 0.345796 -0.002816
0.288152 0.345796 -0.002898
0.345796 0.345796 -0.003003
0.462677 0.396563 -0.003127
0.581357 0.436006 -0.003271
0.691822 0.461220 -0.003431
0.784384 0.470603 -0.003606
0.854878 0.466229 -0.003793
0.907037 0.453519 -0.003991
0.945716 0.436458 -0.004199
0.975150 0.417948 -0.004414
1.000033 0.400002 -0.004637
-0.003143 0.462677 -0.003143
0.066084 0.462677 -0.003147
0.132184 0.462677 -0.003162
0.198294 0.462677 -0.003193
0.264393 0.462677 -0.003242
0.330474 0.462677 -0.003310
0.396598 0.462676 -0.003397
0.462676 0.462676 -0.003503
0.581356 0.508651 -0.003626
0.691822 0.538066 -0.003766
0.784383 0.549082 -0.003920
0.854878 0.543970 -0.004089
0.907037 0.529137 -0.004268
0.945716 0.509171 -0.004458
0.975150 0.487594 -0.004657
1.000033 0.466625 -0.004864
-0.003592 0.581356 -0.003592
0.072643 0.581356 -0.003595
0.145331 0.581356 -0.003608
0.217996 0.581356 -0.003634
0.290683 0.581356 -0.003675
0.363348 0.581356 -0.003732
0.436004 0.581356 -0.003806
0.508650 0.581356 -0.003897
0.581355 0.581355 -0.004003
0.691821 0.614973 -0.004126
0.784383 0.627510 -0.004263
0.854877 0.621701 -0.004413
0.907036 0.604768 -0.004575
0.945716 0.581939 -0.004748
0.975150 0.557279 -0.004931
1.000033 0.533314 -0.005123
-0.004041 0.691822 -0.004041
0.076836 0.691822 -0.004044
0.153733 0.691822 -0.004055
0.230607 0.691821 -0.004077
0.307498 0.691821 -0.004112
0.384328 0.691821 -0.004161
0.461219 0.691821 -0.004225
0.538064 0.691821 -0.004303
0.614972 0.691821 -0.004396
0.691821 0.691821 -0.004504
0.784383 0.706019 -0.004625
0.854877 0.699433 -0.004760
0.907036 0.680322 -0.004906
0.945716 0.654665 -0.005064
0.975150 0.626967 -0.005232
1.000033 0.600017 -0.005409
-0.004490 0.784383 -0.004490
0.078392 0.784383 -0.004492
0.156859 0.784383 -0.004502
0.235278 0.784383 -0.004521
0.313753 0.784383 -0.004551
0.392198 0.784383 -0.004594
0.470600 0.784383 -0.004650
0.549080 0.784382 -0.004718
0.627510 0.784382 -0.004800
0.706019 0.784382 -0.004896
0.784382 0.784382 -0.005005
0.854876 0.777084 -0.005125
0.907036 0.755928 -0.005258
0.945715 0.727414 -0.005401
0.975149 0.696593 -0.005555
1.000032 0.666654 -0.005718
-0.004940 0.854877 -0.004940
0.077649 0.854877 -0.004941
0.155390 0.854877 -0.004950
0.233109 0.854877 -0.004967
0.310838 0.854876 -0.004993
0.388532 0.854876 -0.005031
0.466226 0.854876 -0.005079
0.543967 0.854876 -0.005141
0.621700 0.854876 -0.005214
0.699432 0.854876 -0.005299
0.777083 0.854876 -0.005396
0.854876 0.854876 -0.005505
0.907035 0.831526 -0.005626
0.945715 0.800191 -0.005757
0.975149 0.766303 -0.005898
1.000032 0.733369 -0.006048
-0.005388 0.907036 -0.005388
0.075518 0.907036 -0.005390
0.151152 0.907036 -0.005397
0.226746 0.907036 -0.005412
0.302338 0.907036 -0.005436
0.377962 0.907036 -0.005469
0.453515 0.907036 -0.005512
0.529134 0.907035 -0.005567
0.604766 0.907035 -0.005632
0.680321 0.907035 -0.005709
0.755927 0.907035 -0.005797
0.831525 0.907035 -0.005896
0.907035 0.907035 -0.006005
0.945715 0.872916 -0.006125
0.975149 0.835889 -0.006255
1.000031 0.799989 -0.006393
-0.005838 0.945715 -0.005838
0.072653 0.945715 -0.005840
0.145451 0.945715 -0.005845
0.218204 0.945715 -0.005859
0.290970 0.945715 -0.005880
0.363701 0.945715 -0.005910
0.436453 0.945715 -0.005949
0.509167 0.945715 -0.005999
0.581937 0.945715 -0.006058
0.654664 0.945715 -0.006127
0.727412 0.945715 -0.006206
0.800190 0.945715 -0.006297
0.872916 0.945715 -0.006396
0.945715 0.945715 -0.006507
0.975149 0.905660 -0.006625
1.000031 0.866765 -0.006754
-0.006286 0.975149 -0.006286
0.069566 0.975149 -0.006288
0.139287 0.975149 -0.006293
0.208946 0.975149 -0.006305
0.278637 0.975149 -0.006325
0.348279 0.975149 -0.006351
0.417938 0.975149 -0.006387
0.487590 0.975149 -0.006431
0.557275 0.975149 -0.006485
0.626965 0.975149 -0.006548
0.696592 0.975149 -0.006620
0.766302 0.975149 -0.006703
0.835888 0.975148 -0.006795
0.905659 0.975148 -0.006896
0.975148 0.975148 -0.007006
1.000030 0.933251 -0.007125
-0.006735 1.000031 -0.006735
0.066552 1.000031 -0.006737
0.133291 1.000031 -0.006742
0.199971 1.000031 -0.006753
0.266644 1.000031 -0.006770
0.333317 1.000031 -0.006795
0.399993 1.000031 -0.006827
0.466619 1.000031 -0.006867
0.533309 1.000031 -0.006916
0.600015 1.000031 -0.006974
0.666652 1.000031 -0.007041
0.733367 1.000030 -0.007117
0.799988 1.000030 -0.007201
0.866764 1.000030 -0.007294
0.933251 1.000030 -0.007396
1.000030 1.000030 -0.007507
-0.000173 -0.000173 0.023718
0.023718 -0.000306 0.023718
0.053543 -0.000556 0.026772
0.095592 -0.000821 0.031868
0.155982 -0.001089 0.038994
0.240284 -0.001358 0.048057
0.345787 -0.001628 0.057631
0.462679 -0.001898 0.066095
0.581358 -0.002169 0.072665
0.691823 -0.002440 0.076864
0.784385 -0.002710 0.078428
0.854879 -0.002981 0.077693
0.907037 -0.003251 0.075570
0.945717 -0.003522 0.072718
0.975150 -0.003793 0.069633
1.000034 -0.004064 0.066634
-0.000467 0.023718 0.023718
0.023718 0.023718 0.023718
0.057195 0.021670 0.021670
0.102919 0.018266 0.018266
0.165662 0.015614 0.015614
0.251237 0.013894 0.013894
0.356330 0.012820 0.012820
0.472118 0.012166 0.012166
0.589130 0.011789 0.011789
0.697690 0.011601 0.011601
0.788353 0.011546 0.011546
0.857450 0.011592 0.011592
0.908700 0.011714 0.011714
0.946779 0.011895 0.011895
0.976055 0.012124 0.012124
1.000034 0.023706 0.023706
-0.000905 0.053543 0.026771
0.017882 0.054570 0.017882
0.053770 0.053770 0.016917
0.098967 0.062973 0.015550
0.162029 0.075848 0.014241
0.248325 0.092141 0.013207
0.354340 0.109064 0.012477
0.470738 0.123896 0.011998
0.588275 0.135278 0.011712
0.697173 0.142392 0.011575
0.788126 0.144792 0.011550
0.857290 0.143133 0.011612
0.908620 0.139053 0.011741
0.946742 0.133728 0.011930
0.976043 0.128025 0.012162
1.000034 0.123218 0.023706
-0.001351 0.095591 0.031867
0.014080 0.096834 0.014080
0.061257 0.096458 0.013819
0.095841 0.095841 0.013388
0.158535 0.117161 0.012887
0.244921 0.143863 0.012416
0.351533 0.171480 0.012037
0.468717 0.195619 0.011768
0.586883 0.214039 0.011611
0.696386 0.225578 0.011549
0.787694 0.229543 0.011570
0.856978 0.226953 0.011658
0.908502 0.220524 0.011805
0.946717 0.212067 0.012003
0.975940 0.202998 0.012241
1.000033 0.194513 0.023705
-0.001799 0.155981 0.038995
0.012413 0.157290 0.012413
0.073423 0.157086 0.012337
0.115827 0.156734 0.012200
0.156240 0.156240 0.012028
0.242326 0.192666 0.011852
0.349140 0.230601 0.011701
0.466737 0.263762 0.011597
0.585346 0.289106 0.011550
0.695340 0.305060 0.011560
0.787031 0.310604 0.011629
0.856631 0.307218 0.011747
0.908340 0.298572 0.011914
0.946549 0.287147 0.012121
0.975838 0.274873 0.012368
1.000033 0.263132 0.023704
-0.002247 0.240283 0.048051
0.011729 0.241630 0.011729
0.089554 0.241513 0.011710
0.141713 0.241289 0.011673
0.191579 0.240947 0.011627
0.240547 0.240547 0.011583
0.347276 0.288505 0.011552
0.465071 0.330584 0.011550
0.584084 0.362915 0.011579
0.694388 0.383192 0.011645
0.786319 0.390375 0.011749
0.856357 0.386332 0.011898
0.908090 0.375463 0.012079
0.946454 0.361155 0.012298
0.975828 0.345728 0.012546
1.000033 0.330820 0.023702
-0.002696 0.345796 0.057623
0.011547 0.347003 0.011547
0.106759 0.346907 0.011546
0.169134 0.346756 0.011548
0.228867 0.346505 0.011553
0.287693 0.346264 0.011567
0.345958 0.345958 0.011595
0.463804 0.396864 0.011645
0.582972 0.435997 0.011718
0.693564 0.460719 0.011821
0.785791 0.469603 0.011954
0.855920 0.464849 0.012117
0.907834 0.451887 0.012313
0.946320 0.434643 0.012536
0.975715 0.416143 0.012787
1.000033 0.398129 0.023702
-0.003144 0.462677 0.066084
0.011654 0.463726 0.011654
0.122045 0.463711 0.011661
0.193478 0.463625 0.011677
0.261914 0.463465 0.011702
0.329341 0.463296 0.011740
0.396294 0.463139 0.011796
0.462922 0.462922 0.011873
0.582186 0.508854 0.011970
0.692858 0.537950 0.012092
0.785357 0.548484 0.012241
0.855696 0.543069 0.012414
0.907619 0.527979 0.012617
0.946245 0.507931 0.012841
0.975573 0.486282 0.013094
1.000033 0.465242 0.023699
-0.003593 0.581356 0.072643
0.011946 0.582265 0.011946
0.133900 0.582232 0.011956
0.212341 0.582166 0.011978
0.287503 0.582054 0.012013
0.361578 0.581995 0.012062
0.435112 0.581794 0.012127
0.508415 0.581696 0.012217
0.581554 0.581554 0.012327
0.692348 0.615007 0.012454
0.784968 0.627223 0.012608
0.855374 0.621123 0.012788
0.907496 0.603963 0.012988
0.946138 0.581053 0.013214
0.975498 0.556291 0.013463
1.000033 0.532252 0.023695
-0.004042 0.691822 0.076836
0.012368 0.692432 0.012368
0.141453 0.692451 0.012379
0.224341 0.692419 0.012402
0.303771 0.692368 0.012439
0.382058 0.692343 0.012493
0.459880 0.692260 0.012565
0.537342 0.692143 0.012657
0.614726 0.692063 0.012766
0.691994 0.691994 0.012900
0.784641 0.705881 0.013054
0.855205 0.699155 0.013230
0.907365 0.679811 0.013429
0.945953 0.654043 0.013652
0.975392 0.626236 0.013893
1.000033 0.599165 0.023692
-0.004491 0.784383 0.078392
0.012885 0.784772 0.012885
0.144220 0.784762 0.012896
0.228704 0.784742 0.012920
0.309709 0.784712 0.012960
0.389568 0.784671 0.013014
0.468879 0.784564 0.013085
0.547991 0.784573 0.013173
0.626915 0.784521 0.013284
0.705747 0.784447 0.013415
0.784435 0.784435 0.013567
0.855000 0.776936 0.013740
0.907189 0.755573 0.013932
0.945923 0.726915 0.014148
0.975378 0.696114 0.014384
1.000032 0.666015 0.023687
-0.004940 0.854877 0.077649
0.013477 0.855174 0.013477
0.142833 0.855166 0.013489
0.226489 0.855149 0.013512
0.306688 0.855124 0.013550
0.385777 0.855088 0.013604
0.464340 0.855044 0.013675
0.542633 0.854987 0.013761
0.620880 0.855033 0.013867
0.698980 0.854963 0.013995
0.776846 0.854947 0.014139
0.854875 0.854875 0.014306
0.907173 0.831436 0.014493
0.945880 0.800013 0.014700
0.975334 0.766024 0.014926
1.000032 0.732918 0.023686
-0.005389 0.907036 0.075519
0.014130 0.907188 0.014130
0.138917 0.907185 0.014141
0.220240 0.907178 0.014162
0.298217 0.907168 0.014197
0.375093 0.907154 0.014250
0.451542 0.907156 0.014319
0.527711 0.907135 0.014403
0.603732 0.907170 0.014505
0.679696 0.907143 0.014626
0.755498 0.907143 0.014765
0.831425 0.907113 0.014923
0.907082 0.907082 0.015104
0.945780 0.872763 0.015300
0.975249 0.835695 0.015519
1.000031 0.799616 0.023681
-0.005838 0.945715 0.072653
0.014833 0.945854 0.014833
0.133709 0.945852 0.014843
0.211921 0.945848 0.014865
0.286949 0.945842 0.014898
0.360901 0.945834 0.014948
0.434435 0.945823 0.015012
0.507685 0.945810 0.015091
0.580863 0.945796 0.015189
0.653956 0.945779 0.015304
0.726980 0.945761 0.015437
0.799915 0.945742 0.015589
0.872714 0.945723 0.015762
0.945703 0.945703 0.015950
0.975224 0.905554 0.016157
1.000031 0.866500 0.023672
-0.006287 0.975149 0.069566
0.015573 0.975284 0.015573
0.128087 0.975283 0.015583
0.202936 0.975280 0.015604
0.274764 0.975277 0.015636
0.345603 0.975271 0.015683
0.415958 0.975265 0.015744
0.486139 0.975256 0.015820
0.556174 0.975247 0.015912
0.626155 0.975236 0.016022
0.696033 0.975224 0.016150
0.765959 0.975212 0.016293
0.835659 0.975199 0.016456
0.905522 0.975185 0.016637
0.975172 0.975172 0.016834
1.000030 0.933190 0.023668
-0.006736 1.000031 0.066552
0.023673 1.000031 0.023673
0.123213 1.000031 0.023673
0.194511 1.000031 0.023673
0.263131 1.000031 0.023673
0.330826 1.000031 0.023672
0.398127 1.000031 0.023672
0.465241 1.000031 0.023672
0.532250 1.000031 0.023671
0.599164 1.000031 0.023669
0.666014 1.000031 0.023668
0.732917 1.000030 0.023668
0.799616 1.000030 0.023666
0.866500 1.000030 0.023667
0.933190 1.000030 0.023663
1.000030 1.000030 0.023661
-0.000345 -0.000345 0.053543
0.026772 -0.000415 0.053543
0.053543 -0.000612 0.053543
0.095592 -0.000854 0.063734
0.155982 -0.001112 0.077991
0.240284 -0.001375 0.096122
0.345787 -0.001641 0.115267
0.462679 -0.001909 0.132192
0.581358 -0.002178 0.145339
0.691823 -0.002447 0.153744
0.784385 -0.002716 0.156874
0.854879 -0.002987 0.155416
0.907037 -0.003256 0.151173
0.945717 -0.003527 0.145480
0.975150 -0.003797 0.139310
1.000034 -0.004068 0.133320
-0.000536 0.026772 0.053543
0.023048 0.023048 0.057834
0.056826 0.020958 0.056826
0.102379 0.017875 0.065317
0.165213 0.015434 0.077411
0.250896 0.013811 0.093128
0.356104 0.012781 0.109626
0.471938 0.012147 0.124215
0.588999 0.011780 0.135452
0.697627 0.011598 0.142480
0.788314 0.011546 0.144820
0.857417 0.011594 0.143157
0.908687 0.011716 0.139065
0.946815 0.011899 0.133734
0.976049 0.012127 0.128024
1.000034 0.023706 0.123218
-0.000935 0.053543 0.053543
0.017523 0.054277 0.054277
0.053543 0.053543 0.053543
0.101699 0.051491 0.051491
0.171202 0.048093 0.048093
0.266495 0.043674 0.043674
0.378309 0.039466 0.039466
0.496221 0.035933 0.035933
0.611824 0.033099 0.033099
0.716575 0.030870 0.030870
0.802032 0.029123 0.029123
0.866929 0.027759 0.027759
0.915146 0.026700 0.026700
0.951295 0.025872 0.025872
0.979347 0.025240 0.025240
1.000033 0.053538 0.053538
-0.001368 0.095591 0.063733
0.013988 0.096699 0.061416
0.046487 0.097793 0.046487
0.096125 0.096125 0.044560
0.164808 0.113418 0.041954
0.258267 0.135813 0.039063
0.369984 0.158264 0.036268
0.489362 0.177039 0.033769
0.606697 0.190557 0.031639
0.713186 0.198143 0.029875
0.800042 0.199420 0.028443
0.865835 0.195803 0.027288
0.914545 0.189352 0.026370
0.950955 0.181569 0.025645
0.979092 0.173527 0.025080
1.000033 0.169128 0.053543
-0.001810 0.155981 0.077990
0.012388 0.157216 0.073484
0.038523 0.160208 0.038523
0.108880 0.158823 0.037545
0.156905 0.156905 0.036188
0.248994 0.192287 0.034605
0.360906 0.227963 0.032952
0.481449 0.257983 0.031362
0.600642 0.279833 0.029917
0.708982 0.292417 0.028645
0.797525 0.295225 0.027568
0.864237 0.290306 0.026662
0.913682 0.280991 0.025926
0.950408 0.269529 0.025331
0.978702 0.257605 0.024860
1.000033 0.247668 0.053542
-0.002256 0.240283 0.096119
0.011722 0.241588 0.089581
0.033063 0.245711 0.033063
0.128110 0.244691 0.032594
0.187735 0.243212 0.031911
0.241425 0.241425 0.031067
0.352968 0.289077 0.030136
0.474211 0.329678 0.029180
0.594704 0.359563 0.028254
0.704640 0.377269 0.027403
0.794689 0.381920 0.026647
0.862523 0.376171 0.025985
0.912626 0.364367 0.025432
0.949773 0.349681 0.024977
0.978322 0.334259 0.024613
1.000033 0.320160 0.053541
-0.002702 0.345796 0.115262
0.011547 0.346981 0.106782
0.029546 0.351357 0.029546
0.149472 0.350648 0.029309
0.220729 0.349643 0.028951
0.285304 0.348364 0.028497
0.346901 0.346901 0.027974
0.468241 0.397510 0.027410
0.589612 0.435410 0.026842
0.700653 0.458204 0.026295
0.792015 0.464941 0.025791
0.860819 0.458547 0.025340
0.911565 0.444544 0.024952
0.949107 0.426824 0.024624
0.977875 0.408093 0.024359
1.000033 0.390301 0.053540
-0.003149 0.462677 0.132184
0.011656 0.463751 0.122056
0.027266 0.467765 0.027266
0.168674 0.467372 0.027141
0.249961 0.466709 0.026949
0.323814 0.465858 0.026701
0.394638 0.464844 0.026405
0.463748 0.463748 0.026081
0.585381 0.509236 0.025737
0.697315 0.537197 0.025402
0.789683 0.546125 0.025081
0.859385 0.539264 0.024789
0.910586 0.523123 0.024534
0.948443 0.502390 0.024313
0.977410 0.480485 0.024141
1.000033 0.459332 0.053538
-0.003598 0.581356 0.145331
0.011950 0.582254 0.133905
0.025789 0.585597 0.025789
0.183509 0.585368 0.025719
0.272451 0.585024 0.025616
0.353317 0.584445 0.025478
0.431104 0.583788 0.025312
0.507200 0.583071 0.025126
0.582183 0.582183 0.024929
0.694678 0.615156 0.024730
0.787703 0.626222 0.024538
0.857974 0.618906 0.024362
0.909711 0.600808 0.024207
0.947874 0.577205 0.024077
0.977000 0.552106 0.023978
1.000033 0.527736 0.053536
-0.004046 0.691822 0.153733
0.012371 0.692462 0.141455
0.024841 0.695101 0.024841
0.192821 0.694999 0.024806
0.286437 0.694755 0.024749
0.371708 0.694421 0.024677
0.453853 0.694014 0.024589
0.534253 0.693580 0.024489
0.613729 0.693057 0.024378
0.692478 0.692478 0.024270
0.786129 0.705766 0.024166
0.856789 0.697946 0.024071
0.908889 0.677870 0.023990
0.947314 0.651449 0.023927
0.976658 0.623252 0.023886
1.000033 0.595711 0.053534
-0.004494 0.784383 0.156859
0.012888 0.784768 0.144221
0.024272 0.786553 0.024272
0.195855 0.786510 0.024253
0.291031 0.786344 0.024227
0.377826 0.786248 0.024192
0.461424 0.786008 0.024146
0.543366 0.785704 0.024096
0.624465 0.785544 0.024043
0.704899 0.785136 0.023995
0.784828 0.784828 0.023948
0.855876 0.776582 0.023909
0.908206 0.754496 0.023882
0.946797 0.725282 0.023871
0.976255 0.693956 0.023874
1.000032 0.663355 0.053531
-0.004943 0.854877 0.155390
0.013481 0.855171 0.142834
0.023970 0.856347 0.023970
0.193467 0.856252 0.023962
0.287550 0.856209 0.023951
0.373318 0.856147 0.023939
0.455913 0.855944 0.023923
0.537064 0.855939 0.023903
0.617264 0.855744 0.023891
0.696906 0.855505 0.023877
0.776101 0.855380 0.023871
0.855155 0.855155 0.023870
0.907632 0.830965 0.023879
0.946469 0.798949 0.023902
0.975992 0.764575 0.023939
1.000032 0.731054 0.053528
-0.005391 0.907036 0.151152
0.014134 0.907187 0.138917
0.023871 0.908055 0.023871
0.187862 0.908016 0.023870
0.279179 0.907958 0.023869
0.362463 0.907876 0.023869
0.442735 0.907853 0.023870
0.521493 0.907764 0.023876
0.599435 0.907616 0.023881
0.676914 0.907619 0.023893
0.753901 0.907461 0.023911
0.830719 0.907359 0.023939
0.907181 0.907181 0.023974
0.946096 0.872358 0.024022
0.975747 0.834873 0.024083
1.000031 0.798243 0.053529
-0.005841 0.945715 0.145451
0.014836 0.945853 0.133709
0.023923 0.946339 0.023923
0.180573 0.946316 0.023927
0.268334 0.946323 0.023935
0.348370 0.946353 0.023942
0.425512 0.946288 0.023957
0.501237 0.946248 0.023971
0.576215 0.946198 0.023995
0.650631 0.946093 0.024023
0.724690 0.946087 0.024057
0.798585 0.945964 0.024106
0.872220 0.945876 0.024156
0.945862 0.945862 0.024225
0.975438 0.905225 0.024300
1.000031 0.865677 0.053525
-0.006288 0.975149 0.139287
0.015576 0.975284 0.128087
0.024104 0.975697 0.024104
0.172853 0.975682 0.024110
0.256757 0.975654 0.024119
0.333329 0.975620 0.024136
0.407159 0.975619 0.024155
0.479594 0.975566 0.024176
0.551305 0.975552 0.024214
0.622530 0.975523 0.024254
0.693414 0.975444 0.024298
0.764119 0.975400 0.024355
0.834610 0.975322 0.024420
0.905099 0.975389 0.024496
0.975287 0.975287 0.024589
1.000030 0.932804 0.053518
-0.006737 1.000031 0.133291
0.023673 1.000031 0.123213
0.053525 1.000031 0.053525
0.169124 1.000031 0.053525
0.247666 1.000031 0.053525
0.320158 1.000031 0.053525
0.390298 1.000031 0.053524
0.459331 1.000031 0.053524
0.527735 1.000031 0.053523
0.595710 1.000031 0.053520
0.663354 1.000031 0.053519
0.731053 1.000030 0.053518
0.798242 1.000030 0.053517
0.865676 1.000030 0.053516
0.932803 1.000030 0.053514
1.000030 1.000030 0.053513
-0.000518 -0.000518 0.095592
0.031868 -0.000561 0.095592
0.063734 -0.000708 0.095592
0.095592 -0.000918 0.095592
0.155982 -0.001157 0.116979
0.240284 -0.001409 0.144168
0.345787 -0.001668 0.172893
0.462679 -0.001931 0.198299
0.581358 -0.002196 0.218002
0.691823 -0.002462 0.230591
0.784385 -0.002730 0.235290
0.854879 -0.002998 0.233099
0.907037 -0.003267 0.226762
0.945717 -0.003536 0.218223
0.975150 -0.003805 0.208967
1.000034 -0.004075 0.199994
-0.000648 0.031868 0.095592
0.021607 0.021607 0.106294
0.066981 0.019691 0.104731
0.101388 0.017184 0.101388
0.164326 0.015105 0.121484
0.250190 0.013653 0.146983
0.355590 0.012703 0.173472
0.471617 0.012109 0.196825
0.588818 0.011762 0.214737
0.697577 0.011592 0.225969
0.788309 0.011547 0.229719
0.857345 0.011597 0.227045
0.908659 0.011721 0.220565
0.946798 0.011907 0.212080
0.976038 0.012136 0.203014
1.000034 0.023706 0.194513
-0.000991 0.063734 0.095592
0.016893 0.064338 0.100958
0.052848 0.052848 0.102783
0.101133 0.050773 0.101133
0.170632 0.047368 0.118060
0.265567 0.043112 0.140088
0.377337 0.039086 0.161648
0.495428 0.035682 0.179365
0.611291 0.032934 0.192077
0.716135 0.030759 0.199025
0.801789 0.029050 0.199907
0.866764 0.027709 0.196042
0.915056 0.026661 0.189508
0.951221 0.025848 0.181638
0.979306 0.025221 0.173570
1.000033 0.053538 0.169128
-0.001402 0.095591 0.095591
0.013813 0.096456 0.096456
0.045805 0.097224 0.097224
0.095591 0.095591 0.095591
0.165322 0.092931 0.092931
0.262468 0.089129 0.089129
0.381015 0.084006 0.084006
0.507382 0.077988 0.077988
0.628482 0.071982 0.071982
0.734053 0.066532 0.066532
0.816855 0.061786 0.061786
0.878458 0.057740 0.057740
0.923743 0.054329 0.054329
0.957682 0.051450 0.051450
0.984425 0.049047 0.049047
1.000034 0.095593 0.095593
-0.001833 0.155981 0.116978
0.012335 0.157078 0.116083
0.038178 0.159715 0.109551
0.086566 0.159363 0.086566
0.156841 0.156841 0.083833
0.254028 0.182134 0.080128
0.372326 0.208724 0.075772
0.498235 0.230805 0.071162
0.620021 0.245894 0.066664
0.727519 0.253017 0.062483
0.812504 0.252101 0.058739
0.875698 0.245585 0.055449
0.922073 0.236143 0.052596
0.956612 0.225525 0.050141
0.983694 0.214953 0.048045
1.000033 0.214455 0.095592
-0.002273 0.240283 0.144167
0.011710 0.241509 0.141843
0.032904 0.245377 0.128503
0.074760 0.247850 0.074760
0.175112 0.245391 0.072789
0.242065 0.242065 0.070270
0.360095 0.285026 0.067355
0.486578 0.320638 0.064262
0.609917 0.345520 0.061146
0.719904 0.358476 0.058154
0.807462 0.359157 0.055371
0.872449 0.351010 0.052837
0.920052 0.338127 0.050573
0.955254 0.323210 0.048569
0.982771 0.308229 0.046821
1.000033 0.298754 0.095591
-0.002715 0.345796 0.172890
0.011546 0.346904 0.169220
0.029462 0.351042 0.149657
0.064689 0.355634 0.064689
0.196852 0.353747 0.063507
0.277707 0.351075 0.061980
0.347904 0.347904 0.060167
0.474991 0.396074 0.058184
0.599955 0.430478 0.056112
0.712184 0.449385 0.054047
