assets/luts/LUTs/FREEDOM.CUBE
LUT_3D_SIZE 6
0.000000 0.000000 0.000000
0.095592 -0.000813 -0.000813
0.345787 -0.001625 -0.001625
0.691823 -0.002438 -0.002438
0.907037 -0.003250 -0.003250
1.000034 -0.004063 -0.004063
-0.001347 0.095591 -0.001347
0.095591 0.095591 -0.001501
0.345786 0.172892 -0.001996
0.691823 0.230591 -0.002667
0.907037 0.226762 -0.003408
1.000033 0.199994 -0.004180
-0.002694 0.345796 -0.002694
0.172890 0.345796 -0.002756
0.345796 0.345796 -0.003003
0.691822 0.461220 -0.003431
0.907037 0.453519 -0.003991
1.000033 0.400002 -0.004637
-0.004041 0.691822 -0.004041
0.230607 0.691821 -0.004077
0.461219 0.691821 -0.004225
0.691821 0.691821 -0.004504
0.907036 0.680322 -0.004906
1.000033 0.600017 -0.005409
-0.005388 0.907036 -0.005388
0.226746 0.907036 -0.005412
0.453515 0.907036 -0.005512
0.680321 0.907035 -0.005709
0.907035 0.907035 -0.006005
1.000031 0.799989 -0.006393
-0.006735 1.000031 -0.006735
0.199971 1.000031 -0.006753
0.399993 1.000031 -0.006827
0.600015 1.000031 -0.006974
0.799988 1.000030 -0.007201
1.000030 1.000030 -0.007507
-0.000518 -0.000518 0.095592
0.095592 -0.000918 0.095592
0.345787 -0.001668 0.172893
0.691823 -0.002462 0.230591
0.907037 -0.003267 0.226762
1.000034 -0.004075 0.199994
-0.001402 0.095591 0.095591
0.095591 0.095591 0.095591
0.381015 0.084006 0.084006
0.734053 0.066532 0.066532
0.923743 0.054329 0.054329
1.000034 0.095593 0.095593
-0.002715 0.345796 0.172890
0.064689 0.355634 0.064689
0.347904 0.347904 0.060167
0.712184 0.449385 0.054047
0.917838 0.427709 0.048454
1.000033 0.375088 0.095589
-0.004053 0.691822 0.230607
0.047780 0.699474 0.047780
0.439741 0.697117 0.046709
0.693442 0.693442 0.044953
0.911704 0.673352 0.042940
1.000032 0.589160 0.095592
-0.005396 0.907036 0.226746
0.041081 0.909468 0.041081
0.423383 0.909077 0.040778
0.670910 0.908444 0.040253
0.907547 0.907547 0.039581
1.000031 0.795705 0.095581
-0.006741 1.000031 0.199972
0.095576 1.000031 0.095576
0.375084 1.000031 0.095575
0.589158 1.000031 0.095573
0.795705 1.000030 0.095569
1.000030 1.000030 0.095564
-0.001036 -0.001036 0.345787
0.172893 -0.001246 0.345787
0.345786 -0.001836 0.345786
0.691823 -0.002564 0.461222
0.907037 -0.003336 0.453520
1.000034 -0.004126 0.400003
-0.001609 0.172893 0.345787
0.091695 0.091695 0.387110
0.377432 0.080199 0.377432
0.731120 0.064649 0.461760
0.923056 0.053543 0.430341
1.000033 0.095593 0.375088
-0.002804 0.345796 0.345796
0.062993 0.352855 0.352855
0.345795 0.345795 0.345795
0.727484 0.325727 0.325727
0.932152 0.292833 0.292833
1.000033 0.345789 0.345789
-0.004105 0.691821 0.461219
0.047400 0.698602 0.440674
0.277396 0.705141 0.277396
0.695194 0.695194 0.259132
0.922379 0.634817 0.234779
1.000032 0.577267 0.345785
-0.005431 0.907036 0.453516
0.040977 0.909339 0.423521
0.203921 0.914624 0.203921
0.622839 0.912303 0.195457
0.908765 0.908765 0.183969
1.000031 0.791191 0.345778
-0.006767 1.000031 0.399993
0.095575 1.000031 0.375084
0.345774 1.000031 0.345774
0.577262 1.000031 0.345773
0.791189 1.000030 0.345771
1.000030 1.000030 0.345768
-0.001554 -0.001554 0.691824
0.230594 -0.001683 0.691824
0.461222 -0.002123 0.691824
0.691823 -0.002754 0.691823
0.907037 -0.003470 0.680323
1.000033 -0.004227 0.600019
-0.001943 0.230593 0.691824
0.083681 0.083681 0.751569
0.469970 0.073599 0.743571
0.725798 0.061399 0.725798
0.921561 0.052114 0.680771
1.000033 0.095592 0.589160
-0.002973 0.461221 0.691823
0.060057 0.456669 0.723380
0.339011 0.339011 0.733334
0.724375 0.318897 0.724375
0.931337 0.285987 0.649530
1.000033 0.345789 0.577269
-0.004207 0.691821 0.691821
0.046681 0.697111 0.697111
0.270910 0.701723 0.701723
0.691820 0.691820 0.691820
0.923237 0.675083 0.675083
1.000032 0.691819 0.691819
-0.005500 0.907036 0.680321
0.040769 0.909059 0.671402
0.200928 0.913803 0.624551
0.631863 0.913175 0.631863
0.908594 0.908594 0.611999
1.000031 0.838578 0.691816
-0.006818 1.000031 0.600015
0.095575 1.000031 0.589158
0.345774 1.000031 0.577263
0.691814 1.000031 0.691814
0.838576 1.000030 0.691813
1.000030 1.000030 0.691812
-0.002072 -0.002072 0.907038
0.226757 -0.002161 0.907038
0.453521 -0.002493 0.907038
0.680324 -0.003024 0.907037
0.907037 -0.003671 0.907037
1.000033 -0.004382 0.799992
-0.002352 0.226757 0.907038
0.072737 0.072737 0.938070
0.435956 0.065949 0.933673
0.684563 0.057384 0.926661
0.919667 0.050194 0.919667
1.000033 0.095591 0.795707
-0.003219 0.453520 0.907037
0.056383 0.431718 0.925731
0.328216 0.328216 0.935873
0.655515 0.307808 0.933758
0.929817 0.275187 0.929817
1.000033 0.345788 0.791193
-0.004362 0.680322 0.907037
0.045669 0.675687 0.914823
0.261192 0.642551 0.927646
0.686283 0.686283 0.925831
0.921799 0.669178 0.921799
1.000032 0.691818 0.838580
-0.005608 0.907035 0.907035
0.040473 0.908671 0.908671
0.196380 0.912502 0.912502
0.625257 0.911644 0.911644
0.907035 0.907035 0.907035
1.000031 0.907034 0.907034
-0.006898 1.000031 0.799989
0.095574 1.000031 0.795705
0.345773 1.000031 0.791189
0.691814 1.000030 0.838577
0.907033 1.000030 0.907033
1.000030 1.000030 0.907033
-0.002591 -0.002591 1.000038
0.200000 -0.002656 1.000038
0.400006 -0.002914 1.000038
0.600020 -0.003358 1.000034
0.799992 -0.003933 1.000034
1.000033 -0.004589 1.000033
-0.002803 0.200000 1.000038
0.095600 0.095600 1.000038
0.375089 0.095599 1.000038
0.589161 0.095597 1.000034
0.795707 0.095594 1.000034
1.000033 0.095589 1.000033
-0.003528 0.400005 1.000034
0.095597 0.375089 1.000034
0.345793 0.345793 1.000034
0.577271 0.345792 1.000034
0.791194 0.345790 1.000033
1.000033 0.345787 1.000033
-0.004571 0.600018 1.000033
0.095590 0.589160 1.000033
0.345789 0.577269 1.000033
0.691820 0.691820 1.000033
0.838580 0.691819 1.000033
1.000032 0.691818 1.000032
-0.005757 0.799990 1.000032
0.095588 0.795706 1.000032
0.345782 0.791192 1.000032
0.691817 0.838579 1.000032
0.907035 0.907035 1.000031
1.000031 0.907034 1.000031
-0.007011 1.000031 1.000031
0.095572 1.000031 1.000031
0.345772 1.000031 1.000031
0.691813 1.000030 1.000030
0.907033 1.000030 1.000030
1.000029 1.000029 1.000029
