assets/luts/LUTs/GC_DJI_D-Log_to_Rec709.CUBE
TITLE "Generated by Resolve"
LUT_3D_SIZE 9
0 0 0
0.0313726 0 0.000946059
0.201007 0.00328069 0.0112764
0.429969 0.0168917 0.044892
0.755489 0.0542763 0.128145
1 0.106996 0.209461
1 0.132723 0.247349
1 0.140444 0.258762
1 0.141024 0.259449
0 0 0
0 0 0
0.166537 0.0199435 0
0.457115 0.0372778 0
0.825605 0.0740978 0.0871595
1 0.122057 0.181064
1 0.141268 0.215106
1 0.146227 0.223728
1 0.146334 0.223407
0 0.151125 0.0289921
0.0215152 0.157504 0.000610361
0.135012 0.145418 0.00106813
0.400946 0.144717 0
0.774624 0.115129 0
1 0.145235 0.0590982
1 0.158526 0.116243
1 0.162173 0.1299
1 0.164157 0.123751
0.0155947 0.367926 0.124804
0.0292973 0.388998 0.09691
0.106569 0.375326 0.0195926
0.343679 0.362356 0.0352026
0.712169 0.351812 0
1 0.321721 0
1 0.302464 0
1 0.296712 0
1 0.326116 0
0.066804 0.670619 0.276524
0.0849317 0.697719 0.270527
0.105043 0.69279 0.217319
0.252888 0.670085 0.0681468
0.626352 0.656474 0.125933
0.951919 0.64715 0
1 0.636133 0
1 0.632685 0
1 0.663859 0
0.134432 0.950042 0.415381
0.14696 0.967834 0.410834
0.160937 0.964889 0.379034
0.196689 0.957977 0.265949
0.533104 0.926513 0.124743
0.880629 0.921141 0.212253
1 0.918563 0.154818
1 0.916701 0.12784
1 0.935393 0.146456
0.167742 1 0.484581
0.176287 1 0.47599
0.188556 1 0.449836
0.2177 1 0.372
0.458457 1 0.147768
0.837858 1 0.209766
1 1 0.254902
1 1 0.263722
1 1 0.267323
0.178378 1 0.506813
0.185458 1 0.496284
0.197284 1 0.471687
0.224231 1 0.403311
0.43505 1 0.187228
0.814801 1 0.207919
0.996094 1 0.253727
1 1 0.268894
1 1 0.271626
0.181262 1 0.50927
0.187915 1 0.497581
0.200809 1 0.470726
0.238605 1 0.367422
0.533822 1 0.156161
0.878019 1 0.226902
1 1 0.261433
1 1 0.271717
1 1 0.27245
0.000610361 0 0.00825513
0.0220188 0 0.0179141
0.193942 0 0.0671092
0.425452 0.0108644 0.110384
0.759121 0.0488746 0.177981
1 0.102434 0.246525
1 0.128359 0.279561
1 0.136034 0.289525
1 0.136507 0.290196
0 0 0
0 0 0
0.188327 0.00456245 0.0117647
0.470298 0.0226902 0.0555734
0.83241 0.0690166 0.150744
1 0.117754 0.223377
1 0.136919 0.25182
1 0.141726 0.258961
1 0.141817 0.2589
0 0.143084 0.0616617
0.00408942 0.152941 0.0333715
0.13048 0.1402 0.00759899
0.416083 0.128466 0
0.790158 0.0989853 0.00128176
1 0.130678 0.117021
1 0.147356 0.162661
1 0.152392 0.174319
1 0.153109 0.167971
0.01178 0.369421 0.159167
0.0250553 0.390631 0.140261
0.0681315 0.381826 0.0387274
0.347066 0.365606 0.0445869
0.724575 0.34995 0
1 0.318883 0
1 0.299458 0
1 0.293812 0
1 0.324468 0
0.0638743 0.676783 0.300023
0.0819715 0.70399 0.295445
0.102419 0.699107 0.24799
0.23949 0.678477 0.0874037
0.632624 0.662852 0.134691
0.958419 0.652415 0.0142367
1 0.641154 0
1 0.637659 0
1 0.668956 0
0.132189 0.954147 0.431876
0.144717 0.971542 0.427665
0.158877 0.968612 0.397482
0.196033 0.961654 0.288396
0.534981 0.93138 0.138476
0.884871 0.925444 0.218219
1 0.922316 0.168811
1 0.919936 0.1458
1 0.938552 0.1626
0.165026 1 0.497246
0.173617 1 0.489021
0.186007 1 0.463813
0.216358 1 0.386725
0.457038 1 0.153933
0.841215 1 0.217319
1 1 0.259007
1 1 0.267842
1 1 0.271534
0.175433 1 0.518196
0.182544 1 0.50808
0.194491 1 0.484276
0.222477 1 0.416312
0.432425 1 0.192279
0.817639 1 0.215747
0.996521 1 0.258228
1 1 0.272282
1 1 0.274784
0.178119 1 0.520546
0.184817 1 0.5093
0.197986 1 0.48304
0.237034 1 0.380926
0.53492 1 0.168017
0.879622 1 0.233417
1 1 0.265293
1 1 0.274815
1 1 0.275456
0.0157015 0 0.172183
0.065507 0 0.156085
0.182849 0.000442512 0.15938
0.412406 0.0065156 0.202548
0.750271 0.0391394 0.252872
1 0.0904402 0.306462
1 0.118441 0.334325
1 0.126665 0.342855
1 0.127001 0.344472
0 0.0144961 0.128511
0.013901 0 0.154406
0.180301 0.00389105 0.157443
0.463584 0.0178683 0.193835
0.826627 0.0591592 0.246738
1 0.105608 0.296315
1 0.126299 0.318105
1 0.131533 0.323629
1 0.130983 0.327245
0 0.119234 0.116014
0.00285344 0.127962 0.124712
0.113375 0.113375 0.113375
0.431617 0.0723125 0.0980392
0.793881 0.0683757 0.144167
1 0.116777 0.219379
1 0.137362 0.250202
1 0.142748 0.258274
1 0.142916 0.258167
0.00146487 0.354986 0.208743
0.013077 0.376349 0.202487
0.0356603 0.369207 0.137621
0.336553 0.354055 0.0607767
0.730739 0.32781 0.0550851
1 0.292836 0.0576486
1 0.271427 0.0590524
1 0.264775 0.0595254
1 0.297307 0.0712902
0.0524758 0.667933 0.333425
0.0697185 0.695781 0.332052
0.0909285 0.690837 0.292912
0.191363 0.67541 0.119738
0.626383 0.656046 0.145083
0.960876 0.641917 0.0716564
1 0.629572 0.0525521
1 0.625071 0.0484932
1 0.657359 0.0632792
0.123552 0.948287 0.456382
0.136461 0.966155 0.45362
0.150958 0.963149 0.4262
0.188388 0.955764 0.330877
0.516655 0.928344 0.157382
0.880522 0.920699 0.225193
1 0.916365 0.184985
1 0.913558 0.167376
1 0.932342 0.181369
0.157961 1 0.519112
0.166674 1 0.511833
0.179278 1 0.488441
0.209689 1 0.418662
0.43299 1 0.176852
0.832746 1 0.227375
1 1 0.26511
1 1 0.271962
1 1 0.275395
0.168765 1 0.539345
0.175952 1 0.530083
0.188083 1 0.507881
0.216098 1 0.446067
0.405097 1 0.212894
0.807126 1 0.226581
0.991745 1 0.265141
1 1 0.278202
1 1 0.280659
0.171023 1 0.543313
0.177554 1 0.533867
0.190967 1 0.509392
0.230121 1 0.417655
0.509957 1 0.186267
0.869902 1 0.243015
1 1 0.271748
1 1 0.280476
1 1 0.281239
0.0664836 0 0.413474
0.121584 0 0.397086
0.21648 0 0.36202
0.399023 0.0121767 0.358175
0.740063 0.0384527 0.401694
1 0.0870375 0.436194
1 0.113085 0.452445
1 0.12079 0.456641
1 0.121843 0.469276
0 0.0096437 0.397147
0.0664073 0 0.411246
0.206332 0 0.400198
0.452018 0.0212558 0.407111
0.817304 0.0571298 0.444724
1 0.103258 0.472145
1 0.122347 0.482322
1 0.127199 0.484382
1 0.127733 0.502083
0 0.0681163 0.320241
0 0.0544594 0.352941
0.0692454 0.00689708 0.370306
0.407202 0.0243687 0.366323
0.785397 0.0641947 0.390127
1 0.111055 0.420264
1 0.130556 0.4336
1 0.135714 0.437186
1 0.13666 0.454826
0.0117037 0.326238 0.32015
0.0205844 0.3458 0.339513
0.0344244 0.336477 0.33048
0.318257 0.318257 0.318257
0.756207 0.262608 0.291463
1 0.221241 0.287755
1 0.198245 0.28687
1 0.190692 0.286503
1 0.221881 0.308553
0.0349737 0.648692 0.414511
0.0503395 0.675776 0.425879
0.0691691 0.670634 0.400946
0.128008 0.65832 0.293904
0.611734 0.639673 0.179629
0.97142 0.612497 0.204776
1 0.597314 0.206668
1 0.592294 0.206943
1 0.623194 0.22475
0.100694 0.935332 0.512749
0.112245 0.952224 0.518074
0.128176 0.949218 0.495811
0.16788 0.941695 0.423224
0.462745 0.92221 0.204089
0.870604 0.909819 0.242954
1 0.902235 0.225345
1 0.898848 0.217899
1 0.916808 0.231662
0.140703 1 0.5664
0.147906 1 0.566033
0.161456 1 0.545632
0.193301 1 0.487343
0.367178 1 0.225376
0.813703 1 0.250553
0.999222 1 0.278553
1 1 0.282307
1 1 0.286595
0.153063 1 0.583841
0.158816 1 0.580865
0.171923 1 0.560739
0.201144 1 0.507668
0.334997 1 0.254643
0.785336 1 0.249882
0.982712 1 0.279454
1 1 0.28986
1 1 0.293217
0.148257 1 0.606439
0.152956 1 0.6047
0.168017 1 0.583047
0.20943 1 0.509926
0.43299 1 0.238178
0.844877 1 0.270909
0.99823 1 0.289357
1 1 0.293919
1 1 0.294224
0.167254 0 0.725704
0.202457 0 0.710994
0.263584 0 0.669429
0.428855 0 0.647974
0.724132 0.0488441 0.656962
1 0.0879683 0.691096
1 0.112398 0.700557
1 0.11986 0.701305
1 0.121157 0.723537
0.116152 0 0.72108
0.171374 0 0.737224
0.255787 0 0.723095
0.475486 0 0.716548
0.802319 0.066041 0.728939
1 0.103746 0.756725
1 0.121523 0.763119
1 0.126207 0.763409
1 0.127062 0.787167
0 0.0419165 0.680751
0.0184787 0.0180056 0.712902
0.159976 0 0.699596
0.420081 0 0.691417
0.770397 0.0675669 0.699794
1 0.10869 0.724865
1 0.127657 0.732174
1 0.132799 0.733639
1 0.133822 0.758602
0 0.259113 0.5991
0 0.272297 0.629862
0 0.247349 0.638056
0.268223 0.184314 0.677821
0.711955 0.129442 0.648569
1 0.126802 0.643061
1 0.1467 0.649241
1 0.152346 0.651225
1 0.155154 0.672755
0.0565499 0.606882 0.596902
0.0697185 0.63267 0.62237
0.0823224 0.626673 0.616541
0.119448 0.610529 0.6009
0.587289 0.587289 0.587289
0.985931 0.54551 0.565515
1 0.51841 0.551278
1 0.509316 0.546517
1 0.543389 0.576883
0.0933852 0.906493 0.669886
0.107088 0.922408 0.687694
0.1205 0.919081 0.675059
0.154376 0.910765 0.637736
0.297902 0.907607 0.468803
0.851301 0.882078 0.438819
1 0.864179 0.418479
1 0.857694 0.411093
1 0.875578 0.446097
0.117617 1 0.70425
0.128099 1 0.716274
0.140749 1 0.702098
0.170382 1 0.665156
0.259953 1 0.499672
0.746593 1 0.343267
0.981933 1 0.33518
1 1 0.339101
1 1 0.349889
0.125536 1 0.714702
0.134676 1 0.72372
0.147021 1 0.708324
0.17464 1 0.671901
0.258335 1 0.517327
0.706935 1 0.338704
0.954345 1 0.335454
1 1 0.334234
1 1 0.341421
0.134035 1 0.766613
0.142321 1 0.77528
0.15462 1 0.759503
0.190692 1 0.715068
0.288716 1 0.528832
0.766995 1 0.391745
0.967041 1 0.358267
1 1 0.345022
1 1 0.341772
0.242634 0 0.958419
0.27068 0 0.950805
0.319249 0 0.927886
0.4607 0 0.915084
0.739559 0 0.91339
1 0.102632 0.933761
1 0.120333 0.950698
1 0.126375 0.953735
1 0.12813 0.968719
0.209232 0 0.961028
0.246265 0 0.968658
0.310674 0 0.959625
0.500877 0 0.954086
0.811383 0.0233005 0.956786
1 0.115633 0.977066
1 0.129122 0.989929
1 0.132967 0.99234
1 0.134127 1
0.0996414 0.0120241 0.947143
0.153918 0 0.956909
0.240391 0 0.948806
0.446601 0 0.940795
0.778073 0.0268254 0.94287
1 0.117708 0.960906
1 0.132723 0.973571
1 0.137148 0.976699
1 0.138476 0.989685
0 0.152117 0.879652
0 0.149844 0.894118
0 0.111116 0.905303
0.252644 0.0071107 0.917861
0.69662 0.0556649 0.915816
1 0.126009 0.924071
1 0.144305 0.932754
1 0.149767 0.93547
1 0.1523 0.947127
0 0.562203 0.833249
0 0.588952 0.851652
0 0.578729 0.854353
0 0.547814 0.866316
0.551431 0.499199 0.911269
0.966079 0.448829 0.89836
1 0.415 0.889387
1 0.404364 0.886503
1 0.446387 0.90312
0.119936 0.864668 0.851102
0.129915 0.881407 0.867643
0.138537 0.877104 0.863447
0.161303 0.867338 0.853971
0.26096 0.851789 0.839506
0.827359 0.827359 0.827359
1 0.807858 0.816358
1 0.800626 0.8121
1 0.819867 0.830304
0.136553 1 0.886503
0.145174 1 0.898009
0.154482 1 0.891173
0.176776 1 0.875196
0.247868 1 0.819165
0.712718 0.995178 0.770718
0.962768 0.981247 0.755795
1 0.975814 0.748455
1 0.980056 0.769757
0.142672 1 0.896345
0.150347 1 0.905501
0.159701 1 0.897383
0.180926 1 0.879728
0.248798 1 0.818936
0.651255 1 0.738964
0.928435 1 0.719905
1 1 0.708537
1 1 0.725963
0.151232 1 0.933959
0.157839 1 0.939864
0.167147 1 0.932357
0.19498 1 0.912902
0.274144 1 0.846571
0.731914 1 0.797421
0.942061 1 0.763104
1 1 0.724346
1 1 0.712657
0.272496 0 1
0.299062 0 1
0.346654 0 1
0.474998 0 1
0.749401 0 1
1 0.104417 1
1 0.129778 1
1 0.134737 1
1 0.135973 1
0.242634 0 1
0.273732 0 1
0.333394 0 1
0.51046 0 1
0.817578 0 1
1 0.124941 1
1 0.135897 1
1 0.139269 1
1 0.13994 1
0.157626 0 1
0.196582 0 1
0.271229 0 1
0.45864 0 1
0.784314 0 1
1 0.125597 1
1 0.138766 1
1 0.142657 1
1 0.143496 1
0 0.139239 1
0 0.136995 1
0 0.0928206 1
0.27837 0 1
0.700587 0.0310674 1
1 0.12578 1
1 0.147341 1
1 0.152316 1
1 0.15433 1
0 0.525673 0.953658
0 0.556619 0.961105
0 0.543526 0.966018
0 0.506813 0.983474
0.52929 0.440513 1
0.953384 0.380697 1
1 0.350088 1
1 0.344381 1
1 0.385855 1
0 0.848463 0.956115
0 0.866255 0.963973
0 0.860822 0.963546
0 0.847944 0.963882
0.255329 0.815015 0.982879
0.811124 0.790036 0.992126
1 0.768917 0.986206
1 0.760723 0.984024
1 0.783536 0.987961
0.152056 0.994644 0.979248
0.158373 1 0.98468
0.165957 0.997314 0.981964
0.183978 0.991257 0.976104
0.242344 0.975067 0.960586
0.690761 0.964355 0.956863
0.94905 0.94905 0.94905
1 0.942824 0.945556
1 0.949004 0.951736
0.157061 1 0.992111
0.162783 1 0.995392
0.170596 1 0.991943
0.188022 1 0.984497
0.244648 1 0.961151
0.624537 1 0.939986
0.912505 1 0.930175
0.996384 1 0.924849
1 1 0.929534
0.162295 1 1
0.167391 1 1
0.175479 1 1
0.199207 1 0.995865
0.266865 1 0.969787
0.705333 1 0.95668
0.924239 1 0.940963
0.99234 1 0.925307
1 1 0.920562
0.280583 0 1
0.306859 0 1
0.354513 0 1
0.478264 0 1
0.750866 0 1
1 0.0894026 1
1 0.13341 1
1 0.138064 1
1 0.138933 1
0.250584 0 1
0.279866 0 1
0.338491 0 1
0.511925 0 1
0.818021 0 1
1 0.120089 1
1 0.138048 1
1 0.141329 1
1 0.141634 1
0.171206 0 1
0.206485 0 1
0.278752 0 1
0.46128 0 1
0.785367 0 1
1 0.117632 1
1 0.140871 1
1 0.14461 1
1 0.145098 1
0 0.1346 1
0 0.132738 1
0 0.086717 1
0.285313 0 1
0.701808 0.0229953 1
1 0.119646 1
1 0.148821 1
1 0.153613 1
1 0.155291 1
0 0.512596 0.988861
0 0.545419 0.992264
0 0.531701 0.997894
0 0.492973 1
0.521828 0.420142 1
0.947631 0.357809 1
1 0.329244 1
1 0.322866 1
1 0.367681 1
0 0.842252 0.990555
0 0.860533 0.99443
0 0.854871 0.995102
0 0.840879 0.997971
0.247654 0.80296 1
0.805417 0.77702 1
1 0.754879 1
1 0.746075 1
1 0.770062 1
0.0948348 0.989227 1
0.115434 0.994873 1
0.123857 0.991974 1
0.145418 0.985412 1
0.226459 0.966873 1
0.682048 0.953323 1
0.943893 0.937224 1
1 0.930495 1
1 0.937774 1
0.162402 1 1
0.167285 1 1
0.17464 1 1
0.190829 1 1
0.24329 1 1
0.612345 1 1
0.905882 0.996902 0.99411
0.99118 0.99118 0.99118
1 0.991379 0.991836
0.16585 1 1
0.170275 1 1
0.178088 1 1
0.200549 1 1
0.263584 1 1
0.686625 1 1
0.914076 1 0.994751
0.985611 1 0.988693
1 1 0.986938
0.280598 0 1
0.306859 0 1
0.354833 0 1
0.482856 0 1
0.758618 0 1
1 0.0921187 1
1 0.134035 1
1 0.138537 1
1 0.139162 1
0.250492 0 1
0.279835 0 1
0.339544 0 1
0.518318 0 1
0.826398 0 1
1 0.122805 1
1 0.138338 1
1 0.141421 1
1 0.141726 1
0.169497 0 1
0.204654 0 1
0.278691 0 1
0.467765 0 1
0.794369 0 1
1 0.120317 1
1 0.141238 1
1 0.144762 1
1 0.145266 1
0 0.139681 1
0 0.138582 1
0 0.0937667 1
0.28719 0 1
0.710018 0.0285649 1
1 0.122454 1
1 0.149584 1
1 0.154192 1
1 0.15584 1
0 0.52549 0.990112
0 0.558328 0.991989
0 0.545068 0.997696
0 0.506279 1
0.53312 0.435554 1
0.954238 0.373297 1
1 0.343618 1
1 0.337407 1
1 0.381262 1
0 0.849134 0.994095
0 0.866941 0.996414
0 0.861479 0.997208
0 0.847288 1
0.259754 0.809995 1
0.811704 0.783841 1
1 0.762097 1
1 0.753353 1
1 0.777081 1
0.0893721 0.991333 1
0.114504 0.996857 1
0.122408 0.993927 1
0.144411 0.987167 1
0.229068 0.967987 1
0.69131 0.954406 1
0.945693 0.938445 1
1 0.93164 1
1 0.939147 1
0.163378 1 1
0.168002 1 1
0.175357 1 1
0.192065 1 1
0.24535 1 1
0.622751 1 1
0.908309 0.995651 1
0.990707 0.989517 1
1 0.989563 1
0.166033 1 1
0.170474 1 1
0.178363 1 1
0.201373 1 1
0.264607 1 1
0.684276 1 1
0.911879 1 1
0.9841 1 1
1 1 1
