assets/luts/LUTs/GC_DJI_D-Log_to_Rec709.CUBE
TITLE "Generated by Resolve"
LUT_3D_SIZE 5
0 0 0
0.201007 0.00328069 0.0112764
0.755489 0.0542763 0.128145
1 0.132723 0.247349
1 0.141024 0.259449
0 0.151125 0.0289921
0.135012 0.145418 0.00106813
0.774624 0.115129 0
1 0.158526 0.116243
1 0.164157 0.123751
0.066804 0.670619 0.276524
0.105043 0.69279 0.217319
0.626352 0.656474 0.125933
1 0.636133 0
1 0.663859 0
0.167742 1 0.484581
0.188556 1 0.449836
0.458457 1 0.147768
1 1 0.254902
1 1 0.267323
0.181262 1 0.50927
0.200809 1 0.470726
0.533822 1 0.156161
1 1 0.261433
1 1 0.27245
0.0157015 0 0.172183
0.182849 0.000442512 0.15938
0.750271 0.0391394 0.252872
1 0.118441 0.334325
1 0.127001 0.344472
0 0.119234 0.116014
0.113375 0.113375 0.113375
0.793881 0.0683757 0.144167
1 0.137362 0.250202
1 0.142916 0.258167
0.0524758 0.667933 0.333425
0.0909285 0.690837 0.292912
0.626383 0.656046 0.145083
1 0.629572 0.0525521
1 0.657359 0.0632792
0.157961 1 0.519112
0.179278 1 0.488441
0.43299 1 0.176852
1 1 0.26511
1 1 0.275395
0.171023 1 0.543313
0.190967 1 0.509392
0.509957 1 0.186267
1 1 0.271748
1 1 0.281239
0.167254 0 0.725704
0.263584 0 0.669429
0.724132 0.0488441 0.656962
1 0.112398 0.700557
1 0.121157 0.723537
0 0.0419165 0.680751
0.159976 0 0.699596
0.770397 0.0675669 0.699794
1 0.127657 0.732174
1 0.133822 0.758602
0.0565499 0.606882 0.596902
0.0823224 0.626673 0.616541
0.587289 0.587289 0.587289
1 0.51841 0.551278
1 0.543389 0.576883
0.117617 1 0.70425
0.140749 1 0.702098
0.259953 1 0.499672
0.981933 1 0.33518
1 1 0.349889
0.134035 1 0.766613
0.15462 1 0.759503
0.288716 1 0.528832
0.967041 1 0.358267
1 1 0.341772
0.272496 0 1
0.346654 0 1
0.749401 0 1
1 0.129778 1
1 0.135973 1
0.157626 0 1
0.271229 0 1
0.784314 0 1
1 0.138766 1
1 0.143496 1
0 0.525673 0.953658
0 0.543526 0.966018
0.52929 0.440513 1
1 0.350088 1
1 0.385855 1
0.152056 0.994644 0.979248
0.165957 0.997314 0.981964
0.242344 0.975067 0.960586
0.94905 0.94905 0.94905
1 0.949004 0.951736
0.162295 1 1
0.175479 1 1
0.266865 1 0.969787
0.924239 1 0.940963
1 1 0.920562
0.280598 0 1
0.354833 0 1
0.758618 0 1
1 0.134035 1
1 0.139162 1
0.169497 0 1
0.278691 0 1
0.794369 0 1
1 0.141238 1
1 0.145266 1
0 0.52549 0.990112
0 0.545068 0.997696
0.53312 0.435554 1
1 0.343618 1
1 0.381262 1
0.0893721 0.991333 1
0.122408 0.993927 1
0.229068 0.967987 1
0.945693 0.938445 1
1 0.939147 1
0.166033 1 1
0.178363 1 1
0.264607 1 1
0.911879 1 1
1 1 1
