assets/luts/LUTs/GC_DJI_D-Log_to_Rec709.CUBE
TITLE "Generated by Resolve"
LUT_3D_SIZE 65
0 0 0
0 0 0
0 0 0
0 0 0
0 0 0
0 0 0
0 0 0
0.00978103 0 0.000289921
0.0313726 0 0.000946059
0.0545663 0 0.00167849
0.0778058 0.000137331 0.00263981
0.0998398 0.00047303 0.00370794
0.11899 0.000854505 0.00480659
0.138186 0.00129702 0.00605783
0.158099 0.00184634 0.00753796
0.179049 0.00250248 0.00926223
0.201007 0.00328069 0.0112764
0.224231 0.00421149 0.0136263
0.248844 0.00529488 0.0163729
0.274769 0.00656138 0.0195621
0.302434 0.00807202 0.02327
0.331579 0.00981155 0.0275578
0.362585 0.011841 0.0325475
0.395743 0.0142061 0.0383612
0.429969 0.0168917 0.044892
0.466026 0.0199588 0.052369
0.503349 0.0234073 0.0607614
0.542443 0.0273136 0.0702678
0.582834 0.031693 0.0808728
0.624674 0.0365911 0.0925307
0.667826 0.0420233 0.104295
0.711299 0.0478828 0.116121
0.755489 0.0542763 0.128145
0.799069 0.0609751 0.139971
0.84184 0.0679637 0.151583
0.883284 0.0751202 0.162814
0.922316 0.0824445 0.173388
0.959579 0.0893263 0.183474
0.993957 0.0956588 0.192767
1 0.101564 0.20145
1 0.106996 0.209461
1 0.111788 0.216495
1 0.116121 0.222873
1 0.119905 0.228443
1 0.123262 0.233402
1 0.126177 0.23769
1 0.128679 0.241398
1 0.130877 0.244617
1 0.132723 0.247349
1 0.134325 0.249714
1 0.135683 0.251713
1 0.136828 0.253422
1 0.137819 0.254887
1 0.138643 0.256107
1 0.139361 0.25716
1 0.139956 0.25803
1 0.140444 0.258762
1 0.140826 0.259327
1 0.140948 0.259495
1 0.140963 0.259495
1 0.140978 0.25948
1 0.140993 0.25948
1 0.140993 0.259464
1 0.141009 0.259464
1 0.141024 0.259449
0 0 0
0 0 0
0 0 0
0 0 0
0 0 0
0 0 0
0 0 0
0.00541695 0.000122072 0
0.0261845 0.000411994 0
0.0492409 0.000549325 0
0.0725414 0.000823987 0
0.0951858 0.00114443 0
0.115068 0.00148013 0.000228885
0.134691 0.0018616 0.00111391
0.1552 0.00230411 0.00221256
0.176318 0.00296025 0.00370794
0.198611 0.00376898 0.00555428
0.222187 0.00471504 0.00775158
0.247044 0.00582895 0.0103609
0.273518 0.00714122 0.0134585
0.301427 0.00866712 0.0170748
0.33106 0.0104372 0.0213169
0.362387 0.0124971 0.0262608
0.395605 0.0148928 0.0319982
0.430549 0.0176394 0.0386053
0.467124 0.0207675 0.0461433
0.505928 0.0243992 0.0548562
0.546624 0.0285191 0.0647898
0.588586 0.0331273 0.0758679
0.632288 0.0383154 0.0884413
0.676341 0.043946 0.100877
0.721218 0.0501106 0.113466
0.765515 0.056611 0.125841
0.809308 0.063447 0.138033
0.852125 0.0705577 0.149905
0.892927 0.0776837 0.161181
0.93225 0.0851148 0.17203
0.968963 0.0918441 0.182147
1 0.0981308 0.191562
1 0.103929 0.200244
1 0.109148 0.208072
1 0.113848 0.215106
1 0.117968 0.221256
1 0.12163 0.226749
1 0.124819 0.231525
1 0.127596 0.235676
1 0.130007 0.239277
1 0.132052 0.242344
1 0.133837 0.244999
1 0.135332 0.247257
1 0.136629 0.24918
1 0.137713 0.250828
1 0.138643 0.252201
1 0.139422 0.253391
1 0.140093 0.254383
1 0.140658 0.255222
1 0.141115 0.255924
1 0.141451 0.256413
1 0.141466 0.256413
1 0.141466 0.256397
1 0.141482 0.256397
1 0.141497 0.256382
1 0.141512 0.256367
1 0.141512 0.256352
1 0.141527 0.256352
0 0 0
0 0 0
0 0 0
0 0 0
0 0 0
0 0 0
0 0 0
0.00102235 6.10361e-05 0
0.0203708 0.000946059 0
0.0424964 0.00146487 0
0.0653239 0.00192264 0
0.0882277 0.00239567 0
0.10869 0.00283818 0
0.128878 0.00332647 0
0.149905 0.00386053 0
0.171847 0.00447089 0
0.195056 0.00517281 0.000488289
0.219379 0.00595102 0.00231937
0.245212 0.00686656 0.00454719
0.272343 0.00788891 0.00721752
0.300908 0.00932326 0.0106508
0.33109 0.0111543 0.0148775
0.363012 0.0132753 0.0198367
0.397711 0.0157931 0.0257877
0.433875 0.018677 0.0326085
0.472435 0.0220493 0.040589
0.512932 0.0258946 0.0497597
0.554574 0.0301976 0.060029
0.597986 0.03505 0.0716564
0.64181 0.0403449 0.0845655
0.686732 0.0461891 0.097734
0.731502 0.0524453 0.110704
0.776226 0.0591135 0.123568
0.820432 0.0661326 0.136172
0.862852 0.0732586 0.148211
0.904112 0.0805829 0.159854
0.942809 0.0879072 0.170733
0.979202 0.0945449 0.180941
1 0.10071 0.190356
1 0.106233 0.198825
1 0.111345 0.206622
1 0.115801 0.213413
1 0.119814 0.219501
1 0.123323 0.224857
1 0.126345 0.22945
1 0.129015 0.233509
1 0.131273 0.236942
1 0.133242 0.239933
1 0.13492 0.242481
1 0.136339 0.244648
1 0.13756 0.246494
1 0.138582 0.248051
1 0.139467 0.249393
1 0.1402 0.250507
1 0.140826 0.251469
1 0.14136 0.252277
1 0.141802 0.252934
1 0.14197 0.253193
1 0.14197 0.253193
1 0.141985 0.253178
1 0.142 0.253162
1 0.142016 0.253147
1 0.142031 0.253132
1 0.142046 0.253117
1 0.142061 0.253101
0 0 0
0 0 0
0 0 0
0 0 0
0 0 0
0 0 0
0 0 0
0 0 0
0.01561 0.0012665 0
0.0366827 0.00221256 0
0.0592508 0.00289921 0
0.0820325 0.00354009 0
0.103227 0.00411994 0
0.124025 0.00471504 0
0.14551 0.00535592 0
0.168063 0.00605783 0
0.191623 0.00683604 0
0.216632 0.00770581 0
0.24303 0.00869764 0
0.271336 0.00982681 0.002533
0.30164 0.0111391 0.00578317
0.333654 0.0126497 0.00965896
0.368124 0.0144045 0.0143587
0.404013 0.0170596 0.0205386
0.441825 0.0201572 0.0277562
0.481468 0.023682 0.0360876
0.522255 0.0276493 0.0454871
0.564981 0.0321508 0.056199
0.608484 0.0371099 0.0680552
0.653452 0.0426642 0.0815747
0.699031 0.0487068 0.0953994
0.744137 0.0551308 0.108888
0.78938 0.0620127 0.12224
0.833082 0.0690776 0.135012
0.875807 0.0763867 0.147402
0.916182 0.0838941 0.15903
0.954406 0.090837 0.169955
0.990097 0.097322 0.180117
1 0.103197 0.189319
1 0.108629 0.197757
1 0.113497 0.205341
1 0.11783 0.212039
1 0.121645 0.21796
1 0.124956 0.223072
1 0.127871 0.227573
1 0.130358 0.231418
1 0.13254 0.234775
1 0.134386 0.237629
1 0.135973 0.24007
1 0.137331 0.242161
1 0.13846 0.2439
1 0.139437 0.245411
1 0.140261 0.246677
1 0.140948 0.247745
1 0.141543 0.248661
1 0.142046 0.249424
1 0.142458 0.250065
1 0.142473 0.25008
1 0.142473 0.250065
1 0.142489 0.25005
1 0.142489 0.250034
1 0.142504 0.250019
1 0.142519 0.250004
1 0.142535 0.249989
1 0.14255 0.249958
0 0 0
0 0 0
0 0 0
0 0 0
0 0 0
0 0 0
0 0 0
0 0 0
0.0115663 0.00143435 0
0.0317082 0.0028687 0
0.0536812 0.00384527 0
0.0759747 0.00468452 0
0.0978714 0.00540169 0
0.119158 0.00611887 0
0.14139 0.00686656 0
0.164614 0.00769055 0
0.189349 0.00859083 0
0.215671 0.00961318 0
0.243503 0.0107271 0
0.273396 0.0120241 0
0.304875 0.0134585 0.00134279
0.338521 0.0151064 0.00538643
0.373709 0.0169528 0.0101778
0.411582 0.0191196 0.0159762
0.450782 0.0217594 0.0228885
0.490791 0.0254063 0.0314488
0.532952 0.0295872 0.0413519
0.576104 0.0342412 0.0523995
0.620981 0.0394751 0.0648814
0.666682 0.045243 0.078645
0.712139 0.0514076 0.0931868
0.757992 0.0580758 0.107332
0.802548 0.0649729 0.120851
0.846494 0.0722057 0.134005
0.888304 0.0794842 0.146395
0.928283 0.0869459 0.158129
0.965881 0.0937362 0.169085
1 0.0999619 0.179049
1 0.10573 0.188251
1 0.110918 0.196475
1 0.115633 0.203937
1 0.119783 0.210483
1 0.123384 0.216159
1 0.126589 0.221195
1 0.12932 0.225483
1 0.131716 0.229236
1 0.133776 0.232471
1 0.135515 0.235187
1 0.137011 0.237537
1 0.138277 0.239506
1 0.139361 0.241215
1 0.140276 0.242634
1 0.141039 0.243839
1 0.141711 0.244877
1 0.14226 0.245731
1 0.142718 0.246464
1 0.142977 0.24686
1 0.142977 0.246845
1 0.142977 0.246845
1 0.142992 0.24683
1 0.143008 0.246815
1 0.143023 0.246784
1 0.143038 0.246769
1 0.143053 0.246738
1 0.143069 0.246723
0 0 0
0 0 0
0 0 0
0 0 0
0 0 0
0 0 0
0 0 0
0 0 0
0.00717174 0.00135805 0
0.0256352 0.00344854 0
0.0468757 0.00483711 0
0.0687572 0.00593576 0
0.0910506 0.0068513 0
0.113497 0.00776684 0
0.136797 0.00869764 0
0.161501 0.00972 0
0.187625 0.0107881 0
0.215015 0.0119478 0
0.244236 0.0132143 0
0.274815 0.0146029 0
0.30753 0.0161746 0
0.341711 0.0178988 0
0.378271 0.0198978 0.00482185
0.417273 0.0221866 0.0107881
0.457328 0.0247349 0.0176394
0.499702 0.0276341 0.0256962
0.542535 0.0315862 0.0354925
0.586908 0.0364691 0.0470741
0.632319 0.0418708 0.059968
0.677714 0.0476997 0.0738994
0.723873 0.054078 0.089189
0.7691 0.0607614 0.103716
0.814084 0.0678416 0.117845
0.85771 0.0751354 0.131319
0.898955 0.0826581 0.143877
0.938506 0.0897536 0.155764
0.974975 0.0962997 0.166629
1 0.102434 0.17673
1 0.107988 0.185779
1 0.113024 0.193973
1 0.117586 0.201358
1 0.121538 0.207721
1 0.125048 0.213367
1 0.128069 0.218235
1 0.130724 0.222461
1 0.133013 0.226123
1 0.134951 0.229206
1 0.136629 0.231891
1 0.138033 0.234134
1 0.139254 0.236057
1 0.140261 0.23769
1 0.141131 0.239078
1 0.141878 0.240238
1 0.142489 0.24123
1 0.143023 0.242069
1 0.14345 0.242771
1 0.143572 0.242939
1 0.143572 0.242939
1 0.143572 0.242924
1 0.143587 0.242908
1 0.143603 0.242878
1 0.143618 0.242863
1 0.143633 0.242832
1 0.143648 0.242802
1 0.143664 0.242771
0 0 0
0 0 0
0 0 0
0 0 0
0 0 0
0 0 0
0 0 0
0 0 0
0.00291447 0.000854505 0
0.0195773 0.00389105 0
0.0399176 0.00587472 0
0.0614023 0.00732433 0
0.084062 0.00854505 0
0.107683 0.00970474 0
0.132403 0.0108797 0
0.158236 0.0120699 0
0.185138 0.0132906 0
0.213703 0.0145876 0
0.243595 0.0159762 0
0.275532 0.0175021 0
0.309346 0.0192111 0
0.344686 0.0210727 0
0.382406 0.023209 0
0.421988 0.0255894 0.00451667
0.463447 0.0282902 0.0116426
0.50605 0.031281 0.019791
0.550622 0.0346532 0.0292058
0.596185 0.0386664 0.0400854
0.641321 0.0441138 0.0531014
0.687541 0.0501411 0.0675212
0.733211 0.0565499 0.0830854
0.779019 0.0634165 0.0985428
0.82385 0.070573 0.113252
0.866621 0.0778058 0.126955
0.907988 0.0853742 0.139971
0.946517 0.0922408 0.151904
0.982849 0.0987411 0.163043
1 0.104646 0.173083
1 0.110094 0.182223
1 0.114992 0.190417
1 0.119356 0.197665
1 0.123232 0.204059
1 0.126574 0.209583
1 0.129519 0.214405
1 0.132067 0.218585
1 0.134234 0.222126
1 0.136126 0.225193
1 0.137697 0.227771
1 0.139071 0.229999
1 0.14023 0.231876
1 0.141192 0.233463
1 0.142031 0.234806
1 0.142718 0.235935
1 0.143313 0.236896
1 0.143816 0.23772
1 0.144228 0.238392
1 0.144228 0.238392
1 0.144244 0.238376
1 0.144244 0.238361
1 0.144259 0.238346
1 0.144274 0.238315
1 0.144289 0.238285
1 0.144305 0.238254
1 0.14432 0.238224
1 0.144335 0.238193
0 0 0
0 0 0
0 0 0
0 0 0
0 0 0
0 0 0
0 0 0
0 0 0
0 0 0
0.0117037 0.00389105 0
0.0297856 0.00689708 0
0.0502785 0.00898756 0
0.0717479 0.010605 0
0.0966201 0.0121157 0
0.122393 0.0135805 0
0.14905 0.0150149 0
0.177234 0.016495 0
0.206561 0.0179751 0
0.237827 0.0195773 0
0.270756 0.0212863 0
0.30515 0.0231022 0
0.341695 0.0251164 0
0.379644 0.0273136 0
0.420325 0.0298466 0
0.461814 0.032578 0.00106813
0.50547 0.0356909 0.00927749
0.550515 0.0391394 0.0186923
0.596124 0.0428931 0.0291905
0.643137 0.0470741 0.0410315
0.689662 0.0519417 0.0542611
0.736034 0.0584726 0.0698863
0.781888 0.0653697 0.0865949
0.826108 0.0724498 0.102235
0.869383 0.0798047 0.117006
0.910124 0.0872206 0.130556
0.949035 0.0940871 0.143221
0.985199 0.100496 0.154803
1 0.106325 0.165179
1 0.111696 0.174624
1 0.116472 0.18294
1 0.120821 0.190463
1 0.124575 0.196918
1 0.127901 0.202594
1 0.1308 0.207507
1 0.133272 0.211704
1 0.135424 0.215335
1 0.13724 0.218418
1 0.138827 0.221057
1 0.140154 0.223316
1 0.141283 0.225193
1 0.142245 0.22681
1 0.143038 0.228153
1 0.14374 0.229313
1 0.144305 0.230274
1 0.144793 0.231098
1 0.145159 0.231693
1 0.145159 0.231693
1 0.145159 0.231693
1 0.145174 0.231678
1 0.14519 0.231647
1 0.145205 0.231601
1 0.14522 0.231571
1 0.145235 0.231525
1 0.145251 0.231495
1 0.145266 0.231449
0 0 0
0 0 0
0 0 0
0 0 0
0 0 0
0 0 0
0 0 0
0 0 0
0 0 0
0.00469978 0.00288396 0
0.0193637 0.00735485 0
0.0377203 0.0103151 0
0.0580148 0.0125429 0
0.082475 0.0145266 0
0.109377 0.0163729 0
0.137499 0.0181888 0
0.166537 0.0199435 0
0.197192 0.0217136 0
0.229313 0.0235294 0
0.262715 0.0253758 0
0.298146 0.0273747 0
0.334874 0.0294957 0
0.373877 0.0318456 0
0.415061 0.0344549 0
0.457115 0.0372778 0
0.501244 0.0404669 0
0.54612 0.0439155 0.00564584
0.592676 0.047776 0.0161746
0.639384 0.0519265 0.0277714
0.687053 0.0564889 0.0406653
0.734615 0.0613413 0.054612
0.780682 0.0669108 0.0697337
0.825605 0.0740978 0.0871595
0.868421 0.08159 0.103151
0.909789 0.0888075 0.117968
0.94876 0.0956283 0.131518
0.984497 0.101884 0.143633
1 0.107744 0.154711
1 0.112993 0.164508
1 0.1178 0.173312
1 0.122057 0.181064
1 0.125826 0.187839
1 0.129137 0.193744
1 0.131975 0.198779
1 0.134463 0.203159
1 0.136568 0.206882
1 0.138399 0.210086
1 0.139956 0.212818
1 0.141268 0.215106
1 0.142397 0.217075
1 0.143328 0.218708
1 0.144137 0.220111
1 0.144823 0.221302
1 0.145388 0.222278
1 0.145876 0.223133
1 0.146227 0.223728
1 0.146227 0.223728
1 0.146227 0.223713
1 0.146227 0.223697
1 0.146242 0.223651
1 0.146258 0.223621
1 0.146288 0.223575
1 0.146304 0.223514
1 0.146319 0.223468
1 0.146334 0.223407
0 0.0148928 0.0024567
0 0.0152285 0.00166323
0 0.0158389 0.000656138
0.000427253 0.0163272 0
0.00157168 0.0167849 0
0.00296025 0.0167391 0
0.00453193 0.0162814 0
0.00642405 0.0147402 0
0.00799573 0.0125429 0
0.00943008 0.0106203 0
0.0178073 0.0145266 0
0.031693 0.0172427 0
0.0487831 0.0188754 0
0.0694896 0.0196994 0
0.0955673 0.0202792 0
0.123598 0.0213016 0
0.153979 0.0234531 0
0.18555 0.0255283 0
0.21825 0.0275578 0
0.252735 0.0296635 0
0.288457 0.0317998 0
0.326253 0.0341039 0
0.365743 0.0365759 0
0.407034 0.0392462 0
0.449989 0.0422065 0
0.493935 0.0453956 0
0.539742 0.0489509 0
0.586023 0.0527962 0.00137331
0.633661 0.0570382 0.0129549
0.681651 0.0616312 0.0257267
0.728923 0.0664378 0.0393835
0.776211 0.0715801 0.0541085
0.821744 0.0768292 0.0693065
0.866011 0.0830396 0.085832
0.90753 0.0901808 0.102266
0.946136 0.096849 0.116869
0.982513 0.103166 0.130159
1 0.108904 0.141894
1 0.114229 0.152483
1 0.119005 0.161822
1 0.123247 0.170016
1 0.127016 0.177172
1 0.130266 0.183291
1 0.133135 0.188647
1 0.135592 0.193194
1 0.137728 0.197131
1 0.139559 0.200488
1 0.141085 0.203311
1 0.142412 0.205722
1 0.143526 0.207752
1 0.144488 0.209491
1 0.145296 0.210941
1 0.145968 0.212161
1 0.146532 0.213199
1 0.147021 0.214084
1 0.147372 0.214725
1 0.147372 0.214725
1 0.147372 0.21471
1 0.147387 0.214679
1 0.147402 0.214633
1 0.147417 0.214588
1 0.147433 0.214527
1 0.147448 0.214466
1 0.147478 0.214389
1 0.147494 0.214328
0 0.0326085 0.00538643
0 0.033463 0.00396735
0 0.0341039 0.0021973
0 0.0350805 0.000228885
0.00173953 0.0354009 0
0.00410468 0.0351568 0
0.00686656 0.0346838 0
0.010544 0.032639 0
0.0144808 0.0302129 0
0.018265 0.0273747 0
0.0251621 0.0279698 0
0.0353094 0.0314031 0
0.0496223 0.0339208 0
0.068513 0.0357214 0
0.0925917 0.0367285 0
0.119219 0.0374304 0
0.147539 0.0376135 0
0.177096 0.0370947 0
0.208728 0.0362402 0
0.24155 0.0346838 0
0.278019 0.0362707 0
0.31635 0.0387427 0
0.356039 0.0413214 0
0.398245 0.0441596 0
0.441093 0.0471504 0
0.486 0.0504616 0
0.532113 0.054078 0
0.578851 0.0579843 0
0.626856 0.0622721 0
0.674556 0.066804 0.00981155
0.722759 0.0717174 0.0234989
0.769711 0.0767987 0.0379187
0.816144 0.0823835 0.0532235
0.86096 0.0877241 0.0689708
0.90309 0.0928054 0.0848859
0.94316 0.0981003 0.0999466
0.979324 0.104295 0.114427
1 0.110109 0.127398
1 0.115404 0.138842
1 0.120119 0.14876
1 0.124422 0.157641
1 0.12813 0.165164
1 0.131426 0.171756
1 0.134264 0.177371
1 0.136751 0.182239
1 0.138888 0.186389
1 0.140688 0.189899
1 0.14226 0.192905
1 0.143572 0.195422
1 0.144701 0.197574
1 0.145663 0.199405
1 0.146456 0.200916
1 0.147143 0.202213
1 0.147707 0.203296
1 0.148196 0.204227
1 0.148562 0.204929
1 0.148562 0.204929
1 0.148577 0.204898
1 0.148577 0.204883
1 0.148592 0.204822
1 0.148608 0.204761
1 0.148638 0.204685
1 0.148653 0.204608
1 0.148669 0.204532
1 0.148699 0.204456
0 0.0511177 0.0084535
0 0.0518807 0.0065156
0 0.052903 0.00425727
0 0.0541085 0.00178531
0.000961318 0.0548104 0
0.00407416 0.0546731 0
0.00766003 0.0538949 0
0.0127108 0.0518044 0
0.0182498 0.0489052 0
0.0238804 0.0455787 0
0.0306249 0.0434882 0
0.0411231 0.0455787 0
0.0524605 0.0484932 0
0.0687266 0.0511635 0
0.0909438 0.0530404 0
0.116274 0.0543832 0
0.14342 0.054902 0
0.172869 0.0550393 0
0.203738 0.0543984 0
0.236835 0.0533608 0
0.271656 0.0516823 0
0.307973 0.0492866 0
0.346517 0.0463874 0
0.388632 0.0489815 0
0.432502 0.0521401 0
0.477729 0.0555276 0
0.523842 0.0591745 0
0.57142 0.0631876 0
0.61912 0.0674449 0
0.667735 0.0720836 0
0.715618 0.076936 0.00721752
0.763516 0.0823682 0.0216831
0.810285 0.0876173 0.0368963
0.854856 0.0927138 0.0523842
0.897902 0.0977493 0.0682689
0.937942 0.10251 0.0840925
0.975677 0.107057 0.0985275
1 0.111315 0.111269
1 0.116503 0.123644
1 0.121279 0.134569
1 0.125521 0.14403
1 0.12929 0.152239
1 0.132601 0.159289
1 0.135424 0.16527
1 0.137926 0.170459
1 0.140032 0.174838
1 0.141878 0.178592
1 0.14342 0.18175
1 0.144762 0.184451
1 0.145892 0.186725
1 0.146838 0.188632
1 0.147646 0.190249
1 0.148318 0.191608
1 0.148898 0.192752
1 0.149386 0.193729
1 0.149783 0.194507
1 0.149783 0.194507
1 0.149783 0.194491
1 0.149798 0.194446
1 0.149813 0.194385
1 0.149828 0.194308
1 0.149844 0.194232
1 0.149874 0.194156
1 0.149889 0.194064
1 0.14992 0.193988
0 0.0699321 0.0115663
0 0.071046 0.00929274
0 0.0722667 0.00665293
0 0.0733959 0.00381476
7.62951e-05 0.0747387 0.000640879
0.00337224 0.074403 0
0.00762951 0.0736858 0
0.013611 0.0712596 0
0.0202792 0.0680552 0
0.0272984 0.0644999 0
0.0341802 0.0605783 0
0.0454108 0.0614633 0
0.0572671 0.063386 0
0.0704662 0.0659648 0
0.0903792 0.0688792 0
0.11368 0.0707256 0
0.140108 0.0720684 0
0.168475 0.0725261 0
0.199344 0.0725261 0
0.232197 0.07187 0
0.266514 0.0703899 0
0.303166 0.0684367 0
0.341161 0.0656138 0
0.381918 0.0621805 0
0.423835 0.0580148 0
0.468879 0.060502 0
0.515816 0.064271 0
0.563134 0.0682689 0
0.611811 0.0726329 0
0.660639 0.0773022 0
0.70901 0.0824598 0
0.757259 0.0875563 0.00547799
0.803738 0.0925917 0.0203861
0.849241 0.0976272 0.035996
0.892027 0.102464 0.0516213
0.932921 0.107179 0.0673838
0.970962 0.111635 0.0830243
1 0.11574 0.096849
1 0.11957 0.109071
1 0.123018 0.11957
1 0.12668 0.129397
1 0.130449 0.138277
1 0.133715 0.1458
1 0.136599 0.152316
1 0.139055 0.157809
1 0.141207 0.162539
1 0.143023 0.166506
1 0.144594 0.169909
1 0.145937 0.172778
1 0.147066 0.175174
1 0.148028 0.177218
1 0.148821 0.178927
1 0.149508 0.180377
1 0.150103 0.181598
1 0.150576 0.18262
1 0.150988 0.183474
1 0.150988 0.18349
1 0.151003 0.183474
1 0.151019 0.183429
1 0.151034 0.183368
1 0.151049 0.183291
1 0.151064 0.183215
1 0.15108 0.183124
1 0.15111 0.183047
1 0.151125 0.182971
0 0.0895399 0.0148013
0 0.0908675 0.0122835
0 0.0919661 0.00939956
0 0.0934005 0.00650034
0.000335698 0.0946212 0.00321965
0.00250248 0.0952468 0.000320439
0.00724804 0.0947127 0
0.0139467 0.092256 0
0.0215457 0.0891737 0
0.0295262 0.0852369 0
0.0376287 0.0809796 0
0.0475929 0.0789502 0
0.0607309 0.0804456 0
0.074403 0.0824903 0
0.0908827 0.0849775 0
0.112291 0.0878157 0
0.137118 0.0896162 0
0.164782 0.0906539 0
0.195117 0.0910811 0
0.227176 0.0906233 0
0.261769 0.0896925 0
0.29778 0.0878767 0
0.336217 0.0855421 0
0.376791 0.0822919 0
0.418418 0.0779583 0
0.462119 0.0732128 0
0.506966 0.0692912 0
0.555306 0.0734264 0
0.604181 0.077821 0
0.653025 0.0827344 0
0.70222 0.0876173 0
0.750149 0.0924849 0
0.797574 0.0974441 0.00402838
0.842786 0.102296 0.0193484
0.886519 0.107088 0.035111
0.927749 0.111711 0.0508583
0.965637 0.116014 0.0660716
1 0.120119 0.0809033
1 0.123827 0.0944533
1 0.127275 0.10605
1 0.130388 0.116136
1 0.133104 0.124605
1 0.135515 0.13196
1 0.137713 0.138277
1 0.140215 0.144289
1 0.142382 0.149386
1 0.144198 0.153643
1 0.145785 0.15729
1 0.147097 0.160342
1 0.148241 0.162936
1 0.149203 0.165087
1 0.150011 0.166934
1 0.150713 0.168475
1 0.151278 0.169772
1 0.151781 0.170871
