assets/luts/LUTs/JD PRORES LOG CONV +1.CUBE
TITLE "ColorFinale Export"
# Created by Jeven Dovey on 2023-09-28 21:04:02 +0000
# Color Finale Plugin v.2.6.0 (537)
LUT_3D_SIZE 9
0.0000 0.0000 0.0000
0.0047 0.0000 0.0000
0.0592 0.0000 0.0000
0.2614 0.0000 0.0000
0.6221 0.0000 0.0000
0.8727 0.0000 0.0000
0.9835 0.0000 0.0000
1.0000 0.0000 0.0000
1.0000 0.0000 0.0000
0.0000 0.0047 0.0000
0.0040 0.0040 0.0000
0.0567 0.0000 0.0000
0.2562 0.0000 0.0000
0.6151 0.0000 0.0000
0.8682 0.0000 0.0000
0.9814 0.0000 0.0000
1.0000 0.0000 0.0000
1.0000 0.0000 0.0000
0.0000 0.0592 0.0000
0.0000 0.0567 0.0000
0.0492 0.0492 0.0000
0.2418 0.0336 0.0000
0.5954 0.0057 0.0000
0.8556 0.0000 0.0000
0.9750 0.0000 0.0000
1.0000 0.0000 0.0000
1.0000 0.0000 0.0000
0.0000 0.2614 0.0000
0.0000 0.2562 0.0000
0.0336 0.2418 0.0000
0.2171 0.2171 0.0000
0.5610 0.1861 0.0000
0.8340 0.1569 0.0000
0.9632 0.1319 0.0000
0.9999 0.1143 0.0000
1.0000 0.1075 0.0000
0.0000 0.6221 0.0000
0.0000 0.6151 0.0000
0.0057 0.5954 0.0000
0.1861 0.5610 0.0000
0.5203 0.5203 0.0000
0.8077 0.4847 0.0000
0.9478 0.4563 0.0000
0.9959 0.4373 0.0000
1.0000 0.4301 0.0000
0.0000 0.8727 0.0000
0.0000 0.8682 0.0000
0.0000 0.8556 0.0000
0.1569 0.8340 0.0000
0.4847 0.8077 0.0000
0.7837 0.7837 0.0000
0.9331 0.7638 0.0000
0.9896 0.7501 0.0000
0.9991 0.7449 0.0000
0.0000 0.9835 0.0000
0.0000 0.9814 0.0000
0.0000 0.9750 0.0000
0.1319 0.9632 0.0000
0.4563 0.9478 0.0000
0.7638 0.9331 0.0000
0.9207 0.9207 0.0000
0.9833 0.9121 0.0000
0.9960 0.9088 0.0000
0.0000 1.0000 0.0000
0.0000 1.0000 0.0000
0.0000 1.0000 0.0000
0.1143 0.9999 0.0000
0.4373 0.9959 0.0000
0.7501 0.9896 0.0000
0.9121 0.9833 0.0000
0.9785 0.9785 0.0000
0.9932 0.9766 0.0000
0.0000 1.0000 0.0000
0.0000 1.0000 0.0000
0.0000 1.0000 0.0000
0.1075 1.0000 0.0000
0.4301 1.0000 0.0000
0.7449 0.9991 0.0000
0.9088 0.9960 0.0000
0.9766 0.9932 0.0000
0.9919 0.9919 0.0000
0.0000 0.0000 0.0047
0.0040 0.0000 0.0040
0.0567 0.0000 0.0000
0.2562 0.0000 0.0000
0.6151 0.0000 0.0000
0.8682 0.0000 0.0000
0.9814 0.0000 0.0000
1.0000 0.0000 0.0000
1.0000 0.0000 0.0000
0.0000 0.0040 0.0040
0.0032 0.0032 0.0032
0.0542 0.0000 0.0000
0.2510 0.0000 0.0000
0.6080 0.0000 0.0000
0.8636 0.0000 0.0000
0.9791 0.0000 0.0000
1.0000 0.0000 0.0000
1.0000 0.0000 0.0000
0.0000 0.0567 0.0000
0.0000 0.0542 0.0000
0.0469 0.0469 0.0000
0.2368 0.0316 0.0000
0.5881 0.0031 0.0000
0.8509 0.0000 0.0000
0.9725 0.0000 0.0000
1.0000 0.0000 0.0000
1.0000 0.0000 0.0000
0.0000 0.2562 0.0000
0.0000 0.2510 0.0000
0.0316 0.2368 0.0000
0.2123 0.2123 0.0000
0.5535 0.1816 0.0000
0.8291 0.1526 0.0000
0.9603 0.1277 0.0000
0.9995 0.1101 0.0000
1.0000 0.1032 0.0000
0.0000 0.6151 0.0000
0.0000 0.6080 0.0000
0.0031 0.5881 0.0000
0.1816 0.5535 0.0000
0.5131 0.5131 0.0000
0.8025 0.4777 0.0000
0.9445 0.4493 0.0000
0.9947 0.4304 0.0000
1.0000 0.4232 0.0000
0.0000 0.8682 0.0000
0.0000 0.8636 0.0000
0.0000 0.8509 0.0000
0.1526 0.8291 0.0000
0.4777 0.8025 0.0000
0.7782 0.7782 0.0000
0.9295 0.7581 0.0000
0.9878 0.7442 0.0000
0.9984 0.7390 0.0000
0.0000 0.9814 0.0000
0.0000 0.9791 0.0000
0.0000 0.9725 0.0000
0.1277 0.9603 0.0000
0.4493 0.9445 0.0000
0.7581 0.9295 0.0000
0.9169 0.9169 0.0000
0.9811 0.9081 0.0000
0.9948 0.9048 0.0000
0.0000 1.0000 0.0000
0.0000 1.0000 0.0000
0.0000 1.0000 0.0000
0.1101 0.9995 0.0000
0.4304 0.9947 0.0000
0.7442 0.9878 0.0000
0.9081 0.9811 0.0000
0.9761 0.9761 0.0000
0.9916 0.9741 0.0000
0.0000 1.0000 0.0000
0.0000 1.0000 0.0000
0.0000 1.0000 0.0000
0.1032 1.0000 0.0000
0.4232 1.0000 0.0000
0.7390 0.9984 0.0000
0.9048 0.9948 0.0000
0.9741 0.9916 0.0000
0.9903 0.9903 0.0000
0.0000 0.0000 0.0592
0.0000 0.0000 0.0567
0.0492 0.0000 0.0492
0.2418 0.0000 0.0336
0.5954 0.0000 0.0057
0.8556 0.0000 0.0000
0.9750 0.0000 0.0000
1.0000 0.0000 0.0000
1.0000 0.0000 0.0000
0.0000 0.0000 0.0567
0.0000 0.0000 0.0542
0.0469 0.0000 0.0469
0.2368 0.0000 0.0316
0.5881 0.0000 0.0031
0.8509 0.0000 0.0000
0.9725 0.0000 0.0000
1.0000 0.0000 0.0000
1.0000 0.0000 0.0000
0.0000 0.0492 0.0492
0.0000 0.0469 0.0469
0.0402 0.0402 0.0402
0.2231 0.0257 0.0257
0.5677 0.0000 0.0000
0.8378 0.0000 0.0000
0.9652 0.0000 0.0000
1.0000 0.0000 0.0000
1.0000 0.0000 0.0000
0.0000 0.2418 0.0336
0.0000 0.2368 0.0316
0.0257 0.2231 0.0257
0.1995 0.1995 0.0120
0.5335 0.1697 0.0000
0.8154 0.1412 0.0000
0.9521 0.1167 0.0000
0.9974 0.0992 0.0000
1.0000 0.0924 0.0000
0.0000 0.5954 0.0057
0.0000 0.5881 0.0031
0.0000 0.5677 0.0000
0.1697 0.5335 0.0000
0.4938 0.4938 0.0000
0.7881 0.4590 0.0000
0.9353 0.4311 0.0000
0.9906 0.4124 0.0000
0.9994 0.4053 0.0000
0.0000 0.8556 0.0000
0.0000 0.8509 0.0000
0.0000 0.8378 0.0000
0.1412 0.8154 0.0000
0.4590 0.7881 0.0000
0.7632 0.7632 0.0000
0.9195 0.7425 0.0000
0.9824 0.7283 0.0000
0.9955 0.7229 0.0000
0.0000 0.9750 0.0000
0.0000 0.9725 0.0000
0.0000 0.9652 0.0000
0.1167 0.9521 0.0000
0.4311 0.9353 0.0000
0.7425 0.9195 0.0000
0.9063 0.9063 0.0000
0.9748 0.8972 0.0000
0.9907 0.8937 0.0000
0.0000 1.0000 0.0000
0.0000 1.0000 0.0000
0.0000 1.0000 0.0000
0.0992 0.9974 0.0000
0.4124 0.9906 0.0000
0.7283 0.9824 0.0000
0.8972 0.9748 0.0000
0.9692 0.9692 0.0000
0.9868 0.9670 0.0000
0.0000 1.0000 0.0000
0.0000 1.0000 0.0000
0.0000 1.0000 0.0000
0.0924 1.0000 0.0000
0.4053 0.9994 0.0000
0.7229 0.9955 0.0000
0.8937 0.9907 0.0000
0.9670 0.9868 0.0000
0.9853 0.9853 0.0000
0.0000 0.0000 0.2614
0.0000 0.0000 0.2562
0.0336 0.0000 0.2418
0.2171 0.0000 0.2171
0.5610 0.0000 0.1861
0.8340 0.0000 0.1569
0.9632 0.0000 0.1319
0.9999 0.0000 0.1143
1.0000 0.0000 0.1075
0.0000 0.0000 0.2562
0.0000 0.0000 0.2510
0.0316 0.0000 0.2368
0.2123 0.0000 0.2123
0.5535 0.0000 0.1816
0.8291 0.0000 0.1526
0.9603 0.0000 0.1277
0.9995 0.0000 0.1101
1.0000 0.0000 0.1032
0.0000 0.0336 0.2418
0.0000 0.0316 0.2368
0.0257 0.0257 0.2231
0.1995 0.0120 0.1995
0.5335 0.0000 0.1697
0.8154 0.0000 0.1412
0.9521 0.0000 0.1167
0.9974 0.0000 0.0992
1.0000 0.0000 0.0924
0.0000 0.2171 0.2171
0.0000 0.2123 0.2123
0.0120 0.1995 0.1995
0.1773 0.1773 0.1773
0.5006 0.1489 0.1489
0.7921 0.1215 0.1215
0.9375 0.0976 0.0976
0.9915 0.0804 0.0804
0.9997 0.0736 0.0736
0.0000 0.5610 0.1861
0.0000 0.5535 0.1816
0.0000 0.5335 0.1697
0.1489 0.5006 0.1489
0.4623 0.4623 0.1221
0.7637 0.4286 0.0956
0.9193 0.4015 0.0719
0.9821 0.3833 0.0545
0.9953 0.3763 0.0475
0.0000 0.8340 0.1569
0.0000 0.8291 0.1526
0.0000 0.8154 0.1412
0.1215 0.7921 0.1215
0.4286 0.7637 0.0956
0.7378 0.7378 0.0693
0.9024 0.7163 0.0450
0.9721 0.7015 0.0261
0.9888 0.6958 0.0179
0.0000 0.9632 0.1319
0.0000 0.9603 0.1277
0.0000 0.9521 0.1167
0.0976 0.9375 0.0976
0.4015 0.9193 0.0719
0.7163 0.9024 0.0450
0.8883 0.8883 0.0182
0.9632 0.8786 0.0000
0.9824 0.8749 0.0000
0.0000 0.9999 0.1143
0.0000 0.9995 0.1101
0.0000 0.9974 0.0992
0.0804 0.9915 0.0804
0.3833 0.9821 0.0545
0.7015 0.9721 0.0261
0.8786 0.9632 0.0000
0.9569 0.9569 0.0000
0.9775 0.9544 0.0000
0.0000 1.0000 0.1075
0.0000 1.0000 0.1032
0.0000 1.0000 0.0924
0.0736 0.9997 0.0736
0.3763 0.9953 0.0475
0.6958 0.9888 0.0179
0.8749 0.9824 0.0000
0.9544 0.9775 0.0000
0.9756 0.9756 0.0000
0.0000 0.0000 0.6221
0.0000 0.0000 0.6151
0.0057 0.0000 0.5954
0.1861 0.0000 0.5610
0.5203 0.0000 0.5203
0.8077 0.0000 0.4847
0.9478 0.0000 0.4563
0.9959 0.0000 0.4373
1.0000 0.0000 0.4301
0.0000 0.0000 0.6151
0.0000 0.0000 0.6080
0.0031 0.0000 0.5881
0.1816 0.0000 0.5535
0.5131 0.0000 0.5131
0.8025 0.0000 0.4777
0.9445 0.0000 0.4493
0.9947 0.0000 0.4304
1.0000 0.0000 0.4232
0.0000 0.0057 0.5954
0.0000 0.0031 0.5881
0.0000 0.0000 0.5677
0.1697 0.0000 0.5335
0.4938 0.0000 0.4938
0.7881 0.0000 0.4590
0.9353 0.0000 0.4311
0.9906 0.0000 0.4124
0.9994 0.0000 0.4053
0.0000 0.1861 0.5610
0.0000 0.1816 0.5535
0.0000 0.1697 0.5335
0.1489 0.1489 0.5006
0.4623 0.1221 0.4623
0.7637 0.0956 0.4286
0.9193 0.0719 0.4015
0.9821 0.0545 0.3833
0.9953 0.0475 0.3763
0.0000 0.5203 0.5203
0.0000 0.5131 0.5131
0.0000 0.4938 0.4938
0.1221 0.4623 0.4623
0.4255 0.4255 0.4255
0.7341 0.3929 0.3929
0.8995 0.3667 0.3667
0.9702 0.3490 0.3490
0.9875 0.3423 0.3423
0.0000 0.8077 0.4847
0.0000 0.8025 0.4777
0.0000 0.7881 0.4590
0.0956 0.7637 0.4286
0.3929 0.7341 0.3929
0.7070 0.7070 0.3613
0.8814 0.6845 0.3357
0.9585 0.6690 0.3184
0.9787 0.6630 0.3118
0.0000 0.9478 0.4563
0.0000 0.9445 0.4493
0.0000 0.9353 0.4311
0.0719 0.9193 0.4015
0.3667 0.8995 0.3667
0.6845 0.8814 0.3357
0.8664 0.8664 0.3105
0.9483 0.8561 0.2935
0.9707 0.8522 0.2870
0.0000 0.9959 0.4373
0.0000 0.9947 0.4304
0.0000 0.9906 0.4124
0.0545 0.9821 0.3833
0.3490 0.9702 0.3490
0.6690 0.9585 0.3184
0.8561 0.9483 0.2935
0.9412 0.9412 0.2766
0.9649 0.9384 0.2701
0.0000 1.0000 0.4301
0.0000 1.0000 0.4232
0.0000 0.9994 0.4053
0.0475 0.9953 0.3763
0.3423 0.9875 0.3423
0.6630 0.9787 0.3118
0.8522 0.9707 0.2870
0.9384 0.9649 0.2701
0.9626 0.9626 0.2637
0.0000 0.0000 0.8727
0.0000 0.0000 0.8682
0.0000 0.0000 0.8556
0.1569 0.0000 0.8340
0.4847 0.0000 0.8077
0.7837 0.0000 0.7837
0.9331 0.0000 0.7638
0.9896 0.0000 0.7501
0.9991 0.0000 0.7449
0.0000 0.0000 0.8682
0.0000 0.0000 0.8636
0.0000 0.0000 0.8509
0.1526 0.0000 0.8291
0.4777 0.0000 0.8025
0.7782 0.0000 0.7782
0.9295 0.0000 0.7581
0.9878 0.0000 0.7442
0.9984 0.0000 0.7390
0.0000 0.0000 0.8556
0.0000 0.0000 0.8509
0.0000 0.0000 0.8378
0.1412 0.0000 0.8154
0.4590 0.0000 0.7881
0.7632 0.0000 0.7632
0.9195 0.0000 0.7425
0.9824 0.0000 0.7283
0.9955 0.0000 0.7229
0.0000 0.1569 0.8340
0.0000 0.1526 0.8291
0.0000 0.1412 0.8154
0.1215 0.1215 0.7921
0.4286 0.0956 0.7637
0.7378 0.0693 0.7378
0.9024 0.0450 0.7163
0.9721 0.0261 0.7015
0.9888 0.0179 0.6958
0.0000 0.4847 0.8077
0.0000 0.4777 0.8025
0.0000 0.4590 0.7881
0.0956 0.4286 0.7637
0.3929 0.3929 0.7341
0.7070 0.3613 0.7070
0.8814 0.3357 0.6845
0.9585 0.3184 0.6690
0.9787 0.3118 0.6630
0.0000 0.7837 0.7837
0.0000 0.7782 0.7782
0.0000 0.7632 0.7632
0.0693 0.7378 0.7378
0.3613 0.7070 0.7070
0.6788 0.6788 0.6788
0.8623 0.6552 0.6552
0.9454 0.6389 0.6389
0.9683 0.6326 0.6326
0.0000 0.9331 0.7638
0.0000 0.9295 0.7581
0.0000 0.9195 0.7425
0.0450 0.9024 0.7163
0.3357 0.8814 0.6845
0.6552 0.8623 0.6552
0.8465 0.8465 0.6307
0.9342 0.8357 0.6137
0.9591 0.8316 0.6071
0.0000 0.9896 0.7501
0.0000 0.9878 0.7442
0.0000 0.9824 0.7283
0.0261 0.9721 0.7015
0.3184 0.9585 0.6690
0.6389 0.9454 0.6389
0.8357 0.9342 0.6137
0.9265 0.9265 0.5961
0.9526 0.9235 0.5893
0.0000 0.9991 0.7449
0.0000 0.9984 0.7390
0.0000 0.9955 0.7229
0.0179 0.9888 0.6958
0.3118 0.9787 0.6630
0.6326 0.9683 0.6326
0.8316 0.9591 0.6071
0.9235 0.9526 0.5893
0.9501 0.9501 0.5825
0.0000 0.0000 0.9835
0.0000 0.0000 0.9814
0.0000 0.0000 0.9750
0.1319 0.0000 0.9632
0.4563 0.0000 0.9478
0.7638 0.0000 0.9331
0.9207 0.0000 0.9207
0.9833 0.0000 0.9121
0.9960 0.0000 0.9088
0.0000 0.0000 0.9814
0.0000 0.0000 0.9791
0.0000 0.0000 0.9725
0.1277 0.0000 0.9603
0.4493 0.0000 0.9445
0.7581 0.0000 0.9295
0.9169 0.0000 0.9169
0.9811 0.0000 0.9081
0.9948 0.0000 0.9048
0.0000 0.0000 0.9750
0.0000 0.0000 0.9725
0.0000 0.0000 0.9652
0.1167 0.0000 0.9521
0.4311 0.0000 0.9353
0.7425 0.0000 0.9195
0.9063 0.0000 0.9063
0.9748 0.0000 0.8972
0.9907 0.0000 0.8937
0.0000 0.1319 0.9632
0.0000 0.1277 0.9603
0.0000 0.1167 0.9521
0.0976 0.0976 0.9375
0.4015 0.0719 0.9193
0.7163 0.0450 0.9024
0.8883 0.0182 0.8883
0.9632 0.0000 0.8786
0.9824 0.0000 0.8749
0.0000 0.4563 0.9478
0.0000 0.4493 0.9445
0.0000 0.4311 0.9353
0.0719 0.4015 0.9193
0.3667 0.3667 0.8995
0.6845 0.3357 0.8814
0.8664 0.3105 0.8664
0.9483 0.2935 0.8561
0.9707 0.2870 0.8522
0.0000 0.7638 0.9331
0.0000 0.7581 0.9295
0.0000 0.7425 0.9195
0.0450 0.7163 0.9024
0.3357 0.6845 0.8814
0.6552 0.6552 0.8623
0.8465 0.6307 0.8465
0.9342 0.6137 0.8357
0.9591 0.6071 0.8316
0.0000 0.9207 0.9207
0.0000 0.9169 0.9169
0.0000 0.9063 0.9063
0.0182 0.8883 0.8883
0.3105 0.8664 0.8664
0.6307 0.8465 0.8465
0.8301 0.8301 0.8301
0.9223 0.8189 0.8189
0.9491 0.8146 0.8146
0.0000 0.9833 0.9121
0.0000 0.9811 0.9081
0.0000 0.9748 0.8972
0.0000 0.9632 0.8786
0.2935 0.9483 0.8561
0.6137 0.9342 0.8357
0.8189 0.9223 0.8189
0.9142 0.9142 0.8074
0.9421 0.9110 0.8030
0.0000 0.9960 0.9088
0.0000 0.9948 0.9048
0.0000 0.9907 0.8937
0.0000 0.9824 0.8749
0.2870 0.9707 0.8522
0.6071 0.9591 0.8316
0.8146 0.9491 0.8146
0.9110 0.9421 0.8030
0.9394 0.9394 0.7985
0.0000 0.0000 1.0000
0.0000 0.0000 1.0000
0.0000 0.0000 1.0000
0.1143 0.0000 0.9999
0.4373 0.0000 0.9959
0.7501 0.0000 0.9896
0.9121 0.0000 0.9833
0.9785 0.0000 0.9785
0.9932 0.0000 0.9766
0.0000 0.0000 1.0000
0.0000 0.0000 1.0000
0.0000 0.0000 1.0000
0.1101 0.0000 0.9995
0.4304 0.0000 0.9947
0.7442 0.0000 0.9878
0.9081 0.0000 0.9811
0.9761 0.0000 0.9761
0.9916 0.0000 0.9741
0.0000 0.0000 1.0000
0.0000 0.0000 1.0000
0.0000 0.0000 1.0000
0.0992 0.0000 0.9974
0.4124 0.0000 0.9906
0.7283 0.0000 0.9824
0.8972 0.0000 0.9748
0.9692 0.0000 0.9692
0.9868 0.0000 0.9670
0.0000 0.1143 0.9999
0.0000 0.1101 0.9995
0.0000 0.0992 0.9974
0.0804 0.0804 0.9915
0.3833 0.0545 0.9821
0.7015 0.0261 0.9721
0.8786 0.0000 0.9632
0.9569 0.0000 0.9569
0.9775 0.0000 0.9544
0.0000 0.4373 0.9959
0.0000 0.4304 0.9947
0.0000 0.4124 0.9906
0.0545 0.3833 0.9821
0.3490 0.3490 0.9702
0.6690 0.3184 0.9585
0.8561 0.2935 0.9483
0.9412 0.2766 0.9412
0.9649 0.2701 0.9384
0.0000 0.7501 0.9896
0.0000 0.7442 0.9878
0.0000 0.7283 0.9824
0.0261 0.7015 0.9721
0.3184 0.6690 0.9585
0.6389 0.6389 0.9454
0.8357 0.6137 0.9342
0.9265 0.5961 0.9265
0.9526 0.5893 0.9235
0.0000 0.9121 0.9833
0.0000 0.9081 0.9811
0.0000 0.8972 0.9748
0.0000 0.8786 0.9632
0.2935 0.8561 0.9483
0.6137 0.8357 0.9342
0.8189 0.8189 0.9223
0.9142 0.8074 0.9142
0.9421 0.8030 0.9110
0.0000 0.9785 0.9785
0.0000 0.9761 0.9761
0.0000 0.9692 0.9692
0.0000 0.9569 0.9569
0.2766 0.9412 0.9412
0.5961 0.9265 0.9265
0.8074 0.9142 0.9142
0.9057 0.9057 0.9057
0.9348 0.9024 0.9024
0.0000 0.9932 0.9766
0.0000 0.9916 0.9741
0.0000 0.9868 0.9670
0.0000 0.9775 0.9544
0.2701 0.9649 0.9384
0.5893 0.9526 0.9235
0.8030 0.9421 0.9110
0.9024 0.9348 0.9024
0.9320 0.9320 0.8991
0.0000 0.0000 1.0000
0.0000 0.0000 1.0000
0.0000 0.0000 1.0000
0.1075 0.0000 1.0000
0.4301 0.0000 1.0000
0.7449 0.0000 0.9991
0.9088 0.0000 0.9960
0.9766 0.0000 0.9932
0.9919 0.0000 0.9919
0.0000 0.0000 1.0000
0.0000 0.0000 1.0000
0.0000 0.0000 1.0000
0.1032 0.0000 1.0000
0.4232 0.0000 1.0000
0.7390 0.0000 0.9984
0.9048 0.0000 0.9948
0.9741 0.0000 0.9916
0.9903 0.0000 0.9903
0.0000 0.0000 1.0000
0.0000 0.0000 1.0000
0.0000 0.0000 1.0000
0.0924 0.0000 1.0000
0.4053 0.0000 0.9994
0.7229 0.0000 0.9955
0.8937 0.0000 0.9907
0.9670 0.0000 0.9868
0.9853 0.0000 0.9853
0.0000 0.1075 1.0000
0.0000 0.1032 1.0000
0.0000 0.0924 1.0000
0.0736 0.0736 0.9997
0.3763 0.0475 0.9953
0.6958 0.0179 0.9888
0.8749 0.0000 0.9824
0.9544 0.0000 0.9775
0.9756 0.0000 0.9756
0.0000 0.4301 1.0000
0.0000 0.4232 1.0000
0.0000 0.4053 0.9994
0.0475 0.3763 0.9953
0.3423 0.3423 0.9875
0.6630 0.3118 0.9787
0.8522 0.2870 0.9707
0.9384 0.2701 0.9649
0.9626 0.2637 0.9626
0.0000 0.7449 0.9991
0.0000 0.7390 0.9984
0.0000 0.7229 0.9955
0.0179 0.6958 0.9888
0.3118 0.6630 0.9787
0.6326 0.6326 0.9683
0.8316 0.6071 0.9591
0.9235 0.5893 0.9526
0.9501 0.5825 0.9501
0.0000 0.9088 0.9960
0.0000 0.9048 0.9948
0.0000 0.8937 0.9907
0.0000 0.8749 0.9824
0.2870 0.8522 0.9707
0.6071 0.8316 0.9591
0.8146 0.8146 0.9491
0.9110 0.8030 0.9421
0.9394 0.7985 0.9394
0.0000 0.9766 0.9932
0.0000 0.9741 0.9916
0.0000 0.9670 0.9868
0.0000 0.9544 0.9775
0.2701 0.9384 0.9649
0.5893 0.9235 0.9526
0.8030 0.9110 0.9421
0.9024 0.9024 0.9348
0.9320 0.8991 0.9320
0.0000 0.9919 0.9919
0.0000 0.9903 0.9903
0.0000 0.9853 0.9853
0.0000 0.9756 0.9756
0.2637 0.9626 0.9626
0.5825 0.9501 0.9501
0.7985 0.9394 0.9394
0.8991 0.9320 0.9320
0.9291 0.9291 0.9291
