assets/luts/LUTs/JD PRORES LOG CONV -1.CUBE
TITLE "ColorFinale Export"
# Created by Jeven Dovey on 2023-09-28 21:03:52 +0000
# Color Finale Plugin v.2.6.0 (537)
LUT_3D_SIZE 5
0.0051 0.0051 0.0051
0.1653 0.0408 0.0408
0.6338 0.1371 0.1371
1.0000 0.2088 0.2088
1.0000 0.2353 0.2353
0.0408 0.1653 0.0408
0.1535 0.1535 0.0459
0.6137 0.1723 0.1312
1.0000 0.2245 0.2021
1.0000 0.2478 0.2285
0.1371 0.6338 0.1371
0.1723 0.6137 0.1312
0.5765 0.5765 0.1560
0.9953 0.5649 0.2067
1.0000 0.5645 0.2288
0.2088 1.0000 0.2088
0.2245 1.0000 0.2021
0.5649 0.9953 0.2067
0.9726 0.9726 0.2376
1.0000 0.9664 0.2538
0.2353 1.0000 0.2353
0.2478 1.0000 0.2285
0.5645 1.0000 0.2288
0.9664 1.0000 0.2538
1.0000 1.0000 0.2679
0.0408 0.0408 0.1653
0.1535 0.0459 0.1535
0.6137 0.1312 0.1723
1.0000 0.2021 0.2245
1.0000 0.2285 0.2478
0.0459 0.1535 0.1535
0.1413 0.1413 0.1413
0.5937 0.1626 0.1626
1.0000 0.2178 0.2178
1.0000 0.2419 0.2419
0.1312 0.6137 0.1723
0.1626 0.5937 0.1626
0.5571 0.5571 0.1782
0.9754 0.5460 0.2261
1.0000 0.5458 0.2481
0.2021 1.0000 0.2245
0.2178 1.0000 0.2178
0.5460 0.9754 0.2261
0.9533 0.9533 0.2610
1.0000 0.9472 0.2787
0.2285 1.0000 0.2478
0.2419 1.0000 0.2419
0.5458 1.0000 0.2481
0.9472 1.0000 0.2787
1.0000 1.0000 0.2947
0.1371 0.1371 0.6338
0.1723 0.1312 0.6137
0.5765 0.1560 0.5765
0.9953 0.2067 0.5649
1.0000 0.2288 0.5645
0.1312 0.1723 0.6137
0.1626 0.1626 0.5937
0.5571 0.1782 0.5571
0.9754 0.2261 0.5460
1.0000 0.2481 0.5458
0.1560 0.5765 0.5765
0.1782 0.5571 0.5571
0.5207 0.5207 0.5207
0.9330 0.5097 0.5097
1.0000 0.5097 0.5097
0.2067 0.9953 0.5649
0.2261 0.9754 0.5460
0.5097 0.9330 0.5097
0.9100 0.9100 0.4988
1.0000 0.9036 0.4986
0.2288 1.0000 0.5645
0.2481 1.0000 0.5458
0.5097 1.0000 0.5097
0.9036 1.0000 0.4986
1.0000 1.0000 0.4984
0.2088 0.2088 1.0000
0.2245 0.2021 1.0000
0.5649 0.2067 0.9953
0.9726 0.2376 0.9726
1.0000 0.2538 0.9664
0.2021 0.2245 1.0000
0.2178 0.2178 1.0000
0.5460 0.2261 0.9754
0.9533 0.2610 0.9533
1.0000 0.2787 0.9472
0.2067 0.5649 0.9953
0.2261 0.5460 0.9754
0.5097 0.5097 0.9330
0.9100 0.4988 0.9100
1.0000 0.4986 0.9036
0.2376 0.9726 0.9726
0.2610 0.9533 0.9533
0.4988 0.9100 0.9100
0.8860 0.8860 0.8860
1.0000 0.8794 0.8794
0.2538 1.0000 0.9664
0.2787 1.0000 0.9472
0.4986 1.0000 0.9036
0.8794 1.0000 0.8794
1.0000 1.0000 0.8727
0.2353 0.2353 1.0000
0.2478 0.2285 1.0000
0.5645 0.2288 1.0000
0.9664 0.2538 1.0000
1.0000 0.2679 1.0000
0.2285 0.2478 1.0000
0.2419 0.2419 1.0000
0.5458 0.2481 1.0000
0.9472 0.2787 1.0000
1.0000 0.2947 1.0000
0.2288 0.5645 1.0000
0.2481 0.5458 1.0000
0.5097 0.5097 1.0000
0.9036 0.4986 1.0000
1.0000 0.4984 1.0000
0.2538 0.9664 1.0000
0.2787 0.9472 1.0000
0.4986 0.9036 1.0000
0.8794 0.8794 1.0000
1.0000 0.8727 1.0000
0.2679 1.0000 1.0000
0.2947 1.0000 1.0000
0.4984 1.0000 1.0000
0.8727 1.0000 1.0000
1.0000 1.0000 1.0000
