assets/luts/LUTs/JD PRORES LOG CONV 0.CUBE
TITLE "ColorFinale Export"
# Created by Jeven Dovey on 2023-09-28 21:03:43 +0000
# Color Finale Plugin v.2.6.0 (537)
LUT_3D_SIZE 5
0.0000 0.0000 0.0000
0.1284 0.0000 0.0000
0.7097 0.0000 0.0000
1.0000 0.0000 0.0000
1.0000 0.0000 0.0000
0.0000 0.1284 0.0000
0.1109 0.1109 0.0000
0.6874 0.0000 0.0000
0.9961 0.0000 0.0000
1.0000 0.0000 0.0000
0.0000 0.7097 0.0000
0.0000 0.6874 0.0000
0.6166 0.6166 0.0000
0.9732 0.5390 0.0000
1.0000 0.5025 0.0000
0.0000 1.0000 0.0000
0.0000 0.9961 0.0000
0.5390 0.9732 0.0000
0.9470 0.9470 0.0000
1.0000 0.9346 0.0000
0.0000 1.0000 0.0000
0.0000 1.0000 0.0000
0.5025 1.0000 0.0000
0.9346 1.0000 0.0000
1.0000 1.0000 0.0000
0.0000 0.0000 0.1284
0.1109 0.0000 0.1109
0.6874 0.0000 0.0000
0.9961 0.0000 0.0000
1.0000 0.0000 0.0000
0.0000 0.1109 0.1109
0.0944 0.0944 0.0944
0.6648 0.0000 0.0000
0.9887 0.0000 0.0000
1.0000 0.0000 0.0000
0.0000 0.6874 0.0000
0.0000 0.6648 0.0000
0.5936 0.5936 0.0000
0.9632 0.5155 0.0000
1.0000 0.4786 0.0000
0.0000 0.9961 0.0000
0.0000 0.9887 0.0000
0.5155 0.9632 0.0000
0.9353 0.9353 0.0000
1.0000 0.9222 0.0000
0.0000 1.0000 0.0000
0.0000 1.0000 0.0000
0.4786 1.0000 0.0000
0.9222 1.0000 0.0000
0.9992 0.9992 0.0000
0.0000 0.0000 0.7097
0.0000 0.0000 0.6874
0.6166 0.0000 0.6166
0.9732 0.0000 0.5390
1.0000 0.0000 0.5025
0.0000 0.0000 0.6874
0.0000 0.0000 0.6648
0.5936 0.0000 0.5936
0.9632 0.0000 0.5155
1.0000 0.0000 0.4786
0.0000 0.6166 0.6166
0.0000 0.5936 0.5936
0.5231 0.5231 0.5231
0.9332 0.4449 0.4449
1.0000 0.4066 0.4066
0.0000 0.9732 0.5390
0.0000 0.9632 0.5155
0.4449 0.9332 0.4449
0.9015 0.9015 0.3630
0.9884 0.8865 0.3236
0.0000 1.0000 0.5025
0.0000 1.0000 0.4786
0.4066 1.0000 0.4066
0.8865 0.9884 0.3236
0.9800 0.9800 0.2830
0.0000 0.0000 1.0000
0.0000 0.0000 0.9961
0.5390 0.0000 0.9732
0.9470 0.0000 0.9470
1.0000 0.0000 0.9346
0.0000 0.0000 0.9961
0.0000 0.0000 0.9887
0.5155 0.0000 0.9632
0.9353 0.0000 0.9353
1.0000 0.0000 0.9222
0.0000 0.5390 0.9732
0.0000 0.5155 0.9632
0.4449 0.4449 0.9332
0.9015 0.3630 0.9015
0.9884 0.3236 0.8865
0.0000 0.9470 0.9470
0.0000 0.9353 0.9353
0.3630 0.9015 0.9015
0.8657 0.8657 0.8657
0.9673 0.8487 0.8487
0.0000 1.0000 0.9346
0.0000 1.0000 0.9222
0.3236 0.9884 0.8865
0.8487 0.9673 0.8487
0.9571 0.9571 0.8306
0.0000 0.0000 1.0000
0.0000 0.0000 1.0000
0.5025 0.0000 1.0000
0.9346 0.0000 1.0000
1.0000 0.0000 1.0000
0.0000 0.0000 1.0000
0.0000 0.0000 1.0000
0.4786 0.0000 1.0000
0.9222 0.0000 1.0000
0.9992 0.0000 0.9992
0.0000 0.5025 1.0000
0.0000 0.4786 1.0000
0.4066 0.4066 1.0000
0.8865 0.3236 0.9884
0.9800 0.2830 0.9800
0.0000 0.9346 1.0000
0.0000 0.9222 1.0000
0.3236 0.8865 0.9884
0.8487 0.8487 0.9673
0.9571 0.8306 0.9571
0.0000 1.0000 1.0000
0.0000 0.9992 0.9992
0.2830 0.9800 0.9800
0.8306 0.9571 0.9571
0.9463 0.9463 0.9463
