assets/luts/LUTs/JD PRORES LOG CONV +1.CUBE
TITLE "ColorFinale Export"
# Created by Jeven Dovey on 2023-09-28 21:04:02 +0000
# Color Finale Plugin v.2.6.0 (537)
LUT_3D_SIZE 17
0.0000 0.0000 0.0000
0.0004 0.0000 0.0000
0.0047 0.0000 0.0000
0.0208 0.0000 0.0000
0.0592 0.0000 0.0000
0.1340 0.0000 0.0000
0.2614 0.0000 0.0000
0.4343 0.0000 0.0000
0.6221 0.0000 0.0000
0.7688 0.0000 0.0000
0.8727 0.0000 0.0000
0.9425 0.0000 0.0000
0.9835 0.0000 0.0000
0.9997 0.0000 0.0000
1.0000 0.0000 0.0000
1.0000 0.0000 0.0000
1.0000 0.0000 0.0000
0.0000 0.0004 0.0000
0.0003 0.0003 0.0000
0.0045 0.0000 0.0000
0.0203 0.0000 0.0000
0.0586 0.0000 0.0000
0.1330 0.0000 0.0000
0.2600 0.0000 0.0000
0.4326 0.0000 0.0000
0.6203 0.0000 0.0000
0.7673 0.0000 0.0000
0.8715 0.0000 0.0000
0.9416 0.0000 0.0000
0.9829 0.0000 0.0000
0.9996 0.0000 0.0000
1.0000 0.0000 0.0000
1.0000 0.0000 0.0000
1.0000 0.0000 0.0000
0.0000 0.0047 0.0000
0.0000 0.0045 0.0000
0.0040 0.0040 0.0000
0.0192 0.0027 0.0000
0.0567 0.0000 0.0000
0.1302 0.0000 0.0000
0.2562 0.0000 0.0000
0.4277 0.0000 0.0000
0.6151 0.0000 0.0000
0.7633 0.0000 0.0000
0.8682 0.0000 0.0000
0.9391 0.0000 0.0000
0.9814 0.0000 0.0000
0.9991 0.0000 0.0000
1.0000 0.0000 0.0000
1.0000 0.0000 0.0000
1.0000 0.0000 0.0000
0.0000 0.0208 0.0000
0.0000 0.0203 0.0000
0.0027 0.0192 0.0000
0.0173 0.0173 0.0000
0.0537 0.0141 0.0000
0.1258 0.0088 0.0000
0.2501 0.0000 0.0000
0.4201 0.0000 0.0000
0.6069 0.0000 0.0000
0.7567 0.0000 0.0000
0.8629 0.0000 0.0000
0.9351 0.0000 0.0000
0.9788 0.0000 0.0000
0.9983 0.0000 0.0000
1.0000 0.0000 0.0000
1.0000 0.0000 0.0000
1.0000 0.0000 0.0000
0.0000 0.0592 0.0000
0.0000 0.0586 0.0000
0.0000 0.0567 0.0000
0.0141 0.0537 0.0000
0.0492 0.0492 0.0000
0.1196 0.0429 0.0000
0.2418 0.0336 0.0000
0.4096 0.0214 0.0000
0.5954 0.0057 0.0000
0.7477 0.0000 0.0000
0.8556 0.0000 0.0000
0.9295 0.0000 0.0000
0.9750 0.0000 0.0000
0.9967 0.0000 0.0000
1.0000 0.0000 0.0000
1.0000 0.0000 0.0000
1.0000 0.0000 0.0000
0.0000 0.1340 0.0000
0.0000 0.1330 0.0000
0.0000 0.1302 0.0000
0.0088 0.1258 0.0000
0.0429 0.1196 0.0000
0.1113 0.1113 0.0000
0.2310 0.1002 0.0000
0.3962 0.0871 0.0000
0.5803 0.0734 0.0000
0.7358 0.0593 0.0000
0.8461 0.0450 0.0000
0.9222 0.0307 0.0000
0.9699 0.0164 0.0000
0.9943 0.0002 0.0000
1.0000 0.0000 0.0000
1.0000 0.0000 0.0000
1.0000 0.0000 0.0000
0.0000 0.2614 0.0000
0.0000 0.2600 0.0000
0.0000 0.2562 0.0000
0.0000 0.2501 0.0000
0.0336 0.2418 0.0000
0.1002 0.2310 0.0000
0.2171 0.2171 0.0000
0.3794 0.2015 0.0000
0.5610 0.1861 0.0000
0.7208 0.1712 0.0000
0.8340 0.1569 0.0000
0.9127 0.1437 0.0000
0.9632 0.1319 0.0000
0.9905 0.1220 0.0000
0.9999 0.1143 0.0000
1.0000 0.1093 0.0000
1.0000 0.1075 0.0000
0.0000 0.4343 0.0000
0.0000 0.4326 0.0000
0.0000 0.4277 0.0000
0.0000 0.4201 0.0000
0.0214 0.4096 0.0000
0.0871 0.3962 0.0000
0.2015 0.3794 0.0000
0.3610 0.3610 0.0000
0.5401 0.3433 0.0000
0.7041 0.3266 0.0000
0.8207 0.3110 0.0000
0.9022 0.2969 0.0000
0.9555 0.2845 0.0000
0.9857 0.2743 0.0000
0.9984 0.2666 0.0000
1.0000 0.2616 0.0000
1.0000 0.2597 0.0000
0.0000 0.6221 0.0000
0.0000 0.6203 0.0000
0.0000 0.6151 0.0000
0.0000 0.6069 0.0000
0.0057 0.5954 0.0000
0.0734 0.5803 0.0000
0.1861 0.5610 0.0000
0.3433 0.5401 0.0000
0.5203 0.5203 0.0000
0.6878 0.5017 0.0000
0.8077 0.4847 0.0000
0.8920 0.4694 0.0000
0.9478 0.4563 0.0000
0.9806 0.4454 0.0000
0.9959 0.4373 0.0000
1.0000 0.4320 0.0000
1.0000 0.4301 0.0000
0.0000 0.7688 0.0000
0.0000 0.7673 0.0000
0.0000 0.7633 0.0000
0.0000 0.7567 0.0000
0.0000 0.7477 0.0000
0.0593 0.7358 0.0000
0.1712 0.7208 0.0000
0.3266 0.7041 0.0000
0.5017 0.6878 0.0000
0.6721 0.6721 0.0000
0.7953 0.6573 0.0000
0.8821 0.6437 0.0000
0.9402 0.6317 0.0000
0.9753 0.6216 0.0000
0.9929 0.6138 0.0000
0.9991 0.6088 0.0000
1.0000 0.6069 0.0000
0.0000 0.8727 0.0000
0.0000 0.8715 0.0000
0.0000 0.8682 0.0000
0.0000 0.8629 0.0000
0.0000 0.8556 0.0000
0.0450 0.8461 0.0000
0.1569 0.8340 0.0000
0.3110 0.8207 0.0000
0.4847 0.8077 0.0000
0.6573 0.7953 0.0000
0.7837 0.7837 0.0000
0.8729 0.7731 0.0000
0.9331 0.7638 0.0000
0.9702 0.7560 0.0000
0.9896 0.7501 0.0000
0.9974 0.7463 0.0000
0.9991 0.7449 0.0000
0.0000 0.9425 0.0000
0.0000 0.9416 0.0000
0.0000 0.9391 0.0000
0.0000 0.9351 0.0000
0.0000 0.9295 0.0000
0.0307 0.9222 0.0000
0.1437 0.9127 0.0000
0.2969 0.9022 0.0000
0.4694 0.8920 0.0000
0.6437 0.8821 0.0000
0.7731 0.8729 0.0000
0.8644 0.8644 0.0000
0.9265 0.8570 0.0000
0.9653 0.8509 0.0000
0.9864 0.8461 0.0000
0.9954 0.8431 0.0000
0.9977 0.8420 0.0000
0.0000 0.9835 0.0000
0.0000 0.9829 0.0000
0.0000 0.9814 0.0000
0.0000 0.9788 0.0000
0.0000 0.9750 0.0000
0.0164 0.9699 0.0000
0.1319 0.9632 0.0000
0.2845 0.9555 0.0000
0.4563 0.9478 0.0000
0.6317 0.9402 0.0000
0.7638 0.9331 0.0000
0.8570 0.9265 0.0000
0.9207 0.9207 0.0000
0.9609 0.9158 0.0000
0.9833 0.9121 0.0000
0.9933 0.9097 0.0000
0.9960 0.9088 0.0000
0.0000 0.9997 0.0000
0.0000 0.9996 0.0000
0.0000 0.9991 0.0000
0.0000 0.9983 0.0000
0.0000 0.9967 0.0000
0.0002 0.9943 0.0000
0.1220 0.9905 0.0000
0.2743 0.9857 0.0000
0.4454 0.9806 0.0000
0.6216 0.9753 0.0000
0.7560 0.9702 0.0000
0.8509 0.9653 0.0000
0.9158 0.9609 0.0000
0.9572 0.9572 0.0000
0.9806 0.9544 0.0000
0.9914 0.9525 0.0000
0.9945 0.9518 0.0000
0.0000 1.0000 0.0000
0.0000 1.0000 0.0000
0.0000 1.0000 0.0000
0.0000 1.0000 0.0000
0.0000 1.0000 0.0000
0.0000 1.0000 0.0000
0.1143 0.9999 0.0000
0.2666 0.9984 0.0000
0.4373 0.9959 0.0000
0.6138 0.9929 0.0000
0.7501 0.9896 0.0000
0.8461 0.9864 0.0000
0.9121 0.9833 0.0000
0.9544 0.9806 0.0000
0.9785 0.9785 0.0000
0.9899 0.9771 0.0000
0.9932 0.9766 0.0000
0.0000 1.0000 0.0000
0.0000 1.0000 0.0000
0.0000 1.0000 0.0000
0.0000 1.0000 0.0000
0.0000 1.0000 0.0000
0.0000 1.0000 0.0000
0.1093 1.0000 0.0000
0.2616 1.0000 0.0000
0.4320 1.0000 0.0000
0.6088 0.9991 0.0000
0.7463 0.9974 0.0000
0.8431 0.9954 0.0000
0.9097 0.9933 0.0000
0.9525 0.9914 0.0000
0.9771 0.9899 0.0000
0.9888 0.9888 0.0000
0.9923 0.9884 0.0000
0.0000 1.0000 0.0000
0.0000 1.0000 0.0000
0.0000 1.0000 0.0000
0.0000 1.0000 0.0000
0.0000 1.0000 0.0000
0.0000 1.0000 0.0000
0.1075 1.0000 0.0000
0.2597 1.0000 0.0000
0.4301 1.0000 0.0000
0.6069 1.0000 0.0000
0.7449 0.9991 0.0000
0.8420 0.9977 0.0000
0.9088 0.9960 0.0000
0.9518 0.9945 0.0000
0.9766 0.9932 0.0000
0.9884 0.9923 0.0000
0.9919 0.9919 0.0000
0.0000 0.0000 0.0004
0.0003 0.0000 0.0003
0.0045 0.0000 0.0000
0.0203 0.0000 0.0000
0.0586 0.0000 0.0000
0.1330 0.0000 0.0000
0.2600 0.0000 0.0000
0.4326 0.0000 0.0000
0.6203 0.0000 0.0000
0.7673 0.0000 0.0000
0.8715 0.0000 0.0000
0.9416 0.0000 0.0000
0.9829 0.0000 0.0000
0.9996 0.0000 0.0000
1.0000 0.0000 0.0000
1.0000 0.0000 0.0000
1.0000 0.0000 0.0000
0.0000 0.0003 0.0003
0.0003 0.0003 0.0003
0.0043 0.0000 0.0000
0.0199 0.0000 0.0000
0.0579 0.0000 0.0000
0.1320 0.0000 0.0000
0.2586 0.0000 0.0000
0.4308 0.0000 0.0000
0.6184 0.0000 0.0000
0.7659 0.0000 0.0000
0.8702 0.0000 0.0000
0.9407 0.0000 0.0000
0.9824 0.0000 0.0000
0.9994 0.0000 0.0000
1.0000 0.0000 0.0000
1.0000 0.0000 0.0000
1.0000 0.0000 0.0000
0.0000 0.0045 0.0000
0.0000 0.0043 0.0000
0.0038 0.0038 0.0000
0.0188 0.0025 0.0000
0.0560 0.0000 0.0000
0.1293 0.0000 0.0000
0.2548 0.0000 0.0000
0.4259 0.0000 0.0000
0.6132 0.0000 0.0000
0.7618 0.0000 0.0000
0.8670 0.0000 0.0000
0.9382 0.0000 0.0000
0.9808 0.0000 0.0000
0.9990 0.0000 0.0000
1.0000 0.0000 0.0000
1.0000 0.0000 0.0000
1.0000 0.0000 0.0000
0.0000 0.0203 0.0000
0.0000 0.0199 0.0000
0.0025 0.0188 0.0000
0.0169 0.0169 0.0000
0.0530 0.0137 0.0000
0.1249 0.0084 0.0000
0.2488 0.0000 0.0000
0.4184 0.0000 0.0000
0.6050 0.0000 0.0000
0.7552 0.0000 0.0000
0.8617 0.0000 0.0000
0.9342 0.0000 0.0000
0.9781 0.0000 0.0000
0.9980 0.0000 0.0000
1.0000 0.0000 0.0000
1.0000 0.0000 0.0000
1.0000 0.0000 0.0000
0.0000 0.0586 0.0000
0.0000 0.0579 0.0000
0.0000 0.0560 0.0000
0.0137 0.0530 0.0000
0.0486 0.0486 0.0000
0.1187 0.0423 0.0000
0.2405 0.0331 0.0000
0.4079 0.0208 0.0000
0.5935 0.0050 0.0000
0.7461 0.0000 0.0000
0.8544 0.0000 0.0000
0.9286 0.0000 0.0000
0.9743 0.0000 0.0000
0.9964 0.0000 0.0000
1.0000 0.0000 0.0000
1.0000 0.0000 0.0000
1.0000 0.0000 0.0000
0.0000 0.1330 0.0000
0.0000 0.1320 0.0000
0.0000 0.1293 0.0000
0.0084 0.1249 0.0000
0.0423 0.1187 0.0000
0.1104 0.1104 0.0000
0.2296 0.0993 0.0000
0.3945 0.0862 0.0000
0.5783 0.0726 0.0000
0.7342 0.0585 0.0000
0.8448 0.0442 0.0000
0.9212 0.0299 0.0000
0.9692 0.0155 0.0000
0.9939 0.0000 0.0000
1.0000 0.0000 0.0000
1.0000 0.0000 0.0000
1.0000 0.0000 0.0000
0.0000 0.2600 0.0000
0.0000 0.2586 0.0000
0.0000 0.2548 0.0000
0.0000 0.2488 0.0000
0.0331 0.2405 0.0000
0.0993 0.2296 0.0000
0.2158 0.2158 0.0000
0.3777 0.2003 0.0000
0.5590 0.1849 0.0000
0.7192 0.1700 0.0000
0.8327 0.1557 0.0000
0.9117 0.1425 0.0000
0.9624 0.1308 0.0000
0.9900 0.1208 0.0000
0.9998 0.1132 0.0000
1.0000 0.1082 0.0000
1.0000 0.1063 0.0000
0.0000 0.4326 0.0000
0.0000 0.4308 0.0000
0.0000 0.4259 0.0000
0.0000 0.4184 0.0000
0.0208 0.4079 0.0000
0.0862 0.3945 0.0000
0.2003 0.3777 0.0000
0.3594 0.3594 0.0000
0.5381 0.3417 0.0000
0.7025 0.3250 0.0000
0.8193 0.3094 0.0000
0.9011 0.2953 0.0000
0.9546 0.2830 0.0000
0.9852 0.2728 0.0000
0.9982 0.2650 0.0000
1.0000 0.2600 0.0000
1.0000 0.2582 0.0000
0.0000 0.6203 0.0000
0.0000 0.6184 0.0000
0.0000 0.6132 0.0000
0.0000 0.6050 0.0000
0.0050 0.5935 0.0000
0.0726 0.5783 0.0000
0.1849 0.5590 0.0000
0.3417 0.5381 0.0000
0.5183 0.5183 0.0000
0.6861 0.4998 0.0000
0.8063 0.4828 0.0000
0.8908 0.4675 0.0000
0.9469 0.4544 0.0000
0.9800 0.4436 0.0000
0.9956 0.4354 0.0000
0.9999 0.4301 0.0000
1.0000 0.4282 0.0000
0.0000 0.7673 0.0000
0.0000 0.7659 0.0000
0.0000 0.7618 0.0000
0.0000 0.7552 0.0000
0.0000 0.7461 0.0000
0.0585 0.7342 0.0000
0.1700 0.7192 0.0000
0.3250 0.7025 0.0000
0.4998 0.6861 0.0000
0.6704 0.6704 0.0000
0.7939 0.6555 0.0000
0.8809 0.6419 0.0000
0.9393 0.6298 0.0000
0.9747 0.6197 0.0000
0.9925 0.6119 0.0000
0.9989 0.6068 0.0000
0.9999 0.6049 0.0000
0.0000 0.8715 0.0000
0.0000 0.8702 0.0000
0.0000 0.8670 0.0000
0.0000 0.8617 0.0000
0.0000 0.8544 0.0000
0.0442 0.8448 0.0000
0.1557 0.8327 0.0000
0.3094 0.8193 0.0000
0.4828 0.8063 0.0000
0.6555 0.7939 0.0000
0.7822 0.7822 0.0000
0.8717 0.7716 0.0000
0.9321 0.7622 0.0000
0.9694 0.7545 0.0000
0.9892 0.7485 0.0000
0.9971 0.7447 0.0000
0.9989 0.7433 0.0000
0.0000 0.9416 0.0000
0.0000 0.9407 0.0000
0.0000 0.9382 0.0000
0.0000 0.9342 0.0000
0.0000 0.9286 0.0000
0.0299 0.9212 0.0000
0.1425 0.9117 0.0000
0.2953 0.9011 0.0000
0.4675 0.8908 0.0000
0.6419 0.8809 0.0000
0.7716 0.8717 0.0000
0.8632 0.8632 0.0000
0.9255 0.8558 0.0000
0.9645 0.8496 0.0000
0.9858 0.8449 0.0000
0.9950 0.8418 0.0000
0.9974 0.8407 0.0000
0.0000 0.9829 0.0000
0.0000 0.9824 0.0000
0.0000 0.9808 0.0000
0.0000 0.9781 0.0000
0.0000 0.9743 0.0000
0.0155 0.9692 0.0000
0.1308 0.9624 0.0000
0.2830 0.9546 0.0000
0.4544 0.9469 0.0000
0.6298 0.9393 0.0000
0.7622 0.9321 0.0000
0.8558 0.9255 0.0000
0.9197 0.9197 0.0000
0.9601 0.9148 0.0000
0.9827 0.9111 0.0000
0.9929 0.9086 0.0000
0.9957 0.9077 0.0000
0.0000 0.9996 0.0000
0.0000 0.9994 0.0000
0.0000 0.9990 0.0000
0.0000 0.9980 0.0000
0.0000 0.9964 0.0000
0.0000 0.9939 0.0000
0.1208 0.9900 0.0000
0.2728 0.9852 0.0000
0.4436 0.9800 0.0000
0.6197 0.9747 0.0000
0.7545 0.9694 0.0000
0.8496 0.9645 0.0000
0.9148 0.9601 0.0000
0.9564 0.9564 0.0000
0.9800 0.9535 0.0000
0.9910 0.9516 0.0000
0.9941 0.9510 0.0000
0.0000 1.0000 0.0000
0.0000 1.0000 0.0000
0.0000 1.0000 0.0000
0.0000 1.0000 0.0000
0.0000 1.0000 0.0000
0.0000 1.0000 0.0000
0.1132 0.9998 0.0000
0.2650 0.9982 0.0000
0.4354 0.9956 0.0000
0.6119 0.9925 0.0000
0.7485 0.9892 0.0000
0.8449 0.9858 0.0000
0.9111 0.9827 0.0000
0.9535 0.9800 0.0000
0.9778 0.9778 0.0000
0.9894 0.9764 0.0000
0.9928 0.9759 0.0000
0.0000 1.0000 0.0000
0.0000 1.0000 0.0000
0.0000 1.0000 0.0000
0.0000 1.0000 0.0000
0.0000 1.0000 0.0000
0.0000 1.0000 0.0000
0.1082 1.0000 0.0000
0.2600 1.0000 0.0000
0.4301 0.9999 0.0000
0.6068 0.9989 0.0000
0.7447 0.9971 0.0000
0.8418 0.9950 0.0000
0.9086 0.9929 0.0000
0.9516 0.9910 0.0000
0.9764 0.9894 0.0000
0.9883 0.9883 0.0000
0.9919 0.9879 0.0000
0.0000 1.0000 0.0000
0.0000 1.0000 0.0000
0.0000 1.0000 0.0000
0.0000 1.0000 0.0000
0.0000 1.0000 0.0000
0.0000 1.0000 0.0000
0.1063 1.0000 0.0000
0.2582 1.0000 0.0000
0.4282 1.0000 0.0000
0.6049 0.9999 0.0000
0.7433 0.9989 0.0000
0.8407 0.9974 0.0000
0.9077 0.9957 0.0000
0.9510 0.9941 0.0000
0.9759 0.9928 0.0000
0.9879 0.9919 0.0000
0.9915 0.9915 0.0000
0.0000 0.0000 0.0047
0.0000 0.0000 0.0045
0.0040 0.0000 0.0040
0.0192 0.0000 0.0027
0.0567 0.0000 0.0000
0.1302 0.0000 0.0000
0.2562 0.0000 0.0000
0.4277 0.0000 0.0000
0.6151 0.0000 0.0000
0.7633 0.0000 0.0000
0.8682 0.0000 0.0000
0.9391 0.0000 0.0000
0.9814 0.0000 0.0000
0.9991 0.0000 0.0000
1.0000 0.0000 0.0000
1.0000 0.0000 0.0000
1.0000 0.0000 0.0000
0.0000 0.0000 0.0045
0.0000 0.0000 0.0043
0.0038 0.0000 0.0038
0.0188 0.0000 0.0025
0.0560 0.0000 0.0000
0.1293 0.0000 0.0000
0.2548 0.0000 0.0000
0.4259 0.0000 0.0000
0.6132 0.0000 0.0000
0.7618 0.0000 0.0000
0.8670 0.0000 0.0000
0.9382 0.0000 0.0000
0.9808 0.0000 0.0000
0.9990 0.0000 0.0000
1.0000 0.0000 0.0000
1.0000 0.0000 0.0000
1.0000 0.0000 0.0000
0.0000 0.0040 0.0040
0.0000 0.0038 0.0038
0.0032 0.0032 0.0032
0.0177 0.0021 0.0021
0.0542 0.0000 0.0000
0.1265 0.0000 0.0000
0.2510 0.0000 0.0000
0.4212 0.0000 0.0000
0.6080 0.0000 0.0000
0.7576 0.0000 0.0000
0.8636 0.0000 0.0000
0.9357 0.0000 0.0000
0.9791 0.0000 0.0000
0.9984 0.0000 0.0000
1.0000 0.0000 0.0000
1.0000 0.0000 0.0000
1.0000 0.0000 0.0000
0.0000 0.0192 0.0027
0.0000 0.0188 0.0025
0.0021 0.0177 0.0021
0.0159 0.0159 0.0010
0.0513 0.0128 0.0000
0.1222 0.0076 0.0000
0.2451 0.0000 0.0000
0.4136 0.0000 0.0000
0.5997 0.0000 0.0000
0.7510 0.0000 0.0000
0.8583 0.0000 0.0000
0.9316 0.0000 0.0000
0.9764 0.0000 0.0000
0.9973 0.0000 0.0000
1.0000 0.0000 0.0000
1.0000 0.0000 0.0000
1.0000 0.0000 0.0000
0.0000 0.0567 0.0000
0.0000 0.0560 0.0000
0.0000 0.0542 0.0000
0.0128 0.0513 0.0000
0.0469 0.0469 0.0000
0.1161 0.0407 0.0000
0.2368 0.0316 0.0000
0.4032 0.0194 0.0000
0.5881 0.0031 0.0000
0.7419 0.0000 0.0000
0.8509 0.0000 0.0000
0.9259 0.0000 0.0000
0.9725 0.0000 0.0000
0.9956 0.0000 0.0000
1.0000 0.0000 0.0000
1.0000 0.0000 0.0000
1.0000 0.0000 0.0000
0.0000 0.1302 0.0000
0.0000 0.1293 0.0000
0.0000 0.1265 0.0000
0.0076 0.1222 0.0000
0.0407 0.1161 0.0000
0.1079 0.1079 0.0000
0.2261 0.0969 0.0000
0.3899 0.0839 0.0000
0.5728 0.0703 0.0000
0.7299 0.0563 0.0000
0.8413 0.0420 0.0000
0.9184 0.0275 0.0000
0.9672 0.0129 0.0000
0.9928 0.0000 0.0000
1.0000 0.0000 0.0000
1.0000 0.0000 0.0000
1.0000 0.0000 0.0000
0.0000 0.2562 0.0000
0.0000 0.2548 0.0000
0.0000 0.2510 0.0000
0.0000 0.2451 0.0000
0.0316 0.2368 0.0000
0.0969 0.2261 0.0000
0.2123 0.2123 0.0000
0.3732 0.1969 0.0000
0.5535 0.1816 0.0000
0.7147 0.1668 0.0000
0.8291 0.1526 0.0000
0.9088 0.1394 0.0000
0.9603 0.1277 0.0000
0.9887 0.1178 0.0000
0.9995 0.1101 0.0000
1.0000 0.1051 0.0000
1.0000 0.1032 0.0000
0.0000 0.4277 0.0000
0.0000 0.4259 0.0000
0.0000 0.4212 0.0000
0.0000 0.4136 0.0000
0.0194 0.4032 0.0000
0.0839 0.3899 0.0000
0.1969 0.3732 0.0000
0.3549 0.3549 0.0000
0.5328 0.3374 0.0000
0.6979 0.3207 0.0000
0.8156 0.3052 0.0000
0.8981 0.2912 0.0000
0.9524 0.2789 0.0000
0.9837 0.2687 0.0000
0.9975 0.2610 0.0000
1.0000 0.2560 0.0000
1.0000 0.2541 0.0000
0.0000 0.6151 0.0000
0.0000 0.6132 0.0000
0.0000 0.6080 0.0000
0.0000 0.5997 0.0000
0.0031 0.5881 0.0000
0.0703 0.5728 0.0000
0.1816 0.5535 0.0000
0.3374 0.5328 0.0000
0.5131 0.5131 0.0000
0.6814 0.4946 0.0000
0.8025 0.4777 0.0000
0.8877 0.4625 0.0000
0.9445 0.4493 0.0000
0.9783 0.4386 0.0000
0.9947 0.4304 0.0000
0.9997 0.4252 0.0000
1.0000 0.4232 0.0000
0.0000 0.7633 0.0000
0.0000 0.7618 0.0000
0.0000 0.7576 0.0000
0.0000 0.7510 0.0000
0.0000 0.7419 0.0000
0.0563 0.7299 0.0000
0.1668 0.7147 0.0000
0.3207 0.6979 0.0000
0.4946 0.6814 0.0000
0.6656 0.6656 0.0000
0.7899 0.6506 0.0000
0.8777 0.6368 0.0000
0.9368 0.6247 0.0000
0.9728 0.6144 0.0000
0.9914 0.6066 0.0000
0.9983 0.6015 0.0000
0.9996 0.5996 0.0000
0.0000 0.8682 0.0000
0.0000 0.8670 0.0000
0.0000 0.8636 0.0000
0.0000 0.8583 0.0000
0.0000 0.8509 0.0000
0.0420 0.8413 0.0000
0.1526 0.8291 0.0000
0.3052 0.8156 0.0000
0.4777 0.8025 0.0000
0.6506 0.7899 0.0000
0.7782 0.7782 0.0000
0.8684 0.7675 0.0000
0.9295 0.7581 0.0000
0.9675 0.7502 0.0000
0.9878 0.7442 0.0000
0.9963 0.7404 0.0000
0.9984 0.7390 0.0000
0.0000 0.9391 0.0000
0.0000 0.9382 0.0000
0.0000 0.9357 0.0000
0.0000 0.9316 0.0000
0.0000 0.9259 0.0000
0.0275 0.9184 0.0000
0.1394 0.9088 0.0000
0.2912 0.8981 0.0000
0.4625 0.8877 0.0000
0.6368 0.8777 0.0000
0.7675 0.8684 0.0000
0.8598 0.8598 0.0000
0.9228 0.8523 0.0000
0.9625 0.8461 0.0000
0.9843 0.8413 0.0000
0.9941 0.8382 0.0000
0.9966 0.8371 0.0000
0.0000 0.9814 0.0000
0.0000 0.9808 0.0000
0.0000 0.9791 0.0000
0.0000 0.9764 0.0000
0.0000 0.9725 0.0000
0.0129 0.9672 0.0000
0.1277 0.9603 0.0000
0.2789 0.9524 0.0000
0.4493 0.9445 0.0000
0.6247 0.9368 0.0000
0.7581 0.9295 0.0000
0.8523 0.9228 0.0000
0.9169 0.9169 0.0000
0.9580 0.9119 0.0000
0.9811 0.9081 0.0000
0.9918 0.9057 0.0000
0.9948 0.9048 0.0000
0.0000 0.9991 0.0000
0.0000 0.9990 0.0000
0.0000 0.9984 0.0000
0.0000 0.9973 0.0000
0.0000 0.9956 0.0000
0.0000 0.9928 0.0000
0.1178 0.9887 0.0000
0.2687 0.9837 0.0000
0.4386 0.9783 0.0000
0.6144 0.9728 0.0000
0.7502 0.9675 0.0000
0.8461 0.9625 0.0000
0.9119 0.9580 0.0000
0.9542 0.9542 0.0000
0.9783 0.9512 0.0000
0.9897 0.9493 0.0000
0.9930 0.9486 0.0000
0.0000 1.0000 0.0000
0.0000 1.0000 0.0000
0.0000 1.0000 0.0000
0.0000 1.0000 0.0000
0.0000 1.0000 0.0000
0.0000 1.0000 0.0000
0.1101 0.9995 0.0000
0.2610 0.9975 0.0000
0.4304 0.9947 0.0000
0.6066 0.9914 0.0000
0.7442 0.9878 0.0000
0.8413 0.9843 0.0000
0.9081 0.9811 0.0000
0.9512 0.9783 0.0000
0.9761 0.9761 0.0000
0.9881 0.9746 0.0000
0.9916 0.9741 0.0000
0.0000 1.0000 0.0000
0.0000 1.0000 0.0000
0.0000 1.0000 0.0000
0.0000 1.0000 0.0000
0.0000 1.0000 0.0000
0.0000 1.0000 0.0000
0.1051 1.0000 0.0000
0.2560 1.0000 0.0000
0.4252 0.9997 0.0000
0.6015 0.9983 0.0000
0.7404 0.9963 0.0000
0.8382 0.9941 0.0000
0.9057 0.9918 0.0000
0.9493 0.9897 0.0000
0.9746 0.9881 0.0000
0.9870 0.9870 0.0000
0.9907 0.9866 0.0000
0.0000 1.0000 0.0000
0.0000 1.0000 0.0000
0.0000 1.0000 0.0000
0.0000 1.0000 0.0000
0.0000 1.0000 0.0000
0.0000 1.0000 0.0000
0.1032 1.0000 0.0000
0.2541 1.0000 0.0000
0.4232 1.0000 0.0000
0.5996 0.9996 0.0000
0.7390 0.9984 0.0000
0.8371 0.9966 0.0000
0.9048 0.9948 0.0000
0.9486 0.9930 0.0000
0.9741 0.9916 0.0000
0.9866 0.9907 0.0000
0.9903 0.9903 0.0000
0.0000 0.0000 0.0208
0.0000 0.0000 0.0203
0.0027 0.0000 0.0192
0.0173 0.0000 0.0173
0.0537 0.0000 0.0141
0.1258 0.0000 0.0088
0.2501 0.0000 0.0000
0.4201 0.0000 0.0000
0.6069 0.0000 0.0000
0.7567 0.0000 0.0000
0.8629 0.0000 0.0000
0.9351 0.0000 0.0000
0.9788 0.0000 0.0000
0.9983 0.0000 0.0000
1.0000 0.0000 0.0000
1.0000 0.0000 0.0000
1.0000 0.0000 0.0000
0.0000 0.0000 0.0203
0.0000 0.0000 0.0199
0.0025 0.0000 0.0188
0.0169 0.0000 0.0169
0.0530 0.0000 0.0137
0.1249 0.0000 0.0084
0.2488 0.0000 0.0000
0.4184 0.0000 0.0000
0.6050 0.0000 0.0000
0.7552 0.0000 0.0000
0.8617 0.0000 0.0000
0.9342 0.0000 0.0000
0.9781 0.0000 0.0000
0.9980 0.0000 0.0000
1.0000 0.0000 0.0000
1.0000 0.0000 0.0000
