assets/luts/LUTs/JD PRORES LOG CONV 0.CUBE
TITLE "ColorFinale Export"
# Created by Jeven Dovey on 2023-09-28 21:03:43 +0000
# Color Finale Plugin v.2.6.0 (537)
LUT_3D_SIZE 17
0.0000 0.0000 0.0000
0.0033 0.0000 0.0000
0.0206 0.0000 0.0000
0.0604 0.0000 0.0000
0.1284 0.0000 0.0000
0.2291 0.0000 0.0000
0.3735 0.0000 0.0000
0.5488 0.0000 0.0000
0.7097 0.0000 0.0000
0.8334 0.0000 0.0000
0.9163 0.0000 0.0000
0.9709 0.0000 0.0000
1.0000 0.0000 0.0000
1.0000 0.0000 0.0000
1.0000 0.0000 0.0000
1.0000 0.0000 0.0000
1.0000 0.0000 0.0000
0.0000 0.0033 0.0000
0.0028 0.0028 0.0000
0.0200 0.0000 0.0000
0.0595 0.0000 0.0000
0.1274 0.0000 0.0000
0.2279 0.0000 0.0000
0.3720 0.0000 0.0000
0.5472 0.0000 0.0000
0.7081 0.0000 0.0000
0.8322 0.0000 0.0000
0.9153 0.0000 0.0000
0.9701 0.0000 0.0000
1.0000 0.0000 0.0000
1.0000 0.0000 0.0000
1.0000 0.0000 0.0000
1.0000 0.0000 0.0000
1.0000 0.0000 0.0000
0.0000 0.0206 0.0000
0.0000 0.0200 0.0000
0.0177 0.0177 0.0000
0.0570 0.0111 0.0000
0.1245 0.0000 0.0000
0.2245 0.0000 0.0000
0.3679 0.0000 0.0000
0.5427 0.0000 0.0000
0.7038 0.0000 0.0000
0.8288 0.0000 0.0000
0.9127 0.0000 0.0000
0.9682 0.0000 0.0000
0.9999 0.0000 0.0000
1.0000 0.0000 0.0000
1.0000 0.0000 0.0000
1.0000 0.0000 0.0000
1.0000 0.0000 0.0000
0.0000 0.0604 0.0000
0.0000 0.0595 0.0000
0.0111 0.0570 0.0000
0.0520 0.0520 0.0000
0.1193 0.0419 0.0000
0.2189 0.0156 0.0000
0.3612 0.0000 0.0000
0.5354 0.0000 0.0000
0.6970 0.0000 0.0000
0.8234 0.0000 0.0000
0.9086 0.0000 0.0000
0.9650 0.0000 0.0000
0.9986 0.0000 0.0000
1.0000 0.0000 0.0000
1.0000 0.0000 0.0000
1.0000 0.0000 0.0000
1.0000 0.0000 0.0000
0.0000 0.1284 0.0000
0.0000 0.1274 0.0000
0.0000 0.1245 0.0000
0.0419 0.1193 0.0000
0.1109 0.1109 0.0000
0.2104 0.0965 0.0000
0.3517 0.0698 0.0000
0.5252 0.0000 0.0000
0.6874 0.0000 0.0000
0.8158 0.0000 0.0000
0.9029 0.0000 0.0000
0.9606 0.0000 0.0000
0.9961 0.0000 0.0000
1.0000 0.0000 0.0000
1.0000 0.0000 0.0000
1.0000 0.0000 0.0000
1.0000 0.0000 0.0000
0.0000 0.2291 0.0000
0.0000 0.2279 0.0000
0.0000 0.2245 0.0000
0.0156 0.2189 0.0000
0.0965 0.2104 0.0000
0.1978 0.1978 0.0000
0.3384 0.1786 0.0000
0.5113 0.1520 0.0000
0.6744 0.1184 0.0000
0.8054 0.0728 0.0000
0.8951 0.0000 0.0000
0.9547 0.0000 0.0000
0.9922 0.0000 0.0000
1.0000 0.0000 0.0000
1.0000 0.0000 0.0000
1.0000 0.0000 0.0000
1.0000 0.0000 0.0000
0.0000 0.3735 0.0000
0.0000 0.3720 0.0000
0.0000 0.3679 0.0000
0.0000 0.3612 0.0000
0.0698 0.3517 0.0000
0.1786 0.3384 0.0000
0.3200 0.3200 0.0000
0.4927 0.2973 0.0000
0.6573 0.2727 0.0000
0.7917 0.2466 0.0000
0.8850 0.2192 0.0000
0.9468 0.1913 0.0000
0.9868 0.1635 0.0000
1.0000 0.1369 0.0000
1.0000 0.1134 0.0000
1.0000 0.0958 0.0000
1.0000 0.0886 0.0000
0.0000 0.5488 0.0000
0.0000 0.5472 0.0000
0.0000 0.5427 0.0000
0.0000 0.5354 0.0000
0.0000 0.5252 0.0000
0.1520 0.5113 0.0000
0.2973 0.4927 0.0000
0.4707 0.4707 0.0000
0.6372 0.4477 0.0000
0.7756 0.4240 0.0000
0.8731 0.4003 0.0000
0.9378 0.3779 0.0000
0.9801 0.3576 0.0000
1.0000 0.3401 0.0000
1.0000 0.3265 0.0000
1.0000 0.3175 0.0000
1.0000 0.3142 0.0000
0.0000 0.7097 0.0000
0.0000 0.7081 0.0000
0.0000 0.7038 0.0000
0.0000 0.6970 0.0000
0.0000 0.6874 0.0000
0.1184 0.6744 0.0000
0.2727 0.6573 0.0000
0.4477 0.6372 0.0000
0.6166 0.6166 0.0000
0.7590 0.5958 0.0000
0.8610 0.5756 0.0000
0.9287 0.5564 0.0000
0.9732 0.5390 0.0000
0.9988 0.5243 0.0000
1.0000 0.5128 0.0000
1.0000 0.5053 0.0000
1.0000 0.5025 0.0000
0.0000 0.8334 0.0000
0.0000 0.8322 0.0000
0.0000 0.8288 0.0000
0.0000 0.8234 0.0000
0.0000 0.8158 0.0000
0.0728 0.8054 0.0000
0.2466 0.7917 0.0000
0.4240 0.7756 0.0000
0.5958 0.7590 0.0000
0.7423 0.7423 0.0000
0.8489 0.7259 0.0000
0.9195 0.7103 0.0000
0.9662 0.6962 0.0000
0.9946 0.6841 0.0000
1.0000 0.6747 0.0000
1.0000 0.6686 0.0000
1.0000 0.6663 0.0000
0.0000 0.9163 0.0000
0.0000 0.9153 0.0000
0.0000 0.9127 0.0000
0.0000 0.9086 0.0000
0.0000 0.9029 0.0000
0.0000 0.8951 0.0000
0.2192 0.8850 0.0000
0.4003 0.8731 0.0000
0.5756 0.8610 0.0000
0.7259 0.8489 0.0000
0.8369 0.8369 0.0000
0.9106 0.8255 0.0000
0.9593 0.8151 0.0000
0.9898 0.8062 0.0000
1.0000 0.7992 0.0000
1.0000 0.7946 0.0000
1.0000 0.7929 0.0000
0.0000 0.9709 0.0000
0.0000 0.9701 0.0000
0.0000 0.9682 0.0000
0.0000 0.9650 0.0000
0.0000 0.9606 0.0000
0.0000 0.9547 0.0000
0.1913 0.9468 0.0000
0.3779 0.9378 0.0000
0.5564 0.9287 0.0000
0.7103 0.9195 0.0000
0.8255 0.9106 0.0000
0.9022 0.9022 0.0000
0.9528 0.8946 0.0000
0.9850 0.8881 0.0000
1.0000 0.8830 0.0000
1.0000 0.8797 0.0000
1.0000 0.8784 0.0000
0.0000 1.0000 0.0000
0.0000 1.0000 0.0000
0.0000 0.9999 0.0000
0.0000 0.9986 0.0000
0.0000 0.9961 0.0000
0.0000 0.9922 0.0000
0.1635 0.9868 0.0000
0.3576 0.9801 0.0000
0.5390 0.9732 0.0000
0.6962 0.9662 0.0000
0.8151 0.9593 0.0000
0.8946 0.9528 0.0000
0.9470 0.9470 0.0000
0.9805 0.9419 0.0000
0.9988 0.9380 0.0000
1.0000 0.9355 0.0000
1.0000 0.9346 0.0000
0.0000 1.0000 0.0000
0.0000 1.0000 0.0000
0.0000 1.0000 0.0000
0.0000 1.0000 0.0000
0.0000 1.0000 0.0000
0.0000 1.0000 0.0000
0.1369 1.0000 0.0000
0.3401 1.0000 0.0000
0.5243 0.9988 0.0000
0.6841 0.9946 0.0000
0.8062 0.9898 0.0000
0.8881 0.9850 0.0000
0.9419 0.9805 0.0000
0.9767 0.9767 0.0000
0.9964 0.9736 0.0000
1.0000 0.9716 0.0000
1.0000 0.9709 0.0000
0.0000 1.0000 0.0000
0.0000 1.0000 0.0000
0.0000 1.0000 0.0000
0.0000 1.0000 0.0000
0.0000 1.0000 0.0000
0.0000 1.0000 0.0000
0.1134 1.0000 0.0000
0.3265 1.0000 0.0000
0.5128 1.0000 0.0000
0.6747 1.0000 0.0000
0.7992 1.0000 0.0000
0.8830 1.0000 0.0000
0.9380 0.9988 0.0000
0.9736 0.9964 0.0000
0.9943 0.9943 0.0000
1.0000 0.9928 0.0000
1.0000 0.9923 0.0000
0.0000 1.0000 0.0000
0.0000 1.0000 0.0000
0.0000 1.0000 0.0000
0.0000 1.0000 0.0000
0.0000 1.0000 0.0000
0.0000 1.0000 0.0000
0.0958 1.0000 0.0000
0.3175 1.0000 0.0000
0.5053 1.0000 0.0000
0.6686 1.0000 0.0000
0.7946 1.0000 0.0000
0.8797 1.0000 0.0000
0.9355 1.0000 0.0000
0.9716 1.0000 0.0000
0.9928 1.0000 0.0000
1.0000 1.0000 0.0000
1.0000 1.0000 0.0000
0.0000 1.0000 0.0000
0.0000 1.0000 0.0000
0.0000 1.0000 0.0000
0.0000 1.0000 0.0000
0.0000 1.0000 0.0000
0.0000 1.0000 0.0000
0.0886 1.0000 0.0000
0.3142 1.0000 0.0000
0.5025 1.0000 0.0000
0.6663 1.0000 0.0000
0.7929 1.0000 0.0000
0.8784 1.0000 0.0000
0.9346 1.0000 0.0000
0.9709 1.0000 0.0000
0.9923 1.0000 0.0000
1.0000 1.0000 0.0000
1.0000 1.0000 0.0000
0.0000 0.0000 0.0033
0.0028 0.0000 0.0028
0.0200 0.0000 0.0000
0.0595 0.0000 0.0000
0.1274 0.0000 0.0000
0.2279 0.0000 0.0000
0.3720 0.0000 0.0000
0.5472 0.0000 0.0000
0.7081 0.0000 0.0000
0.8322 0.0000 0.0000
0.9153 0.0000 0.0000
0.9701 0.0000 0.0000
1.0000 0.0000 0.0000
1.0000 0.0000 0.0000
1.0000 0.0000 0.0000
1.0000 0.0000 0.0000
1.0000 0.0000 0.0000
0.0000 0.0028 0.0028
0.0024 0.0024 0.0024
0.0193 0.0000 0.0000
0.0587 0.0000 0.0000
0.1263 0.0000 0.0000
0.2266 0.0000 0.0000
0.3705 0.0000 0.0000
0.5455 0.0000 0.0000
0.7065 0.0000 0.0000
0.8310 0.0000 0.0000
0.9144 0.0000 0.0000
0.9694 0.0000 0.0000
1.0000 0.0000 0.0000
1.0000 0.0000 0.0000
1.0000 0.0000 0.0000
1.0000 0.0000 0.0000
1.0000 0.0000 0.0000
0.0000 0.0200 0.0000
0.0000 0.0193 0.0000
0.0171 0.0171 0.0000
0.0562 0.0104 0.0000
0.1234 0.0000 0.0000
0.2233 0.0000 0.0000
0.3664 0.0000 0.0000
0.5410 0.0000 0.0000
0.7022 0.0000 0.0000
0.8276 0.0000 0.0000
0.9118 0.0000 0.0000
0.9674 0.0000 0.0000
0.9997 0.0000 0.0000
1.0000 0.0000 0.0000
1.0000 0.0000 0.0000
1.0000 0.0000 0.0000
1.0000 0.0000 0.0000
0.0000 0.0595 0.0000
0.0000 0.0587 0.0000
0.0104 0.0562 0.0000
0.0512 0.0512 0.0000
0.1183 0.0410 0.0000
0.2177 0.0142 0.0000
0.3597 0.0000 0.0000
0.5338 0.0000 0.0000
0.6954 0.0000 0.0000
0.8221 0.0000 0.0000
0.9077 0.0000 0.0000
0.9643 0.0000 0.0000
0.9982 0.0000 0.0000
1.0000 0.0000 0.0000
1.0000 0.0000 0.0000
1.0000 0.0000 0.0000
1.0000 0.0000 0.0000
0.0000 0.1274 0.0000
0.0000 0.1263 0.0000
0.0000 0.1234 0.0000
0.0410 0.1183 0.0000
0.1098 0.1098 0.0000
0.2092 0.0954 0.0000
0.3502 0.0686 0.0000
0.5235 0.0000 0.0000
0.6858 0.0000 0.0000
0.8145 0.0000 0.0000
0.9019 0.0000 0.0000
0.9598 0.0000 0.0000
0.9956 0.0000 0.0000
1.0000 0.0000 0.0000
1.0000 0.0000 0.0000
1.0000 0.0000 0.0000
1.0000 0.0000 0.0000
0.0000 0.2279 0.0000
0.0000 0.2266 0.0000
0.0000 0.2233 0.0000
0.0142 0.2177 0.0000
0.0954 0.2092 0.0000
0.1966 0.1966 0.0000
0.3369 0.1774 0.0000
0.5097 0.1507 0.0000
0.6728 0.1170 0.0000
0.8041 0.0709 0.0000
0.8941 0.0000 0.0000
0.9539 0.0000 0.0000
0.9917 0.0000 0.0000
1.0000 0.0000 0.0000
1.0000 0.0000 0.0000
1.0000 0.0000 0.0000
1.0000 0.0000 0.0000
0.0000 0.3720 0.0000
0.0000 0.3705 0.0000
0.0000 0.3664 0.0000
0.0000 0.3597 0.0000
0.0686 0.3502 0.0000
0.1774 0.3369 0.0000
0.3185 0.3185 0.0000
0.4911 0.2959 0.0000
0.6556 0.2713 0.0000
0.7903 0.2451 0.0000
0.8839 0.2178 0.0000
0.9460 0.1897 0.0000
0.9861 0.1618 0.0000
1.0000 0.1350 0.0000
1.0000 0.1112 0.0000
1.0000 0.0933 0.0000
1.0000 0.0860 0.0000
0.0000 0.5472 0.0000
0.0000 0.5455 0.0000
0.0000 0.5410 0.0000
0.0000 0.5338 0.0000
0.0000 0.5235 0.0000
0.1507 0.5097 0.0000
0.2959 0.4911 0.0000
0.4691 0.4691 0.0000
0.6355 0.4460 0.0000
0.7742 0.4223 0.0000
0.8720 0.3986 0.0000
0.9370 0.3762 0.0000
0.9794 0.3559 0.0000
1.0000 0.3384 0.0000
1.0000 0.3248 0.0000
1.0000 0.3158 0.0000
1.0000 0.3125 0.0000
0.0000 0.7081 0.0000
0.0000 0.7065 0.0000
0.0000 0.7022 0.0000
0.0000 0.6954 0.0000
0.0000 0.6858 0.0000
0.1170 0.6728 0.0000
0.2713 0.6556 0.0000
0.4460 0.6355 0.0000
0.6149 0.6149 0.0000
0.7576 0.5941 0.0000
0.8599 0.5738 0.0000
0.9278 0.5546 0.0000
0.9725 0.5373 0.0000
0.9984 0.5225 0.0000
1.0000 0.5110 0.0000
1.0000 0.5035 0.0000
1.0000 0.5007 0.0000
0.0000 0.8322 0.0000
0.0000 0.8310 0.0000
0.0000 0.8276 0.0000
0.0000 0.8221 0.0000
0.0000 0.8145 0.0000
0.0709 0.8041 0.0000
0.2451 0.7903 0.0000
0.4223 0.7742 0.0000
0.5941 0.7576 0.0000
0.7408 0.7408 0.0000
0.8477 0.7243 0.0000
0.9186 0.7087 0.0000
0.9654 0.6945 0.0000
0.9941 0.6824 0.0000
1.0000 0.6730 0.0000
1.0000 0.6668 0.0000
1.0000 0.6645 0.0000
0.0000 0.9153 0.0000
0.0000 0.9144 0.0000
0.0000 0.9118 0.0000
0.0000 0.9077 0.0000
0.0000 0.9019 0.0000
0.0000 0.8941 0.0000
0.2178 0.8839 0.0000
0.3986 0.8720 0.0000
0.5738 0.8599 0.0000
0.7243 0.8477 0.0000
0.8357 0.8357 0.0000
0.9096 0.8242 0.0000
0.9585 0.8138 0.0000
0.9892 0.8048 0.0000
1.0000 0.7978 0.0000
1.0000 0.7931 0.0000
1.0000 0.7914 0.0000
0.0000 0.9701 0.0000
0.0000 0.9694 0.0000
0.0000 0.9674 0.0000
0.0000 0.9643 0.0000
0.0000 0.9598 0.0000
0.0000 0.9539 0.0000
0.1897 0.9460 0.0000
0.3762 0.9370 0.0000
0.5546 0.9278 0.0000
0.7087 0.9186 0.0000
0.8242 0.9096 0.0000
0.9012 0.9012 0.0000
0.9520 0.8935 0.0000
0.9844 0.8870 0.0000
1.0000 0.8819 0.0000
1.0000 0.8786 0.0000
1.0000 0.8773 0.0000
0.0000 1.0000 0.0000
0.0000 1.0000 0.0000
0.0000 0.9997 0.0000
0.0000 0.9982 0.0000
0.0000 0.9956 0.0000
0.0000 0.9917 0.0000
0.1618 0.9861 0.0000
0.3559 0.9794 0.0000
0.5373 0.9725 0.0000
0.6945 0.9654 0.0000
0.8138 0.9585 0.0000
0.8935 0.9520 0.0000
0.9461 0.9461 0.0000
0.9799 0.9411 0.0000
0.9984 0.9372 0.0000
1.0000 0.9346 0.0000
1.0000 0.9337 0.0000
0.0000 1.0000 0.0000
0.0000 1.0000 0.0000
0.0000 1.0000 0.0000
0.0000 1.0000 0.0000
0.0000 1.0000 0.0000
0.0000 1.0000 0.0000
0.1350 1.0000 0.0000
0.3384 1.0000 0.0000
0.5225 0.9984 0.0000
0.6824 0.9941 0.0000
0.8048 0.9892 0.0000
0.8870 0.9844 0.0000
0.9411 0.9799 0.0000
0.9760 0.9760 0.0000
0.9959 0.9729 0.0000
1.0000 0.9709 0.0000
1.0000 0.9702 0.0000
0.0000 1.0000 0.0000
0.0000 1.0000 0.0000
0.0000 1.0000 0.0000
0.0000 1.0000 0.0000
0.0000 1.0000 0.0000
0.0000 1.0000 0.0000
0.1112 1.0000 0.0000
0.3248 1.0000 0.0000
0.5110 1.0000 0.0000
0.6730 1.0000 0.0000
0.7978 1.0000 0.0000
0.8819 1.0000 0.0000
0.9372 0.9984 0.0000
0.9729 0.9959 0.0000
0.9938 0.9938 0.0000
1.0000 0.9923 0.0000
1.0000 0.9917 0.0000
0.0000 1.0000 0.0000
0.0000 1.0000 0.0000
0.0000 1.0000 0.0000
0.0000 1.0000 0.0000
0.0000 1.0000 0.0000
0.0000 1.0000 0.0000
0.0933 1.0000 0.0000
0.3158 1.0000 0.0000
0.5035 1.0000 0.0000
0.6668 1.0000 0.0000
0.7931 1.0000 0.0000
0.8786 1.0000 0.0000
0.9346 1.0000 0.0000
0.9709 1.0000 0.0000
0.9923 1.0000 0.0000
1.0000 1.0000 0.0000
1.0000 1.0000 0.0000
0.0000 1.0000 0.0000
0.0000 1.0000 0.0000
0.0000 1.0000 0.0000
0.0000 1.0000 0.0000
0.0000 1.0000 0.0000
0.0000 1.0000 0.0000
0.0860 1.0000 0.0000
0.3125 1.0000 0.0000
0.5007 1.0000 0.0000
0.6645 1.0000 0.0000
0.7914 1.0000 0.0000
0.8773 1.0000 0.0000
0.9337 1.0000 0.0000
0.9702 1.0000 0.0000
0.9917 1.0000 0.0000
1.0000 1.0000 0.0000
1.0000 1.0000 0.0000
0.0000 0.0000 0.0206
0.0000 0.0000 0.0200
0.0177 0.0000 0.0177
0.0570 0.0000 0.0111
0.1245 0.0000 0.0000
0.2245 0.0000 0.0000
0.3679 0.0000 0.0000
0.5427 0.0000 0.0000
0.7038 0.0000 0.0000
0.8288 0.0000 0.0000
0.9127 0.0000 0.0000
0.9682 0.0000 0.0000
0.9999 0.0000 0.0000
1.0000 0.0000 0.0000
1.0000 0.0000 0.0000
1.0000 0.0000 0.0000
1.0000 0.0000 0.0000
0.0000 0.0000 0.0200
0.0000 0.0000 0.0193
0.0171 0.0000 0.0171
0.0562 0.0000 0.0104
0.1234 0.0000 0.0000
0.2233 0.0000 0.0000
0.3664 0.0000 0.0000
0.5410 0.0000 0.0000
0.7022 0.0000 0.0000
0.8276 0.0000 0.0000
0.9118 0.0000 0.0000
0.9674 0.0000 0.0000
0.9997 0.0000 0.0000
1.0000 0.0000 0.0000
1.0000 0.0000 0.0000
1.0000 0.0000 0.0000
1.0000 0.0000 0.0000
0.0000 0.0177 0.0177
0.0000 0.0171 0.0171
0.0150 0.0150 0.0150
0.0537 0.0082 0.0082
0.1205 0.0000 0.0000
0.2199 0.0000 0.0000
0.3623 0.0000 0.0000
0.5364 0.0000 0.0000
0.6979 0.0000 0.0000
0.8242 0.0000 0.0000
0.9092 0.0000 0.0000
0.9654 0.0000 0.0000
0.9988 0.0000 0.0000
1.0000 0.0000 0.0000
1.0000 0.0000 0.0000
1.0000 0.0000 0.0000
1.0000 0.0000 0.0000
0.0000 0.0570 0.0111
0.0000 0.0562 0.0104
0.0082 0.0537 0.0082
0.0489 0.0489 0.0000
0.1155 0.0388 0.0000
0.2144 0.0102 0.0000
0.3557 0.0000 0.0000
0.5292 0.0000 0.0000
0.6911 0.0000 0.0000
0.8186 0.0000 0.0000
0.9050 0.0000 0.0000
0.9622 0.0000 0.0000
0.9971 0.0000 0.0000
1.0000 0.0000 0.0000
1.0000 0.0000 0.0000
1.0000 0.0000 0.0000
1.0000 0.0000 0.0000
0.0000 0.1245 0.0000
0.0000 0.1234 0.0000
0.0000 0.1205 0.0000
0.0388 0.1155 0.0000
0.1071 0.1071 0.0000
0.2060 0.0927 0.0000
0.3462 0.0657 0.0000
0.5190 0.0000 0.0000
0.6814 0.0000 0.0000
0.8109 0.0000 0.0000
0.8992 0.0000 0.0000
0.9577 0.0000 0.0000
0.9943 0.0000 0.0000
1.0000 0.0000 0.0000
1.0000 0.0000 0.0000
1.0000 0.0000 0.0000
1.0000 0.0000 0.0000
0.0000 0.2245 0.0000
0.0000 0.2233 0.0000
0.0000 0.2199 0.0000
0.0102 0.2144 0.0000
0.0927 0.2060 0.0000
0.1934 0.1934 0.0000
0.3330 0.1742 0.0000
0.5052 0.1475 0.0000
0.6684 0.1134 0.0000
0.8004 0.0660 0.0000
0.8913 0.0000 0.0000
0.9517 0.0000 0.0000
0.9902 0.0000 0.0000
1.0000 0.0000 0.0000
1.0000 0.0000 0.0000
1.0000 0.0000 0.0000
1.0000 0.0000 0.0000
0.0000 0.3679 0.0000
0.0000 0.3664 0.0000
0.0000 0.3623 0.0000
0.0000 0.3557 0.0000
0.0657 0.3462 0.0000
0.1742 0.3330 0.0000
0.3147 0.3147 0.0000
0.4867 0.2921 0.0000
0.6511 0.2675 0.0000
0.7865 0.2413 0.0000
0.8810 0.2138 0.0000
0.9438 0.1856 0.0000
0.9845 0.1573 0.0000
1.0000 0.1300 0.0000
1.0000 0.1054 0.0000
1.0000 0.0868 0.0000
1.0000 0.0790 0.0000
0.0000 0.5427 0.0000
0.0000 0.5410 0.0000
0.0000 0.5364 0.0000
0.0000 0.5292 0.0000
0.0000 0.5190 0.0000
0.1475 0.5052 0.0000
0.2921 0.4867 0.0000
0.4647 0.4647 0.0000
0.6310 0.4416 0.0000
0.7703 0.4178 0.0000
0.8690 0.3941 0.0000
0.9346 0.3717 0.0000
0.9776 0.3513 0.0000
1.0000 0.3339 0.0000
1.0000 0.3202 0.0000
1.0000 0.3112 0.0000
1.0000 0.3079 0.0000
0.0000 0.7038 0.0000
0.0000 0.7022 0.0000
0.0000 0.6979 0.0000
0.0000 0.6911 0.0000
0.0000 0.6814 0.0000
0.1134 0.6684 0.0000
0.2675 0.6511 0.0000
0.4416 0.6310 0.0000
0.6103 0.6103 0.0000
0.7535 0.5895 0.0000
0.8568 0.5691 0.0000
0.9253 0.5499 0.0000
0.9705 0.5325 0.0000
0.9973 0.5177 0.0000
1.0000 0.5062 0.0000
1.0000 0.4986 0.0000
1.0000 0.4958 0.0000
0.0000 0.8288 0.0000
0.0000 0.8276 0.0000
0.0000 0.8242 0.0000
0.0000 0.8186 0.0000
0.0000 0.8109 0.0000
0.0660 0.8004 0.0000
0.2413 0.7865 0.0000
0.4178 0.7703 0.0000
0.5895 0.7535 0.0000
0.7366 0.7366 0.0000
0.8444 0.7200 0.0000
0.9160 0.7043 0.0000
0.9634 0.6901 0.0000
0.9927 0.6779 0.0000
1.0000 0.6684 0.0000
1.0000 0.6622 0.0000
1.0000 0.6599 0.0000
0.0000 0.9127 0.0000
0.0000 0.9118 0.0000
0.0000 0.9092 0.0000
0.0000 0.9050 0.0000
0.0000 0.8992 0.0000
0.0000 0.8913 0.0000
0.2138 0.8810 0.0000
0.3941 0.8690 0.0000
0.5691 0.8568 0.0000
0.7200 0.8444 0.0000
0.8323 0.8323 0.0000
0.9070 0.8207 0.0000
0.9564 0.8102 0.0000
0.9876 0.8011 0.0000
1.0000 0.7940 0.0000
1.0000 0.7893 0.0000
1.0000 0.7875 0.0000
0.0000 0.9682 0.0000
0.0000 0.9674 0.0000
0.0000 0.9654 0.0000
0.0000 0.9622 0.0000
0.0000 0.9577 0.0000
0.0000 0.9517 0.0000
0.1856 0.9438 0.0000
0.3717 0.9346 0.0000
0.5499 0.9253 0.0000
0.7043 0.9160 0.0000
0.8207 0.9070 0.0000
0.8985 0.8985 0.0000
0.9498 0.8907 0.0000
0.9827 0.8841 0.0000
0.9998 0.8790 0.0000
1.0000 0.8756 0.0000
1.0000 0.8743 0.0000
0.0000 0.9999 0.0000
0.0000 0.9997 0.0000
0.0000 0.9988 0.0000
0.0000 0.9971 0.0000
0.0000 0.9943 0.0000
0.0000 0.9902 0.0000
0.1573 0.9845 0.0000
0.3513 0.9776 0.0000
0.5325 0.9705 0.0000
0.6901 0.9634 0.0000
0.8102 0.9564 0.0000
0.8907 0.9498 0.0000
0.9438 0.9438 0.0000
0.9781 0.9387 0.0000
0.9972 0.9348 0.0000
1.0000 0.9322 0.0000
1.0000 0.9312 0.0000
0.0000 1.0000 0.0000
0.0000 1.0000 0.0000
0.0000 1.0000 0.0000
0.0000 1.0000 0.0000
0.0000 1.0000 0.0000
0.0000 1.0000 0.0000
0.1300 1.0000 0.0000
0.3339 1.0000 0.0000
0.5177 0.9973 0.0000
0.6779 0.9927 0.0000
0.8011 0.9876 0.0000
0.8841 0.9827 0.0000
0.9387 0.9781 0.0000
0.9741 0.9741 0.0000
0.9946 0.9710 0.0000
1.0000 0.9689 0.0000
1.0000 0.9682 0.0000
0.0000 1.0000 0.0000
0.0000 1.0000 0.0000
0.0000 1.0000 0.0000
0.0000 1.0000 0.0000
0.0000 1.0000 0.0000
0.0000 1.0000 0.0000
0.1054 1.0000 0.0000
0.3202 1.0000 0.0000
0.5062 1.0000 0.0000
0.6684 1.0000 0.0000
0.7940 1.0000 0.0000
0.8790 0.9998 0.0000
0.9348 0.9972 0.0000
0.9710 0.9946 0.0000
0.9923 0.9923 0.0000
1.0000 0.9908 0.0000
1.0000 0.9902 0.0000
0.0000 1.0000 0.0000
0.0000 1.0000 0.0000
0.0000 1.0000 0.0000
0.0000 1.0000 0.0000
0.0000 1.0000 0.0000
0.0000 1.0000 0.0000
0.0868 1.0000 0.0000
0.3112 1.0000 0.0000
0.4986 1.0000 0.0000
0.6622 1.0000 0.0000
0.7893 1.0000 0.0000
0.8756 1.0000 0.0000
0.9322 1.0000 0.0000
0.9689 1.0000 0.0000
0.9908 1.0000 0.0000
1.0000 1.0000 0.0000
1.0000 0.9999 0.0000
0.0000 1.0000 0.0000
0.0000 1.0000 0.0000
0.0000 1.0000 0.0000
0.0000 1.0000 0.0000
0.0000 1.0000 0.0000
0.0000 1.0000 0.0000
0.0790 1.0000 0.0000
0.3079 1.0000 0.0000
0.4958 1.0000 0.0000
0.6599 1.0000 0.0000
0.7875 1.0000 0.0000
0.8743 1.0000 0.0000
0.9312 1.0000 0.0000
0.9682 1.0000 0.0000
0.9902 1.0000 0.0000
0.9999 1.0000 0.0000
1.0000 1.0000 0.0000
0.0000 0.0000 0.0604
0.0000 0.0000 0.0595
0.0111 0.0000 0.0570
0.0520 0.0000 0.0520
0.1193 0.0000 0.0419
0.2189 0.0000 0.0156
0.3612 0.0000 0.0000
0.5354 0.0000 0.0000
0.6970 0.0000 0.0000
0.8234 0.0000 0.0000
0.9086 0.0000 0.0000
0.9650 0.0000 0.0000
0.9986 0.0000 0.0000
1.0000 0.0000 0.0000
1.0000 0.0000 0.0000
1.0000 0.0000 0.0000
1.0000 0.0000 0.0000
0.0000 0.0000 0.0595
0.0000 0.0000 0.0587
0.0104 0.0000 0.0562
0.0512 0.0000 0.0512
0.1183 0.0000 0.0410
0.2177 0.0000 0.0142
0.3597 0.0000 0.0000
0.5338 0.0000 0.0000
0.6954 0.0000 0.0000
0.8221 0.0000 0.0000
0.9077 0.0000 0.0000
0.9643 0.0000 0.0000
0.9982 0.0000 0.0000
1.0000 0.0000 0.0000
1.0000 0.0000 0.0000
1.0000 0.0000 0.0000
