assets/luts/LUTs/JD PRORES LOG CONV -1.CUBE
TITLE "ColorFinale Export"
# Created by Jeven Dovey on 2023-09-28 21:03:52 +0000
# Color Finale Plugin v.2.6.0 (537)
LUT_3D_SIZE 17
0.0051 0.0051 0.0051
0.0149 0.0074 0.0074
0.0444 0.0141 0.0141
0.0945 0.0251 0.0251
0.1653 0.0408 0.0408
0.2556 0.0612 0.0612
0.3679 0.0863 0.0863
0.4970 0.1128 0.1128
0.6338 0.1371 0.1371
0.7680 0.1590 0.1590
0.8845 0.1783 0.1783
0.9780 0.1949 0.1949
1.0000 0.2088 0.2088
1.0000 0.2199 0.2199
1.0000 0.2282 0.2282
1.0000 0.2334 0.2334
1.0000 0.2353 0.2353
0.0074 0.0149 0.0074
0.0142 0.0142 0.0077
0.0435 0.0159 0.0137
0.0936 0.0257 0.0247
0.1643 0.0417 0.0404
0.2545 0.0625 0.0608
0.3668 0.0880 0.0859
0.4957 0.1146 0.1124
0.6324 0.1390 0.1367
0.7665 0.1610 0.1585
0.8830 0.1803 0.1778
0.9767 0.1970 0.1945
1.0000 0.2109 0.2084
1.0000 0.2221 0.2195
1.0000 0.2303 0.2278
1.0000 0.2355 0.2330
1.0000 0.2374 0.2349
0.0141 0.0444 0.0141
0.0159 0.0435 0.0137
0.0415 0.0415 0.0153
0.0910 0.0414 0.0242
0.1615 0.0482 0.0393
0.2517 0.0644 0.0595
0.3638 0.0885 0.0846
0.4923 0.1154 0.1111
0.6284 0.1404 0.1354
0.7623 0.1629 0.1572
0.8791 0.1826 0.1766
0.9729 0.1996 0.1932
1.0000 0.2138 0.2071
1.0000 0.2251 0.2183
1.0000 0.2335 0.2265
1.0000 0.2388 0.2317
1.0000 0.2407 0.2336
0.0251 0.0945 0.0251
0.0257 0.0936 0.0247
0.0414 0.0910 0.0242
0.0879 0.0879 0.0280
0.1576 0.0865 0.0397
0.2475 0.0904 0.0585
0.3592 0.1031 0.0829
0.4868 0.1227 0.1090
0.6220 0.1439 0.1332
0.7557 0.1644 0.1550
0.8728 0.1832 0.1743
0.9669 0.1998 0.1910
1.0000 0.2138 0.2049
1.0000 0.2251 0.2160
1.0000 0.2335 0.2243
1.0000 0.2388 0.2295
1.0000 0.2407 0.2314
0.0408 0.1653 0.0408
0.0417 0.1643 0.0404
0.0482 0.1615 0.0393
0.0865 0.1576 0.0397
0.1535 0.1535 0.0459
0.2423 0.1510 0.0605
0.3533 0.1528 0.0825
0.4798 0.1605 0.1076
0.6137 0.1723 0.1312
0.7469 0.1859 0.1527
0.8643 0.1998 0.1718
0.9589 0.2129 0.1883
1.0000 0.2245 0.2021
1.0000 0.2341 0.2132
1.0000 0.2414 0.2214
1.0000 0.2461 0.2266
1.0000 0.2478 0.2285
0.0612 0.2556 0.0612
0.0625 0.2545 0.0608
0.0644 0.2517 0.0595
0.0904 0.2475 0.0585
0.1510 0.2423 0.0605
0.2372 0.2372 0.0693
0.3467 0.2338 0.0866
0.4717 0.2337 0.1088
0.6038 0.2370 0.1308
0.7363 0.2427 0.1514
0.8540 0.2499 0.1700
0.9491 0.2575 0.1861
1.0000 0.2648 0.1997
1.0000 0.2712 0.2106
1.0000 0.2762 0.2187
1.0000 0.2796 0.2238
1.0000 0.2808 0.2257
0.0863 0.3679 0.0863
0.0880 0.3668 0.0859
0.0885 0.3638 0.0846
0.1031 0.3592 0.0829
0.1528 0.3533 0.0825
0.2338 0.3467 0.0866
0.3405 0.3405 0.0980
0.4632 0.3363 0.1155
0.5932 0.3347 0.1347
0.7244 0.3351 0.1534
0.8422 0.3371 0.1707
0.9380 0.3400 0.1860
1.0000 0.3433 0.1991
1.0000 0.3465 0.2096
1.0000 0.3491 0.2174
1.0000 0.3509 0.2224
1.0000 0.3516 0.2242
0.1128 0.4970 0.1128
0.1146 0.4957 0.1124
0.1154 0.4923 0.1111
0.1227 0.4868 0.1090
0.1605 0.4798 0.1076
0.2337 0.4717 0.1088
0.3363 0.4632 0.1155
0.4562 0.4562 0.1283
0.5836 0.4515 0.1437
0.7134 0.4488 0.1599
0.8309 0.4476 0.1754
0.9272 0.4476 0.1894
1.0000 0.4483 0.2015
1.0000 0.4493 0.2114
1.0000 0.4503 0.2188
1.0000 0.4511 0.2235
1.0000 0.4514 0.2252
0.1371 0.6338 0.1371
0.1390 0.6324 0.1367
0.1404 0.6284 0.1354
0.1439 0.6220 0.1332
0.1723 0.6137 0.1312
0.2370 0.6038 0.1308
0.3347 0.5932 0.1347
0.4515 0.5836 0.1437
0.5765 0.5765 0.1560
0.7046 0.5714 0.1695
0.8216 0.5680 0.1831
0.9181 0.5660 0.1957
0.9953 0.5649 0.2067
1.0000 0.5644 0.2159
1.0000 0.5643 0.2228
1.0000 0.5644 0.2272
1.0000 0.5645 0.2288
0.1590 0.7680 0.1590
0.1610 0.7665 0.1585
0.1629 0.7623 0.1572
0.1644 0.7557 0.1550
0.1859 0.7469 0.1527
0.2427 0.7363 0.1514
0.3351 0.7244 0.1534
0.4488 0.7134 0.1599
0.5714 0.7046 0.1695
0.6979 0.6979 0.1809
0.8142 0.6929 0.1926
0.9108 0.6894 0.2038
0.9873 0.6870 0.2139
1.0000 0.6854 0.2222
1.0000 0.6845 0.2286
1.0000 0.6840 0.2327
1.0000 0.6838 0.2342
0.1783 0.8845 0.1783
0.1803 0.8830 0.1778
0.1826 0.8791 0.1766
0.1832 0.8728 0.1743
0.1998 0.8643 0.1718
0.2499 0.8540 0.1700
0.3371 0.8422 0.1707
0.4476 0.8309 0.1754
0.5680 0.8216 0.1831
0.6929 0.8142 0.1926
0.8084 0.8084 0.2028
0.9048 0.8041 0.2128
0.9811 0.8009 0.2219
1.0000 0.7986 0.2295
1.0000 0.7972 0.2354
1.0000 0.7963 0.2393
1.0000 0.7960 0.2407
0.1949 0.9780 0.1949
0.1970 0.9767 0.1945
0.1996 0.9729 0.1932
0.1998 0.9669 0.1910
0.2129 0.9589 0.1883
0.2575 0.9491 0.1861
0.3400 0.9380 0.1860
0.4476 0.9272 0.1894
0.5660 0.9181 0.1957
0.6894 0.9108 0.2038
0.8041 0.9048 0.2128
0.9002 0.9002 0.2218
0.9763 0.8967 0.2300
1.0000 0.8942 0.2371
1.0000 0.8925 0.2426
1.0000 0.8915 0.2461
1.0000 0.8911 0.2474
0.2088 1.0000 0.2088
0.2109 1.0000 0.2084
0.2138 1.0000 0.2071
0.2138 1.0000 0.2049
0.2245 1.0000 0.2021
0.2648 1.0000 0.1997
0.3433 1.0000 0.1991
0.4483 1.0000 0.2015
0.5649 0.9953 0.2067
0.6870 0.9873 0.2139
0.8009 0.9811 0.2219
0.8967 0.9763 0.2300
0.9726 0.9726 0.2376
1.0000 0.9698 0.2442
1.0000 0.9679 0.2493
1.0000 0.9668 0.2526
1.0000 0.9664 0.2538
0.2199 1.0000 0.2199
0.2221 1.0000 0.2195
0.2251 1.0000 0.2183
0.2251 1.0000 0.2160
0.2341 1.0000 0.2132
0.2712 1.0000 0.2106
0.3465 1.0000 0.2096
0.4493 1.0000 0.2114
0.5644 1.0000 0.2159
0.6854 1.0000 0.2222
0.7986 1.0000 0.2295
0.8942 1.0000 0.2371
0.9698 1.0000 0.2442
1.0000 1.0000 0.2504
1.0000 1.0000 0.2552
1.0000 1.0000 0.2583
1.0000 1.0000 0.2595
0.2282 1.0000 0.2282
0.2303 1.0000 0.2278
0.2335 1.0000 0.2265
0.2335 1.0000 0.2243
0.2414 1.0000 0.2214
0.2762 1.0000 0.2187
0.3491 1.0000 0.2174
0.4503 1.0000 0.2188
0.5643 1.0000 0.2228
0.6845 1.0000 0.2286
0.7972 1.0000 0.2354
0.8925 1.0000 0.2426
0.9679 1.0000 0.2493
1.0000 1.0000 0.2552
1.0000 1.0000 0.2598
1.0000 1.0000 0.2628
1.0000 1.0000 0.2639
0.2334 1.0000 0.2334
0.2355 1.0000 0.2330
0.2388 1.0000 0.2317
0.2388 1.0000 0.2295
0.2461 1.0000 0.2266
0.2796 1.0000 0.2238
0.3509 1.0000 0.2224
0.4511 1.0000 0.2235
0.5644 1.0000 0.2272
0.6840 1.0000 0.2327
0.7963 1.0000 0.2393
0.8915 1.0000 0.2461
0.9668 1.0000 0.2526
1.0000 1.0000 0.2583
1.0000 1.0000 0.2628
1.0000 1.0000 0.2657
1.0000 1.0000 0.2668
0.2353 1.0000 0.2353
0.2374 1.0000 0.2349
0.2407 1.0000 0.2336
0.2407 1.0000 0.2314
0.2478 1.0000 0.2285
0.2808 1.0000 0.2257
0.3516 1.0000 0.2242
0.4514 1.0000 0.2252
0.5645 1.0000 0.2288
0.6838 1.0000 0.2342
0.7960 1.0000 0.2407
0.8911 1.0000 0.2474
0.9664 1.0000 0.2538
1.0000 1.0000 0.2595
1.0000 1.0000 0.2639
1.0000 1.0000 0.2668
1.0000 1.0000 0.2679
0.0074 0.0074 0.0149
0.0142 0.0077 0.0142
0.0435 0.0137 0.0159
0.0936 0.0247 0.0257
0.1643 0.0404 0.0417
0.2545 0.0608 0.0625
0.3668 0.0859 0.0880
0.4957 0.1124 0.1146
0.6324 0.1367 0.1390
0.7665 0.1585 0.1610
0.8830 0.1778 0.1803
0.9767 0.1945 0.1970
1.0000 0.2084 0.2109
1.0000 0.2195 0.2221
1.0000 0.2278 0.2303
1.0000 0.2330 0.2355
1.0000 0.2349 0.2374
0.0077 0.0142 0.0142
0.0135 0.0135 0.0135
0.0426 0.0153 0.0153
0.0926 0.0254 0.0254
0.1633 0.0415 0.0415
0.2535 0.0623 0.0623
0.3657 0.0877 0.0877
0.4945 0.1143 0.1143
0.6309 0.1387 0.1387
0.7650 0.1606 0.1606
0.8816 0.1800 0.1800
0.9753 0.1966 0.1966
1.0000 0.2106 0.2106
1.0000 0.2217 0.2217
1.0000 0.2300 0.2300
1.0000 0.2352 0.2352
1.0000 0.2371 0.2371
0.0137 0.0435 0.0159
0.0153 0.0426 0.0153
0.0406 0.0406 0.0166
0.0900 0.0405 0.0256
0.1605 0.0475 0.0411
0.2507 0.0640 0.0615
0.3627 0.0883 0.0867
0.4910 0.1152 0.1133
0.6269 0.1402 0.1376
0.7608 0.1627 0.1595
0.8776 0.1824 0.1789
0.9715 0.1994 0.1955
1.0000 0.2136 0.2095
1.0000 0.2249 0.2206
1.0000 0.2332 0.2289
1.0000 0.2385 0.2341
1.0000 0.2405 0.2360
0.0247 0.0936 0.0257
0.0254 0.0926 0.0254
0.0405 0.0900 0.0256
0.0869 0.0869 0.0303
0.1566 0.0856 0.0424
0.2464 0.0896 0.0612
0.3581 0.1025 0.0855
0.4856 0.1223 0.1117
0.6205 0.1436 0.1358
0.7542 0.1641 0.1577
0.8713 0.1830 0.1769
0.9655 0.1996 0.1936
1.0000 0.2136 0.2075
1.0000 0.2249 0.2186
1.0000 0.2333 0.2269
1.0000 0.2386 0.2321
1.0000 0.2406 0.2340
0.0404 0.1643 0.0417
0.0415 0.1633 0.0415
0.0475 0.1605 0.0411
0.0856 0.1566 0.0424
0.1525 0.1525 0.0493
0.2413 0.1500 0.0640
0.3522 0.1519 0.0860
0.4785 0.1597 0.1108
0.6122 0.1716 0.1343
0.7454 0.1853 0.1558
0.8628 0.1992 0.1748
0.9575 0.2124 0.1913
1.0000 0.2241 0.2051
1.0000 0.2337 0.2161
1.0000 0.2410 0.2243
1.0000 0.2457 0.2295
1.0000 0.2474 0.2314
0.0608 0.2545 0.0625
0.0623 0.2535 0.0623
0.0640 0.2507 0.0615
0.0896 0.2464 0.0612
0.1500 0.2413 0.0640
0.2362 0.2362 0.0733
0.3457 0.2328 0.0907
0.4704 0.2327 0.1128
0.6024 0.2361 0.1347
0.7348 0.2419 0.1551
0.8525 0.2491 0.1735
0.9478 0.2567 0.1896
1.0000 0.2641 0.2031
1.0000 0.2705 0.2140
1.0000 0.2756 0.2221
1.0000 0.2789 0.2271
1.0000 0.2802 0.2290
0.0859 0.3668 0.0880
0.0877 0.3657 0.0877
0.0883 0.3627 0.0867
0.1025 0.3581 0.0855
0.1519 0.3522 0.0860
0.2328 0.3457 0.0907
0.3395 0.3395 0.1025
0.4620 0.3353 0.1201
0.5917 0.3336 0.1391
0.7229 0.3341 0.1577
0.8407 0.3361 0.1749
0.9366 0.3391 0.1901
1.0000 0.3424 0.2030
1.0000 0.3456 0.2135
1.0000 0.3482 0.2212
1.0000 0.3501 0.2262
1.0000 0.3507 0.2280
0.1124 0.4957 0.1146
0.1143 0.4945 0.1143
0.1152 0.4910 0.1133
0.1223 0.4856 0.1117
0.1597 0.4785 0.1108
0.2327 0.4704 0.1128
0.3353 0.4620 0.1201
0.4550 0.4550 0.1330
0.5822 0.4503 0.1485
0.7119 0.4476 0.1646
0.8294 0.4465 0.1800
0.9258 0.4465 0.1939
1.0000 0.4471 0.2059
1.0000 0.4482 0.2158
1.0000 0.4492 0.2231
1.0000 0.4500 0.2278
1.0000 0.4503 0.2295
0.1367 0.6324 0.1390
0.1387 0.6309 0.1387
0.1402 0.6269 0.1376
0.1436 0.6205 0.1358
0.1716 0.6122 0.1343
0.2361 0.6024 0.1347
0.3336 0.5917 0.1391
0.4503 0.5822 0.1485
0.5751 0.5751 0.1609
0.7031 0.5700 0.1745
0.8201 0.5667 0.1880
0.9168 0.5646 0.2005
0.9938 0.5636 0.2115
1.0000 0.5631 0.2206
1.0000 0.5630 0.2275
1.0000 0.5631 0.2319
1.0000 0.5631 0.2335
0.1585 0.7665 0.1610
0.1606 0.7650 0.1606
0.1627 0.7608 0.1595
0.1641 0.7542 0.1577
0.1853 0.7454 0.1558
0.2419 0.7348 0.1551
0.3341 0.7229 0.1577
0.4476 0.7119 0.1646
0.5700 0.7031 0.1745
0.6964 0.6964 0.1859
0.8127 0.6914 0.1976
0.9094 0.6879 0.2088
0.9860 0.6855 0.2188
1.0000 0.6840 0.2272
1.0000 0.6830 0.2335
1.0000 0.6826 0.2376
1.0000 0.6824 0.2391
0.1778 0.8830 0.1803
0.1800 0.8816 0.1800
0.1824 0.8776 0.1789
0.1830 0.8713 0.1769
0.1992 0.8628 0.1748
0.2491 0.8525 0.1735
0.3361 0.8407 0.1749
0.4465 0.8294 0.1800
0.5667 0.8201 0.1880
0.6914 0.8127 0.1976
0.8069 0.8069 0.2079
0.9034 0.8026 0.2179
0.9797 0.7994 0.2270
1.0000 0.7971 0.2346
1.0000 0.7957 0.2405
1.0000 0.7949 0.2443
1.0000 0.7946 0.2457
0.1945 0.9767 0.1970
0.1966 0.9753 0.1966
0.1994 0.9715 0.1955
0.1996 0.9655 0.1936
0.2124 0.9575 0.1913
0.2567 0.9478 0.1896
0.3391 0.9366 0.1901
0.4465 0.9258 0.1939
0.5646 0.9168 0.2005
0.6879 0.9094 0.2088
0.8026 0.9034 0.2179
0.8988 0.8988 0.2269
0.9749 0.8954 0.2352
1.0000 0.8928 0.2423
1.0000 0.8911 0.2477
1.0000 0.8901 0.2513
1.0000 0.8897 0.2526
0.2084 1.0000 0.2109
0.2106 1.0000 0.2106
0.2136 1.0000 0.2095
0.2136 1.0000 0.2075
0.2241 1.0000 0.2051
0.2641 1.0000 0.2031
0.3424 1.0000 0.2030
0.4471 1.0000 0.2059
0.5636 0.9938 0.2115
0.6855 0.9860 0.2188
0.7994 0.9797 0.2270
0.8954 0.9749 0.2352
0.9712 0.9712 0.2429
1.0000 0.9685 0.2494
1.0000 0.9666 0.2545
1.0000 0.9655 0.2579
1.0000 0.9651 0.2591
0.2195 1.0000 0.2221
0.2217 1.0000 0.2217
0.2249 1.0000 0.2206
0.2249 1.0000 0.2186
0.2337 1.0000 0.2161
0.2705 1.0000 0.2140
0.3456 1.0000 0.2135
0.4482 1.0000 0.2158
0.5631 1.0000 0.2206
0.6840 1.0000 0.2272
0.7971 1.0000 0.2346
0.8928 1.0000 0.2423
0.9685 1.0000 0.2494
1.0000 1.0000 0.2556
1.0000 1.0000 0.2604
1.0000 1.0000 0.2636
1.0000 1.0000 0.2648
0.2278 1.0000 0.2303
0.2300 1.0000 0.2300
0.2332 1.0000 0.2289
0.2333 1.0000 0.2269
0.2410 1.0000 0.2243
0.2756 1.0000 0.2221
0.3482 1.0000 0.2212
0.4492 1.0000 0.2231
0.5630 1.0000 0.2275
0.6830 1.0000 0.2335
0.7957 1.0000 0.2405
0.8911 1.0000 0.2477
0.9666 1.0000 0.2545
1.0000 1.0000 0.2604
1.0000 1.0000 0.2651
1.0000 1.0000 0.2681
1.0000 1.0000 0.2692
0.2330 1.0000 0.2355
0.2352 1.0000 0.2352
0.2385 1.0000 0.2341
0.2386 1.0000 0.2321
0.2457 1.0000 0.2295
0.2789 1.0000 0.2271
0.3501 1.0000 0.2262
0.4500 1.0000 0.2278
0.5631 1.0000 0.2319
0.6826 1.0000 0.2376
0.7949 1.0000 0.2443
0.8901 1.0000 0.2513
0.9655 1.0000 0.2579
1.0000 1.0000 0.2636
1.0000 1.0000 0.2681
1.0000 1.0000 0.2710
1.0000 1.0000 0.2721
0.2349 1.0000 0.2374
0.2371 1.0000 0.2371
0.2405 1.0000 0.2360
0.2406 1.0000 0.2340
0.2474 1.0000 0.2314
0.2802 1.0000 0.2290
0.3507 1.0000 0.2280
0.4503 1.0000 0.2295
0.5631 1.0000 0.2335
0.6824 1.0000 0.2391
0.7946 1.0000 0.2457
0.8897 1.0000 0.2526
0.9651 1.0000 0.2591
1.0000 1.0000 0.2648
1.0000 1.0000 0.2692
1.0000 1.0000 0.2721
1.0000 1.0000 0.2732
0.0141 0.0141 0.0444
0.0159 0.0137 0.0435
0.0415 0.0153 0.0415
0.0910 0.0242 0.0414
0.1615 0.0393 0.0482
0.2517 0.0595 0.0644
0.3638 0.0846 0.0885
0.4923 0.1111 0.1154
0.6284 0.1354 0.1404
0.7623 0.1572 0.1629
0.8791 0.1766 0.1826
0.9729 0.1932 0.1996
1.0000 0.2071 0.2138
1.0000 0.2183 0.2251
1.0000 0.2265 0.2335
1.0000 0.2317 0.2388
1.0000 0.2336 0.2407
0.0137 0.0159 0.0435
0.0153 0.0153 0.0426
0.0406 0.0166 0.0406
0.0900 0.0256 0.0405
0.1605 0.0411 0.0475
0.2507 0.0615 0.0640
0.3627 0.0867 0.0883
0.4910 0.1133 0.1152
0.6269 0.1376 0.1402
0.7608 0.1595 0.1627
0.8776 0.1789 0.1824
0.9715 0.1955 0.1994
1.0000 0.2095 0.2136
1.0000 0.2206 0.2249
1.0000 0.2289 0.2332
1.0000 0.2341 0.2385
1.0000 0.2360 0.2405
0.0153 0.0415 0.0415
0.0166 0.0406 0.0406
0.0385 0.0385 0.0385
0.0874 0.0385 0.0385
0.1578 0.0459 0.0459
0.2479 0.0629 0.0629
0.3597 0.0875 0.0875
0.4876 0.1146 0.1146
0.6229 0.1396 0.1396
0.7567 0.1621 0.1621
0.8737 0.1817 0.1817
0.9678 0.1987 0.1987
1.0000 0.2128 0.2128
1.0000 0.2241 0.2241
1.0000 0.2325 0.2325
1.0000 0.2378 0.2378
1.0000 0.2397 0.2397
0.0242 0.0910 0.0414
0.0256 0.0900 0.0405
0.0385 0.0874 0.0385
0.0843 0.0843 0.0384
0.1538 0.0830 0.0456
0.2436 0.0872 0.0624
0.3551 0.1006 0.0868
0.4822 0.1208 0.1138
0.6166 0.1424 0.1386
0.7500 0.1632 0.1608
0.8673 0.1822 0.1805
0.9618 0.1988 0.1973
1.0000 0.2129 0.2114
1.0000 0.2243 0.2227
1.0000 0.2327 0.2310
1.0000 0.2380 0.2363
1.0000 0.2400 0.2382
0.0393 0.1615 0.0482
0.0411 0.1605 0.0475
0.0459 0.1578 0.0459
0.0830 0.1538 0.0456
0.1497 0.1497 0.0511
0.2385 0.1472 0.0656
0.3492 0.1493 0.0883
0.4751 0.1574 0.1140
0.6083 0.1695 0.1381
0.7412 0.1835 0.1599
0.8588 0.1977 0.1792
0.9538 0.2110 0.1959
1.0000 0.2227 0.2098
1.0000 0.2325 0.2210
1.0000 0.2398 0.2292
1.0000 0.2446 0.2345
1.0000 0.2463 0.2364
0.0595 0.2517 0.0644
0.0615 0.2507 0.0640
0.0629 0.2479 0.0629
0.0872 0.2436 0.0624
0.1472 0.2385 0.0656
0.2334 0.2334 0.0758
0.3427 0.2300 0.0945
0.4671 0.2300 0.1173
0.5985 0.2335 0.1397
0.7306 0.2395 0.1605
0.8485 0.2468 0.1791
0.9440 0.2546 0.1953
1.0000 0.2620 0.2089
1.0000 0.2685 0.2198
1.0000 0.2737 0.2279
1.0000 0.2771 0.2330
1.0000 0.2783 0.2349
0.0846 0.3638 0.0885
0.0867 0.3627 0.0883
0.0875 0.3597 0.0875
0.1006 0.3551 0.0868
0.1493 0.3492 0.0883
0.2300 0.3427 0.0945
0.3365 0.3365 0.1076
0.4587 0.3324 0.1261
0.5879 0.3308 0.1456
0.7188 0.3313 0.1644
0.8366 0.3334 0.1817
0.9328 0.3364 0.1970
1.0000 0.3398 0.2100
1.0000 0.3430 0.2204
1.0000 0.3457 0.2282
1.0000 0.3476 0.2332
1.0000 0.3483 0.2350
0.1111 0.4923 0.1154
0.1133 0.4910 0.1152
0.1146 0.4876 0.1146
0.1208 0.4822 0.1138
0.1574 0.4751 0.1140
0.2300 0.4671 0.1173
0.3324 0.4587 0.1261
0.4517 0.4517 0.1401
0.5784 0.4470 0.1561
0.7077 0.4444 0.1724
0.8253 0.4433 0.1879
0.9220 0.4433 0.2019
0.9999 0.4440 0.2140
1.0000 0.4451 0.2238
1.0000 0.4462 0.2312
1.0000 0.4469 0.2359
1.0000 0.4473 0.2376
0.1354 0.6284 0.1404
0.1376 0.6269 0.1402
0.1396 0.6229 0.1396
0.1424 0.6166 0.1386
0.1695 0.6083 0.1381
0.2335 0.5985 0.1397
0.3308 0.5879 0.1456
0.4470 0.5784 0.1561
0.5713 0.5713 0.1691
0.6990 0.5663 0.1831
0.8160 0.5630 0.1967
0.9129 0.5610 0.2094
0.9899 0.5599 0.2204
1.0000 0.5595 0.2295
1.0000 0.5594 0.2364
1.0000 0.5595 0.2408
1.0000 0.5595 0.2424
0.1572 0.7623 0.1629
0.1595 0.7608 0.1627
0.1621 0.7567 0.1621
0.1632 0.7500 0.1608
0.1835 0.7412 0.1599
0.2395 0.7306 0.1605
0.3313 0.7188 0.1644
0.4444 0.7077 0.1724
0.5663 0.6990 0.1831
0.6923 0.6923 0.1949
0.8086 0.6873 0.2070
0.9055 0.6838 0.2183
0.9821 0.6814 0.2284
1.0000 0.6799 0.2368
1.0000 0.6790 0.2431
1.0000 0.6785 0.2472
1.0000 0.6784 0.2488
0.1766 0.8791 0.1826
0.1789 0.8776 0.1824
0.1817 0.8737 0.1817
0.1822 0.8673 0.1805
0.1977 0.8588 0.1792
0.2468 0.8485 0.1791
0.3334 0.8366 0.1817
0.4433 0.8253 0.1879
0.5630 0.8160 0.1967
0.6873 0.8086 0.2070
0.8028 0.8028 0.2176
0.8996 0.7985 0.2278
0.9760 0.7953 0.2370
1.0000 0.7931 0.2447
1.0000 0.7916 0.2506
1.0000 0.7908 0.2544
1.0000 0.7905 0.2558
0.1932 0.9729 0.1996
0.1955 0.9715 0.1994
0.1987 0.9678 0.1987
0.1988 0.9618 0.1973
0.2110 0.9538 0.1959
0.2546 0.9440 0.1953
0.3364 0.9328 0.1970
0.4433 0.9220 0.2019
0.5610 0.9129 0.2094
0.6838 0.9055 0.2183
0.7985 0.8996 0.2278
0.8950 0.8950 0.2370
0.9711 0.8915 0.2455
1.0000 0.8890 0.2526
1.0000 0.8872 0.2581
1.0000 0.8862 0.2617
1.0000 0.8859 0.2630
0.2071 1.0000 0.2138
0.2095 1.0000 0.2136
0.2128 1.0000 0.2128
0.2129 1.0000 0.2114
0.2227 1.0000 0.2098
0.2620 1.0000 0.2089
0.3398 1.0000 0.2100
0.4440 0.9999 0.2140
0.5599 0.9899 0.2204
0.6814 0.9821 0.2284
0.7953 0.9760 0.2370
0.8915 0.9711 0.2455
0.9675 0.9675 0.2533
1.0000 0.9648 0.2600
1.0000 0.9629 0.2652
1.0000 0.9618 0.2685
1.0000 0.9614 0.2698
0.2183 1.0000 0.2251
0.2206 1.0000 0.2249
0.2241 1.0000 0.2241
0.2243 1.0000 0.2227
0.2325 1.0000 0.2210
0.2685 1.0000 0.2198
0.3430 1.0000 0.2204
0.4451 1.0000 0.2238
0.5595 1.0000 0.2295
0.6799 1.0000 0.2368
0.7931 1.0000 0.2447
0.8890 1.0000 0.2526
0.9648 1.0000 0.2600
1.0000 1.0000 0.2663
1.0000 1.0000 0.2712
1.0000 1.0000 0.2744
1.0000 1.0000 0.2756
0.2265 1.0000 0.2335
0.2289 1.0000 0.2332
0.2325 1.0000 0.2325
0.2327 1.0000 0.2310
0.2398 1.0000 0.2292
0.2737 1.0000 0.2279
0.3457 1.0000 0.2282
0.4462 1.0000 0.2312
0.5594 1.0000 0.2364
0.6790 1.0000 0.2431
0.7916 1.0000 0.2506
0.8872 1.0000 0.2581
0.9629 1.0000 0.2652
1.0000 1.0000 0.2712
1.0000 1.0000 0.2760
1.0000 1.0000 0.2790
1.0000 1.0000 0.2802
0.2317 1.0000 0.2388
0.2341 1.0000 0.2385
0.2378 1.0000 0.2378
0.2380 1.0000 0.2363
0.2446 1.0000 0.2345
0.2771 1.0000 0.2330
0.3476 1.0000 0.2332
0.4469 1.0000 0.2359
0.5595 1.0000 0.2408
0.6785 1.0000 0.2472
0.7908 1.0000 0.2544
0.8862 1.0000 0.2617
0.9618 1.0000 0.2685
1.0000 1.0000 0.2744
1.0000 1.0000 0.2790
1.0000 1.0000 0.2821
1.0000 1.0000 0.2832
0.2336 1.0000 0.2407
0.2360 1.0000 0.2405
0.2397 1.0000 0.2397
0.2400 1.0000 0.2382
0.2463 1.0000 0.2364
0.2783 1.0000 0.2349
0.3483 1.0000 0.2350
0.4473 1.0000 0.2376
0.5595 1.0000 0.2424
0.6784 1.0000 0.2488
0.7905 1.0000 0.2558
0.8859 1.0000 0.2630
0.9614 1.0000 0.2698
1.0000 1.0000 0.2756
1.0000 1.0000 0.2802
1.0000 1.0000 0.2832
1.0000 1.0000 0.2843
0.0251 0.0251 0.0945
0.0257 0.0247 0.0936
0.0414 0.0242 0.0910
0.0879 0.0280 0.0879
0.1576 0.0397 0.0865
0.2475 0.0585 0.0904
0.3592 0.0829 0.1031
0.4868 0.1090 0.1227
0.6220 0.1332 0.1439
0.7557 0.1550 0.1644
0.8728 0.1743 0.1832
0.9669 0.1910 0.1998
1.0000 0.2049 0.2138
1.0000 0.2160 0.2251
1.0000 0.2243 0.2335
1.0000 0.2295 0.2388
1.0000 0.2314 0.2407
0.0247 0.0257 0.0936
0.0254 0.0254 0.0926
0.0405 0.0256 0.0900
0.0869 0.0303 0.0869
0.1566 0.0424 0.0856
0.2464 0.0612 0.0896
0.3581 0.0855 0.1025
0.4856 0.1117 0.1223
0.6205 0.1358 0.1436
0.7542 0.1577 0.1641
0.8713 0.1769 0.1830
0.9655 0.1936 0.1996
1.0000 0.2075 0.2136
1.0000 0.2186 0.2249
1.0000 0.2269 0.2333
1.0000 0.2321 0.2386
