assets/luts/LUTs/JD PRORES LOG CONV -1.CUBE
TITLE "ColorFinale Export"
# Created by Jeven Dovey on 2023-09-28 21:03:52 +0000
# Color Finale Plugin v.2.6.0 (537)
LUT_3D_SIZE 9
0.0051 0.0051 0.0051
0.0444 0.0141 0.0141
0.1653 0.0408 0.0408
0.3679 0.0863 0.0863
0.6338 0.1371 0.1371
0.8845 0.1783 0.1783
1.0000 0.2088 0.2088
1.0000 0.2282 0.2282
1.0000 0.2353 0.2353
0.0141 0.0444 0.0141
0.0415 0.0415 0.0153
0.1615 0.0482 0.0393
0.3638 0.0885 0.0846
0.6284 0.1404 0.1354
0.8791 0.1826 0.1766
1.0000 0.2138 0.2071
1.0000 0.2335 0.2265
1.0000 0.2407 0.2336
0.0408 0.1653 0.0408
0.0482 0.1615 0.0393
0.1535 0.1535 0.0459
0.3533 0.1528 0.0825
0.6137 0.1723 0.1312
0.8643 0.1998 0.1718
1.0000 0.2245 0.2021
1.0000 0.2414 0.2214
1.0000 0.2478 0.2285
0.0863 0.3679 0.0863
0.0885 0.3638 0.0846
0.1528 0.3533 0.0825
0.3405 0.3405 0.0980
0.5932 0.3347 0.1347
0.8422 0.3371 0.1707
1.0000 0.3433 0.1991
1.0000 0.3491 0.2174
1.0000 0.3516 0.2242
0.1371 0.6338 0.1371
0.1404 0.6284 0.1354
0.1723 0.6137 0.1312
0.3347 0.5932 0.1347
0.5765 0.5765 0.1560
0.8216 0.5680 0.1831
0.9953 0.5649 0.2067
1.0000 0.5643 0.2228
1.0000 0.5645 0.2288
0.1783 0.8845 0.1783
0.1826 0.8791 0.1766
0.1998 0.8643 0.1718
0.3371 0.8422 0.1707
0.5680 0.8216 0.1831
0.8084 0.8084 0.2028
0.9811 0.8009 0.2219
1.0000 0.7972 0.2354
1.0000 0.7960 0.2407
0.2088 1.0000 0.2088
0.2138 1.0000 0.2071
0.2245 1.0000 0.2021
0.3433 1.0000 0.1991
0.5649 0.9953 0.2067
0.8009 0.9811 0.2219
0.9726 0.9726 0.2376
1.0000 0.9679 0.2493
1.0000 0.9664 0.2538
0.2282 1.0000 0.2282
0.2335 1.0000 0.2265
0.2414 1.0000 0.2214
0.3491 1.0000 0.2174
0.5643 1.0000 0.2228
0.7972 1.0000 0.2354
0.9679 1.0000 0.2493
1.0000 1.0000 0.2598
1.0000 1.0000 0.2639
0.2353 1.0000 0.2353
0.2407 1.0000 0.2336
0.2478 1.0000 0.2285
0.3516 1.0000 0.2242
0.5645 1.0000 0.2288
0.7960 1.0000 0.2407
0.9664 1.0000 0.2538
1.0000 1.0000 0.2639
1.0000 1.0000 0.2679
0.0141 0.0141 0.0444
0.0415 0.0153 0.0415
0.1615 0.0393 0.0482
0.3638 0.0846 0.0885
0.6284 0.1354 0.1404
0.8791 0.1766 0.1826
1.0000 0.2071 0.2138
1.0000 0.2265 0.2335
1.0000 0.2336 0.2407
0.0153 0.0415 0.0415
0.0385 0.0385 0.0385
0.1578 0.0459 0.0459
0.3597 0.0875 0.0875
0.6229 0.1396 0.1396
0.8737 0.1817 0.1817
1.0000 0.2128 0.2128
1.0000 0.2325 0.2325
1.0000 0.2397 0.2397
0.0393 0.1615 0.0482
0.0459 0.1578 0.0459
0.1497 0.1497 0.0511
0.3492 0.1493 0.0883
0.6083 0.1695 0.1381
0.8588 0.1977 0.1792
1.0000 0.2227 0.2098
1.0000 0.2398 0.2292
1.0000 0.2463 0.2364
0.0846 0.3638 0.0885
0.0875 0.3597 0.0875
0.1493 0.3492 0.0883
0.3365 0.3365 0.1076
0.5879 0.3308 0.1456
0.8366 0.3334 0.1817
1.0000 0.3398 0.2100
1.0000 0.3457 0.2282
1.0000 0.3483 0.2350
0.1354 0.6284 0.1404
0.1396 0.6229 0.1396
0.1695 0.6083 0.1381
0.3308 0.5879 0.1456
0.5713 0.5713 0.1691
0.8160 0.5630 0.1967
0.9899 0.5599 0.2204
1.0000 0.5594 0.2364
1.0000 0.5595 0.2424
0.1766 0.8791 0.1826
0.1817 0.8737 0.1817
0.1977 0.8588 0.1792
0.3334 0.8366 0.1817
0.5630 0.8160 0.1967
0.8028 0.8028 0.2176
0.9760 0.7953 0.2370
1.0000 0.7916 0.2506
1.0000 0.7905 0.2558
0.2071 1.0000 0.2138
0.2128 1.0000 0.2128
0.2227 1.0000 0.2098
0.3398 1.0000 0.2100
0.5599 0.9899 0.2204
0.7953 0.9760 0.2370
0.9675 0.9675 0.2533
1.0000 0.9629 0.2652
1.0000 0.9614 0.2698
0.2265 1.0000 0.2335
0.2325 1.0000 0.2325
0.2398 1.0000 0.2292
0.3457 1.0000 0.2282
0.5594 1.0000 0.2364
0.7916 1.0000 0.2506
0.9629 1.0000 0.2652
1.0000 1.0000 0.2760
1.0000 1.0000 0.2802
0.2336 1.0000 0.2407
0.2397 1.0000 0.2397
0.2463 1.0000 0.2364
0.3483 1.0000 0.2350
0.5595 1.0000 0.2424
0.7905 1.0000 0.2558
0.9614 1.0000 0.2698
1.0000 1.0000 0.2802
1.0000 1.0000 0.2843
0.0408 0.0408 0.1653
0.0482 0.0393 0.1615
0.1535 0.0459 0.1535
0.3533 0.0825 0.1528
0.6137 0.1312 0.1723
0.8643 0.1718 0.1998
1.0000 0.2021 0.2245
1.0000 0.2214 0.2414
1.0000 0.2285 0.2478
0.0393 0.0482 0.1615
0.0459 0.0459 0.1578
0.1497 0.0511 0.1497
0.3492 0.0883 0.1493
0.6083 0.1381 0.1695
0.8588 0.1792 0.1977
1.0000 0.2098 0.2227
1.0000 0.2292 0.2398
1.0000 0.2364 0.2463
0.0459 0.1535 0.1535
0.0511 0.1497 0.1497
0.1413 0.1413 0.1413
0.3386 0.1411 0.1411
0.5937 0.1626 0.1626
0.8438 0.1920 0.1920
1.0000 0.2178 0.2178
1.0000 0.2353 0.2353
1.0000 0.2419 0.2419
0.0825 0.3533 0.1528
0.0883 0.3492 0.1493
0.1411 0.3386 0.1411
0.3258 0.3258 0.1406
0.5734 0.3202 0.1615
0.8213 0.3231 0.1904
0.9963 0.3298 0.2160
1.0000 0.3360 0.2333
1.0000 0.3387 0.2399
0.1312 0.6137 0.1723
0.1381 0.6083 0.1695
0.1626 0.5937 0.1626
0.3202 0.5734 0.1615
0.5571 0.5571 0.1782
0.8004 0.5489 0.2031
0.9754 0.5460 0.2261
1.0000 0.5456 0.2421
1.0000 0.5458 0.2481
0.1718 0.8643 0.1998
0.1792 0.8588 0.1977
0.1920 0.8438 0.1920
0.3231 0.8213 0.1904
0.5489 0.8004 0.2031
0.7872 0.7872 0.2237
0.9617 0.7796 0.2435
1.0000 0.7760 0.2577
1.0000 0.7749 0.2632
0.2021 1.0000 0.2245
0.2098 1.0000 0.2227
0.2178 1.0000 0.2178
0.3298 0.9963 0.2160
0.5460 0.9754 0.2261
0.7796 0.9617 0.2435
0.9533 0.9533 0.2610
1.0000 0.9487 0.2737
1.0000 0.9472 0.2787
0.2214 1.0000 0.2414
0.2292 1.0000 0.2398
0.2353 1.0000 0.2353
0.3360 1.0000 0.2333
0.5456 1.0000 0.2421
0.7760 1.0000 0.2577
0.9487 1.0000 0.2737
1.0000 1.0000 0.2856
1.0000 1.0000 0.2902
0.2285 1.0000 0.2478
0.2364 1.0000 0.2463
0.2419 1.0000 0.2419
0.3387 1.0000 0.2399
0.5458 1.0000 0.2481
0.7749 1.0000 0.2632
0.9472 1.0000 0.2787
1.0000 1.0000 0.2902
1.0000 1.0000 0.2947
0.0863 0.0863 0.3679
0.0885 0.0846 0.3638
0.1528 0.0825 0.3533
0.3405 0.0980 0.3405
0.5932 0.1347 0.3347
0.8422 0.1707 0.3371
1.0000 0.1991 0.3433
1.0000 0.2174 0.3491
1.0000 0.2242 0.3516
0.0846 0.0885 0.3638
0.0875 0.0875 0.3597
0.1493 0.0883 0.3492
0.3365 0.1076 0.3365
0.5879 0.1456 0.3308
0.8366 0.1817 0.3334
1.0000 0.2100 0.3398
1.0000 0.2282 0.3457
1.0000 0.2350 0.3483
0.0825 0.1528 0.3533
0.0883 0.1493 0.3492
0.1411 0.1411 0.3386
0.3258 0.1406 0.3258
0.5734 0.1615 0.3202
0.8213 0.1904 0.3231
0.9963 0.2160 0.3298
1.0000 0.2333 0.3360
1.0000 0.2399 0.3387
0.0980 0.3405 0.3405
0.1076 0.3365 0.3365
0.1406 0.3258 0.3258
0.3127 0.3127 0.3127
0.5532 0.3070 0.3070
0.7982 0.3101 0.3101
0.9742 0.3171 0.3171
1.0000 0.3236 0.3236
1.0000 0.3264 0.3264
0.1347 0.5932 0.3347
0.1456 0.5879 0.3308
0.1615 0.5734 0.3202
0.3070 0.5532 0.3070
0.5369 0.5369 0.3011
0.7769 0.5288 0.3042
0.9538 0.5260 0.3112
1.0000 0.5257 0.3177
1.0000 0.5259 0.3205
0.1707 0.8422 0.3371
0.1817 0.8366 0.3334
0.1904 0.8213 0.3231
0.3101 0.7982 0.3101
0.5288 0.7769 0.3042
0.7634 0.7634 0.3070
0.9399 0.7557 0.3138
1.0000 0.7521 0.3201
1.0000 0.7509 0.3228
0.1991 1.0000 0.3433
0.2100 1.0000 0.3398
0.2160 0.9963 0.3298
0.3171 0.9742 0.3171
0.5260 0.9538 0.3112
0.7557 0.9399 0.3138
0.9313 0.9313 0.3202
1.0000 0.9267 0.3263
1.0000 0.9252 0.3289
0.2174 1.0000 0.3491
0.2282 1.0000 0.3457
0.2333 1.0000 0.3360
0.3236 1.0000 0.3236
0.5257 1.0000 0.3177
0.7521 1.0000 0.3201
0.9267 1.0000 0.3263
1.0000 1.0000 0.3322
1.0000 1.0000 0.3347
0.2242 1.0000 0.3516
0.2350 1.0000 0.3483
0.2399 1.0000 0.3387
0.3264 1.0000 0.3264
0.5259 1.0000 0.3205
0.7509 1.0000 0.3228
0.9252 1.0000 0.3289
1.0000 1.0000 0.3347
1.0000 1.0000 0.3372
0.1371 0.1371 0.6338
0.1404 0.1354 0.6284
0.1723 0.1312 0.6137
0.3347 0.1347 0.5932
0.5765 0.1560 0.5765
0.8216 0.1831 0.5680
0.9953 0.2067 0.5649
1.0000 0.2228 0.5643
1.0000 0.2288 0.5645
0.1354 0.1404 0.6284
0.1396 0.1396 0.6229
0.1695 0.1381 0.6083
0.3308 0.1456 0.5879
0.5713 0.1691 0.5713
0.8160 0.1967 0.5630
0.9899 0.2204 0.5599
1.0000 0.2364 0.5594
1.0000 0.2424 0.5595
0.1312 0.1723 0.6137
0.1381 0.1695 0.6083
0.1626 0.1626 0.5937
0.3202 0.1615 0.5734
0.5571 0.1782 0.5571
0.8004 0.2031 0.5489
0.9754 0.2261 0.5460
1.0000 0.2421 0.5456
1.0000 0.2481 0.5458
0.1347 0.3347 0.5932
0.1456 0.3308 0.5879
0.1615 0.3202 0.5734
0.3070 0.3070 0.5532
0.5369 0.3011 0.5369
0.7769 0.3042 0.5288
0.9538 0.3112 0.5260
1.0000 0.3177 0.5257
1.0000 0.3205 0.5259
0.1560 0.5765 0.5765
0.1691 0.5713 0.5713
0.1782 0.5571 0.5571
0.3011 0.5369 0.5369
0.5207 0.5207 0.5207
0.7552 0.5126 0.5126
0.9330 0.5097 0.5097
1.0000 0.5095 0.5095
1.0000 0.5097 0.5097
0.1831 0.8216 0.5680
0.1967 0.8160 0.5630
0.2031 0.8004 0.5489
0.3042 0.7769 0.5288
0.5126 0.7552 0.5126
0.7414 0.7414 0.5044
0.9188 0.7336 0.5016
1.0000 0.7299 0.5013
1.0000 0.7288 0.5015
0.2067 0.9953 0.5649
0.2204 0.9899 0.5599
0.2261 0.9754 0.5460
0.3112 0.9538 0.5260
0.5097 0.9330 0.5097
0.7336 0.9188 0.5016
0.9100 0.9100 0.4988
1.0000 0.9052 0.4984
1.0000 0.9036 0.4986
0.2228 1.0000 0.5643
0.2364 1.0000 0.5594
0.2421 1.0000 0.5456
0.3177 1.0000 0.5257
0.5095 1.0000 0.5095
0.7299 1.0000 0.5013
0.9052 1.0000 0.4984
1.0000 1.0000 0.4981
1.0000 1.0000 0.4983
0.2288 1.0000 0.5645
0.2424 1.0000 0.5595
0.2481 1.0000 0.5458
0.3205 1.0000 0.5259
0.5097 1.0000 0.5097
0.7288 1.0000 0.5015
0.9036 1.0000 0.4986
1.0000 1.0000 0.4983
1.0000 1.0000 0.4984
0.1783 0.1783 0.8845
0.1826 0.1766 0.8791
0.1998 0.1718 0.8643
0.3371 0.1707 0.8422
0.5680 0.1831 0.8216
0.8084 0.2028 0.8084
0.9811 0.2219 0.8009
1.0000 0.2354 0.7972
1.0000 0.2407 0.7960
0.1766 0.1826 0.8791
0.1817 0.1817 0.8737
0.1977 0.1792 0.8588
0.3334 0.1817 0.8366
0.5630 0.1967 0.8160
0.8028 0.2176 0.8028
0.9760 0.2370 0.7953
1.0000 0.2506 0.7916
1.0000 0.2558 0.7905
0.1718 0.1998 0.8643
0.1792 0.1977 0.8588
0.1920 0.1920 0.8438
0.3231 0.1904 0.8213
0.5489 0.2031 0.8004
0.7872 0.2237 0.7872
0.9617 0.2435 0.7796
1.0000 0.2577 0.7760
1.0000 0.2632 0.7749
0.1707 0.3371 0.8422
0.1817 0.3334 0.8366
0.1904 0.3231 0.8213
0.3101 0.3101 0.7982
0.5288 0.3042 0.7769
0.7634 0.3070 0.7634
0.9399 0.3138 0.7557
1.0000 0.3201 0.7521
1.0000 0.3228 0.7509
0.1831 0.5680 0.8216
0.1967 0.5630 0.8160
0.2031 0.5489 0.8004
0.3042 0.5288 0.7769
0.5126 0.5126 0.7552
0.7414 0.5044 0.7414
0.9188 0.5016 0.7336
1.0000 0.5013 0.7299
1.0000 0.5015 0.7288
0.2028 0.8084 0.8084
0.2176 0.8028 0.8028
0.2237 0.7872 0.7872
0.3070 0.7634 0.7634
0.5044 0.7414 0.7414
0.7274 0.7274 0.7274
0.9043 0.7196 0.7196
1.0000 0.7158 0.7158
1.0000 0.7147 0.7147
0.2219 0.9811 0.8009
0.2370 0.9760 0.7953
0.2435 0.9617 0.7796
0.3138 0.9399 0.7557
0.5016 0.9188 0.7336
0.7196 0.9043 0.7196
0.8953 0.8953 0.7117
1.0000 0.8903 0.7079
1.0000 0.8887 0.7067
0.2354 1.0000 0.7972
0.2506 1.0000 0.7916
0.2577 1.0000 0.7760
0.3201 1.0000 0.7521
0.5013 1.0000 0.7299
0.7158 1.0000 0.7158
0.8903 1.0000 0.7079
0.9944 0.9944 0.7041
1.0000 0.9925 0.7029
0.2407 1.0000 0.7960
0.2558 1.0000 0.7905
0.2632 1.0000 0.7749
0.3228 1.0000 0.7509
0.5015 1.0000 0.7288
0.7147 1.0000 0.7147
0.8887 1.0000 0.7067
0.9925 1.0000 0.7029
1.0000 1.0000 0.7018
0.2088 0.2088 1.0000
0.2138 0.2071 1.0000
0.2245 0.2021 1.0000
0.3433 0.1991 1.0000
0.5649 0.2067 0.9953
0.8009 0.2219 0.9811
0.9726 0.2376 0.9726
1.0000 0.2493 0.9679
1.0000 0.2538 0.9664
0.2071 0.2138 1.0000
0.2128 0.2128 1.0000
0.2227 0.2098 1.0000
0.3398 0.2100 1.0000
0.5599 0.2204 0.9899
0.7953 0.2370 0.9760
0.9675 0.2533 0.9675
1.0000 0.2652 0.9629
1.0000 0.2698 0.9614
0.2021 0.2245 1.0000
0.2098 0.2227 1.0000
0.2178 0.2178 1.0000
0.3298 0.2160 0.9963
0.5460 0.2261 0.9754
0.7796 0.2435 0.9617
0.9533 0.2610 0.9533
1.0000 0.2737 0.9487
1.0000 0.2787 0.9472
0.1991 0.3433 1.0000
0.2100 0.3398 1.0000
0.2160 0.3298 0.9963
0.3171 0.3171 0.9742
0.5260 0.3112 0.9538
0.7557 0.3138 0.9399
0.9313 0.3202 0.9313
1.0000 0.3263 0.9267
1.0000 0.3289 0.9252
0.2067 0.5649 0.9953
0.2204 0.5599 0.9899
0.2261 0.5460 0.9754
0.3112 0.5260 0.9538
0.5097 0.5097 0.9330
0.7336 0.5016 0.9188
0.9100 0.4988 0.9100
1.0000 0.4984 0.9052
1.0000 0.4986 0.9036
0.2219 0.8009 0.9811
0.2370 0.7953 0.9760
0.2435 0.7796 0.9617
0.3138 0.7557 0.9399
0.5016 0.7336 0.9188
0.7196 0.7196 0.9043
0.8953 0.7117 0.8953
1.0000 0.7079 0.8903
1.0000 0.7067 0.8887
0.2376 0.9726 0.9726
0.2533 0.9675 0.9675
0.2610 0.9533 0.9533
0.3202 0.9313 0.9313
0.4988 0.9100 0.9100
0.7117 0.8953 0.8953
0.8860 0.8860 0.8860
0.9899 0.8810 0.8810
1.0000 0.8794 0.8794
0.2493 1.0000 0.9679
0.2652 1.0000 0.9629
0.2737 1.0000 0.9487
0.3263 1.0000 0.9267
0.4984 1.0000 0.9052
0.7079 1.0000 0.8903
0.8810 0.9899 0.8810
0.9844 0.9844 0.8760
1.0000 0.9826 0.8743
0.2538 1.0000 0.9664
0.2698 1.0000 0.9614
0.2787 1.0000 0.9472
0.3289 1.0000 0.9252
0.4986 1.0000 0.9036
0.7067 1.0000 0.8887
0.8794 1.0000 0.8794
0.9826 1.0000 0.8743
1.0000 1.0000 0.8727
0.2282 0.2282 1.0000
0.2335 0.2265 1.0000
0.2414 0.2214 1.0000
0.3491 0.2174 1.0000
0.5643 0.2228 1.0000
0.7972 0.2354 1.0000
0.9679 0.2493 1.0000
1.0000 0.2598 1.0000
1.0000 0.2639 1.0000
0.2265 0.2335 1.0000
0.2325 0.2325 1.0000
0.2398 0.2292 1.0000
0.3457 0.2282 1.0000
0.5594 0.2364 1.0000
0.7916 0.2506 1.0000
0.9629 0.2652 1.0000
1.0000 0.2760 1.0000
1.0000 0.2802 1.0000
0.2214 0.2414 1.0000
0.2292 0.2398 1.0000
0.2353 0.2353 1.0000
0.3360 0.2333 1.0000
0.5456 0.2421 1.0000
0.7760 0.2577 1.0000
0.9487 0.2737 1.0000
1.0000 0.2856 1.0000
1.0000 0.2902 1.0000
0.2174 0.3491 1.0000
0.2282 0.3457 1.0000
0.2333 0.3360 1.0000
0.3236 0.3236 1.0000
0.5257 0.3177 1.0000
0.7521 0.3201 1.0000
0.9267 0.3263 1.0000
1.0000 0.3322 1.0000
1.0000 0.3347 1.0000
0.2228 0.5643 1.0000
0.2364 0.5594 1.0000
0.2421 0.5456 1.0000
0.3177 0.5257 1.0000
0.5095 0.5095 1.0000
0.7299 0.5013 1.0000
0.9052 0.4984 1.0000
1.0000 0.4981 1.0000
1.0000 0.4983 1.0000
0.2354 0.7972 1.0000
0.2506 0.7916 1.0000
0.2577 0.7760 1.0000
0.3201 0.7521 1.0000
0.5013 0.7299 1.0000
0.7158 0.7158 1.0000
0.8903 0.7079 1.0000
0.9944 0.7041 0.9944
1.0000 0.7029 0.9925
0.2493 0.9679 1.0000
0.2652 0.9629 1.0000
0.2737 0.9487 1.0000
0.3263 0.9267 1.0000
0.4984 0.9052 1.0000
0.7079 0.8903 1.0000
0.8810 0.8810 0.9899
0.9844 0.8760 0.9844
1.0000 0.8743 0.9826
0.2598 1.0000 1.0000
0.2760 1.0000 1.0000
0.2856 1.0000 1.0000
0.3322 1.0000 1.0000
0.4981 1.0000 1.0000
0.7041 0.9944 0.9944
0.8760 0.9844 0.9844
0.9789 0.9789 0.9789
1.0000 0.9771 0.9771
0.2639 1.0000 1.0000
0.2802 1.0000 1.0000
0.2902 1.0000 1.0000
0.3347 1.0000 1.0000
0.4983 1.0000 1.0000
0.7029 1.0000 0.9925
0.8743 1.0000 0.9826
0.9771 1.0000 0.9771
1.0000 1.0000 0.9753
0.2353 0.2353 1.0000
0.2407 0.2336 1.0000
0.2478 0.2285 1.0000
0.3516 0.2242 1.0000
0.5645 0.2288 1.0000
0.7960 0.2407 1.0000
0.9664 0.2538 1.0000
1.0000 0.2639 1.0000
1.0000 0.2679 1.0000
0.2336 0.2407 1.0000
0.2397 0.2397 1.0000
0.2463 0.2364 1.0000
0.3483 0.2350 1.0000
0.5595 0.2424 1.0000
0.7905 0.2558 1.0000
0.9614 0.2698 1.0000
1.0000 0.2802 1.0000
1.0000 0.2843 1.0000
0.2285 0.2478 1.0000
0.2364 0.2463 1.0000
0.2419 0.2419 1.0000
0.3387 0.2399 1.0000
0.5458 0.2481 1.0000
0.7749 0.2632 1.0000
0.9472 0.2787 1.0000
1.0000 0.2902 1.0000
1.0000 0.2947 1.0000
0.2242 0.3516 1.0000
0.2350 0.3483 1.0000
0.2399 0.3387 1.0000
0.3264 0.3264 1.0000
0.5259 0.3205 1.0000
0.7509 0.3228 1.0000
0.9252 0.3289 1.0000
1.0000 0.3347 1.0000
1.0000 0.3372 1.0000
0.2288 0.5645 1.0000
0.2424 0.5595 1.0000
0.2481 0.5458 1.0000
0.3205 0.5259 1.0000
0.5097 0.5097 1.0000
0.7288 0.5015 1.0000
0.9036 0.4986 1.0000
1.0000 0.4983 1.0000
1.0000 0.4984 1.0000
0.2407 0.7960 1.0000
0.2558 0.7905 1.0000
0.2632 0.7749 1.0000
0.3228 0.7509 1.0000
0.5015 0.7288 1.0000
0.7147 0.7147 1.0000
0.8887 0.7067 1.0000
0.9925 0.7029 1.0000
1.0000 0.7018 1.0000
0.2538 0.9664 1.0000
0.2698 0.9614 1.0000
0.2787 0.9472 1.0000
0.3289 0.9252 1.0000
0.4986 0.9036 1.0000
0.7067 0.8887 1.0000
0.8794 0.8794 1.0000
0.9826 0.8743 1.0000
1.0000 0.8727 1.0000
0.2639 1.0000 1.0000
0.2802 1.0000 1.0000
0.2902 1.0000 1.0000
0.3347 1.0000 1.0000
0.4983 1.0000 1.0000
0.7029 0.9925 1.0000
0.8743 0.9826 1.0000
0.9771 0.9771 1.0000
1.0000 0.9753 1.0000
0.2679 1.0000 1.0000
0.2843 1.0000 1.0000
0.2947 1.0000 1.0000
0.3372 1.0000 1.0000
0.4984 1.0000 1.0000
0.7018 1.0000 1.0000
0.8727 1.0000 1.0000
0.9753 1.0000 1.0000
1.0000 1.0000 1.0000
