assets/luts/LUTs/JD PRORES LOG CONV +1.CUBE
TITLE "ColorFinale Export"
# Created by Jeven Dovey on 2023-09-28 21:04:02 +0000
# Color Finale Plugin v.2.6.0 (537)
LUT_3D_SIZE 5
0.0000 0.0000 0.0000
0.0592 0.0000 0.0000
0.6221 0.0000 0.0000
0.9835 0.0000 0.0000
1.0000 0.0000 0.0000
0.0000 0.0592 0.0000
0.0492 0.0492 0.0000
0.5954 0.0057 0.0000
0.9750 0.0000 0.0000
1.0000 0.0000 0.0000
0.0000 0.6221 0.0000
0.0057 0.5954 0.0000
0.5203 0.5203 0.0000
0.9478 0.4563 0.0000
1.0000 0.4301 0.0000
0.0000 0.9835 0.0000
0.0000 0.9750 0.0000
0.4563 0.9478 0.0000
0.9207 0.9207 0.0000
0.9960 0.9088 0.0000
0.0000 1.0000 0.0000
0.0000 1.0000 0.0000
0.4301 1.0000 0.0000
0.9088 0.9960 0.0000
0.9919 0.9919 0.0000
0.0000 0.0000 0.0592
0.0492 0.0000 0.0492
0.5954 0.0000 0.0057
0.9750 0.0000 0.0000
1.0000 0.0000 0.0000
0.0000 0.0492 0.0492
0.0402 0.0402 0.0402
0.5677 0.0000 0.0000
0.9652 0.0000 0.0000
1.0000 0.0000 0.0000
0.0000 0.5954 0.0057
0.0000 0.5677 0.0000
0.4938 0.4938 0.0000
0.9353 0.4311 0.0000
0.9994 0.4053 0.0000
0.0000 0.9750 0.0000
0.0000 0.9652 0.0000
0.4311 0.9353 0.0000
0.9063 0.9063 0.0000
0.9907 0.8937 0.0000
0.0000 1.0000 0.0000
0.0000 1.0000 0.0000
0.4053 0.9994 0.0000
0.8937 0.9907 0.0000
0.9853 0.9853 0.0000
0.0000 0.0000 0.6221
0.0057 0.0000 0.5954
0.5203 0.0000 0.5203
0.9478 0.0000 0.4563
1.0000 0.0000 0.4301
0.0000 0.0057 0.5954
0.0000 0.0000 0.5677
0.4938 0.0000 0.4938
0.9353 0.0000 0.4311
0.9994 0.0000 0.4053
0.0000 0.5203 0.5203
0.0000 0.4938 0.4938
0.4255 0.4255 0.4255
0.8995 0.3667 0.3667
0.9875 0.3423 0.3423
0.0000 0.9478 0.4563
0.0000 0.9353 0.4311
0.3667 0.8995 0.3667
0.8664 0.8664 0.3105
0.9707 0.8522 0.2870
0.0000 1.0000 0.4301
0.0000 0.9994 0.4053
0.3423 0.9875 0.3423
0.8522 0.9707 0.2870
0.9626 0.9626 0.2637
0.0000 0.0000 0.9835
0.0000 0.0000 0.9750
0.4563 0.0000 0.9478
0.9207 0.0000 0.9207
0.9960 0.0000 0.9088
0.0000 0.0000 0.9750
0.0000 0.0000 0.9652
0.4311 0.0000 0.9353
0.9063 0.0000 0.9063
0.9907 0.0000 0.8937
0.0000 0.4563 0.9478
0.0000 0.4311 0.9353
0.3667 0.3667 0.8995
0.8664 0.3105 0.8664
0.9707 0.2870 0.8522
0.0000 0.9207 0.9207
0.0000 0.9063 0.9063
0.3105 0.8664 0.8664
0.8301 0.8301 0.8301
0.9491 0.8146 0.8146
0.0000 0.9960 0.9088
0.0000 0.9907 0.8937
0.2870 0.9707 0.8522
0.8146 0.9491 0.8146
0.9394 0.9394 0.7985
0.0000 0.0000 1.0000
0.0000 0.0000 1.0000
0.4301 0.0000 1.0000
0.9088 0.0000 0.9960
0.9919 0.0000 0.9919
0.0000 0.0000 1.0000
0.0000 0.0000 1.0000
0.4053 0.0000 0.9994
0.8937 0.0000 0.9907
0.9853 0.0000 0.9853
0.0000 0.4301 1.0000
0.0000 0.4053 0.9994
0.3423 0.3423 0.9875
0.8522 0.2870 0.9707
0.9626 0.2637 0.9626
0.0000 0.9088 0.9960
0.0000 0.8937 0.9907
0.2870 0.8522 0.9707
0.8146 0.8146 0.9491
0.9394 0.7985 0.9394
0.0000 0.9919 0.9919
0.0000 0.9853 0.9853
0.2637 0.9626 0.9626
0.7985 0.9394 0.9394
0.9291 0.9291 0.9291
