assets/luts/LUTs/JD PRORES LOG CONV 0.CUBE
TITLE "ColorFinale Export"
# Created by Jeven Dovey on 2023-09-28 21:03:43 +0000
# Color Finale Plugin v.2.6.0 (537)
LUT_3D_SIZE 9
0.0000 0.0000 0.0000
0.0206 0.0000 0.0000
0.1284 0.0000 0.0000
0.3735 0.0000 0.0000
0.7097 0.0000 0.0000
0.9163 0.0000 0.0000
1.0000 0.0000 0.0000
1.0000 0.0000 0.0000
1.0000 0.0000 0.0000
0.0000 0.0206 0.0000
0.0177 0.0177 0.0000
0.1245 0.0000 0.0000
0.3679 0.0000 0.0000
0.7038 0.0000 0.0000
0.9127 0.0000 0.0000
0.9999 0.0000 0.0000
1.0000 0.0000 0.0000
1.0000 0.0000 0.0000
0.0000 0.1284 0.0000
0.0000 0.1245 0.0000
0.1109 0.1109 0.0000
0.3517 0.0698 0.0000
0.6874 0.0000 0.0000
0.9029 0.0000 0.0000
0.9961 0.0000 0.0000
1.0000 0.0000 0.0000
1.0000 0.0000 0.0000
0.0000 0.3735 0.0000
0.0000 0.3679 0.0000
0.0698 0.3517 0.0000
0.3200 0.3200 0.0000
0.6573 0.2727 0.0000
0.8850 0.2192 0.0000
0.9868 0.1635 0.0000
1.0000 0.1134 0.0000
1.0000 0.0886 0.0000
0.0000 0.7097 0.0000
0.0000 0.7038 0.0000
0.0000 0.6874 0.0000
0.2727 0.6573 0.0000
0.6166 0.6166 0.0000
0.8610 0.5756 0.0000
0.9732 0.5390 0.0000
1.0000 0.5128 0.0000
1.0000 0.5025 0.0000
0.0000 0.9163 0.0000
0.0000 0.9127 0.0000
0.0000 0.9029 0.0000
0.2192 0.8850 0.0000
0.5756 0.8610 0.0000
0.8369 0.8369 0.0000
0.9593 0.8151 0.0000
1.0000 0.7992 0.0000
1.0000 0.7929 0.0000
0.0000 1.0000 0.0000
0.0000 0.9999 0.0000
0.0000 0.9961 0.0000
0.1635 0.9868 0.0000
0.5390 0.9732 0.0000
0.8151 0.9593 0.0000
0.9470 0.9470 0.0000
0.9988 0.9380 0.0000
1.0000 0.9346 0.0000
0.0000 1.0000 0.0000
0.0000 1.0000 0.0000
0.0000 1.0000 0.0000
0.1134 1.0000 0.0000
0.5128 1.0000 0.0000
0.7992 1.0000 0.0000
0.9380 0.9988 0.0000
0.9943 0.9943 0.0000
1.0000 0.9923 0.0000
0.0000 1.0000 0.0000
0.0000 1.0000 0.0000
0.0000 1.0000 0.0000
0.0886 1.0000 0.0000
0.5025 1.0000 0.0000
0.7929 1.0000 0.0000
0.9346 1.0000 0.0000
0.9923 1.0000 0.0000
1.0000 1.0000 0.0000
0.0000 0.0000 0.0206
0.0177 0.0000 0.0177
0.1245 0.0000 0.0000
0.3679 0.0000 0.0000
0.7038 0.0000 0.0000
0.9127 0.0000 0.0000
0.9999 0.0000 0.0000
1.0000 0.0000 0.0000
1.0000 0.0000 0.0000
0.0000 0.0177 0.0177
0.0150 0.0150 0.0150
0.1205 0.0000 0.0000
0.3623 0.0000 0.0000
0.6979 0.0000 0.0000
0.9092 0.0000 0.0000
0.9988 0.0000 0.0000
1.0000 0.0000 0.0000
1.0000 0.0000 0.0000
0.0000 0.1245 0.0000
0.0000 0.1205 0.0000
0.1071 0.1071 0.0000
0.3462 0.0657 0.0000
0.6814 0.0000 0.0000
0.8992 0.0000 0.0000
0.9943 0.0000 0.0000
1.0000 0.0000 0.0000
1.0000 0.0000 0.0000
0.0000 0.3679 0.0000
0.0000 0.3623 0.0000
0.0657 0.3462 0.0000
0.3147 0.3147 0.0000
0.6511 0.2675 0.0000
0.8810 0.2138 0.0000
0.9845 0.1573 0.0000
1.0000 0.1054 0.0000
1.0000 0.0790 0.0000
0.0000 0.7038 0.0000
0.0000 0.6979 0.0000
0.0000 0.6814 0.0000
0.2675 0.6511 0.0000
0.6103 0.6103 0.0000
0.8568 0.5691 0.0000
0.9705 0.5325 0.0000
1.0000 0.5062 0.0000
1.0000 0.4958 0.0000
0.0000 0.9127 0.0000
0.0000 0.9092 0.0000
0.0000 0.8992 0.0000
0.2138 0.8810 0.0000
0.5691 0.8568 0.0000
0.8323 0.8323 0.0000
0.9564 0.8102 0.0000
1.0000 0.7940 0.0000
1.0000 0.7875 0.0000
0.0000 0.9999 0.0000
0.0000 0.9988 0.0000
0.0000 0.9943 0.0000
0.1573 0.9845 0.0000
0.5325 0.9705 0.0000
0.8102 0.9564 0.0000
0.9438 0.9438 0.0000
0.9972 0.9348 0.0000
1.0000 0.9312 0.0000
0.0000 1.0000 0.0000
0.0000 1.0000 0.0000
0.0000 1.0000 0.0000
0.1054 1.0000 0.0000
0.5062 1.0000 0.0000
0.7940 1.0000 0.0000
0.9348 0.9972 0.0000
0.9923 0.9923 0.0000
1.0000 0.9902 0.0000
0.0000 1.0000 0.0000
0.0000 1.0000 0.0000
0.0000 1.0000 0.0000
0.0790 1.0000 0.0000
0.4958 1.0000 0.0000
0.7875 1.0000 0.0000
0.9312 1.0000 0.0000
0.9902 1.0000 0.0000
1.0000 1.0000 0.0000
0.0000 0.0000 0.1284
0.0000 0.0000 0.1245
0.1109 0.0000 0.1109
0.3517 0.0000 0.0698
0.6874 0.0000 0.0000
0.9029 0.0000 0.0000
0.9961 0.0000 0.0000
1.0000 0.0000 0.0000
1.0000 0.0000 0.0000
0.0000 0.0000 0.1245
0.0000 0.0000 0.1205
0.1071 0.0000 0.1071
0.3462 0.0000 0.0657
0.6814 0.0000 0.0000
0.8992 0.0000 0.0000
0.9943 0.0000 0.0000
1.0000 0.0000 0.0000
1.0000 0.0000 0.0000
0.0000 0.1109 0.1109
0.0000 0.1071 0.1071
0.0944 0.0944 0.0944
0.3307 0.0517 0.0517
0.6648 0.0000 0.0000
0.8888 0.0000 0.0000
0.9887 0.0000 0.0000
1.0000 0.0000 0.0000
1.0000 0.0000 0.0000
0.0000 0.3517 0.0698
0.0000 0.3462 0.0657
0.0517 0.3307 0.0517
0.3002 0.3002 0.0000
0.6345 0.2538 0.0000
0.8701 0.1997 0.0000
0.9780 0.1412 0.0000
1.0000 0.0843 0.0000
1.0000 0.0519 0.0000
0.0000 0.6874 0.0000
0.0000 0.6814 0.0000
0.0000 0.6648 0.0000
0.2538 0.6345 0.0000
0.5936 0.5936 0.0000
0.8451 0.5523 0.0000
0.9632 0.5155 0.0000
1.0000 0.4891 0.0000
1.0000 0.4786 0.0000
0.0000 0.9029 0.0000
0.0000 0.8992 0.0000
0.0000 0.8888 0.0000
0.1997 0.8701 0.0000
0.5523 0.8451 0.0000
0.8197 0.8197 0.0000
0.9484 0.7967 0.0000
0.9991 0.7799 0.0000
1.0000 0.7733 0.0000
0.0000 0.9961 0.0000
0.0000 0.9943 0.0000
0.0000 0.9887 0.0000
0.1412 0.9780 0.0000
0.5155 0.9632 0.0000
0.7967 0.9484 0.0000
0.9353 0.9353 0.0000
0.9923 0.9259 0.0000
1.0000 0.9222 0.0000
0.0000 1.0000 0.0000
0.0000 1.0000 0.0000
0.0000 1.0000 0.0000
0.0843 1.0000 0.0000
0.4891 1.0000 0.0000
0.7799 0.9991 0.0000
0.9259 0.9923 0.0000
0.9866 0.9866 0.0000
1.0000 0.9842 0.0000
0.0000 1.0000 0.0000
0.0000 1.0000 0.0000
0.0000 1.0000 0.0000
0.0519 1.0000 0.0000
0.4786 1.0000 0.0000
0.7733 1.0000 0.0000
0.9222 1.0000 0.0000
0.9842 1.0000 0.0000
0.9992 0.9992 0.0000
0.0000 0.0000 0.3735
0.0000 0.0000 0.3679
0.0698 0.0000 0.3517
0.3200 0.0000 0.3200
0.6573 0.0000 0.2727
0.8850 0.0000 0.2192
0.9868 0.0000 0.1635
1.0000 0.0000 0.1134
1.0000 0.0000 0.0886
0.0000 0.0000 0.3679
0.0000 0.0000 0.3623
0.0657 0.0000 0.3462
0.3147 0.0000 0.3147
0.6511 0.0000 0.2675
0.8810 0.0000 0.2138
0.9845 0.0000 0.1573
1.0000 0.0000 0.1054
1.0000 0.0000 0.0790
0.0000 0.0698 0.3517
0.0000 0.0657 0.3462
0.0517 0.0517 0.3307
0.3002 0.0000 0.3002
0.6345 0.0000 0.2538
0.8701 0.0000 0.1997
0.9780 0.0000 0.1412
1.0000 0.0000 0.0843
1.0000 0.0000 0.0519
0.0000 0.3200 0.3200
0.0000 0.3147 0.3147
0.0000 0.3002 0.3002
0.2713 0.2713 0.2713
0.6044 0.2256 0.2256
0.8505 0.1700 0.1700
0.9661 0.1048 0.1048
1.0000 0.0182 0.0182
1.0000 0.0000 0.0000
0.0000 0.6573 0.2727
0.0000 0.6511 0.2675
0.0000 0.6345 0.2538
0.2256 0.6044 0.2256
0.5636 0.5636 0.1782
0.8242 0.5225 0.1140
0.9502 0.4858 0.0000
0.9996 0.4592 0.0000
1.0000 0.4486 0.0000
0.0000 0.8850 0.2192
0.0000 0.8810 0.2138
0.0000 0.8701 0.1997
0.1700 0.8505 0.1700
0.5225 0.8242 0.1140
0.7974 0.7974 0.0000
0.9345 0.7732 0.0000
0.9914 0.7556 0.0000
1.0000 0.7487 0.0000
0.0000 0.9868 0.1635
0.0000 0.9845 0.1573
0.0000 0.9780 0.1412
0.1048 0.9661 0.1048
0.4858 0.9502 0.0000
0.7732 0.9345 0.0000
0.9206 0.9206 0.0000
0.9827 0.9106 0.0000
0.9982 0.9067 0.0000
0.0000 1.0000 0.1134
0.0000 1.0000 0.1054
0.0000 1.0000 0.0843
0.0182 1.0000 0.0182
0.4592 0.9996 0.0000
0.7556 0.9914 0.0000
0.9106 0.9827 0.0000
0.9761 0.9761 0.0000
0.9937 0.9734 0.0000
0.0000 1.0000 0.0886
0.0000 1.0000 0.0790
0.0000 1.0000 0.0519
0.0000 1.0000 0.0000
0.4486 1.0000 0.0000
0.7487 1.0000 0.0000
0.9067 0.9982 0.0000
0.9734 0.9937 0.0000
0.9917 0.9917 0.0000
0.0000 0.0000 0.7097
0.0000 0.0000 0.7038
0.0000 0.0000 0.6874
0.2727 0.0000 0.6573
0.6166 0.0000 0.6166
0.8610 0.0000 0.5756
0.9732 0.0000 0.5390
1.0000 0.0000 0.5128
1.0000 0.0000 0.5025
0.0000 0.0000 0.7038
0.0000 0.0000 0.6979
0.0000 0.0000 0.6814
0.2675 0.0000 0.6511
0.6103 0.0000 0.6103
0.8568 0.0000 0.5691
0.9705 0.0000 0.5325
1.0000 0.0000 0.5062
1.0000 0.0000 0.4958
0.0000 0.0000 0.6874
0.0000 0.0000 0.6814
0.0000 0.0000 0.6648
0.2538 0.0000 0.6345
0.5936 0.0000 0.5936
0.8451 0.0000 0.5523
0.9632 0.0000 0.5155
1.0000 0.0000 0.4891
1.0000 0.0000 0.4786
0.0000 0.2727 0.6573
0.0000 0.2675 0.6511
0.0000 0.2538 0.6345
0.2256 0.2256 0.6044
0.5636 0.1782 0.5636
0.8242 0.1140 0.5225
0.9502 0.0000 0.4858
0.9996 0.0000 0.4592
1.0000 0.0000 0.4486
0.0000 0.6166 0.6166
0.0000 0.6103 0.6103
0.0000 0.5936 0.5936
0.1782 0.5636 0.5636
0.5231 0.5231 0.5231
0.7961 0.4820 0.4820
0.9332 0.4449 0.4449
0.9905 0.4175 0.4175
1.0000 0.4066 0.4066
0.0000 0.8610 0.5756
0.0000 0.8568 0.5691
0.0000 0.8451 0.5523
0.1140 0.8242 0.5225
0.4820 0.7961 0.4820
0.7675 0.7675 0.4403
0.9164 0.7419 0.4019
0.9795 0.7233 0.3740
0.9961 0.7160 0.3631
0.0000 0.9732 0.5390
0.0000 0.9705 0.5325
0.0000 0.9632 0.5155
0.0000 0.9502 0.4858
0.4449 0.9332 0.4449
0.7419 0.9164 0.4019
0.9015 0.9015 0.3630
0.9694 0.8908 0.3348
0.9884 0.8865 0.3236
0.0000 1.0000 0.5128
0.0000 1.0000 0.5062
0.0000 1.0000 0.4891
0.0000 0.9996 0.4592
0.4175 0.9905 0.4175
0.7233 0.9795 0.3740
0.8908 0.9694 0.3348
0.9620 0.9620 0.3061
0.9824 0.9591 0.2946
0.0000 1.0000 0.5025
0.0000 1.0000 0.4958
0.0000 1.0000 0.4786
0.0000 1.0000 0.4486
0.4066 1.0000 0.4066
0.7160 0.9961 0.3631
0.8865 0.9884 0.3236
0.9591 0.9824 0.2946
0.9800 0.9800 0.2830
0.0000 0.0000 0.9163
0.0000 0.0000 0.9127
0.0000 0.0000 0.9029
0.2192 0.0000 0.8850
0.5756 0.0000 0.8610
0.8369 0.0000 0.8369
0.9593 0.0000 0.8151
1.0000 0.0000 0.7992
1.0000 0.0000 0.7929
0.0000 0.0000 0.9127
0.0000 0.0000 0.9092
0.0000 0.0000 0.8992
0.2138 0.0000 0.8810
0.5691 0.0000 0.8568
0.8323 0.0000 0.8323
0.9564 0.0000 0.8102
1.0000 0.0000 0.7940
1.0000 0.0000 0.7875
0.0000 0.0000 0.9029
0.0000 0.0000 0.8992
0.0000 0.0000 0.8888
0.1997 0.0000 0.8701
0.5523 0.0000 0.8451
0.8197 0.0000 0.8197
0.9484 0.0000 0.7967
0.9991 0.0000 0.7799
1.0000 0.0000 0.7733
0.0000 0.2192 0.8850
0.0000 0.2138 0.8810
0.0000 0.1997 0.8701
0.1700 0.1700 0.8505
0.5225 0.1140 0.8242
0.7974 0.0000 0.7974
0.9345 0.0000 0.7732
0.9914 0.0000 0.7556
1.0000 0.0000 0.7487
0.0000 0.5756 0.8610
0.0000 0.5691 0.8568
0.0000 0.5523 0.8451
0.1140 0.5225 0.8242
0.4820 0.4820 0.7961
0.7675 0.4403 0.7675
0.9164 0.4019 0.7419
0.9795 0.3740 0.7233
0.9961 0.3631 0.7160
0.0000 0.8369 0.8369
0.0000 0.8323 0.8323
0.0000 0.8197 0.8197
0.0000 0.7974 0.7974
0.4403 0.7675 0.7675
0.7374 0.7374 0.7374
0.8984 0.7103 0.7103
0.9671 0.6908 0.6908
0.9865 0.6832 0.6832
0.0000 0.9593 0.8151
0.0000 0.9564 0.8102
0.0000 0.9484 0.7967
0.0000 0.9345 0.7732
0.4019 0.9164 0.7419
0.7103 0.8984 0.7103
0.8825 0.8825 0.6822
0.9561 0.8710 0.6620
0.9773 0.8665 0.6540
0.0000 1.0000 0.7992
0.0000 1.0000 0.7940
0.0000 0.9991 0.7799
0.0000 0.9914 0.7556
0.3740 0.9795 0.7233
0.6908 0.9671 0.6908
0.8710 0.9561 0.6620
0.9481 0.9481 0.6411
0.9706 0.9450 0.6330
0.0000 1.0000 0.7929
0.0000 1.0000 0.7875
0.0000 1.0000 0.7733
0.0000 1.0000 0.7487
0.3631 0.9961 0.7160
0.6832 0.9865 0.6832
0.8665 0.9773 0.6540
0.9450 0.9706 0.6330
0.9679 0.9679 0.6247
0.0000 0.0000 1.0000
0.0000 0.0000 0.9999
0.0000 0.0000 0.9961
0.1635 0.0000 0.9868
0.5390 0.0000 0.9732
0.8151 0.0000 0.9593
0.9470 0.0000 0.9470
0.9988 0.0000 0.9380
1.0000 0.0000 0.9346
0.0000 0.0000 0.9999
0.0000 0.0000 0.9988
0.0000 0.0000 0.9943
0.1573 0.0000 0.9845
0.5325 0.0000 0.9705
0.8102 0.0000 0.9564
0.9438 0.0000 0.9438
0.9972 0.0000 0.9348
1.0000 0.0000 0.9312
0.0000 0.0000 0.9961
0.0000 0.0000 0.9943
0.0000 0.0000 0.9887
0.1412 0.0000 0.9780
0.5155 0.0000 0.9632
0.7967 0.0000 0.9484
0.9353 0.0000 0.9353
0.9923 0.0000 0.9259
1.0000 0.0000 0.9222
0.0000 0.1635 0.9868
0.0000 0.1573 0.9845
0.0000 0.1412 0.9780
0.1048 0.1048 0.9661
0.4858 0.0000 0.9502
0.7732 0.0000 0.9345
0.9206 0.0000 0.9206
0.9827 0.0000 0.9106
0.9982 0.0000 0.9067
0.0000 0.5390 0.9732
0.0000 0.5325 0.9705
0.0000 0.5155 0.9632
0.0000 0.4858 0.9502
0.4449 0.4449 0.9332
0.7419 0.4019 0.9164
0.9015 0.3630 0.9015
0.9694 0.3348 0.8908
0.9884 0.3236 0.8865
0.0000 0.8151 0.9593
0.0000 0.8102 0.9564
0.0000 0.7967 0.9484
0.0000 0.7732 0.9345
0.4019 0.7419 0.9164
0.7103 0.7103 0.8984
0.8825 0.6822 0.8825
0.9561 0.6620 0.8710
0.9773 0.6540 0.8665
0.0000 0.9470 0.9470
0.0000 0.9438 0.9438
0.0000 0.9353 0.9353
0.0000 0.9206 0.9206
0.3630 0.9015 0.9015
0.6822 0.8825 0.8825
0.8657 0.8657 0.8657
0.9443 0.8535 0.8535
0.9673 0.8487 0.8487
0.0000 0.9988 0.9380
0.0000 0.9972 0.9348
0.0000 0.9923 0.9259
0.0000 0.9827 0.9106
0.3348 0.9694 0.8908
0.6620 0.9561 0.8710
0.8535 0.9443 0.8535
0.9358 0.9358 0.8407
0.9600 0.9325 0.8357
0.0000 1.0000 0.9346
0.0000 1.0000 0.9312
0.0000 1.0000 0.9222
0.0000 0.9982 0.9067
0.3236 0.9884 0.8865
0.6540 0.9773 0.8665
0.8487 0.9673 0.8487
0.9325 0.9600 0.8357
0.9571 0.9571 0.8306
0.0000 0.0000 1.0000
0.0000 0.0000 1.0000
0.0000 0.0000 1.0000
0.1134 0.0000 1.0000
0.5128 0.0000 1.0000
0.7992 0.0000 1.0000
0.9380 0.0000 0.9988
0.9943 0.0000 0.9943
1.0000 0.0000 0.9923
0.0000 0.0000 1.0000
0.0000 0.0000 1.0000
0.0000 0.0000 1.0000
0.1054 0.0000 1.0000
0.5062 0.0000 1.0000
0.7940 0.0000 1.0000
0.9348 0.0000 0.9972
0.9923 0.0000 0.9923
1.0000 0.0000 0.9902
0.0000 0.0000 1.0000
0.0000 0.0000 1.0000
0.0000 0.0000 1.0000
0.0843 0.0000 1.0000
0.4891 0.0000 1.0000
0.7799 0.0000 0.9991
0.9259 0.0000 0.9923
0.9866 0.0000 0.9866
1.0000 0.0000 0.9842
0.0000 0.1134 1.0000
0.0000 0.1054 1.0000
0.0000 0.0843 1.0000
0.0182 0.0182 1.0000
0.4592 0.0000 0.9996
0.7556 0.0000 0.9914
0.9106 0.0000 0.9827
0.9761 0.0000 0.9761
0.9937 0.0000 0.9734
0.0000 0.5128 1.0000
0.0000 0.5062 1.0000
0.0000 0.4891 1.0000
0.0000 0.4592 0.9996
0.4175 0.4175 0.9905
0.7233 0.3740 0.9795
0.8908 0.3348 0.9694
0.9620 0.3061 0.9620
0.9824 0.2946 0.9591
0.0000 0.7992 1.0000
0.0000 0.7940 1.0000
0.0000 0.7799 0.9991
0.0000 0.7556 0.9914
0.3740 0.7233 0.9795
0.6908 0.6908 0.9671
0.8710 0.6620 0.9561
0.9481 0.6411 0.9481
0.9706 0.6330 0.9450
0.0000 0.9380 0.9988
0.0000 0.9348 0.9972
0.0000 0.9259 0.9923
0.0000 0.9106 0.9827
0.3348 0.8908 0.9694
0.6620 0.8710 0.9561
0.8535 0.8535 0.9443
0.9358 0.8407 0.9358
0.9600 0.8357 0.9325
0.0000 0.9943 0.9943
0.0000 0.9923 0.9923
0.0000 0.9866 0.9866
0.0000 0.9761 0.9761
0.3061 0.9620 0.9620
0.6411 0.9481 0.9481
0.8407 0.9358 0.9358
0.9270 0.9270 0.9270
0.9523 0.9236 0.9236
0.0000 1.0000 0.9923
0.0000 1.0000 0.9902
0.0000 1.0000 0.9842
0.0000 0.9937 0.9734
0.2946 0.9824 0.9591
0.6330 0.9706 0.9450
0.8357 0.9600 0.9325
0.9236 0.9523 0.9236
0.9493 0.9493 0.9200
0.0000 0.0000 1.0000
0.0000 0.0000 1.0000
0.0000 0.0000 1.0000
0.0886 0.0000 1.0000
0.5025 0.0000 1.0000
0.7929 0.0000 1.0000
0.9346 0.0000 1.0000
0.9923 0.0000 1.0000
1.0000 0.0000 1.0000
0.0000 0.0000 1.0000
0.0000 0.0000 1.0000
0.0000 0.0000 1.0000
0.0790 0.0000 1.0000
0.4958 0.0000 1.0000
0.7875 0.0000 1.0000
0.9312 0.0000 1.0000
0.9902 0.0000 1.0000
1.0000 0.0000 1.0000
0.0000 0.0000 1.0000
0.0000 0.0000 1.0000
0.0000 0.0000 1.0000
0.0519 0.0000 1.0000
0.4786 0.0000 1.0000
0.7733 0.0000 1.0000
0.9222 0.0000 1.0000
0.9842 0.0000 1.0000
0.9992 0.0000 0.9992
0.0000 0.0886 1.0000
0.0000 0.0790 1.0000
0.0000 0.0519 1.0000
0.0000 0.0000 1.0000
0.4486 0.0000 1.0000
0.7487 0.0000 1.0000
0.9067 0.0000 0.9982
0.9734 0.0000 0.9937
0.9917 0.0000 0.9917
0.0000 0.5025 1.0000
0.0000 0.4958 1.0000
0.0000 0.4786 1.0000
0.0000 0.4486 1.0000
0.4066 0.4066 1.0000
0.7160 0.3631 0.9961
0.8865 0.3236 0.9884
0.9591 0.2946 0.9824
0.9800 0.2830 0.9800
0.0000 0.7929 1.0000
0.0000 0.7875 1.0000
0.0000 0.7733 1.0000
0.0000 0.7487 1.0000
0.3631 0.7160 0.9961
0.6832 0.6832 0.9865
0.8665 0.6540 0.9773
0.9450 0.6330 0.9706
0.9679 0.6247 0.9679
0.0000 0.9346 1.0000
0.0000 0.9312 1.0000
0.0000 0.9222 1.0000
0.0000 0.9067 0.9982
0.3236 0.8865 0.9884
0.6540 0.8665 0.9773
0.8487 0.8487 0.9673
0.9325 0.8357 0.9600
0.9571 0.8306 0.9571
0.0000 0.9923 1.0000
0.0000 0.9902 1.0000
0.0000 0.9842 1.0000
0.0000 0.9734 0.9937
0.2946 0.9591 0.9824
0.6330 0.9450 0.9706
0.8357 0.9325 0.9600
0.9236 0.9236 0.9523
0.9493 0.9200 0.9493
0.0000 1.0000 1.0000
0.0000 1.0000 1.0000
0.0000 0.9992 0.9992
0.0000 0.9917 0.9917
0.2830 0.9800 0.9800
0.6247 0.9679 0.9679
0.8306 0.9571 0.9571
0.9200 0.9493 0.9493
0.9463 0.9463 0.9463
