assets/luts/LUTs/JD SLOG3 CONVERSION 0.CUBE
TITLE "ColorFinale Export"
# Created by Jeven Dovey on 2023-09-02 23:28:59 +0000
# Color Finale Plugin v.2.6.0 (537)
LUT_3D_SIZE 9
0.0000 0.0000 0.0000
0.0000 0.0000 0.0000
0.1380 0.0000 0.0000
0.3807 0.0000 0.0000
0.6618 0.0000 0.0000
0.9226 0.0000 0.0000
1.0000 0.0000 0.0000
1.0000 0.0000 0.0000
1.0000 0.0000 0.0000
0.0000 0.0000 0.0000
0.0000 0.0000 0.0000
0.1357 0.0000 0.0000
0.3791 0.0000 0.0000
0.6607 0.0000 0.0000
0.9219 0.0000 0.0000
1.0000 0.0000 0.0000
1.0000 0.0000 0.0000
1.0000 0.0000 0.0000
0.0000 0.1380 0.0000
0.0000 0.1357 0.0000
0.1258 0.1258 0.0000
0.3719 0.1052 0.0000
0.6558 0.0708 0.0000
0.9188 0.0201 0.0000
1.0000 0.0000 0.0000
1.0000 0.0000 0.0000
1.0000 0.0000 0.0000
0.0000 0.3807 0.0000
0.0000 0.3791 0.0000
0.1052 0.3719 0.0000
0.3572 0.3572 0.0000
0.6458 0.3331 0.0000
0.9125 0.2978 0.0000
1.0000 0.2484 0.0000
1.0000 0.1810 0.0000
1.0000 0.0883 0.0000
0.0000 0.6618 0.0000
0.0000 0.6607 0.0000
0.0708 0.6558 0.0000
0.3331 0.6458 0.0000
0.6294 0.6294 0.0000
0.9022 0.6054 0.0000
1.0000 0.5720 0.0000
1.0000 0.5271 0.0000
1.0000 0.4676 0.0000
0.0000 0.9226 0.0000
0.0000 0.9219 0.0000
0.0201 0.9188 0.0000
0.2978 0.9125 0.0000
0.6054 0.9022 0.0000
0.8871 0.8871 0.0000
1.0000 0.8663 0.0000
1.0000 0.8389 0.0000
1.0000 0.8034 0.0000
0.0000 1.0000 0.0000
0.0000 1.0000 0.0000
0.0000 1.0000 0.0000
0.2484 1.0000 0.0000
0.5720 1.0000 0.0000
0.8663 1.0000 0.0000
1.0000 1.0000 0.0000
1.0000 1.0000 0.0000
1.0000 1.0000 0.0000
0.0000 1.0000 0.0000
0.0000 1.0000 0.0000
0.0000 1.0000 0.0000
0.1810 1.0000 0.0000
0.5271 1.0000 0.0000
0.8389 1.0000 0.0000
1.0000 1.0000 0.0000
1.0000 1.0000 0.0000
1.0000 1.0000 0.0000
0.0000 1.0000 0.0000
0.0000 1.0000 0.0000
0.0000 1.0000 0.0000
0.0883 1.0000 0.0000
0.4676 1.0000 0.0000
0.8034 1.0000 0.0000
1.0000 1.0000 0.0000
1.0000 1.0000 0.0000
1.0000 1.0000 0.0000
0.0000 0.0000 0.0000
0.0000 0.0000 0.0000
0.1357 0.0000 0.0000
0.3791 0.0000 0.0000
0.6607 0.0000 0.0000
0.9219 0.0000 0.0000
1.0000 0.0000 0.0000
1.0000 0.0000 0.0000
1.0000 0.0000 0.0000
0.0000 0.0000 0.0000
0.0000 0.0000 0.0000
0.1334 0.0000 0.0000
0.3774 0.0000 0.0000
0.6596 0.0000 0.0000
0.9212 0.0000 0.0000
1.0000 0.0000 0.0000
1.0000 0.0000 0.0000
1.0000 0.0000 0.0000
0.0000 0.1357 0.0000
0.0000 0.1334 0.0000
0.1234 0.1234 0.0000
0.3702 0.1027 0.0000
0.6547 0.0683 0.0000
0.9181 0.0176 0.0000
1.0000 0.0000 0.0000
1.0000 0.0000 0.0000
1.0000 0.0000 0.0000
0.0000 0.3791 0.0000
0.0000 0.3774 0.0000
0.1027 0.3702 0.0000
0.3555 0.3555 0.0000
0.6446 0.3314 0.0000
0.9118 0.2959 0.0000
1.0000 0.2465 0.0000
1.0000 0.1789 0.0000
1.0000 0.0858 0.0000
0.0000 0.6607 0.0000
0.0000 0.6596 0.0000
0.0683 0.6547 0.0000
0.3314 0.6446 0.0000
0.6282 0.6282 0.0000
0.9014 0.6041 0.0000
1.0000 0.5707 0.0000
1.0000 0.5256 0.0000
1.0000 0.4661 0.0000
0.0000 0.9219 0.0000
0.0000 0.9212 0.0000
0.0176 0.9181 0.0000
0.2959 0.9118 0.0000
0.6041 0.9014 0.0000
0.8863 0.8863 0.0000
1.0000 0.8655 0.0000
1.0000 0.8380 0.0000
1.0000 0.8025 0.0000
0.0000 1.0000 0.0000
0.0000 1.0000 0.0000
0.0000 1.0000 0.0000
0.2465 1.0000 0.0000
0.5707 1.0000 0.0000
0.8655 1.0000 0.0000
1.0000 1.0000 0.0000
1.0000 1.0000 0.0000
1.0000 1.0000 0.0000
0.0000 1.0000 0.0000
0.0000 1.0000 0.0000
0.0000 1.0000 0.0000
0.1789 1.0000 0.0000
0.5256 1.0000 0.0000
0.8380 1.0000 0.0000
1.0000 1.0000 0.0000
1.0000 1.0000 0.0000
1.0000 1.0000 0.0000
0.0000 1.0000 0.0000
0.0000 1.0000 0.0000
0.0000 1.0000 0.0000
0.0858 1.0000 0.0000
0.4661 1.0000 0.0000
0.8025 1.0000 0.0000
1.0000 1.0000 0.0000
1.0000 1.0000 0.0000
1.0000 1.0000 0.0000
0.0000 0.0000 0.1380
0.0000 0.0000 0.1357
0.1258 0.0000 0.1258
0.3719 0.0000 0.1052
0.6558 0.0000 0.0708
0.9188 0.0000 0.0201
1.0000 0.0000 0.0000
1.0000 0.0000 0.0000
1.0000 0.0000 0.0000
0.0000 0.0000 0.1357
0.0000 0.0000 0.1334
0.1234 0.0000 0.1234
0.3702 0.0000 0.1027
0.6547 0.0000 0.0683
0.9181 0.0000 0.0176
1.0000 0.0000 0.0000
1.0000 0.0000 0.0000
1.0000 0.0000 0.0000
0.0000 0.1258 0.1258
0.0000 0.1234 0.1234
0.1133 0.1133 0.1133
0.3630 0.0923 0.0923
0.6497 0.0574 0.0574
0.9150 0.0074 0.0074
1.0000 0.0000 0.0000
1.0000 0.0000 0.0000
1.0000 0.0000 0.0000
0.0000 0.3719 0.1052
0.0000 0.3702 0.1027
0.0923 0.3630 0.0923
0.3481 0.3481 0.0706
0.6396 0.3238 0.0349
0.9086 0.2881 0.0000
1.0000 0.2381 0.0000
1.0000 0.1696 0.0000
1.0000 0.0751 0.0000
0.0000 0.6558 0.0708
0.0000 0.6547 0.0683
0.0574 0.6497 0.0574
0.3238 0.6396 0.0349
0.6231 0.6231 0.0017
0.8982 0.5988 0.0000
1.0000 0.5651 0.0000
1.0000 0.5195 0.0000
1.0000 0.4595 0.0000
0.0000 0.9188 0.0201
0.0000 0.9181 0.0176
0.0074 0.9150 0.0074
0.2881 0.9086 0.0000
0.5988 0.8982 0.0000
0.8830 0.8830 0.0000
1.0000 0.8620 0.0000
1.0000 0.8343 0.0000
1.0000 0.7986 0.0000
0.0000 1.0000 0.0000
0.0000 1.0000 0.0000
0.0000 1.0000 0.0000
0.2381 1.0000 0.0000
0.5651 1.0000 0.0000
0.8620 1.0000 0.0000
1.0000 1.0000 0.0000
1.0000 1.0000 0.0000
1.0000 1.0000 0.0000
0.0000 1.0000 0.0000
0.0000 1.0000 0.0000
0.0000 1.0000 0.0000
0.1696 1.0000 0.0000
0.5195 1.0000 0.0000
0.8343 1.0000 0.0000
1.0000 1.0000 0.0000
1.0000 1.0000 0.0000
1.0000 1.0000 0.0000
0.0000 1.0000 0.0000
0.0000 1.0000 0.0000
0.0000 1.0000 0.0000
0.0751 1.0000 0.0000
0.4595 1.0000 0.0000
0.7986 1.0000 0.0000
1.0000 1.0000 0.0000
1.0000 1.0000 0.0000
1.0000 1.0000 0.0000
0.0000 0.0000 0.3807
0.0000 0.0000 0.3791
0.1052 0.0000 0.3719
0.3572 0.0000 0.3572
0.6458 0.0000 0.3331
0.9125 0.0000 0.2978
1.0000 0.0000 0.2484
1.0000 0.0000 0.1810
1.0000 0.0000 0.0883
0.0000 0.0000 0.3791
0.0000 0.0000 0.3774
0.1027 0.0000 0.3702
0.3555 0.0000 0.3555
0.6446 0.0000 0.3314
0.9118 0.0000 0.2959
1.0000 0.0000 0.2465
1.0000 0.0000 0.1789
1.0000 0.0000 0.0858
0.0000 0.1052 0.3719
0.0000 0.1027 0.3702
0.0923 0.0923 0.3630
0.3481 0.0706 0.3481
0.6396 0.0349 0.3238
0.9086 0.0000 0.2881
1.0000 0.0000 0.2381
1.0000 0.0000 0.1696
1.0000 0.0000 0.0751
0.0000 0.3572 0.3572
0.0000 0.3555 0.3555
0.0706 0.3481 0.3481
0.3330 0.3330 0.3330
0.6293 0.3083 0.3083
0.9021 0.2718 0.2718
1.0000 0.2207 0.2207
1.0000 0.1504 0.1504
1.0000 0.0530 0.0530
0.0000 0.6458 0.3331
0.0000 0.6446 0.3314
0.0349 0.6396 0.3238
0.3083 0.6293 0.3083
0.6125 0.6125 0.2828
0.8916 0.5878 0.2451
1.0000 0.5534 0.1920
1.0000 0.5069 0.1184
1.0000 0.4461 0.0172
0.0000 0.9125 0.2978
0.0000 0.9118 0.2959
0.0000 0.9086 0.2881
0.2718 0.9021 0.2718
0.5878 0.8916 0.2451
0.8761 0.8761 0.2053
1.0000 0.8549 0.1490
1.0000 0.8268 0.0701
1.0000 0.7905 0.0000
0.0000 1.0000 0.2484
0.0000 1.0000 0.2465
0.0000 1.0000 0.2381
0.2207 1.0000 0.2207
0.5534 1.0000 0.1920
0.8549 1.0000 0.1490
1.0000 1.0000 0.0873
1.0000 1.0000 0.0044
1.0000 1.0000 0.0000
0.0000 1.0000 0.1810
0.0000 1.0000 0.1789
0.0000 1.0000 0.1696
0.1504 1.0000 0.1504
0.5069 1.0000 0.1184
0.8268 1.0000 0.0701
1.0000 1.0000 0.0044
1.0000 1.0000 0.0000
1.0000 1.0000 0.0000
0.0000 1.0000 0.0883
0.0000 1.0000 0.0858
0.0000 1.0000 0.0751
0.0530 1.0000 0.0530
0.4461 1.0000 0.0172
0.7905 1.0000 0.0000
1.0000 1.0000 0.0000
1.0000 1.0000 0.0000
1.0000 1.0000 0.0000
0.0000 0.0000 0.6618
0.0000 0.0000 0.6607
0.0708 0.0000 0.6558
0.3331 0.0000 0.6458
0.6294 0.0000 0.6294
0.9022 0.0000 0.6054
1.0000 0.0000 0.5720
1.0000 0.0000 0.5271
1.0000 0.0000 0.4676
0.0000 0.0000 0.6607
0.0000 0.0000 0.6596
0.0683 0.0000 0.6547
0.3314 0.0000 0.6446
0.6282 0.0000 0.6282
0.9014 0.0000 0.6041
1.0000 0.0000 0.5707
1.0000 0.0000 0.5256
1.0000 0.0000 0.4661
0.0000 0.0708 0.6558
0.0000 0.0683 0.6547
0.0574 0.0574 0.6497
0.3238 0.0349 0.6396
0.6231 0.0017 0.6231
0.8982 0.0000 0.5988
1.0000 0.0000 0.5651
1.0000 0.0000 0.5195
1.0000 0.0000 0.4595
0.0000 0.3331 0.6458
0.0000 0.3314 0.6446
0.0349 0.3238 0.6396
0.3083 0.3083 0.6293
0.6125 0.2828 0.6125
0.8916 0.2451 0.5878
1.0000 0.1920 0.5534
1.0000 0.1184 0.5069
1.0000 0.0172 0.4461
0.0000 0.6294 0.6294
0.0000 0.6282 0.6282
0.0017 0.6231 0.6231
0.2828 0.6125 0.6125
0.5952 0.5952 0.5952
0.8807 0.5697 0.5697
1.0000 0.5343 0.5343
1.0000 0.4864 0.4864
1.0000 0.4243 0.4243
0.0000 0.9022 0.6054
0.0000 0.9014 0.6041
0.0000 0.8982 0.5988
0.2451 0.8916 0.5878
0.5697 0.8807 0.5697
0.8649 0.8649 0.5432
1.0000 0.8432 0.5060
1.0000 0.8146 0.4565
1.0000 0.7775 0.3924
0.0000 1.0000 0.5720
0.0000 1.0000 0.5707
0.0000 1.0000 0.5651
0.1920 1.0000 0.5534
0.5343 1.0000 0.5343
0.8432 1.0000 0.5060
1.0000 1.0000 0.4670
1.0000 1.0000 0.4154
1.0000 1.0000 0.3485
0.0000 1.0000 0.5271
0.0000 1.0000 0.5256
0.0000 1.0000 0.5195
0.1184 1.0000 0.5069
0.4864 1.0000 0.4864
0.8146 1.0000 0.4565
1.0000 1.0000 0.4154
1.0000 1.0000 0.3610
1.0000 1.0000 0.2896
0.0000 1.0000 0.4676
0.0000 1.0000 0.4661
0.0000 1.0000 0.4595
0.0172 1.0000 0.4461
0.4243 1.0000 0.4243
0.7775 1.0000 0.3924
1.0000 1.0000 0.3485
1.0000 1.0000 0.2896
1.0000 1.0000 0.2111
0.0000 0.0000 0.9226
0.0000 0.0000 0.9219
0.0201 0.0000 0.9188
0.2978 0.0000 0.9125
0.6054 0.0000 0.9022
0.8871 0.0000 0.8871
1.0000 0.0000 0.8663
1.0000 0.0000 0.8389
1.0000 0.0000 0.8034
0.0000 0.0000 0.9219
0.0000 0.0000 0.9212
0.0176 0.0000 0.9181
0.2959 0.0000 0.9118
0.6041 0.0000 0.9014
0.8863 0.0000 0.8863
1.0000 0.0000 0.8655
1.0000 0.0000 0.8380
1.0000 0.0000 0.8025
0.0000 0.0201 0.9188
0.0000 0.0176 0.9181
0.0074 0.0074 0.9150
0.2881 0.0000 0.9086
0.5988 0.0000 0.8982
0.8830 0.0000 0.8830
1.0000 0.0000 0.8620
1.0000 0.0000 0.8343
1.0000 0.0000 0.7986
0.0000 0.2978 0.9125
0.0000 0.2959 0.9118
0.0000 0.2881 0.9086
0.2718 0.2718 0.9021
0.5878 0.2451 0.8916
0.8761 0.2053 0.8761
1.0000 0.1490 0.8549
1.0000 0.0701 0.8268
1.0000 0.0000 0.7905
0.0000 0.6054 0.9022
0.0000 0.6041 0.9014
0.0000 0.5988 0.8982
0.2451 0.5878 0.8916
0.5697 0.5697 0.8807
0.8649 0.5432 0.8649
1.0000 0.5060 0.8432
1.0000 0.4565 0.8146
1.0000 0.3924 0.7775
0.0000 0.8871 0.8871
0.0000 0.8863 0.8863
0.0000 0.8830 0.8830
0.2053 0.8761 0.8761
0.5432 0.8649 0.8649
0.8486 0.8486 0.8486
1.0000 0.8263 0.8263
1.0000 0.7967 0.7967
1.0000 0.7586 0.7586
0.0000 1.0000 0.8663
0.0000 1.0000 0.8655
0.0000 1.0000 0.8620
0.1490 1.0000 0.8549
0.5060 1.0000 0.8432
0.8263 1.0000 0.8263
1.0000 1.0000 0.8030
1.0000 1.0000 0.7723
1.0000 1.0000 0.7325
0.0000 1.0000 0.8389
0.0000 1.0000 0.8380
0.0000 1.0000 0.8343
0.0701 1.0000 0.8268
0.4565 1.0000 0.8146
0.7967 1.0000 0.7967
1.0000 1.0000 0.7723
1.0000 1.0000 0.7399
1.0000 1.0000 0.6980
0.0000 1.0000 0.8034
0.0000 1.0000 0.8025
0.0000 1.0000 0.7986
0.0000 1.0000 0.7905
0.3924 1.0000 0.7775
0.7586 1.0000 0.7586
1.0000 1.0000 0.7325
1.0000 1.0000 0.6980
1.0000 1.0000 0.6532
0.0000 0.0000 1.0000
0.0000 0.0000 1.0000
0.0000 0.0000 1.0000
0.2484 0.0000 1.0000
0.5720 0.0000 1.0000
0.8663 0.0000 1.0000
1.0000 0.0000 1.0000
1.0000 0.0000 1.0000
1.0000 0.0000 1.0000
0.0000 0.0000 1.0000
0.0000 0.0000 1.0000
0.0000 0.0000 1.0000
0.2465 0.0000 1.0000
0.5707 0.0000 1.0000
0.8655 0.0000 1.0000
1.0000 0.0000 1.0000
1.0000 0.0000 1.0000
1.0000 0.0000 1.0000
0.0000 0.0000 1.0000
0.0000 0.0000 1.0000
0.0000 0.0000 1.0000
0.2381 0.0000 1.0000
0.5651 0.0000 1.0000
0.8620 0.0000 1.0000
1.0000 0.0000 1.0000
1.0000 0.0000 1.0000
1.0000 0.0000 1.0000
0.0000 0.2484 1.0000
0.0000 0.2465 1.0000
0.0000 0.2381 1.0000
0.2207 0.2207 1.0000
0.5534 0.1920 1.0000
0.8549 0.1490 1.0000
1.0000 0.0873 1.0000
1.0000 0.0044 1.0000
1.0000 0.0000 1.0000
0.0000 0.5720 1.0000
0.0000 0.5707 1.0000
0.0000 0.5651 1.0000
0.1920 0.5534 1.0000
0.5343 0.5343 1.0000
0.8432 0.5060 1.0000
1.0000 0.4670 1.0000
1.0000 0.4154 1.0000
1.0000 0.3485 1.0000
0.0000 0.8663 1.0000
0.0000 0.8655 1.0000
0.0000 0.8620 1.0000
0.1490 0.8549 1.0000
0.5060 0.8432 1.0000
0.8263 0.8263 1.0000
1.0000 0.8030 1.0000
1.0000 0.7723 1.0000
1.0000 0.7325 1.0000
0.0000 1.0000 1.0000
0.0000 1.0000 1.0000
0.0000 1.0000 1.0000
0.0873 1.0000 1.0000
0.4670 1.0000 1.0000
0.8030 1.0000 1.0000
1.0000 1.0000 1.0000
1.0000 1.0000 1.0000
1.0000 1.0000 1.0000
0.0000 1.0000 1.0000
0.0000 1.0000 1.0000
0.0000 1.0000 1.0000
0.0044 1.0000 1.0000
0.4154 1.0000 1.0000
0.7723 1.0000 1.0000
1.0000 1.0000 1.0000
1.0000 1.0000 1.0000
1.0000 1.0000 0.9982
0.0000 1.0000 1.0000
0.0000 1.0000 1.0000
0.0000 1.0000 1.0000
0.0000 1.0000 1.0000
0.3485 1.0000 1.0000
0.7325 1.0000 1.0000
1.0000 1.0000 1.0000
1.0000 1.0000 0.9982
1.0000 1.0000 0.9779
0.0000 0.0000 1.0000
0.0000 0.0000 1.0000
0.0000 0.0000 1.0000
0.1810 0.0000 1.0000
0.5271 0.0000 1.0000
0.8389 0.0000 1.0000
1.0000 0.0000 1.0000
1.0000 0.0000 1.0000
1.0000 0.0000 1.0000
0.0000 0.0000 1.0000
0.0000 0.0000 1.0000
0.0000 0.0000 1.0000
0.1789 0.0000 1.0000
0.5256 0.0000 1.0000
0.8380 0.0000 1.0000
1.0000 0.0000 1.0000
1.0000 0.0000 1.0000
1.0000 0.0000 1.0000
0.0000 0.0000 1.0000
0.0000 0.0000 1.0000
0.0000 0.0000 1.0000
0.1696 0.0000 1.0000
0.5195 0.0000 1.0000
0.8343 0.0000 1.0000
1.0000 0.0000 1.0000
1.0000 0.0000 1.0000
1.0000 0.0000 1.0000
0.0000 0.1810 1.0000
0.0000 0.1789 1.0000
0.0000 0.1696 1.0000
0.1504 0.1504 1.0000
0.5069 0.1184 1.0000
0.8268 0.0701 1.0000
1.0000 0.0044 1.0000
1.0000 0.0000 1.0000
1.0000 0.0000 1.0000
0.0000 0.5271 1.0000
0.0000 0.5256 1.0000
0.0000 0.5195 1.0000
0.1184 0.5069 1.0000
0.4864 0.4864 1.0000
0.8146 0.4565 1.0000
1.0000 0.4154 1.0000
1.0000 0.3610 1.0000
1.0000 0.2896 1.0000
0.0000 0.8389 1.0000
0.0000 0.8380 1.0000
0.0000 0.8343 1.0000
0.0701 0.8268 1.0000
0.4565 0.8146 1.0000
0.7967 0.7967 1.0000
1.0000 0.7723 1.0000
1.0000 0.7399 1.0000
1.0000 0.6980 1.0000
0.0000 1.0000 1.0000
0.0000 1.0000 1.0000
0.0000 1.0000 1.0000
0.0044 1.0000 1.0000
0.4154 1.0000 1.0000
0.7723 1.0000 1.0000
1.0000 1.0000 1.0000
1.0000 1.0000 1.0000
1.0000 0.9982 1.0000
0.0000 1.0000 1.0000
0.0000 1.0000 1.0000
0.0000 1.0000 1.0000
0.0000 1.0000 1.0000
0.3610 1.0000 1.0000
0.7399 1.0000 1.0000
1.0000 1.0000 1.0000
1.0000 1.0000 1.0000
1.0000 1.0000 1.0000
0.0000 1.0000 1.0000
0.0000 1.0000 1.0000
0.0000 1.0000 1.0000
0.0000 1.0000 1.0000
0.2896 1.0000 1.0000
0.6980 1.0000 1.0000
0.9982 1.0000 1.0000
1.0000 1.0000 1.0000
1.0000 1.0000 1.0000
0.0000 0.0000 1.0000
0.0000 0.0000 1.0000
0.0000 0.0000 1.0000
0.0883 0.0000 1.0000
0.4676 0.0000 1.0000
0.8034 0.0000 1.0000
1.0000 0.0000 1.0000
1.0000 0.0000 1.0000
1.0000 0.0000 1.0000
0.0000 0.0000 1.0000
0.0000 0.0000 1.0000
0.0000 0.0000 1.0000
0.0858 0.0000 1.0000
0.4661 0.0000 1.0000
0.8025 0.0000 1.0000
1.0000 0.0000 1.0000
1.0000 0.0000 1.0000
1.0000 0.0000 1.0000
0.0000 0.0000 1.0000
0.0000 0.0000 1.0000
0.0000 0.0000 1.0000
0.0751 0.0000 1.0000
0.4595 0.0000 1.0000
0.7986 0.0000 1.0000
1.0000 0.0000 1.0000
1.0000 0.0000 1.0000
1.0000 0.0000 1.0000
0.0000 0.0883 1.0000
0.0000 0.0858 1.0000
0.0000 0.0751 1.0000
0.0530 0.0530 1.0000
0.4461 0.0172 1.0000
0.7905 0.0000 1.0000
1.0000 0.0000 1.0000
1.0000 0.0000 1.0000
1.0000 0.0000 1.0000
0.0000 0.4676 1.0000
0.0000 0.4661 1.0000
0.0000 0.4595 1.0000
0.0172 0.4461 1.0000
0.4243 0.4243 1.0000
0.7775 0.3924 1.0000
1.0000 0.3485 1.0000
1.0000 0.2896 1.0000
1.0000 0.2111 1.0000
0.0000 0.8034 1.0000
0.0000 0.8025 1.0000
0.0000 0.7986 1.0000
0.0000 0.7905 1.0000
0.3924 0.7775 1.0000
0.7585 0.7585 1.0000
1.0000 0.7325 1.0000
1.0000 0.6980 1.0000
1.0000 0.6532 1.0000
0.0000 1.0000 1.0000
0.0000 1.0000 1.0000
0.0000 1.0000 1.0000
0.0000 1.0000 1.0000
0.3485 1.0000 1.0000
0.7325 1.0000 1.0000
1.0000 1.0000 1.0000
1.0000 0.9982 1.0000
1.0000 0.9779 1.0000
0.0000 1.0000 1.0000
0.0000 1.0000 1.0000
0.0000 1.0000 1.0000
0.0000 1.0000 1.0000
0.2896 1.0000 1.0000
0.6980 1.0000 1.0000
0.9982 1.0000 1.0000
1.0000 1.0000 1.0000
1.0000 1.0000 1.0000
0.0000 1.0000 1.0000
0.0000 1.0000 1.0000
0.0000 1.0000 1.0000
0.0000 1.0000 1.0000
0.2111 1.0000 1.0000
0.6532 1.0000 1.0000
0.9779 1.0000 1.0000
1.0000 1.0000 1.0000
1.0000 1.0000 1.0000
