assets/luts/LUTs/JD SLOG3 CONVERSION +1.CUBE
TITLE "ColorFinale Export"
# Created by Jeven Dovey on 2023-09-02 23:30:57 +0000
# Color Finale Plugin v.2.6.0 (537)
LUT_3D_SIZE 5
0.0000 0.0000 0.0000
0.0637 0.0000 0.0000
0.7080 0.0000 0.0000
1.0000 0.0000 0.0000
1.0000 0.0000 0.0000
0.0000 0.0637 0.0000
0.0537 0.0537 0.0000
0.7017 0.0167 0.0000
1.0000 0.0000 0.0000
1.0000 0.0000 0.0000
0.0000 0.7080 0.0000
0.0167 0.7017 0.0000
0.6732 0.6732 0.0000
1.0000 0.6091 0.0000
1.0000 0.4819 0.0000
0.0000 1.0000 0.0000
0.0000 1.0000 0.0000
0.6091 1.0000 0.0000
1.0000 1.0000 0.0000
1.0000 1.0000 0.0000
0.0000 1.0000 0.0000
0.0000 1.0000 0.0000
0.4819 1.0000 0.0000
1.0000 1.0000 0.0000
1.0000 1.0000 0.0000
0.0000 0.0000 0.0637
0.0537 0.0000 0.0537
0.7017 0.0000 0.0167
1.0000 0.0000 0.0000
1.0000 0.0000 0.0000
0.0000 0.0537 0.0537
0.0440 0.0440 0.0440
0.6952 0.0101 0.0101
1.0000 0.0000 0.0000
1.0000 0.0000 0.0000
0.0000 0.7017 0.0167
0.0101 0.6952 0.0101
0.6663 0.6663 0.0000
1.0000 0.6010 0.0000
1.0000 0.4711 0.0000
0.0000 1.0000 0.0000
0.0000 1.0000 0.0000
0.6010 1.0000 0.0000
1.0000 1.0000 0.0000
1.0000 1.0000 0.0000
0.0000 1.0000 0.0000
0.0000 1.0000 0.0000
0.4711 1.0000 0.0000
1.0000 1.0000 0.0000
1.0000 1.0000 0.0000
0.0000 0.0000 0.7080
0.0167 0.0000 0.7017
0.6732 0.0000 0.6732
1.0000 0.0000 0.6091
1.0000 0.0000 0.4819
0.0000 0.0167 0.7017
0.0101 0.0101 0.6952
0.6663 0.0000 0.6663
1.0000 0.0000 0.6010
1.0000 0.0000 0.4711
0.0000 0.6732 0.6732
0.0000 0.6663 0.6663
0.6354 0.6354 0.6354
1.0000 0.5650 0.5650
1.0000 0.4211 0.4211
0.0000 1.0000 0.6091
0.0000 1.0000 0.6010
0.5650 1.0000 0.5650
1.0000 1.0000 0.4811
1.0000 1.0000 0.3081
0.0000 1.0000 0.4819
0.0000 1.0000 0.4711
0.4211 1.0000 0.4211
1.0000 1.0000 0.3081
1.0000 1.0000 0.1348
0.0000 0.0000 1.0000
0.0000 0.0000 1.0000
0.6091 0.0000 1.0000
1.0000 0.0000 1.0000
1.0000 0.0000 1.0000
0.0000 0.0000 1.0000
0.0000 0.0000 1.0000
0.6010 0.0000 1.0000
1.0000 0.0000 1.0000
1.0000 0.0000 1.0000
0.0000 0.6091 1.0000
0.0000 0.6010 1.0000
0.5650 0.5650 1.0000
1.0000 0.4811 1.0000
1.0000 0.3081 1.0000
0.0000 1.0000 1.0000
0.0000 1.0000 1.0000
0.4811 1.0000 1.0000
1.0000 1.0000 1.0000
1.0000 0.9957 0.9957
0.0000 1.0000 1.0000
0.0000 1.0000 1.0000
0.3081 1.0000 1.0000
0.9957 1.0000 0.9957
1.0000 1.0000 0.9779
0.0000 0.0000 1.0000
0.0000 0.0000 1.0000
0.4819 0.0000 1.0000
1.0000 0.0000 1.0000
1.0000 0.0000 1.0000
0.0000 0.0000 1.0000
0.0000 0.0000 1.0000
0.4711 0.0000 1.0000
1.0000 0.0000 1.0000
1.0000 0.0000 1.0000
0.0000 0.4819 1.0000
0.0000 0.4711 1.0000
0.4211 0.4211 1.0000
1.0000 0.3081 1.0000
1.0000 0.1348 1.0000
0.0000 1.0000 1.0000
0.0000 1.0000 1.0000
0.3081 1.0000 1.0000
0.9957 0.9957 1.0000
1.0000 0.9779 1.0000
0.0000 1.0000 1.0000
0.0000 1.0000 1.0000
0.1348 1.0000 1.0000
0.9779 1.0000 1.0000
1.0000 1.0000 1.0000
