assets/luts/LUTs/JD SLOG3 CONVERSION 0.CUBE
TITLE "ColorFinale Export"
# Created by Jeven Dovey on 2023-09-02 23:28:59 +0000
# Color Finale Plugin v.2.6.0 (537)
LUT_3D_SIZE 17
0.0000 0.0000 0.0000
0.0000 0.0000 0.0000
0.0000 0.0000 0.0000
0.0442 0.0000 0.0000
0.1380 0.0000 0.0000
0.2520 0.0000 0.0000
0.3807 0.0000 0.0000
0.5211 0.0000 0.0000
0.6618 0.0000 0.0000
0.7966 0.0000 0.0000
0.9226 0.0000 0.0000
1.0000 0.0000 0.0000
1.0000 0.0000 0.0000
1.0000 0.0000 0.0000
1.0000 0.0000 0.0000
1.0000 0.0000 0.0000
1.0000 0.0000 0.0000
0.0000 0.0000 0.0000
0.0000 0.0000 0.0000
0.0000 0.0000 0.0000
0.0437 0.0000 0.0000
0.1375 0.0000 0.0000
0.2517 0.0000 0.0000
0.3804 0.0000 0.0000
0.5208 0.0000 0.0000
0.6616 0.0000 0.0000
0.7965 0.0000 0.0000
0.9225 0.0000 0.0000
1.0000 0.0000 0.0000
1.0000 0.0000 0.0000
1.0000 0.0000 0.0000
1.0000 0.0000 0.0000
1.0000 0.0000 0.0000
1.0000 0.0000 0.0000
0.0000 0.0000 0.0000
0.0000 0.0000 0.0000
0.0000 0.0000 0.0000
0.0416 0.0000 0.0000
0.1357 0.0000 0.0000
0.2501 0.0000 0.0000
0.3791 0.0000 0.0000
0.5197 0.0000 0.0000
0.6607 0.0000 0.0000
0.7957 0.0000 0.0000
0.9219 0.0000 0.0000
1.0000 0.0000 0.0000
1.0000 0.0000 0.0000
1.0000 0.0000 0.0000
1.0000 0.0000 0.0000
1.0000 0.0000 0.0000
1.0000 0.0000 0.0000
0.0000 0.0442 0.0000
0.0000 0.0437 0.0000
0.0000 0.0416 0.0000
0.0374 0.0374 0.0000
0.1319 0.0305 0.0000
0.2469 0.0210 0.0000
0.3763 0.0089 0.0000
0.5173 0.0000 0.0000
0.6588 0.0000 0.0000
0.7942 0.0000 0.0000
0.9207 0.0000 0.0000
1.0000 0.0000 0.0000
1.0000 0.0000 0.0000
1.0000 0.0000 0.0000
1.0000 0.0000 0.0000
1.0000 0.0000 0.0000
1.0000 0.0000 0.0000
0.0000 0.1380 0.0000
0.0000 0.1375 0.0000
0.0000 0.1357 0.0000
0.0305 0.1319 0.0000
0.1258 0.1258 0.0000
0.2417 0.1170 0.0000
0.3719 0.1052 0.0000
0.5135 0.0899 0.0000
0.6558 0.0708 0.0000
0.7918 0.0475 0.0000
0.9188 0.0201 0.0000
1.0000 0.0000 0.0000
1.0000 0.0000 0.0000
1.0000 0.0000 0.0000
1.0000 0.0000 0.0000
1.0000 0.0000 0.0000
1.0000 0.0000 0.0000
0.0000 0.2520 0.0000
0.0000 0.2517 0.0000
0.0000 0.2501 0.0000
0.0210 0.2469 0.0000
0.1170 0.2417 0.0000
0.2343 0.2343 0.0000
0.3656 0.2244 0.0000
0.5080 0.2117 0.0000
0.6515 0.1959 0.0000
0.7883 0.1765 0.0000
0.9161 0.1531 0.0000
1.0000 0.1252 0.0000
1.0000 0.0919 0.0000
1.0000 0.0524 0.0000
1.0000 0.0084 0.0000
1.0000 0.0000 0.0000
1.0000 0.0000 0.0000
0.0000 0.3807 0.0000
0.0000 0.3804 0.0000
0.0000 0.3791 0.0000
0.0089 0.3763 0.0000
0.1052 0.3719 0.0000
0.2244 0.3656 0.0000
0.3572 0.3572 0.0000
0.5008 0.3464 0.0000
0.6458 0.3331 0.0000
0.7837 0.3170 0.0000
0.9125 0.2978 0.0000
1.0000 0.2751 0.0000
1.0000 0.2484 0.0000
1.0000 0.2173 0.0000
1.0000 0.1810 0.0000
1.0000 0.1385 0.0000
1.0000 0.0883 0.0000
0.0000 0.5211 0.0000
0.0000 0.5208 0.0000
0.0000 0.5197 0.0000
0.0000 0.5173 0.0000
0.0899 0.5135 0.0000
0.2117 0.5080 0.0000
0.3464 0.5008 0.0000
0.4915 0.4915 0.0000
0.6385 0.4801 0.0000
0.7778 0.4663 0.0000
0.9079 0.4500 0.0000
1.0000 0.4309 0.0000
1.0000 0.4087 0.0000
1.0000 0.3831 0.0000
1.0000 0.3538 0.0000
1.0000 0.3203 0.0000
1.0000 0.2818 0.0000
0.0000 0.6618 0.0000
0.0000 0.6616 0.0000
0.0000 0.6607 0.0000
0.0000 0.6588 0.0000
0.0708 0.6558 0.0000
0.1959 0.6515 0.0000
0.3331 0.6458 0.0000
0.4801 0.6385 0.0000
0.6294 0.6294 0.0000
0.7705 0.6184 0.0000
0.9022 0.6054 0.0000
1.0000 0.5900 0.0000
1.0000 0.5720 0.0000
1.0000 0.5512 0.0000
1.0000 0.5271 0.0000
1.0000 0.4992 0.0000
1.0000 0.4676 0.0000
0.0000 0.7966 0.0000
0.0000 0.7965 0.0000
0.0000 0.7957 0.0000
0.0000 0.7942 0.0000
0.0475 0.7918 0.0000
0.1765 0.7883 0.0000
0.3170 0.7837 0.0000
0.4663 0.7778 0.0000
0.6184 0.7705 0.0000
0.7617 0.7617 0.0000
0.8953 0.7513 0.0000
1.0000 0.7391 0.0000
1.0000 0.7250 0.0000
1.0000 0.7087 0.0000
1.0000 0.6901 0.0000
1.0000 0.6688 0.0000
1.0000 0.6447 0.0000
0.0000 0.9226 0.0000
0.0000 0.9225 0.0000
0.0000 0.9219 0.0000
0.0000 0.9207 0.0000
0.0201 0.9188 0.0000
0.1531 0.9161 0.0000
0.2978 0.9125 0.0000
0.4500 0.9079 0.0000
0.6054 0.9022 0.0000
0.7513 0.8953 0.0000
0.8871 0.8871 0.0000
0.9997 0.8775 0.0000
1.0000 0.8663 0.0000
1.0000 0.8535 0.0000
1.0000 0.8389 0.0000
1.0000 0.8222 0.0000
1.0000 0.8034 0.0000
0.0000 1.0000 0.0000
0.0000 1.0000 0.0000
0.0000 1.0000 0.0000
0.0000 1.0000 0.0000
0.0000 1.0000 0.0000
0.1252 1.0000 0.0000
0.2751 1.0000 0.0000
0.4309 1.0000 0.0000
0.5900 1.0000 0.0000
0.7391 1.0000 0.0000
0.8775 0.9997 0.0000
0.9948 0.9948 0.0000
1.0000 0.9881 0.0000
1.0000 0.9796 0.0000
1.0000 0.9695 0.0000
1.0000 0.9576 0.0000
1.0000 0.9438 0.0000
0.0000 1.0000 0.0000
0.0000 1.0000 0.0000
0.0000 1.0000 0.0000
0.0000 1.0000 0.0000
0.0000 1.0000 0.0000
0.0919 1.0000 0.0000
0.2484 1.0000 0.0000
0.4087 1.0000 0.0000
0.5720 1.0000 0.0000
0.7250 1.0000 0.0000
0.8663 1.0000 0.0000
0.9881 1.0000 0.0000
1.0000 1.0000 0.0000
1.0000 1.0000 0.0000
1.0000 1.0000 0.0000
1.0000 1.0000 0.0000
1.0000 1.0000 0.0000
0.0000 1.0000 0.0000
0.0000 1.0000 0.0000
0.0000 1.0000 0.0000
0.0000 1.0000 0.0000
0.0000 1.0000 0.0000
0.0524 1.0000 0.0000
0.2173 1.0000 0.0000
0.3831 1.0000 0.0000
0.5512 1.0000 0.0000
0.7087 1.0000 0.0000
0.8535 1.0000 0.0000
0.9796 1.0000 0.0000
1.0000 1.0000 0.0000
1.0000 1.0000 0.0000
1.0000 1.0000 0.0000
1.0000 1.0000 0.0000
1.0000 1.0000 0.0000
0.0000 1.0000 0.0000
0.0000 1.0000 0.0000
0.0000 1.0000 0.0000
0.0000 1.0000 0.0000
0.0000 1.0000 0.0000
0.0084 1.0000 0.0000
0.1810 1.0000 0.0000
0.3538 1.0000 0.0000
0.5271 1.0000 0.0000
0.6901 1.0000 0.0000
0.8389 1.0000 0.0000
0.9695 1.0000 0.0000
1.0000 1.0000 0.0000
1.0000 1.0000 0.0000
1.0000 1.0000 0.0000
1.0000 1.0000 0.0000
1.0000 1.0000 0.0000
0.0000 1.0000 0.0000
0.0000 1.0000 0.0000
0.0000 1.0000 0.0000
0.0000 1.0000 0.0000
0.0000 1.0000 0.0000
0.0000 1.0000 0.0000
0.1385 1.0000 0.0000
0.3203 1.0000 0.0000
0.4992 1.0000 0.0000
0.6688 1.0000 0.0000
0.8222 1.0000 0.0000
0.9576 1.0000 0.0000
1.0000 1.0000 0.0000
1.0000 1.0000 0.0000
1.0000 1.0000 0.0000
1.0000 1.0000 0.0000
1.0000 1.0000 0.0000
0.0000 1.0000 0.0000
0.0000 1.0000 0.0000
0.0000 1.0000 0.0000
0.0000 1.0000 0.0000
0.0000 1.0000 0.0000
0.0000 1.0000 0.0000
0.0883 1.0000 0.0000
0.2818 1.0000 0.0000
0.4676 1.0000 0.0000
0.6447 1.0000 0.0000
0.8034 1.0000 0.0000
0.9438 1.0000 0.0000
1.0000 1.0000 0.0000
1.0000 1.0000 0.0000
1.0000 1.0000 0.0000
1.0000 1.0000 0.0000
1.0000 1.0000 0.0000
0.0000 0.0000 0.0000
0.0000 0.0000 0.0000
0.0000 0.0000 0.0000
0.0437 0.0000 0.0000
0.1375 0.0000 0.0000
0.2517 0.0000 0.0000
0.3804 0.0000 0.0000
0.5208 0.0000 0.0000
0.6616 0.0000 0.0000
0.7965 0.0000 0.0000
0.9225 0.0000 0.0000
1.0000 0.0000 0.0000
1.0000 0.0000 0.0000
1.0000 0.0000 0.0000
1.0000 0.0000 0.0000
1.0000 0.0000 0.0000
1.0000 0.0000 0.0000
0.0000 0.0000 0.0000
0.0000 0.0000 0.0000
0.0000 0.0000 0.0000
0.0432 0.0000 0.0000
0.1371 0.0000 0.0000
0.2513 0.0000 0.0000
0.3801 0.0000 0.0000
0.5206 0.0000 0.0000
0.6614 0.0000 0.0000
0.7963 0.0000 0.0000
0.9224 0.0000 0.0000
1.0000 0.0000 0.0000
1.0000 0.0000 0.0000
1.0000 0.0000 0.0000
1.0000 0.0000 0.0000
1.0000 0.0000 0.0000
1.0000 0.0000 0.0000
0.0000 0.0000 0.0000
0.0000 0.0000 0.0000
0.0000 0.0000 0.0000
0.0411 0.0000 0.0000
0.1352 0.0000 0.0000
0.2497 0.0000 0.0000
0.3787 0.0000 0.0000
0.5194 0.0000 0.0000
0.6605 0.0000 0.0000
0.7955 0.0000 0.0000
0.9218 0.0000 0.0000
1.0000 0.0000 0.0000
1.0000 0.0000 0.0000
1.0000 0.0000 0.0000
1.0000 0.0000 0.0000
1.0000 0.0000 0.0000
1.0000 0.0000 0.0000
0.0000 0.0437 0.0000
0.0000 0.0432 0.0000
0.0000 0.0411 0.0000
0.0369 0.0369 0.0000
0.1314 0.0301 0.0000
0.2465 0.0205 0.0000
0.3760 0.0085 0.0000
0.5170 0.0000 0.0000
0.6586 0.0000 0.0000
0.7940 0.0000 0.0000
0.9206 0.0000 0.0000
1.0000 0.0000 0.0000
1.0000 0.0000 0.0000
1.0000 0.0000 0.0000
1.0000 0.0000 0.0000
1.0000 0.0000 0.0000
1.0000 0.0000 0.0000
0.0000 0.1375 0.0000
0.0000 0.1371 0.0000
0.0000 0.1352 0.0000
0.0301 0.1314 0.0000
0.1253 0.1253 0.0000
0.2413 0.1165 0.0000
0.3716 0.1047 0.0000
0.5132 0.0895 0.0000
0.6556 0.0703 0.0000
0.7916 0.0470 0.0000
0.9187 0.0196 0.0000
1.0000 0.0000 0.0000
1.0000 0.0000 0.0000
1.0000 0.0000 0.0000
1.0000 0.0000 0.0000
1.0000 0.0000 0.0000
1.0000 0.0000 0.0000
0.0000 0.2517 0.0000
0.0000 0.2513 0.0000
0.0000 0.2497 0.0000
0.0205 0.2465 0.0000
0.1165 0.2413 0.0000
0.2339 0.2339 0.0000
0.3653 0.2240 0.0000
0.5078 0.2113 0.0000
0.6513 0.1955 0.0000
0.7881 0.1761 0.0000
0.9160 0.1527 0.0000
1.0000 0.1247 0.0000
1.0000 0.0914 0.0000
1.0000 0.0520 0.0000
1.0000 0.0080 0.0000
1.0000 0.0000 0.0000
1.0000 0.0000 0.0000
0.0000 0.3804 0.0000
0.0000 0.3801 0.0000
0.0000 0.3787 0.0000
0.0085 0.3760 0.0000
0.1047 0.3716 0.0000
0.2240 0.3653 0.0000
0.3569 0.3569 0.0000
0.5005 0.3461 0.0000
0.6456 0.3328 0.0000
0.7835 0.3167 0.0000
0.9124 0.2974 0.0000
1.0000 0.2747 0.0000
1.0000 0.2481 0.0000
1.0000 0.2170 0.0000
1.0000 0.1806 0.0000
1.0000 0.1380 0.0000
1.0000 0.0878 0.0000
0.0000 0.5208 0.0000
0.0000 0.5206 0.0000
0.0000 0.5194 0.0000
0.0000 0.5170 0.0000
0.0895 0.5132 0.0000
0.2113 0.5078 0.0000
0.3461 0.5005 0.0000
0.4912 0.4912 0.0000
0.6382 0.4798 0.0000
0.7776 0.4660 0.0000
0.9078 0.4497 0.0000
1.0000 0.4306 0.0000
1.0000 0.4084 0.0000
1.0000 0.3828 0.0000
1.0000 0.3535 0.0000
1.0000 0.3199 0.0000
1.0000 0.2814 0.0000
0.0000 0.6616 0.0000
0.0000 0.6614 0.0000
0.0000 0.6605 0.0000
0.0000 0.6586 0.0000
0.0703 0.6556 0.0000
0.1955 0.6513 0.0000
0.3328 0.6456 0.0000
0.4798 0.6382 0.0000
0.6292 0.6292 0.0000
0.7703 0.6182 0.0000
0.9021 0.6051 0.0000
1.0000 0.5897 0.0000
1.0000 0.5718 0.0000
1.0000 0.5509 0.0000
1.0000 0.5268 0.0000
1.0000 0.4989 0.0000
1.0000 0.4673 0.0000
0.0000 0.7965 0.0000
0.0000 0.7963 0.0000
0.0000 0.7955 0.0000
0.0000 0.7940 0.0000
0.0470 0.7916 0.0000
0.1761 0.7881 0.0000
0.3167 0.7835 0.0000
0.4660 0.7776 0.0000
0.6182 0.7703 0.0000
0.7616 0.7616 0.0000
0.8952 0.7511 0.0000
1.0000 0.7389 0.0000
1.0000 0.7248 0.0000
1.0000 0.7085 0.0000
1.0000 0.6899 0.0000
1.0000 0.6686 0.0000
1.0000 0.6445 0.0000
0.0000 0.9225 0.0000
0.0000 0.9224 0.0000
0.0000 0.9218 0.0000
0.0000 0.9206 0.0000
0.0196 0.9187 0.0000
0.1527 0.9160 0.0000
0.2974 0.9124 0.0000
0.4497 0.9078 0.0000
0.6051 0.9021 0.0000
0.7511 0.8952 0.0000
0.8870 0.8870 0.0000
0.9996 0.8773 0.0000
1.0000 0.8662 0.0000
1.0000 0.8534 0.0000
1.0000 0.8387 0.0000
1.0000 0.8220 0.0000
1.0000 0.8032 0.0000
0.0000 1.0000 0.0000
0.0000 1.0000 0.0000
0.0000 1.0000 0.0000
0.0000 1.0000 0.0000
0.0000 1.0000 0.0000
0.1247 1.0000 0.0000
0.2747 1.0000 0.0000
0.4306 1.0000 0.0000
0.5897 1.0000 0.0000
0.7389 1.0000 0.0000
0.8773 0.9996 0.0000
0.9948 0.9948 0.0000
1.0000 0.9880 0.0000
1.0000 0.9795 0.0000
1.0000 0.9694 0.0000
1.0000 0.9575 0.0000
1.0000 0.9437 0.0000
0.0000 1.0000 0.0000
0.0000 1.0000 0.0000
0.0000 1.0000 0.0000
0.0000 1.0000 0.0000
0.0000 1.0000 0.0000
0.0914 1.0000 0.0000
0.2481 1.0000 0.0000
0.4084 1.0000 0.0000
0.5718 1.0000 0.0000
0.7248 1.0000 0.0000
0.8662 1.0000 0.0000
0.9880 1.0000 0.0000
1.0000 1.0000 0.0000
1.0000 1.0000 0.0000
1.0000 1.0000 0.0000
1.0000 1.0000 0.0000
1.0000 1.0000 0.0000
0.0000 1.0000 0.0000
0.0000 1.0000 0.0000
0.0000 1.0000 0.0000
0.0000 1.0000 0.0000
0.0000 1.0000 0.0000
0.0520 1.0000 0.0000
0.2170 1.0000 0.0000
0.3828 1.0000 0.0000
0.5509 1.0000 0.0000
0.7085 1.0000 0.0000
0.8534 1.0000 0.0000
0.9795 1.0000 0.0000
1.0000 1.0000 0.0000
1.0000 1.0000 0.0000
1.0000 1.0000 0.0000
1.0000 1.0000 0.0000
1.0000 1.0000 0.0000
0.0000 1.0000 0.0000
0.0000 1.0000 0.0000
0.0000 1.0000 0.0000
0.0000 1.0000 0.0000
0.0000 1.0000 0.0000
0.0080 1.0000 0.0000
0.1806 1.0000 0.0000
0.3535 1.0000 0.0000
0.5268 1.0000 0.0000
0.6899 1.0000 0.0000
0.8387 1.0000 0.0000
0.9694 1.0000 0.0000
1.0000 1.0000 0.0000
1.0000 1.0000 0.0000
1.0000 1.0000 0.0000
1.0000 1.0000 0.0000
1.0000 1.0000 0.0000
0.0000 1.0000 0.0000
0.0000 1.0000 0.0000
0.0000 1.0000 0.0000
0.0000 1.0000 0.0000
0.0000 1.0000 0.0000
0.0000 1.0000 0.0000
0.1380 1.0000 0.0000
0.3199 1.0000 0.0000
0.4989 1.0000 0.0000
0.6686 1.0000 0.0000
0.8220 1.0000 0.0000
0.9575 1.0000 0.0000
1.0000 1.0000 0.0000
1.0000 1.0000 0.0000
1.0000 1.0000 0.0000
1.0000 1.0000 0.0000
1.0000 1.0000 0.0000
0.0000 1.0000 0.0000
0.0000 1.0000 0.0000
0.0000 1.0000 0.0000
0.0000 1.0000 0.0000
0.0000 1.0000 0.0000
0.0000 1.0000 0.0000
0.0878 1.0000 0.0000
0.2814 1.0000 0.0000
0.4673 1.0000 0.0000
0.6445 1.0000 0.0000
0.8032 1.0000 0.0000
0.9437 1.0000 0.0000
1.0000 1.0000 0.0000
1.0000 1.0000 0.0000
1.0000 1.0000 0.0000
1.0000 1.0000 0.0000
1.0000 1.0000 0.0000
0.0000 0.0000 0.0000
0.0000 0.0000 0.0000
0.0000 0.0000 0.0000
0.0416 0.0000 0.0000
0.1357 0.0000 0.0000
0.2501 0.0000 0.0000
0.3791 0.0000 0.0000
0.5197 0.0000 0.0000
0.6607 0.0000 0.0000
0.7957 0.0000 0.0000
0.9219 0.0000 0.0000
1.0000 0.0000 0.0000
1.0000 0.0000 0.0000
1.0000 0.0000 0.0000
1.0000 0.0000 0.0000
1.0000 0.0000 0.0000
1.0000 0.0000 0.0000
0.0000 0.0000 0.0000
0.0000 0.0000 0.0000
0.0000 0.0000 0.0000
0.0411 0.0000 0.0000
0.1352 0.0000 0.0000
0.2497 0.0000 0.0000
0.3787 0.0000 0.0000
0.5194 0.0000 0.0000
0.6605 0.0000 0.0000
0.7955 0.0000 0.0000
0.9218 0.0000 0.0000
1.0000 0.0000 0.0000
1.0000 0.0000 0.0000
1.0000 0.0000 0.0000
1.0000 0.0000 0.0000
1.0000 0.0000 0.0000
1.0000 0.0000 0.0000
0.0000 0.0000 0.0000
0.0000 0.0000 0.0000
0.0000 0.0000 0.0000
0.0390 0.0000 0.0000
0.1334 0.0000 0.0000
0.2481 0.0000 0.0000
0.3774 0.0000 0.0000
0.5182 0.0000 0.0000
0.6596 0.0000 0.0000
0.7948 0.0000 0.0000
0.9212 0.0000 0.0000
1.0000 0.0000 0.0000
1.0000 0.0000 0.0000
1.0000 0.0000 0.0000
1.0000 0.0000 0.0000
1.0000 0.0000 0.0000
1.0000 0.0000 0.0000
0.0000 0.0416 0.0000
0.0000 0.0411 0.0000
0.0000 0.0390 0.0000
0.0348 0.0348 0.0000
0.1296 0.0280 0.0000
0.2449 0.0185 0.0000
0.3746 0.0067 0.0000
0.5159 0.0000 0.0000
0.6577 0.0000 0.0000
0.7933 0.0000 0.0000
0.9200 0.0000 0.0000
1.0000 0.0000 0.0000
1.0000 0.0000 0.0000
1.0000 0.0000 0.0000
1.0000 0.0000 0.0000
1.0000 0.0000 0.0000
1.0000 0.0000 0.0000
0.0000 0.1357 0.0000
0.0000 0.1352 0.0000
0.0000 0.1334 0.0000
0.0280 0.1296 0.0000
0.1234 0.1234 0.0000
0.2397 0.1146 0.0000
0.3702 0.1027 0.0000
0.5120 0.0874 0.0000
0.6547 0.0683 0.0000
0.7908 0.0449 0.0000
0.9181 0.0176 0.0000
1.0000 0.0000 0.0000
1.0000 0.0000 0.0000
1.0000 0.0000 0.0000
1.0000 0.0000 0.0000
1.0000 0.0000 0.0000
1.0000 0.0000 0.0000
0.0000 0.2501 0.0000
0.0000 0.2497 0.0000
0.0000 0.2481 0.0000
0.0185 0.2449 0.0000
0.1146 0.2397 0.0000
0.2323 0.2323 0.0000
0.3639 0.2224 0.0000
0.5066 0.2096 0.0000
0.6504 0.1938 0.0000
0.7874 0.1743 0.0000
0.9154 0.1509 0.0000
1.0000 0.1228 0.0000
1.0000 0.0894 0.0000
1.0000 0.0499 0.0000
1.0000 0.0062 0.0000
1.0000 0.0000 0.0000
1.0000 0.0000 0.0000
0.0000 0.3791 0.0000
0.0000 0.3787 0.0000
0.0000 0.3774 0.0000
0.0067 0.3746 0.0000
0.1027 0.3702 0.0000
0.2224 0.3639 0.0000
0.3555 0.3555 0.0000
0.4993 0.3447 0.0000
0.6446 0.3314 0.0000
0.7827 0.3152 0.0000
0.9118 0.2959 0.0000
1.0000 0.2732 0.0000
1.0000 0.2465 0.0000
1.0000 0.2153 0.0000
1.0000 0.1789 0.0000
1.0000 0.1362 0.0000
1.0000 0.0858 0.0000
0.0000 0.5197 0.0000
0.0000 0.5194 0.0000
0.0000 0.5182 0.0000
0.0000 0.5159 0.0000
0.0874 0.5120 0.0000
0.2096 0.5066 0.0000
0.3447 0.4993 0.0000
0.4900 0.4900 0.0000
0.6373 0.4786 0.0000
0.7768 0.4648 0.0000
0.9072 0.4484 0.0000
1.0000 0.4293 0.0000
1.0000 0.4071 0.0000
1.0000 0.3815 0.0000
1.0000 0.3521 0.0000
1.0000 0.3185 0.0000
1.0000 0.2799 0.0000
0.0000 0.6607 0.0000
0.0000 0.6605 0.0000
0.0000 0.6596 0.0000
0.0000 0.6577 0.0000
0.0683 0.6547 0.0000
0.1938 0.6504 0.0000
0.3314 0.6446 0.0000
0.4786 0.6373 0.0000
0.6282 0.6282 0.0000
0.7696 0.6172 0.0000
0.9014 0.6041 0.0000
1.0000 0.5887 0.0000
1.0000 0.5707 0.0000
1.0000 0.5498 0.0000
1.0000 0.5256 0.0000
1.0000 0.4977 0.0000
1.0000 0.4661 0.0000
0.0000 0.7957 0.0000
0.0000 0.7955 0.0000
0.0000 0.7948 0.0000
0.0000 0.7933 0.0000
0.0449 0.7908 0.0000
0.1743 0.7874 0.0000
0.3152 0.7827 0.0000
0.4648 0.7768 0.0000
0.6172 0.7696 0.0000
0.7608 0.7608 0.0000
0.8945 0.7503 0.0000
1.0000 0.7381 0.0000
1.0000 0.7240 0.0000
1.0000 0.7076 0.0000
1.0000 0.6890 0.0000
1.0000 0.6677 0.0000
1.0000 0.6435 0.0000
0.0000 0.9219 0.0000
0.0000 0.9218 0.0000
0.0000 0.9212 0.0000
0.0000 0.9200 0.0000
0.0176 0.9181 0.0000
0.1509 0.9154 0.0000
0.2959 0.9118 0.0000
0.4484 0.9072 0.0000
0.6041 0.9014 0.0000
0.7503 0.8945 0.0000
0.8863 0.8863 0.0000
0.9994 0.8767 0.0000
1.0000 0.8655 0.0000
1.0000 0.8527 0.0000
1.0000 0.8380 0.0000
1.0000 0.8213 0.0000
1.0000 0.8025 0.0000
0.0000 1.0000 0.0000
0.0000 1.0000 0.0000
0.0000 1.0000 0.0000
0.0000 1.0000 0.0000
0.0000 1.0000 0.0000
0.1228 1.0000 0.0000
0.2732 1.0000 0.0000
0.4293 1.0000 0.0000
0.5887 1.0000 0.0000
0.7381 1.0000 0.0000
0.8767 0.9994 0.0000
0.9944 0.9944 0.0000
1.0000 0.9876 0.0000
1.0000 0.9791 0.0000
1.0000 0.9689 0.0000
1.0000 0.9570 0.0000
1.0000 0.9432 0.0000
0.0000 1.0000 0.0000
0.0000 1.0000 0.0000
0.0000 1.0000 0.0000
0.0000 1.0000 0.0000
0.0000 1.0000 0.0000
0.0894 1.0000 0.0000
0.2465 1.0000 0.0000
0.4071 1.0000 0.0000
0.5707 1.0000 0.0000
0.7240 1.0000 0.0000
0.8655 1.0000 0.0000
0.9876 1.0000 0.0000
1.0000 1.0000 0.0000
1.0000 1.0000 0.0000
1.0000 1.0000 0.0000
1.0000 1.0000 0.0000
1.0000 1.0000 0.0000
0.0000 1.0000 0.0000
0.0000 1.0000 0.0000
0.0000 1.0000 0.0000
0.0000 1.0000 0.0000
0.0000 1.0000 0.0000
0.0499 1.0000 0.0000
0.2153 1.0000 0.0000
0.3815 1.0000 0.0000
0.5498 1.0000 0.0000
0.7076 1.0000 0.0000
0.8527 1.0000 0.0000
0.9791 1.0000 0.0000
1.0000 1.0000 0.0000
1.0000 1.0000 0.0000
1.0000 1.0000 0.0000
1.0000 1.0000 0.0000
1.0000 1.0000 0.0000
0.0000 1.0000 0.0000
0.0000 1.0000 0.0000
0.0000 1.0000 0.0000
0.0000 1.0000 0.0000
0.0000 1.0000 0.0000
0.0062 1.0000 0.0000
0.1789 1.0000 0.0000
0.3521 1.0000 0.0000
0.5256 1.0000 0.0000
0.6890 1.0000 0.0000
0.8380 1.0000 0.0000
0.9689 1.0000 0.0000
1.0000 1.0000 0.0000
1.0000 1.0000 0.0000
1.0000 1.0000 0.0000
1.0000 1.0000 0.0000
1.0000 1.0000 0.0000
0.0000 1.0000 0.0000
0.0000 1.0000 0.0000
0.0000 1.0000 0.0000
0.0000 1.0000 0.0000
0.0000 1.0000 0.0000
0.0000 1.0000 0.0000
0.1362 1.0000 0.0000
0.3185 1.0000 0.0000
0.4977 1.0000 0.0000
0.6677 1.0000 0.0000
0.8213 1.0000 0.0000
0.9570 1.0000 0.0000
1.0000 1.0000 0.0000
1.0000 1.0000 0.0000
1.0000 1.0000 0.0000
1.0000 1.0000 0.0000
1.0000 1.0000 0.0000
0.0000 1.0000 0.0000
0.0000 1.0000 0.0000
0.0000 1.0000 0.0000
0.0000 1.0000 0.0000
0.0000 1.0000 0.0000
0.0000 1.0000 0.0000
0.0858 1.0000 0.0000
0.2799 1.0000 0.0000
0.4661 1.0000 0.0000
0.6435 1.0000 0.0000
0.8025 1.0000 0.0000
0.9432 1.0000 0.0000
1.0000 1.0000 0.0000
1.0000 1.0000 0.0000
1.0000 1.0000 0.0000
1.0000 1.0000 0.0000
1.0000 1.0000 0.0000
0.0000 0.0000 0.0442
0.0000 0.0000 0.0437
0.0000 0.0000 0.0416
0.0374 0.0000 0.0374
0.1319 0.0000 0.0305
0.2469 0.0000 0.0210
0.3763 0.0000 0.0089
0.5173 0.0000 0.0000
0.6588 0.0000 0.0000
0.7942 0.0000 0.0000
0.9207 0.0000 0.0000
1.0000 0.0000 0.0000
1.0000 0.0000 0.0000
1.0000 0.0000 0.0000
1.0000 0.0000 0.0000
1.0000 0.0000 0.0000
1.0000 0.0000 0.0000
0.0000 0.0000 0.0437
0.0000 0.0000 0.0432
0.0000 0.0000 0.0411
0.0369 0.0000 0.0369
0.1314 0.0000 0.0301
0.2465 0.0000 0.0205
0.3760 0.0000 0.0085
0.5170 0.0000 0.0000
0.6586 0.0000 0.0000
0.7940 0.0000 0.0000
0.9206 0.0000 0.0000
1.0000 0.0000 0.0000
1.0000 0.0000 0.0000
1.0000 0.0000 0.0000
1.0000 0.0000 0.0000
1.0000 0.0000 0.0000
