assets/luts/LUTs/JD SLOG3 CONVERSION -1.CUBE
TITLE "ColorFinale Export"
# Created by Jeven Dovey on 2023-09-02 23:31:08 +0000
# Color Finale Plugin v.2.6.0 (537)
LUT_3D_SIZE 9
0.0000 0.0000 0.0000
0.0000 0.0000 0.0000
0.1113 0.0000 0.0000
0.3376 0.0000 0.0000
0.5748 0.0000 0.0000
0.8303 0.0000 0.0000
1.0000 0.0000 0.0000
1.0000 0.0000 0.0000
1.0000 0.0000 0.0000
0.0000 0.0000 0.0000
0.0000 0.0000 0.0000
0.1098 0.0000 0.0000
0.3367 0.0000 0.0000
0.5741 0.0000 0.0000
0.8298 0.0000 0.0000
1.0000 0.0000 0.0000
1.0000 0.0000 0.0000
1.0000 0.0000 0.0000
0.0000 0.1113 0.0000
0.0000 0.1098 0.0000
0.1031 0.1031 0.0000
0.3327 0.0892 0.0000
0.5713 0.0659 0.0000
0.8276 0.0299 0.0000
1.0000 0.0000 0.0000
1.0000 0.0000 0.0000
1.0000 0.0000 0.0000
0.0000 0.3376 0.0000
0.0000 0.3367 0.0000
0.0892 0.3327 0.0000
0.3245 0.3245 0.0000
0.5656 0.3111 0.0000
0.8230 0.2915 0.0000
1.0000 0.2643 0.0000
1.0000 0.2277 0.0000
1.0000 0.1785 0.0000
0.0000 0.5748 0.0000
0.0000 0.5741 0.0000
0.0659 0.5713 0.0000
0.3111 0.5656 0.0000
0.5564 0.5564 0.0000
0.8157 0.5432 0.0000
1.0000 0.5254 0.0000
1.0000 0.5023 0.0000
1.0000 0.4731 0.0000
0.0000 0.8303 0.0000
0.0000 0.8298 0.0000
0.0299 0.8276 0.0000
0.2915 0.8230 0.0000
0.5432 0.8157 0.0000
0.8053 0.8053 0.0000
1.0000 0.7914 0.0000
1.0000 0.7736 0.0000
1.0000 0.7515 0.0000
0.0000 1.0000 0.0000
0.0000 1.0000 0.0000
0.0000 1.0000 0.0000
0.2643 1.0000 0.0000
0.5254 1.0000 0.0000
0.7914 1.0000 0.0000
1.0000 1.0000 0.0000
1.0000 1.0000 0.0000
1.0000 1.0000 0.0000
0.0000 1.0000 0.0000
0.0000 1.0000 0.0000
0.0000 1.0000 0.0000
0.2277 1.0000 0.0000
0.5023 1.0000 0.0000
0.7736 1.0000 0.0000
1.0000 1.0000 0.0000
1.0000 1.0000 0.0000
1.0000 1.0000 0.0000
0.0000 1.0000 0.0000
0.0000 1.0000 0.0000
0.0000 1.0000 0.0000
0.1785 1.0000 0.0000
0.4731 1.0000 0.0000
0.7515 1.0000 0.0000
1.0000 1.0000 0.0000
1.0000 1.0000 0.0000
1.0000 1.0000 0.0000
0.0000 0.0000 0.0000
0.0000 0.0000 0.0000
0.1098 0.0000 0.0000
0.3367 0.0000 0.0000
0.5741 0.0000 0.0000
0.8298 0.0000 0.0000
1.0000 0.0000 0.0000
1.0000 0.0000 0.0000
1.0000 0.0000 0.0000
0.0000 0.0000 0.0000
0.0000 0.0000 0.0000
0.1082 0.0000 0.0000
0.3357 0.0000 0.0000
0.5735 0.0000 0.0000
0.8293 0.0000 0.0000
1.0000 0.0000 0.0000
1.0000 0.0000 0.0000
1.0000 0.0000 0.0000
0.0000 0.1098 0.0000
0.0000 0.1082 0.0000
0.1015 0.1015 0.0000
0.3317 0.0876 0.0000
0.5707 0.0641 0.0000
0.8271 0.0279 0.0000
1.0000 0.0000 0.0000
1.0000 0.0000 0.0000
1.0000 0.0000 0.0000
0.0000 0.3367 0.0000
0.0000 0.3357 0.0000
0.0876 0.3317 0.0000
0.3235 0.3235 0.0000
0.5649 0.3101 0.0000
0.8225 0.2905 0.0000
1.0000 0.2633 0.0000
1.0000 0.2265 0.0000
1.0000 0.1772 0.0000
0.0000 0.5741 0.0000
0.0000 0.5735 0.0000
0.0641 0.5707 0.0000
0.3101 0.5649 0.0000
0.5557 0.5557 0.0000
0.8152 0.5425 0.0000
1.0000 0.5247 0.0000
1.0000 0.5016 0.0000
1.0000 0.4724 0.0000
0.0000 0.8298 0.0000
0.0000 0.8293 0.0000
0.0279 0.8271 0.0000
0.2905 0.8225 0.0000
0.5425 0.8152 0.0000
0.8048 0.8048 0.0000
1.0000 0.7908 0.0000
1.0000 0.7730 0.0000
1.0000 0.7509 0.0000
0.0000 1.0000 0.0000
0.0000 1.0000 0.0000
0.0000 1.0000 0.0000
0.2633 1.0000 0.0000
0.5247 1.0000 0.0000
0.7908 1.0000 0.0000
1.0000 1.0000 0.0000
1.0000 1.0000 0.0000
1.0000 1.0000 0.0000
0.0000 1.0000 0.0000
0.0000 1.0000 0.0000
0.0000 1.0000 0.0000
0.2265 1.0000 0.0000
0.5016 1.0000 0.0000
0.7730 1.0000 0.0000
1.0000 1.0000 0.0000
1.0000 1.0000 0.0000
1.0000 1.0000 0.0000
0.0000 1.0000 0.0000
0.0000 1.0000 0.0000
0.0000 1.0000 0.0000
0.1772 1.0000 0.0000
0.4724 1.0000 0.0000
0.7509 1.0000 0.0000
1.0000 1.0000 0.0000
1.0000 1.0000 0.0000
1.0000 1.0000 0.0000
0.0000 0.0000 0.1113
0.0000 0.0000 0.1098
0.1031 0.0000 0.1031
0.3327 0.0000 0.0892
0.5713 0.0000 0.0659
0.8276 0.0000 0.0299
1.0000 0.0000 0.0000
1.0000 0.0000 0.0000
1.0000 0.0000 0.0000
0.0000 0.0000 0.1098
0.0000 0.0000 0.1082
0.1015 0.0000 0.1015
0.3317 0.0000 0.0876
0.5707 0.0000 0.0641
0.8271 0.0000 0.0279
1.0000 0.0000 0.0000
1.0000 0.0000 0.0000
1.0000 0.0000 0.0000
0.0000 0.1031 0.1031
0.0000 0.1015 0.1015
0.0947 0.0947 0.0947
0.3277 0.0805 0.0805
0.5678 0.0566 0.0566
0.8248 0.0197 0.0197
1.0000 0.0000 0.0000
1.0000 0.0000 0.0000
1.0000 0.0000 0.0000
0.0000 0.3327 0.0892
0.0000 0.3317 0.0876
0.0805 0.3277 0.0805
0.3194 0.3194 0.0658
0.5621 0.3059 0.0408
0.8203 0.2861 0.0027
1.0000 0.2586 0.0000
1.0000 0.2215 0.0000
1.0000 0.1716 0.0000
0.0000 0.5713 0.0659
0.0000 0.5707 0.0641
0.0566 0.5678 0.0566
0.3059 0.5621 0.0408
0.5529 0.5529 0.0141
0.8130 0.5396 0.0000
1.0000 0.5217 0.0000
1.0000 0.4986 0.0000
1.0000 0.4692 0.0000
0.0000 0.8276 0.0299
0.0000 0.8271 0.0279
0.0197 0.8248 0.0197
0.2861 0.8203 0.0027
0.5396 0.8130 0.0000
0.8025 0.8025 0.0000
1.0000 0.7885 0.0000
1.0000 0.7707 0.0000
1.0000 0.7486 0.0000
0.0000 1.0000 0.0000
0.0000 1.0000 0.0000
0.0000 1.0000 0.0000
0.2586 1.0000 0.0000
0.5217 1.0000 0.0000
0.7885 1.0000 0.0000
1.0000 1.0000 0.0000
1.0000 1.0000 0.0000
1.0000 1.0000 0.0000
0.0000 1.0000 0.0000
0.0000 1.0000 0.0000
0.0000 1.0000 0.0000
0.2215 1.0000 0.0000
0.4986 1.0000 0.0000
0.7707 1.0000 0.0000
1.0000 1.0000 0.0000
1.0000 1.0000 0.0000
1.0000 1.0000 0.0000
0.0000 1.0000 0.0000
0.0000 1.0000 0.0000
0.0000 1.0000 0.0000
0.1716 1.0000 0.0000
0.4692 1.0000 0.0000
0.7486 1.0000 0.0000
1.0000 1.0000 0.0000
1.0000 1.0000 0.0000
1.0000 1.0000 0.0000
0.0000 0.0000 0.3376
0.0000 0.0000 0.3367
0.0892 0.0000 0.3327
0.3245 0.0000 0.3245
0.5656 0.0000 0.3111
0.8230 0.0000 0.2915
1.0000 0.0000 0.2643
1.0000 0.0000 0.2277
1.0000 0.0000 0.1785
0.0000 0.0000 0.3367
0.0000 0.0000 0.3357
0.0876 0.0000 0.3317
0.3235 0.0000 0.3235
0.5649 0.0000 0.3101
0.8225 0.0000 0.2905
1.0000 0.0000 0.2633
1.0000 0.0000 0.2265
1.0000 0.0000 0.1772
0.0000 0.0892 0.3327
0.0000 0.0876 0.3317
0.0805 0.0805 0.3277
0.3194 0.0658 0.3194
0.5621 0.0408 0.3059
0.8203 0.0027 0.2861
1.0000 0.0000 0.2586
1.0000 0.0000 0.2215
1.0000 0.0000 0.1716
0.0000 0.3245 0.3245
0.0000 0.3235 0.3235
0.0658 0.3194 0.3194
0.3110 0.3110 0.3110
0.5564 0.2973 0.2973
0.8157 0.2772 0.2772
1.0000 0.2492 0.2492
1.0000 0.2112 0.2112
1.0000 0.1600 0.1600
0.0000 0.5656 0.3111
0.0000 0.5649 0.3101
0.0408 0.5621 0.3059
0.2973 0.5564 0.2973
0.5471 0.5471 0.2832
0.8084 0.5337 0.2625
1.0000 0.5157 0.2336
1.0000 0.4924 0.1943
1.0000 0.4627 0.1408
0.0000 0.8230 0.2915
0.0000 0.8225 0.2905
0.0027 0.8203 0.2861
0.2772 0.8157 0.2772
0.5337 0.8084 0.2625
0.7979 0.7979 0.2408
1.0000 0.7839 0.2105
1.0000 0.7660 0.1689
1.0000 0.7437 0.1117
0.0000 1.0000 0.2643
0.0000 1.0000 0.2633
0.0000 1.0000 0.2586
0.2492 1.0000 0.2492
0.5157 1.0000 0.2336
0.7839 1.0000 0.2105
1.0000 1.0000 0.1779
1.0000 1.0000 0.1328
1.0000 1.0000 0.0693
0.0000 1.0000 0.2277
0.0000 1.0000 0.2265
0.0000 1.0000 0.2215
0.2112 1.0000 0.2112
0.4924 1.0000 0.1943
0.7660 1.0000 0.1689
1.0000 1.0000 0.1328
1.0000 1.0000 0.0817
1.0000 1.0000 0.0079
0.0000 1.0000 0.1785
0.0000 1.0000 0.1772
0.0000 1.0000 0.1716
0.1600 1.0000 0.1600
0.4627 1.0000 0.1408
0.7437 1.0000 0.1117
1.0000 1.0000 0.0693
1.0000 1.0000 0.0079
1.0000 1.0000 0.0000
0.0000 0.0000 0.5748
0.0000 0.0000 0.5741
0.0659 0.0000 0.5713
0.3111 0.0000 0.5656
0.5564 0.0000 0.5564
0.8157 0.0000 0.5432
1.0000 0.0000 0.5254
1.0000 0.0000 0.5023
1.0000 0.0000 0.4731
0.0000 0.0000 0.5741
0.0000 0.0000 0.5735
0.0641 0.0000 0.5707
0.3101 0.0000 0.5649
0.5557 0.0000 0.5557
0.8152 0.0000 0.5425
1.0000 0.0000 0.5247
1.0000 0.0000 0.5016
1.0000 0.0000 0.4724
0.0000 0.0659 0.5713
0.0000 0.0641 0.5707
0.0566 0.0566 0.5678
0.3059 0.0408 0.5621
0.5529 0.0141 0.5529
0.8130 0.0000 0.5396
1.0000 0.0000 0.5217
1.0000 0.0000 0.4986
1.0000 0.0000 0.4692
0.0000 0.3111 0.5656
0.0000 0.3101 0.5649
0.0408 0.3059 0.5621
0.2973 0.2973 0.5564
0.5471 0.2832 0.5471
0.8084 0.2625 0.5337
1.0000 0.2336 0.5157
1.0000 0.1943 0.4924
1.0000 0.1408 0.4627
0.0000 0.5564 0.5564
0.0000 0.5557 0.5557
0.0141 0.5529 0.5529
0.2832 0.5471 0.5471
0.5377 0.5377 0.5377
0.8010 0.5242 0.5242
1.0000 0.5060 0.5060
1.0000 0.4823 0.4823
1.0000 0.4522 0.4522
0.0000 0.8157 0.5432
0.0000 0.8152 0.5425
0.0000 0.8130 0.5396
0.2625 0.8084 0.5337
0.5242 0.8010 0.5242
0.7905 0.7905 0.5104
1.0000 0.7764 0.4919
1.0000 0.7584 0.4677
1.0000 0.7360 0.4369
0.0000 1.0000 0.5254
0.0000 1.0000 0.5247
0.0000 1.0000 0.5217
0.2336 1.0000 0.5157
0.5060 1.0000 0.5060
0.7764 1.0000 0.4919
1.0000 1.0000 0.4729
1.0000 1.0000 0.4480
1.0000 1.0000 0.4161
0.0000 1.0000 0.5023
0.0000 1.0000 0.5016
0.0000 1.0000 0.4986
0.1943 1.0000 0.4924
0.4823 1.0000 0.4823
0.7584 1.0000 0.4677
1.0000 1.0000 0.4480
1.0000 1.0000 0.4220
1.0000 1.0000 0.3888
0.0000 1.0000 0.4731
0.0000 1.0000 0.4724
0.0000 1.0000 0.4692
0.1408 1.0000 0.4627
0.4522 1.0000 0.4522
0.7360 1.0000 0.4369
1.0000 1.0000 0.4161
1.0000 1.0000 0.3888
1.0000 1.0000 0.3536
0.0000 0.0000 0.8303
0.0000 0.0000 0.8298
0.0299 0.0000 0.8276
0.2915 0.0000 0.8230
0.5432 0.0000 0.8157
0.8053 0.0000 0.8053
1.0000 0.0000 0.7914
1.0000 0.0000 0.7736
1.0000 0.0000 0.7515
0.0000 0.0000 0.8298
0.0000 0.0000 0.8293
0.0279 0.0000 0.8271
0.2905 0.0000 0.8225
0.5425 0.0000 0.8152
0.8048 0.0000 0.8048
1.0000 0.0000 0.7908
1.0000 0.0000 0.7730
1.0000 0.0000 0.7509
0.0000 0.0299 0.8276
0.0000 0.0279 0.8271
0.0197 0.0197 0.8248
0.2861 0.0027 0.8203
0.5396 0.0000 0.8130
0.8025 0.0000 0.8025
1.0000 0.0000 0.7885
1.0000 0.0000 0.7707
1.0000 0.0000 0.7486
0.0000 0.2915 0.8230
0.0000 0.2905 0.8225
0.0027 0.2861 0.8203
0.2772 0.2772 0.8157
0.5337 0.2625 0.8084
0.7979 0.2408 0.7979
1.0000 0.2105 0.7839
1.0000 0.1689 0.7660
1.0000 0.1117 0.7437
0.0000 0.5432 0.8157
0.0000 0.5425 0.8152
0.0000 0.5396 0.8130
0.2625 0.5337 0.8084
0.5242 0.5242 0.8010
0.7905 0.5104 0.7905
1.0000 0.4919 0.7764
1.0000 0.4677 0.7584
1.0000 0.4369 0.7360
0.0000 0.8053 0.8053
0.0000 0.8048 0.8048
0.0000 0.8025 0.8025
0.2408 0.7979 0.7979
0.5104 0.7905 0.7905
0.7798 0.7798 0.7798
1.0000 0.7656 0.7656
1.0000 0.7475 0.7475
1.0000 0.7249 0.7249
0.0000 1.0000 0.7914
0.0000 1.0000 0.7908
0.0000 1.0000 0.7885
0.2105 1.0000 0.7839
0.4919 1.0000 0.7764
0.7656 1.0000 0.7656
1.0000 1.0000 0.7513
1.0000 1.0000 0.7329
1.0000 1.0000 0.7100
0.0000 1.0000 0.7736
0.0000 1.0000 0.7730
0.0000 1.0000 0.7707
0.1689 1.0000 0.7660
0.4677 1.0000 0.7584
0.7475 1.0000 0.7475
1.0000 1.0000 0.7329
1.0000 1.0000 0.7142
1.0000 1.0000 0.6910
0.0000 1.0000 0.7515
0.0000 1.0000 0.7509
0.0000 1.0000 0.7486
0.1117 1.0000 0.7437
0.4369 1.0000 0.7360
0.7249 1.0000 0.7249
1.0000 1.0000 0.7100
1.0000 1.0000 0.6910
1.0000 1.0000 0.6673
0.0000 0.0000 1.0000
0.0000 0.0000 1.0000
0.0000 0.0000 1.0000
0.2643 0.0000 1.0000
0.5254 0.0000 1.0000
0.7914 0.0000 1.0000
1.0000 0.0000 1.0000
1.0000 0.0000 1.0000
1.0000 0.0000 1.0000
0.0000 0.0000 1.0000
0.0000 0.0000 1.0000
0.0000 0.0000 1.0000
0.2633 0.0000 1.0000
0.5247 0.0000 1.0000
0.7908 0.0000 1.0000
1.0000 0.0000 1.0000
1.0000 0.0000 1.0000
1.0000 0.0000 1.0000
0.0000 0.0000 1.0000
0.0000 0.0000 1.0000
0.0000 0.0000 1.0000
0.2586 0.0000 1.0000
0.5217 0.0000 1.0000
0.7885 0.0000 1.0000
1.0000 0.0000 1.0000
1.0000 0.0000 1.0000
1.0000 0.0000 1.0000
0.0000 0.2643 1.0000
0.0000 0.2633 1.0000
0.0000 0.2586 1.0000
0.2492 0.2492 1.0000
0.5157 0.2336 1.0000
0.7839 0.2105 1.0000
1.0000 0.1779 1.0000
1.0000 0.1328 1.0000
1.0000 0.0693 1.0000
0.0000 0.5254 1.0000
0.0000 0.5247 1.0000
0.0000 0.5217 1.0000
0.2336 0.5157 1.0000
0.5060 0.5060 1.0000
0.7764 0.4919 1.0000
1.0000 0.4729 1.0000
1.0000 0.4480 1.0000
1.0000 0.4161 1.0000
0.0000 0.7914 1.0000
0.0000 0.7908 1.0000
0.0000 0.7885 1.0000
0.2105 0.7839 1.0000
0.4919 0.7764 1.0000
0.7656 0.7656 1.0000
1.0000 0.7513 1.0000
1.0000 0.7329 1.0000
1.0000 0.7100 1.0000
0.0000 1.0000 1.0000
0.0000 1.0000 1.0000
0.0000 1.0000 1.0000
0.1779 1.0000 1.0000
0.4729 1.0000 1.0000
0.7513 1.0000 1.0000
1.0000 1.0000 1.0000
1.0000 1.0000 1.0000
1.0000 1.0000 1.0000
0.0000 1.0000 1.0000
0.0000 1.0000 1.0000
0.0000 1.0000 1.0000
0.1328 1.0000 1.0000
0.4480 1.0000 1.0000
0.7329 1.0000 1.0000
1.0000 1.0000 1.0000
1.0000 1.0000 1.0000
1.0000 1.0000 0.9992
0.0000 1.0000 1.0000
0.0000 1.0000 1.0000
0.0000 1.0000 1.0000
0.0693 1.0000 1.0000
0.4161 1.0000 1.0000
0.7100 1.0000 1.0000
1.0000 1.0000 1.0000
1.0000 1.0000 0.9992
1.0000 1.0000 0.9779
0.0000 0.0000 1.0000
0.0000 0.0000 1.0000
0.0000 0.0000 1.0000
0.2277 0.0000 1.0000
0.5023 0.0000 1.0000
0.7736 0.0000 1.0000
1.0000 0.0000 1.0000
1.0000 0.0000 1.0000
1.0000 0.0000 1.0000
0.0000 0.0000 1.0000
0.0000 0.0000 1.0000
0.0000 0.0000 1.0000
0.2265 0.0000 1.0000
0.5016 0.0000 1.0000
0.7730 0.0000 1.0000
1.0000 0.0000 1.0000
1.0000 0.0000 1.0000
1.0000 0.0000 1.0000
0.0000 0.0000 1.0000
0.0000 0.0000 1.0000
0.0000 0.0000 1.0000
0.2215 0.0000 1.0000
0.4986 0.0000 1.0000
0.7707 0.0000 1.0000
1.0000 0.0000 1.0000
1.0000 0.0000 1.0000
1.0000 0.0000 1.0000
0.0000 0.2277 1.0000
0.0000 0.2265 1.0000
0.0000 0.2215 1.0000
0.2112 0.2112 1.0000
0.4924 0.1943 1.0000
0.7660 0.1689 1.0000
1.0000 0.1328 1.0000
1.0000 0.0817 1.0000
1.0000 0.0079 1.0000
0.0000 0.5023 1.0000
0.0000 0.5016 1.0000
0.0000 0.4986 1.0000
0.1943 0.4924 1.0000
0.4823 0.4823 1.0000
0.7584 0.4677 1.0000
1.0000 0.4480 1.0000
1.0000 0.4220 1.0000
1.0000 0.3888 1.0000
0.0000 0.7736 1.0000
0.0000 0.7730 1.0000
0.0000 0.7707 1.0000
0.1689 0.7660 1.0000
0.4677 0.7584 1.0000
0.7475 0.7475 1.0000
1.0000 0.7329 1.0000
1.0000 0.7142 1.0000
1.0000 0.6910 1.0000
0.0000 1.0000 1.0000
0.0000 1.0000 1.0000
0.0000 1.0000 1.0000
0.1328 1.0000 1.0000
0.4480 1.0000 1.0000
0.7329 1.0000 1.0000
1.0000 1.0000 1.0000
1.0000 1.0000 1.0000
1.0000 0.9992 1.0000
0.0000 1.0000 1.0000
0.0000 1.0000 1.0000
0.0000 1.0000 1.0000
0.0817 1.0000 1.0000
0.4220 1.0000 1.0000
0.7142 1.0000 1.0000
1.0000 1.0000 1.0000
1.0000 1.0000 1.0000
1.0000 1.0000 1.0000
0.0000 1.0000 1.0000
0.0000 1.0000 1.0000
0.0000 1.0000 1.0000
0.0079 1.0000 1.0000
0.3888 1.0000 1.0000
0.6910 1.0000 1.0000
0.9992 1.0000 1.0000
1.0000 1.0000 1.0000
1.0000 1.0000 1.0000
0.0000 0.0000 1.0000
0.0000 0.0000 1.0000
0.0000 0.0000 1.0000
0.1785 0.0000 1.0000
0.4731 0.0000 1.0000
0.7515 0.0000 1.0000
1.0000 0.0000 1.0000
1.0000 0.0000 1.0000
1.0000 0.0000 1.0000
0.0000 0.0000 1.0000
0.0000 0.0000 1.0000
0.0000 0.0000 1.0000
0.1772 0.0000 1.0000
0.4724 0.0000 1.0000
0.7509 0.0000 1.0000
1.0000 0.0000 1.0000
1.0000 0.0000 1.0000
1.0000 0.0000 1.0000
0.0000 0.0000 1.0000
0.0000 0.0000 1.0000
0.0000 0.0000 1.0000
0.1716 0.0000 1.0000
0.4692 0.0000 1.0000
0.7486 0.0000 1.0000
1.0000 0.0000 1.0000
1.0000 0.0000 1.0000
1.0000 0.0000 1.0000
0.0000 0.1785 1.0000
0.0000 0.1772 1.0000
0.0000 0.1716 1.0000
0.1600 0.1600 1.0000
0.4627 0.1408 1.0000
0.7437 0.1117 1.0000
1.0000 0.0693 1.0000
1.0000 0.0079 1.0000
1.0000 0.0000 1.0000
0.0000 0.4731 1.0000
0.0000 0.4724 1.0000
0.0000 0.4692 1.0000
0.1408 0.4627 1.0000
0.4522 0.4522 1.0000
0.7360 0.4369 1.0000
1.0000 0.4161 1.0000
1.0000 0.3888 1.0000
1.0000 0.3536 1.0000
0.0000 0.7515 1.0000
0.0000 0.7509 1.0000
0.0000 0.7486 1.0000
0.1117 0.7437 1.0000
0.4369 0.7360 1.0000
0.7249 0.7249 1.0000
1.0000 0.7100 1.0000
1.0000 0.6910 1.0000
1.0000 0.6673 1.0000
0.0000 1.0000 1.0000
0.0000 1.0000 1.0000
0.0000 1.0000 1.0000
0.0693 1.0000 1.0000
0.4161 1.0000 1.0000
0.7100 1.0000 1.0000
1.0000 1.0000 1.0000
1.0000 0.9992 1.0000
1.0000 0.9779 1.0000
0.0000 1.0000 1.0000
0.0000 1.0000 1.0000
0.0000 1.0000 1.0000
0.0079 1.0000 1.0000
0.3888 1.0000 1.0000
0.6910 1.0000 1.0000
0.9992 1.0000 1.0000
1.0000 1.0000 1.0000
1.0000 1.0000 1.0000
0.0000 1.0000 1.0000
0.0000 1.0000 1.0000
0.0000 1.0000 1.0000
0.0000 1.0000 1.0000
0.3536 1.0000 1.0000
0.6673 1.0000 1.0000
0.9779 1.0000 1.0000
1.0000 1.0000 1.0000
1.0000 1.0000 1.0000
