assets/luts/LUTs/JD SLOG3 CONVERSION -1.CUBE
TITLE "ColorFinale Export"
# Created by Jeven Dovey on 2023-09-02 23:31:08 +0000
# Color Finale Plugin v.2.6.0 (537)
LUT_3D_SIZE 5
0.0000 0.0000 0.0000
0.1113 0.0000 0.0000
0.5748 0.0000 0.0000
1.0000 0.0000 0.0000
1.0000 0.0000 0.0000
0.0000 0.1113 0.0000
0.1031 0.1031 0.0000
0.5713 0.0659 0.0000
1.0000 0.0000 0.0000
1.0000 0.0000 0.0000
0.0000 0.5748 0.0000
0.0659 0.5713 0.0000
0.5564 0.5564 0.0000
1.0000 0.5254 0.0000
1.0000 0.4731 0.0000
0.0000 1.0000 0.0000
0.0000 1.0000 0.0000
0.5254 1.0000 0.0000
1.0000 1.0000 0.0000
1.0000 1.0000 0.0000
0.0000 1.0000 0.0000
0.0000 1.0000 0.0000
0.4731 1.0000 0.0000
1.0000 1.0000 0.0000
1.0000 1.0000 0.0000
0.0000 0.0000 0.1113
0.1031 0.0000 0.1031
0.5713 0.0000 0.0659
1.0000 0.0000 0.0000
1.0000 0.0000 0.0000
0.0000 0.1031 0.1031
0.0947 0.0947 0.0947
0.5678 0.0566 0.0566
1.0000 0.0000 0.0000
1.0000 0.0000 0.0000
0.0000 0.5713 0.0659
0.0566 0.5678 0.0566
0.5529 0.5529 0.0141
1.0000 0.5217 0.0000
1.0000 0.4692 0.0000
0.0000 1.0000 0.0000
0.0000 1.0000 0.0000
0.5217 1.0000 0.0000
1.0000 1.0000 0.0000
1.0000 1.0000 0.0000
0.0000 1.0000 0.0000
0.0000 1.0000 0.0000
0.4692 1.0000 0.0000
1.0000 1.0000 0.0000
1.0000 1.0000 0.0000
0.0000 0.0000 0.5748
0.0659 0.0000 0.5713
0.5564 0.0000 0.5564
1.0000 0.0000 0.5254
1.0000 0.0000 0.4731
0.0000 0.0659 0.5713
0.0566 0.0566 0.5678
0.5529 0.0141 0.5529
1.0000 0.0000 0.5217
1.0000 0.0000 0.4692
0.0000 0.5564 0.5564
0.0141 0.5529 0.5529
0.5377 0.5377 0.5377
1.0000 0.5060 0.5060
1.0000 0.4522 0.4522
0.0000 1.0000 0.5254
0.0000 1.0000 0.5217
0.5060 1.0000 0.5060
1.0000 1.0000 0.4729
1.0000 1.0000 0.4161
0.0000 1.0000 0.4731
0.0000 1.0000 0.4692
0.4522 1.0000 0.4522
1.0000 1.0000 0.4161
1.0000 1.0000 0.3536
0.0000 0.0000 1.0000
0.0000 0.0000 1.0000
0.5254 0.0000 1.0000
1.0000 0.0000 1.0000
1.0000 0.0000 1.0000
0.0000 0.0000 1.0000
0.0000 0.0000 1.0000
0.5217 0.0000 1.0000
1.0000 0.0000 1.0000
1.0000 0.0000 1.0000
0.0000 0.5254 1.0000
0.0000 0.5217 1.0000
0.5060 0.5060 1.0000
1.0000 0.4729 1.0000
1.0000 0.4161 1.0000
0.0000 1.0000 1.0000
0.0000 1.0000 1.0000
0.4729 1.0000 1.0000
1.0000 1.0000 1.0000
1.0000 1.0000 1.0000
0.0000 1.0000 1.0000
0.0000 1.0000 1.0000
0.4161 1.0000 1.0000
1.0000 1.0000 1.0000
1.0000 1.0000 0.9779
0.0000 0.0000 1.0000
0.0000 0.0000 1.0000
0.4731 0.0000 1.0000
1.0000 0.0000 1.0000
1.0000 0.0000 1.0000
0.0000 0.0000 1.0000
0.0000 0.0000 1.0000
0.4692 0.0000 1.0000
1.0000 0.0000 1.0000
1.0000 0.0000 1.0000
0.0000 0.4731 1.0000
0.0000 0.4692 1.0000
0.4522 0.4522 1.0000
1.0000 0.4161 1.0000
1.0000 0.3536 1.0000
0.0000 1.0000 1.0000
0.0000 1.0000 1.0000
0.4161 1.0000 1.0000
1.0000 1.0000 1.0000
1.0000 0.9779 1.0000
0.0000 1.0000 1.0000
0.0000 1.0000 1.0000
0.3536 1.0000 1.0000
0.9779 1.0000 1.0000
1.0000 1.0000 1.0000
