assets/luts/LUTs/JD SLOG3 CONVERSION 0.CUBE
TITLE "ColorFinale Export"
# Created by Jeven Dovey on 2023-09-02 23:28:59 +0000
# Color Finale Plugin v.2.6.0 (537)
LUT_3D_SIZE 5
0.0000 0.0000 0.0000
0.1380 0.0000 0.0000
0.6618 0.0000 0.0000
1.0000 0.0000 0.0000
1.0000 0.0000 0.0000
0.0000 0.1380 0.0000
0.1258 0.1258 0.0000
0.6558 0.0708 0.0000
1.0000 0.0000 0.0000
1.0000 0.0000 0.0000
0.0000 0.6618 0.0000
0.0708 0.6558 0.0000
0.6294 0.6294 0.0000
1.0000 0.5720 0.0000
1.0000 0.4676 0.0000
0.0000 1.0000 0.0000
0.0000 1.0000 0.0000
0.5720 1.0000 0.0000
1.0000 1.0000 0.0000
1.0000 1.0000 0.0000
0.0000 1.0000 0.0000
0.0000 1.0000 0.0000
0.4676 1.0000 0.0000
1.0000 1.0000 0.0000
1.0000 1.0000 0.0000
0.0000 0.0000 0.1380
0.1258 0.0000 0.1258
0.6558 0.0000 0.0708
1.0000 0.0000 0.0000
1.0000 0.0000 0.0000
0.0000 0.1258 0.1258
0.1133 0.1133 0.1133
0.6497 0.0574 0.0574
1.0000 0.0000 0.0000
1.0000 0.0000 0.0000
0.0000 0.6558 0.0708
0.0574 0.6497 0.0574
0.6231 0.6231 0.0017
1.0000 0.5651 0.0000
1.0000 0.4595 0.0000
0.0000 1.0000 0.0000
0.0000 1.0000 0.0000
0.5651 1.0000 0.0000
1.0000 1.0000 0.0000
1.0000 1.0000 0.0000
0.0000 1.0000 0.0000
0.0000 1.0000 0.0000
0.4595 1.0000 0.0000
1.0000 1.0000 0.0000
1.0000 1.0000 0.0000
0.0000 0.0000 0.6618
0.0708 0.0000 0.6558
0.6294 0.0000 0.6294
1.0000 0.0000 0.5720
1.0000 0.0000 0.4676
0.0000 0.0708 0.6558
0.0574 0.0574 0.6497
0.6231 0.0017 0.6231
1.0000 0.0000 0.5651
1.0000 0.0000 0.4595
0.0000 0.6294 0.6294
0.0017 0.6231 0.6231
0.5952 0.5952 0.5952
1.0000 0.5343 0.5343
1.0000 0.4243 0.4243
0.0000 1.0000 0.5720
0.0000 1.0000 0.5651
0.5343 1.0000 0.5343
1.0000 1.0000 0.4670
1.0000 1.0000 0.3485
0.0000 1.0000 0.4676
0.0000 1.0000 0.4595
0.4243 1.0000 0.4243
1.0000 1.0000 0.3485
1.0000 1.0000 0.2111
0.0000 0.0000 1.0000
0.0000 0.0000 1.0000
0.5720 0.0000 1.0000
1.0000 0.0000 1.0000
1.0000 0.0000 1.0000
0.0000 0.0000 1.0000
0.0000 0.0000 1.0000
0.5651 0.0000 1.0000
1.0000 0.0000 1.0000
1.0000 0.0000 1.0000
0.0000 0.5720 1.0000
0.0000 0.5651 1.0000
0.5343 0.5343 1.0000
1.0000 0.4670 1.0000
1.0000 0.3485 1.0000
0.0000 1.0000 1.0000
0.0000 1.0000 1.0000
0.4670 1.0000 1.0000
1.0000 1.0000 1.0000
1.0000 1.0000 1.0000
0.0000 1.0000 1.0000
0.0000 1.0000 1.0000
0.3485 1.0000 1.0000
1.0000 1.0000 1.0000
1.0000 1.0000 0.9779
0.0000 0.0000 1.0000
0.0000 0.0000 1.0000
0.4676 0.0000 1.0000
1.0000 0.0000 1.0000
1.0000 0.0000 1.0000
0.0000 0.0000 1.0000
0.0000 0.0000 1.0000
0.4595 0.0000 1.0000
1.0000 0.0000 1.0000
1.0000 0.0000 1.0000
0.0000 0.4676 1.0000
0.0000 0.4595 1.0000
0.4243 0.4243 1.0000
1.0000 0.3485 1.0000
1.0000 0.2111 1.0000
0.0000 1.0000 1.0000
0.0000 1.0000 1.0000
0.3485 1.0000 1.0000
1.0000 1.0000 1.0000
1.0000 0.9779 1.0000
0.0000 1.0000 1.0000
0.0000 1.0000 1.0000
0.2111 1.0000 1.0000
0.9779 1.0000 1.0000
1.0000 1.0000 1.0000
