assets/luts/LUTs/JD SLOG3 CONVERSION +1.CUBE
TITLE "ColorFinale Export"
# Created by Jeven Dovey on 2023-09-02 23:30:57 +0000
# Color Finale Plugin v.2.6.0 (537)
LUT_3D_SIZE 17
0.0000 0.0000 0.0000
0.0000 0.0000 0.0000
0.0000 0.0000 0.0000
0.0050 0.0000 0.0000
0.0637 0.0000 0.0000
0.1816 0.0000 0.0000
0.3550 0.0000 0.0000
0.5492 0.0000 0.0000
0.7080 0.0000 0.0000
0.8406 0.0000 0.0000
0.9426 0.0000 0.0000
0.9982 0.0000 0.0000
1.0000 0.0000 0.0000
1.0000 0.0000 0.0000
1.0000 0.0000 0.0000
1.0000 0.0000 0.0000
1.0000 0.0000 0.0000
0.0000 0.0000 0.0000
0.0000 0.0000 0.0000
0.0000 0.0000 0.0000
0.0048 0.0000 0.0000
0.0633 0.0000 0.0000
0.1811 0.0000 0.0000
0.3545 0.0000 0.0000
0.5489 0.0000 0.0000
0.7078 0.0000 0.0000
0.8404 0.0000 0.0000
0.9425 0.0000 0.0000
0.9982 0.0000 0.0000
1.0000 0.0000 0.0000
1.0000 0.0000 0.0000
1.0000 0.0000 0.0000
1.0000 0.0000 0.0000
1.0000 0.0000 0.0000
0.0000 0.0000 0.0000
0.0000 0.0000 0.0000
0.0000 0.0000 0.0000
0.0041 0.0000 0.0000
0.0618 0.0000 0.0000
0.1793 0.0000 0.0000
0.3525 0.0000 0.0000
0.5475 0.0000 0.0000
0.7068 0.0000 0.0000
0.8398 0.0000 0.0000
0.9421 0.0000 0.0000
0.9981 0.0000 0.0000
1.0000 0.0000 0.0000
1.0000 0.0000 0.0000
1.0000 0.0000 0.0000
1.0000 0.0000 0.0000
1.0000 0.0000 0.0000
0.0000 0.0050 0.0000
0.0000 0.0048 0.0000
0.0000 0.0041 0.0000
0.0029 0.0029 0.0000
0.0586 0.0013 0.0000
0.1754 0.0001 0.0000
0.3485 0.0000 0.0000
0.5446 0.0000 0.0000
0.7049 0.0000 0.0000
0.8384 0.0000 0.0000
0.9413 0.0000 0.0000
0.9979 0.0000 0.0000
1.0000 0.0000 0.0000
1.0000 0.0000 0.0000
1.0000 0.0000 0.0000
1.0000 0.0000 0.0000
1.0000 0.0000 0.0000
0.0000 0.0637 0.0000
0.0000 0.0633 0.0000
0.0000 0.0618 0.0000
0.0013 0.0586 0.0000
0.0537 0.0537 0.0000
0.1694 0.0468 0.0000
0.3420 0.0381 0.0000
0.5400 0.0278 0.0000
0.7017 0.0167 0.0000
0.8362 0.0061 0.0000
0.9400 0.0000 0.0000
0.9976 0.0000 0.0000
1.0000 0.0000 0.0000
1.0000 0.0000 0.0000
1.0000 0.0000 0.0000
1.0000 0.0000 0.0000
1.0000 0.0000 0.0000
0.0000 0.1816 0.0000
0.0000 0.1811 0.0000
0.0000 0.1793 0.0000
0.0001 0.1754 0.0000
0.0468 0.1694 0.0000
0.1608 0.1608 0.0000
0.3328 0.1495 0.0000
0.5334 0.1354 0.0000
0.6971 0.1186 0.0000
0.8330 0.0990 0.0000
0.9381 0.0769 0.0000
0.9971 0.0532 0.0000
1.0000 0.0291 0.0000
1.0000 0.0080 0.0000
1.0000 0.0000 0.0000
1.0000 0.0000 0.0000
1.0000 0.0000 0.0000
0.0000 0.3550 0.0000
0.0000 0.3545 0.0000
0.0000 0.3525 0.0000
0.0000 0.3485 0.0000
0.0381 0.3420 0.0000
0.1495 0.3328 0.0000
0.3206 0.3206 0.0000
0.5244 0.3053 0.0000
0.6909 0.2866 0.0000
0.8288 0.2646 0.0000
0.9355 0.2390 0.0000
0.9965 0.2098 0.0000
1.0000 0.1773 0.0000
1.0000 0.1416 0.0000
1.0000 0.1035 0.0000
1.0000 0.0641 0.0000
1.0000 0.0268 0.0000
0.0000 0.5492 0.0000
0.0000 0.5489 0.0000
0.0000 0.5475 0.0000
0.0000 0.5446 0.0000
0.0278 0.5400 0.0000
0.1354 0.5334 0.0000
0.3053 0.5244 0.0000
0.5128 0.5128 0.0000
0.6831 0.4983 0.0000
0.8233 0.4802 0.0000
0.9321 0.4580 0.0000
0.9955 0.4308 0.0000
1.0000 0.3973 0.0000
1.0000 0.3586 0.0000
1.0000 0.3158 0.0000
1.0000 0.2689 0.0000
1.0000 0.2183 0.0000
0.0000 0.7080 0.0000
0.0000 0.7078 0.0000
0.0000 0.7068 0.0000
0.0000 0.7049 0.0000
0.0167 0.7017 0.0000
0.1186 0.6971 0.0000
0.2866 0.6909 0.0000
0.4983 0.6831 0.0000
0.6732 0.6732 0.0000
0.8165 0.6612 0.0000
0.9279 0.6468 0.0000
0.9942 0.6295 0.0000
1.0000 0.6091 0.0000
1.0000 0.5849 0.0000
1.0000 0.5564 0.0000
1.0000 0.5225 0.0000
1.0000 0.4819 0.0000
0.0000 0.8406 0.0000
0.0000 0.8404 0.0000
0.0000 0.8398 0.0000
0.0000 0.8384 0.0000
0.0061 0.8362 0.0000
0.0990 0.8330 0.0000
0.2646 0.8288 0.0000
0.4802 0.8233 0.0000
0.6612 0.8165 0.0000
0.8083 0.8083 0.0000
0.9228 0.7983 0.0000
0.9925 0.7865 0.0000
1.0000 0.7727 0.0000
1.0000 0.7564 0.0000
1.0000 0.7375 0.0000
1.0000 0.7154 0.0000
1.0000 0.6898 0.0000
0.0000 0.9426 0.0000
0.0000 0.9425 0.0000
0.0000 0.9421 0.0000
0.0000 0.9413 0.0000
0.0000 0.9400 0.0000
0.0769 0.9381 0.0000
0.2390 0.9355 0.0000
0.4580 0.9321 0.0000
0.6468 0.9279 0.0000
0.7983 0.9228 0.0000
0.9165 0.9165 0.0000
0.9902 0.9091 0.0000
1.0000 0.9002 0.0000
1.0000 0.8898 0.0000
1.0000 0.8776 0.0000
1.0000 0.8633 0.0000
1.0000 0.8466 0.0000
0.0000 0.9982 0.0000
0.0000 0.9982 0.0000
0.0000 0.9981 0.0000
0.0000 0.9979 0.0000
0.0000 0.9976 0.0000
0.0532 0.9971 0.0000
0.2098 0.9965 0.0000
0.4308 0.9955 0.0000
0.6295 0.9942 0.0000
0.7865 0.9925 0.0000
0.9091 0.9902 0.0000
0.9873 0.9873 0.0000
1.0000 0.9835 0.0000
1.0000 0.9788 0.0000
1.0000 0.9730 0.0000
1.0000 0.9658 0.0000
1.0000 0.9570 0.0000
0.0000 1.0000 0.0000
0.0000 1.0000 0.0000
0.0000 1.0000 0.0000
0.0000 1.0000 0.0000
0.0000 1.0000 0.0000
0.0291 1.0000 0.0000
0.1773 1.0000 0.0000
0.3973 1.0000 0.0000
0.6091 1.0000 0.0000
0.7727 1.0000 0.0000
0.9002 1.0000 0.0000
0.9835 1.0000 0.0000
1.0000 1.0000 0.0000
1.0000 1.0000 0.0000
1.0000 1.0000 0.0000
1.0000 1.0000 0.0000
1.0000 1.0000 0.0000
0.0000 1.0000 0.0000
0.0000 1.0000 0.0000
0.0000 1.0000 0.0000
0.0000 1.0000 0.0000
0.0000 1.0000 0.0000
0.0080 1.0000 0.0000
0.1416 1.0000 0.0000
0.3586 1.0000 0.0000
0.5849 1.0000 0.0000
0.7564 1.0000 0.0000
0.8898 1.0000 0.0000
0.9788 1.0000 0.0000
1.0000 1.0000 0.0000
1.0000 1.0000 0.0000
1.0000 1.0000 0.0000
1.0000 1.0000 0.0000
1.0000 1.0000 0.0000
0.0000 1.0000 0.0000
0.0000 1.0000 0.0000
0.0000 1.0000 0.0000
0.0000 1.0000 0.0000
0.0000 1.0000 0.0000
0.0000 1.0000 0.0000
0.1035 1.0000 0.0000
0.3158 1.0000 0.0000
0.5564 1.0000 0.0000
0.7375 1.0000 0.0000
0.8776 1.0000 0.0000
0.9730 1.0000 0.0000
1.0000 1.0000 0.0000
1.0000 1.0000 0.0000
1.0000 1.0000 0.0000
1.0000 1.0000 0.0000
1.0000 1.0000 0.0000
0.0000 1.0000 0.0000
0.0000 1.0000 0.0000
0.0000 1.0000 0.0000
0.0000 1.0000 0.0000
0.0000 1.0000 0.0000
0.0000 1.0000 0.0000
0.0641 1.0000 0.0000
0.2689 1.0000 0.0000
0.5225 1.0000 0.0000
0.7154 1.0000 0.0000
0.8633 1.0000 0.0000
0.9658 1.0000 0.0000
1.0000 1.0000 0.0000
1.0000 1.0000 0.0000
1.0000 1.0000 0.0000
1.0000 1.0000 0.0000
1.0000 1.0000 0.0000
0.0000 1.0000 0.0000
0.0000 1.0000 0.0000
0.0000 1.0000 0.0000
0.0000 1.0000 0.0000
0.0000 1.0000 0.0000
0.0000 1.0000 0.0000
0.0268 1.0000 0.0000
0.2183 1.0000 0.0000
0.4819 1.0000 0.0000
0.6898 1.0000 0.0000
0.8466 1.0000 0.0000
0.9570 1.0000 0.0000
1.0000 1.0000 0.0000
1.0000 1.0000 0.0000
1.0000 1.0000 0.0000
1.0000 1.0000 0.0000
1.0000 1.0000 0.0000
0.0000 0.0000 0.0000
0.0000 0.0000 0.0000
0.0000 0.0000 0.0000
0.0048 0.0000 0.0000
0.0633 0.0000 0.0000
0.1811 0.0000 0.0000
0.3545 0.0000 0.0000
0.5489 0.0000 0.0000
0.7078 0.0000 0.0000
0.8404 0.0000 0.0000
0.9425 0.0000 0.0000
0.9982 0.0000 0.0000
1.0000 0.0000 0.0000
1.0000 0.0000 0.0000
1.0000 0.0000 0.0000
1.0000 0.0000 0.0000
1.0000 0.0000 0.0000
0.0000 0.0000 0.0000
0.0000 0.0000 0.0000
0.0000 0.0000 0.0000
0.0047 0.0000 0.0000
0.0630 0.0000 0.0000
0.1807 0.0000 0.0000
0.3541 0.0000 0.0000
0.5485 0.0000 0.0000
0.7076 0.0000 0.0000
0.8403 0.0000 0.0000
0.9425 0.0000 0.0000
0.9982 0.0000 0.0000
1.0000 0.0000 0.0000
1.0000 0.0000 0.0000
1.0000 0.0000 0.0000
1.0000 0.0000 0.0000
1.0000 0.0000 0.0000
0.0000 0.0000 0.0000
0.0000 0.0000 0.0000
0.0000 0.0000 0.0000
0.0040 0.0000 0.0000
0.0614 0.0000 0.0000
0.1788 0.0000 0.0000
0.3521 0.0000 0.0000
0.5471 0.0000 0.0000
0.7066 0.0000 0.0000
0.8396 0.0000 0.0000
0.9420 0.0000 0.0000
0.9981 0.0000 0.0000
1.0000 0.0000 0.0000
1.0000 0.0000 0.0000
1.0000 0.0000 0.0000
1.0000 0.0000 0.0000
1.0000 0.0000 0.0000
0.0000 0.0048 0.0000
0.0000 0.0047 0.0000
0.0000 0.0040 0.0000
0.0028 0.0028 0.0000
0.0582 0.0012 0.0000
0.1750 0.0000 0.0000
0.3480 0.0000 0.0000
0.5443 0.0000 0.0000
0.7046 0.0000 0.0000
0.8382 0.0000 0.0000
0.9412 0.0000 0.0000
0.9979 0.0000 0.0000
1.0000 0.0000 0.0000
1.0000 0.0000 0.0000
1.0000 0.0000 0.0000
1.0000 0.0000 0.0000
1.0000 0.0000 0.0000
0.0000 0.0633 0.0000
0.0000 0.0630 0.0000
0.0000 0.0614 0.0000
0.0012 0.0582 0.0000
0.0533 0.0533 0.0000
0.1689 0.0465 0.0000
0.3415 0.0378 0.0000
0.5397 0.0275 0.0000
0.7014 0.0164 0.0000
0.8360 0.0060 0.0000
0.9399 0.0000 0.0000
0.9976 0.0000 0.0000
1.0000 0.0000 0.0000
1.0000 0.0000 0.0000
1.0000 0.0000 0.0000
1.0000 0.0000 0.0000
1.0000 0.0000 0.0000
0.0000 0.1811 0.0000
0.0000 0.1807 0.0000
0.0000 0.1788 0.0000
0.0000 0.1750 0.0000
0.0465 0.1689 0.0000
0.1603 0.1603 0.0000
0.3323 0.1491 0.0000
0.5330 0.1350 0.0000
0.6969 0.1182 0.0000
0.8329 0.0986 0.0000
0.9380 0.0766 0.0000
0.9971 0.0528 0.0000
1.0000 0.0288 0.0000
1.0000 0.0078 0.0000
1.0000 0.0000 0.0000
1.0000 0.0000 0.0000
1.0000 0.0000 0.0000
0.0000 0.3545 0.0000
0.0000 0.3541 0.0000
0.0000 0.3521 0.0000
0.0000 0.3480 0.0000
0.0378 0.3415 0.0000
0.1491 0.3323 0.0000
0.3201 0.3201 0.0000
0.5241 0.3048 0.0000
0.6907 0.2862 0.0000
0.8286 0.2641 0.0000
0.9354 0.2385 0.0000
0.9964 0.2094 0.0000
1.0000 0.1769 0.0000
1.0000 0.1412 0.0000
1.0000 0.1031 0.0000
1.0000 0.0638 0.0000
1.0000 0.0265 0.0000
0.0000 0.5489 0.0000
0.0000 0.5485 0.0000
0.0000 0.5471 0.0000
0.0000 0.5443 0.0000
0.0275 0.5397 0.0000
0.1350 0.5330 0.0000
0.3048 0.5241 0.0000
0.5125 0.5125 0.0000
0.6828 0.4979 0.0000
0.8232 0.4798 0.0000
0.9320 0.4576 0.0000
0.9955 0.4303 0.0000
1.0000 0.3968 0.0000
1.0000 0.3581 0.0000
1.0000 0.3153 0.0000
1.0000 0.2685 0.0000
1.0000 0.2179 0.0000
0.0000 0.7078 0.0000
0.0000 0.7076 0.0000
0.0000 0.7066 0.0000
0.0000 0.7046 0.0000
0.0164 0.7014 0.0000
0.1182 0.6969 0.0000
0.2862 0.6907 0.0000
0.4979 0.6828 0.0000
0.6730 0.6730 0.0000
0.8164 0.6610 0.0000
0.9278 0.6465 0.0000
0.9942 0.6292 0.0000
1.0000 0.6088 0.0000
1.0000 0.5846 0.0000
1.0000 0.5560 0.0000
1.0000 0.5221 0.0000
1.0000 0.4815 0.0000
0.0000 0.8404 0.0000
0.0000 0.8403 0.0000
0.0000 0.8396 0.0000
0.0000 0.8382 0.0000
0.0060 0.8360 0.0000
0.0986 0.8329 0.0000
0.2641 0.8286 0.0000
0.4798 0.8232 0.0000
0.6610 0.8164 0.0000
0.8081 0.8081 0.0000
0.9227 0.7982 0.0000
0.9924 0.7864 0.0000
1.0000 0.7725 0.0000
1.0000 0.7562 0.0000
1.0000 0.7373 0.0000
1.0000 0.7152 0.0000
1.0000 0.6896 0.0000
0.0000 0.9425 0.0000
0.0000 0.9425 0.0000
0.0000 0.9420 0.0000
0.0000 0.9412 0.0000
0.0000 0.9399 0.0000
0.0766 0.9380 0.0000
0.2385 0.9354 0.0000
0.4576 0.9320 0.0000
0.6465 0.9278 0.0000
0.7982 0.9227 0.0000
0.9164 0.9164 0.0000
0.9902 0.9090 0.0000
1.0000 0.9001 0.0000
1.0000 0.8897 0.0000
1.0000 0.8774 0.0000
1.0000 0.8631 0.0000
1.0000 0.8465 0.0000
0.0000 0.9982 0.0000
0.0000 0.9982 0.0000
0.0000 0.9981 0.0000
0.0000 0.9979 0.0000
0.0000 0.9976 0.0000
0.0528 0.9971 0.0000
0.2094 0.9964 0.0000
0.4303 0.9955 0.0000
0.6292 0.9942 0.0000
0.7864 0.9924 0.0000
0.9090 0.9902 0.0000
0.9872 0.9872 0.0000
1.0000 0.9835 0.0000
1.0000 0.9788 0.0000
1.0000 0.9729 0.0000
1.0000 0.9657 0.0000
1.0000 0.9569 0.0000
0.0000 1.0000 0.0000
0.0000 1.0000 0.0000
0.0000 1.0000 0.0000
0.0000 1.0000 0.0000
0.0000 1.0000 0.0000
0.0288 1.0000 0.0000
0.1769 1.0000 0.0000
0.3968 1.0000 0.0000
0.6088 1.0000 0.0000
0.7725 1.0000 0.0000
0.9001 1.0000 0.0000
0.9835 1.0000 0.0000
1.0000 1.0000 0.0000
1.0000 1.0000 0.0000
1.0000 1.0000 0.0000
1.0000 1.0000 0.0000
1.0000 1.0000 0.0000
0.0000 1.0000 0.0000
0.0000 1.0000 0.0000
0.0000 1.0000 0.0000
0.0000 1.0000 0.0000
0.0000 1.0000 0.0000
0.0078 1.0000 0.0000
0.1412 1.0000 0.0000
0.3581 1.0000 0.0000
0.5846 1.0000 0.0000
0.7562 1.0000 0.0000
0.8897 1.0000 0.0000
0.9788 1.0000 0.0000
1.0000 1.0000 0.0000
1.0000 1.0000 0.0000
1.0000 1.0000 0.0000
1.0000 1.0000 0.0000
1.0000 1.0000 0.0000
0.0000 1.0000 0.0000
0.0000 1.0000 0.0000
0.0000 1.0000 0.0000
0.0000 1.0000 0.0000
0.0000 1.0000 0.0000
0.0000 1.0000 0.0000
0.1031 1.0000 0.0000
0.3153 1.0000 0.0000
0.5560 1.0000 0.0000
0.7373 1.0000 0.0000
0.8774 1.0000 0.0000
0.9729 1.0000 0.0000
1.0000 1.0000 0.0000
1.0000 1.0000 0.0000
1.0000 1.0000 0.0000
1.0000 1.0000 0.0000
1.0000 1.0000 0.0000
0.0000 1.0000 0.0000
0.0000 1.0000 0.0000
0.0000 1.0000 0.0000
0.0000 1.0000 0.0000
0.0000 1.0000 0.0000
0.0000 1.0000 0.0000
0.0638 1.0000 0.0000
0.2685 1.0000 0.0000
0.5221 1.0000 0.0000
0.7152 1.0000 0.0000
0.8631 1.0000 0.0000
0.9657 1.0000 0.0000
1.0000 1.0000 0.0000
1.0000 1.0000 0.0000
1.0000 1.0000 0.0000
1.0000 1.0000 0.0000
1.0000 1.0000 0.0000
0.0000 1.0000 0.0000
0.0000 1.0000 0.0000
0.0000 1.0000 0.0000
0.0000 1.0000 0.0000
0.0000 1.0000 0.0000
0.0000 1.0000 0.0000
0.0265 1.0000 0.0000
0.2179 1.0000 0.0000
0.4815 1.0000 0.0000
0.6896 1.0000 0.0000
0.8465 1.0000 0.0000
0.9569 1.0000 0.0000
1.0000 1.0000 0.0000
1.0000 1.0000 0.0000
1.0000 1.0000 0.0000
1.0000 1.0000 0.0000
1.0000 1.0000 0.0000
0.0000 0.0000 0.0000
0.0000 0.0000 0.0000
0.0000 0.0000 0.0000
0.0041 0.0000 0.0000
0.0618 0.0000 0.0000
0.1793 0.0000 0.0000
0.3525 0.0000 0.0000
0.5475 0.0000 0.0000
0.7068 0.0000 0.0000
0.8398 0.0000 0.0000
0.9421 0.0000 0.0000
0.9981 0.0000 0.0000
1.0000 0.0000 0.0000
1.0000 0.0000 0.0000
1.0000 0.0000 0.0000
1.0000 0.0000 0.0000
1.0000 0.0000 0.0000
0.0000 0.0000 0.0000
0.0000 0.0000 0.0000
0.0000 0.0000 0.0000
0.0040 0.0000 0.0000
0.0614 0.0000 0.0000
0.1788 0.0000 0.0000
0.3521 0.0000 0.0000
0.5471 0.0000 0.0000
0.7066 0.0000 0.0000
0.8396 0.0000 0.0000
0.9420 0.0000 0.0000
0.9981 0.0000 0.0000
1.0000 0.0000 0.0000
1.0000 0.0000 0.0000
1.0000 0.0000 0.0000
1.0000 0.0000 0.0000
1.0000 0.0000 0.0000
0.0000 0.0000 0.0000
0.0000 0.0000 0.0000
0.0000 0.0000 0.0000
0.0034 0.0000 0.0000
0.0598 0.0000 0.0000
0.1769 0.0000 0.0000
0.3501 0.0000 0.0000
0.5457 0.0000 0.0000
0.7056 0.0000 0.0000
0.8389 0.0000 0.0000
0.9416 0.0000 0.0000
0.9980 0.0000 0.0000
1.0000 0.0000 0.0000
1.0000 0.0000 0.0000
1.0000 0.0000 0.0000
1.0000 0.0000 0.0000
1.0000 0.0000 0.0000
0.0000 0.0041 0.0000
0.0000 0.0040 0.0000
0.0000 0.0034 0.0000
0.0022 0.0022 0.0000
0.0567 0.0008 0.0000
0.1731 0.0000 0.0000
0.3460 0.0000 0.0000
0.5429 0.0000 0.0000
0.7036 0.0000 0.0000
0.8376 0.0000 0.0000
0.9408 0.0000 0.0000
0.9978 0.0000 0.0000
1.0000 0.0000 0.0000
1.0000 0.0000 0.0000
1.0000 0.0000 0.0000
1.0000 0.0000 0.0000
1.0000 0.0000 0.0000
0.0000 0.0618 0.0000
0.0000 0.0614 0.0000
0.0000 0.0598 0.0000
0.0008 0.0567 0.0000
0.0518 0.0518 0.0000
0.1671 0.0450 0.0000
0.3395 0.0364 0.0000
0.5382 0.0263 0.0000
0.7004 0.0153 0.0000
0.8353 0.0052 0.0000
0.9395 0.0000 0.0000
0.9975 0.0000 0.0000
1.0000 0.0000 0.0000
1.0000 0.0000 0.0000
1.0000 0.0000 0.0000
1.0000 0.0000 0.0000
1.0000 0.0000 0.0000
0.0000 0.1793 0.0000
0.0000 0.1788 0.0000
0.0000 0.1769 0.0000
0.0000 0.1731 0.0000
0.0450 0.1671 0.0000
0.1585 0.1585 0.0000
0.3303 0.1472 0.0000
0.5316 0.1332 0.0000
0.6959 0.1164 0.0000
0.8322 0.0969 0.0000
0.9375 0.0749 0.0000
0.9970 0.0513 0.0000
1.0000 0.0275 0.0000
1.0000 0.0070 0.0000
1.0000 0.0000 0.0000
1.0000 0.0000 0.0000
1.0000 0.0000 0.0000
0.0000 0.3525 0.0000
0.0000 0.3521 0.0000
0.0000 0.3501 0.0000
0.0000 0.3460 0.0000
0.0364 0.3395 0.0000
0.1472 0.3303 0.0000
0.3181 0.3181 0.0000
0.5226 0.3028 0.0000
0.6897 0.2842 0.0000
0.8279 0.2621 0.0000
0.9349 0.2366 0.0000
0.9963 0.2075 0.0000
1.0000 0.1750 0.0000
1.0000 0.1394 0.0000
1.0000 0.1013 0.0000
1.0000 0.0622 0.0000
1.0000 0.0253 0.0000
0.0000 0.5475 0.0000
0.0000 0.5471 0.0000
0.0000 0.5457 0.0000
0.0000 0.5429 0.0000
0.0263 0.5382 0.0000
0.1332 0.5316 0.0000
0.3028 0.5226 0.0000
0.5110 0.5110 0.0000
0.6818 0.4963 0.0000
0.8224 0.4781 0.0000
0.9316 0.4558 0.0000
0.9953 0.4285 0.0000
1.0000 0.3948 0.0000
1.0000 0.3561 0.0000
1.0000 0.3133 0.0000
1.0000 0.2665 0.0000
1.0000 0.2159 0.0000
0.0000 0.7068 0.0000
0.0000 0.7066 0.0000
0.0000 0.7056 0.0000
0.0000 0.7036 0.0000
0.0153 0.7004 0.0000
0.1164 0.6959 0.0000
0.2842 0.6897 0.0000
0.4963 0.6818 0.0000
0.6719 0.6719 0.0000
0.8156 0.6599 0.0000
0.9274 0.6454 0.0000
0.9940 0.6281 0.0000
1.0000 0.6076 0.0000
1.0000 0.5833 0.0000
1.0000 0.5547 0.0000
1.0000 0.5206 0.0000
1.0000 0.4798 0.0000
0.0000 0.8398 0.0000
0.0000 0.8396 0.0000
0.0000 0.8389 0.0000
0.0000 0.8376 0.0000
0.0052 0.8353 0.0000
0.0969 0.8322 0.0000
0.2621 0.8279 0.0000
0.4781 0.8224 0.0000
0.6599 0.8156 0.0000
0.8073 0.8073 0.0000
0.9222 0.7974 0.0000
0.9923 0.7856 0.0000
1.0000 0.7716 0.0000
1.0000 0.7553 0.0000
1.0000 0.7363 0.0000
1.0000 0.7142 0.0000
1.0000 0.6885 0.0000
0.0000 0.9421 0.0000
0.0000 0.9420 0.0000
0.0000 0.9416 0.0000
0.0000 0.9408 0.0000
0.0000 0.9395 0.0000
0.0749 0.9375 0.0000
0.2366 0.9349 0.0000
0.4558 0.9316 0.0000
0.6454 0.9274 0.0000
0.7974 0.9222 0.0000
0.9159 0.9159 0.0000
0.9900 0.9085 0.0000
1.0000 0.8996 0.0000
1.0000 0.8891 0.0000
1.0000 0.8768 0.0000
1.0000 0.8625 0.0000
1.0000 0.8458 0.0000
0.0000 0.9981 0.0000
0.0000 0.9981 0.0000
0.0000 0.9980 0.0000
0.0000 0.9978 0.0000
0.0000 0.9975 0.0000
0.0513 0.9970 0.0000
0.2075 0.9963 0.0000
0.4285 0.9953 0.0000
0.6281 0.9940 0.0000
0.7856 0.9923 0.0000
0.9085 0.9900 0.0000
0.9870 0.9870 0.0000
1.0000 0.9832 0.0000
1.0000 0.9785 0.0000
1.0000 0.9726 0.0000
1.0000 0.9654 0.0000
1.0000 0.9565 0.0000
0.0000 1.0000 0.0000
0.0000 1.0000 0.0000
0.0000 1.0000 0.0000
0.0000 1.0000 0.0000
0.0000 1.0000 0.0000
0.0275 1.0000 0.0000
0.1750 1.0000 0.0000
0.3948 1.0000 0.0000
0.6076 1.0000 0.0000
0.7716 1.0000 0.0000
0.8996 1.0000 0.0000
0.9832 1.0000 0.0000
1.0000 1.0000 0.0000
1.0000 1.0000 0.0000
1.0000 1.0000 0.0000
1.0000 1.0000 0.0000
1.0000 1.0000 0.0000
0.0000 1.0000 0.0000
0.0000 1.0000 0.0000
0.0000 1.0000 0.0000
0.0000 1.0000 0.0000
0.0000 1.0000 0.0000
0.0070 1.0000 0.0000
0.1394 1.0000 0.0000
0.3561 1.0000 0.0000
0.5833 1.0000 0.0000
0.7553 1.0000 0.0000
0.8891 1.0000 0.0000
0.9785 1.0000 0.0000
1.0000 1.0000 0.0000
1.0000 1.0000 0.0000
1.0000 1.0000 0.0000
1.0000 1.0000 0.0000
1.0000 1.0000 0.0000
0.0000 1.0000 0.0000
0.0000 1.0000 0.0000
0.0000 1.0000 0.0000
0.0000 1.0000 0.0000
0.0000 1.0000 0.0000
0.0000 1.0000 0.0000
0.1013 1.0000 0.0000
0.3133 1.0000 0.0000
0.5547 1.0000 0.0000
0.7363 1.0000 0.0000
0.8768 1.0000 0.0000
0.9726 1.0000 0.0000
1.0000 1.0000 0.0000
1.0000 1.0000 0.0000
1.0000 1.0000 0.0000
1.0000 1.0000 0.0000
1.0000 1.0000 0.0000
0.0000 1.0000 0.0000
0.0000 1.0000 0.0000
0.0000 1.0000 0.0000
0.0000 1.0000 0.0000
0.0000 1.0000 0.0000
0.0000 1.0000 0.0000
0.0622 1.0000 0.0000
0.2665 1.0000 0.0000
0.5206 1.0000 0.0000
0.7142 1.0000 0.0000
0.8625 1.0000 0.0000
0.9654 1.0000 0.0000
1.0000 1.0000 0.0000
1.0000 1.0000 0.0000
1.0000 1.0000 0.0000
1.0000 1.0000 0.0000
1.0000 1.0000 0.0000
0.0000 1.0000 0.0000
0.0000 1.0000 0.0000
0.0000 1.0000 0.0000
0.0000 1.0000 0.0000
0.0000 1.0000 0.0000
0.0000 1.0000 0.0000
0.0253 1.0000 0.0000
0.2159 1.0000 0.0000
0.4798 1.0000 0.0000
0.6885 1.0000 0.0000
0.8458 1.0000 0.0000
0.9565 1.0000 0.0000
1.0000 1.0000 0.0000
1.0000 1.0000 0.0000
1.0000 1.0000 0.0000
1.0000 1.0000 0.0000
1.0000 1.0000 0.0000
0.0000 0.0000 0.0050
0.0000 0.0000 0.0048
0.0000 0.0000 0.0041
0.0029 0.0000 0.0029
0.0586 0.0000 0.0013
0.1754 0.0000 0.0001
0.3485 0.0000 0.0000
0.5446 0.0000 0.0000
0.7049 0.0000 0.0000
0.8384 0.0000 0.0000
0.9413 0.0000 0.0000
0.9979 0.0000 0.0000
1.0000 0.0000 0.0000
1.0000 0.0000 0.0000
1.0000 0.0000 0.0000
1.0000 0.0000 0.0000
1.0000 0.0000 0.0000
0.0000 0.0000 0.0048
0.0000 0.0000 0.0047
0.0000 0.0000 0.0040
0.0028 0.0000 0.0028
0.0582 0.0000 0.0012
0.1750 0.0000 0.0000
0.3480 0.0000 0.0000
0.5443 0.0000 0.0000
0.7046 0.0000 0.0000
0.8382 0.0000 0.0000
0.9412 0.0000 0.0000
0.9979 0.0000 0.0000
1.0000 0.0000 0.0000
1.0000 0.0000 0.0000
1.0000 0.0000 0.0000
1.0000 0.0000 0.0000
