assets/luts/LUTs/JD SLOG3 CONVERSION -1.CUBE
TITLE "ColorFinale Export"
# Created by Jeven Dovey on 2023-09-02 23:31:08 +0000
# Color Finale Plugin v.2.6.0 (537)
LUT_3D_SIZE 17
0.0000 0.0000 0.0000
0.0000 0.0000 0.0000
0.0000 0.0000 0.0000
0.0076 0.0000 0.0000
0.1113 0.0000 0.0000
0.2227 0.0000 0.0000
0.3376 0.0000 0.0000
0.4549 0.0000 0.0000
0.5748 0.0000 0.0000
0.6998 0.0000 0.0000
0.8303 0.0000 0.0000
0.9690 0.0000 0.0000
1.0000 0.0000 0.0000
1.0000 0.0000 0.0000
1.0000 0.0000 0.0000
1.0000 0.0000 0.0000
1.0000 0.0000 0.0000
0.0000 0.0000 0.0000
0.0000 0.0000 0.0000
0.0000 0.0000 0.0000
0.0072 0.0000 0.0000
0.1110 0.0000 0.0000
0.2224 0.0000 0.0000
0.3374 0.0000 0.0000
0.4548 0.0000 0.0000
0.5746 0.0000 0.0000
0.6997 0.0000 0.0000
0.8302 0.0000 0.0000
0.9689 0.0000 0.0000
1.0000 0.0000 0.0000
1.0000 0.0000 0.0000
1.0000 0.0000 0.0000
1.0000 0.0000 0.0000
1.0000 0.0000 0.0000
0.0000 0.0000 0.0000
0.0000 0.0000 0.0000
0.0000 0.0000 0.0000
0.0056 0.0000 0.0000
0.1098 0.0000 0.0000
0.2215 0.0000 0.0000
0.3367 0.0000 0.0000
0.4542 0.0000 0.0000
0.5741 0.0000 0.0000
0.6992 0.0000 0.0000
0.8298 0.0000 0.0000
0.9685 0.0000 0.0000
1.0000 0.0000 0.0000
1.0000 0.0000 0.0000
1.0000 0.0000 0.0000
1.0000 0.0000 0.0000
1.0000 0.0000 0.0000
0.0000 0.0076 0.0000
0.0000 0.0072 0.0000
0.0000 0.0056 0.0000
0.0025 0.0025 0.0000
0.1072 0.0000 0.0000
0.2196 0.0000 0.0000
0.3351 0.0000 0.0000
0.4529 0.0000 0.0000
0.5730 0.0000 0.0000
0.6983 0.0000 0.0000
0.8290 0.0000 0.0000
0.9676 0.0000 0.0000
1.0000 0.0000 0.0000
1.0000 0.0000 0.0000
1.0000 0.0000 0.0000
1.0000 0.0000 0.0000
1.0000 0.0000 0.0000
0.0000 0.1113 0.0000
0.0000 0.1110 0.0000
0.0000 0.1098 0.0000
0.0000 0.1072 0.0000
0.1031 0.1031 0.0000
0.2165 0.0972 0.0000
0.3327 0.0892 0.0000
0.4509 0.0789 0.0000
0.5713 0.0659 0.0000
0.6968 0.0497 0.0000
0.8276 0.0299 0.0000
0.9663 0.0060 0.0000
1.0000 0.0000 0.0000
1.0000 0.0000 0.0000
1.0000 0.0000 0.0000
1.0000 0.0000 0.0000
1.0000 0.0000 0.0000
0.0000 0.2227 0.0000
0.0000 0.2224 0.0000
0.0000 0.2215 0.0000
0.0000 0.2196 0.0000
0.0972 0.2165 0.0000
0.2120 0.2120 0.0000
0.3292 0.2060 0.0000
0.4480 0.1984 0.0000
0.5689 0.1889 0.0000
0.6946 0.1772 0.0000
0.8256 0.1632 0.0000
0.9644 0.1465 0.0000
1.0000 0.1265 0.0000
1.0000 0.1028 0.0000
1.0000 0.0745 0.0000
1.0000 0.0403 0.0000
1.0000 0.0000 0.0000
0.0000 0.3376 0.0000
0.0000 0.3374 0.0000
0.0000 0.3367 0.0000
0.0000 0.3351 0.0000
0.0892 0.3327 0.0000
0.2060 0.3292 0.0000
0.3245 0.3245 0.0000
0.4442 0.3185 0.0000
0.5656 0.3111 0.0000
0.6917 0.3022 0.0000
0.8230 0.2915 0.0000
0.9620 0.2790 0.0000
1.0000 0.2643 0.0000
1.0000 0.2473 0.0000
1.0000 0.2277 0.0000
1.0000 0.2049 0.0000
1.0000 0.1785 0.0000
0.0000 0.4549 0.0000
0.0000 0.4548 0.0000
0.0000 0.4542 0.0000
0.0000 0.4529 0.0000
0.0789 0.4509 0.0000
0.1984 0.4480 0.0000
0.3185 0.4442 0.0000
0.4393 0.4393 0.0000
0.5615 0.4334 0.0000
0.6881 0.4262 0.0000
0.8198 0.4176 0.0000
0.9588 0.4077 0.0000
1.0000 0.3961 0.0000
1.0000 0.3829 0.0000
1.0000 0.3678 0.0000
1.0000 0.3507 0.0000
1.0000 0.3313 0.0000
0.0000 0.5748 0.0000
0.0000 0.5746 0.0000
0.0000 0.5741 0.0000
0.0000 0.5730 0.0000
0.0659 0.5713 0.0000
0.1889 0.5689 0.0000
0.3111 0.5656 0.0000
0.4334 0.5615 0.0000
0.5564 0.5564 0.0000
0.6836 0.5503 0.0000
0.8157 0.5432 0.0000
0.9550 0.5349 0.0000
1.0000 0.5254 0.0000
1.0000 0.5145 0.0000
1.0000 0.5023 0.0000
1.0000 0.4886 0.0000
1.0000 0.4731 0.0000
0.0000 0.6998 0.0000
0.0000 0.6997 0.0000
0.0000 0.6992 0.0000
0.0000 0.6983 0.0000
0.0497 0.6968 0.0000
0.1772 0.6946 0.0000
0.3022 0.6917 0.0000
0.4262 0.6881 0.0000
0.5503 0.6836 0.0000
0.6783 0.6783 0.0000
0.8109 0.6720 0.0000
0.9505 0.6647 0.0000
1.0000 0.6564 0.0000
1.0000 0.6470 0.0000
1.0000 0.6364 0.0000
1.0000 0.6245 0.0000
1.0000 0.6113 0.0000
0.0000 0.8303 0.0000
0.0000 0.8302 0.0000
0.0000 0.8298 0.0000
0.0000 0.8290 0.0000
0.0299 0.8276 0.0000
0.1632 0.8256 0.0000
0.2915 0.8230 0.0000
0.4176 0.8198 0.0000
0.5432 0.8157 0.0000
0.6720 0.8109 0.0000
0.8053 0.8053 0.0000
0.9452 0.7988 0.0000
1.0000 0.7914 0.0000
1.0000 0.7830 0.0000
1.0000 0.7736 0.0000
1.0000 0.7631 0.0000
1.0000 0.7515 0.0000
0.0000 0.9690 0.0000
0.0000 0.9689 0.0000
0.0000 0.9685 0.0000
0.0000 0.9676 0.0000
0.0060 0.9663 0.0000
0.1465 0.9644 0.0000
0.2790 0.9620 0.0000
0.4077 0.9588 0.0000
0.5349 0.9550 0.0000
0.6647 0.9505 0.0000
0.7988 0.9452 0.0000
0.9391 0.9391 0.0000
1.0000 0.9322 0.0000
1.0000 0.9244 0.0000
1.0000 0.9157 0.0000
1.0000 0.9061 0.0000
1.0000 0.8955 0.0000
0.0000 1.0000 0.0000
0.0000 1.0000 0.0000
0.0000 1.0000 0.0000
0.0000 1.0000 0.0000
0.0000 1.0000 0.0000
0.1265 1.0000 0.0000
0.2643 1.0000 0.0000
0.3961 1.0000 0.0000
0.5254 1.0000 0.0000
0.6564 1.0000 0.0000
0.7914 1.0000 0.0000
0.9322 1.0000 0.0000
1.0000 1.0000 0.0000
1.0000 1.0000 0.0000
1.0000 1.0000 0.0000
1.0000 1.0000 0.0000
1.0000 1.0000 0.0000
0.0000 1.0000 0.0000
0.0000 1.0000 0.0000
0.0000 1.0000 0.0000
0.0000 1.0000 0.0000
0.0000 1.0000 0.0000
0.1028 1.0000 0.0000
0.2473 1.0000 0.0000
0.3829 1.0000 0.0000
0.5145 1.0000 0.0000
0.6470 1.0000 0.0000
0.7830 1.0000 0.0000
0.9244 1.0000 0.0000
1.0000 1.0000 0.0000
1.0000 1.0000 0.0000
1.0000 1.0000 0.0000
1.0000 1.0000 0.0000
1.0000 1.0000 0.0000
0.0000 1.0000 0.0000
0.0000 1.0000 0.0000
0.0000 1.0000 0.0000
0.0000 1.0000 0.0000
0.0000 1.0000 0.0000
0.0745 1.0000 0.0000
0.2277 1.0000 0.0000
0.3678 1.0000 0.0000
0.5023 1.0000 0.0000
0.6364 1.0000 0.0000
0.7736 1.0000 0.0000
0.9157 1.0000 0.0000
1.0000 1.0000 0.0000
1.0000 1.0000 0.0000
1.0000 1.0000 0.0000
1.0000 1.0000 0.0000
1.0000 1.0000 0.0000
0.0000 1.0000 0.0000
0.0000 1.0000 0.0000
0.0000 1.0000 0.0000
0.0000 1.0000 0.0000
0.0000 1.0000 0.0000
0.0403 1.0000 0.0000
0.2049 1.0000 0.0000
0.3507 1.0000 0.0000
0.4886 1.0000 0.0000
0.6245 1.0000 0.0000
0.7631 1.0000 0.0000
0.9061 1.0000 0.0000
1.0000 1.0000 0.0000
1.0000 1.0000 0.0000
1.0000 1.0000 0.0000
1.0000 1.0000 0.0000
1.0000 1.0000 0.0000
0.0000 1.0000 0.0000
0.0000 1.0000 0.0000
0.0000 1.0000 0.0000
0.0000 1.0000 0.0000
0.0000 1.0000 0.0000
0.0000 1.0000 0.0000
0.1785 1.0000 0.0000
0.3313 1.0000 0.0000
0.4731 1.0000 0.0000
0.6113 1.0000 0.0000
0.7515 1.0000 0.0000
0.8955 1.0000 0.0000
1.0000 1.0000 0.0000
1.0000 1.0000 0.0000
1.0000 1.0000 0.0000
1.0000 1.0000 0.0000
1.0000 1.0000 0.0000
0.0000 0.0000 0.0000
0.0000 0.0000 0.0000
0.0000 0.0000 0.0000
0.0072 0.0000 0.0000
0.1110 0.0000 0.0000
0.2224 0.0000 0.0000
0.3374 0.0000 0.0000
0.4548 0.0000 0.0000
0.5746 0.0000 0.0000
0.6997 0.0000 0.0000
0.8302 0.0000 0.0000
0.9689 0.0000 0.0000
1.0000 0.0000 0.0000
1.0000 0.0000 0.0000
1.0000 0.0000 0.0000
1.0000 0.0000 0.0000
1.0000 0.0000 0.0000
0.0000 0.0000 0.0000
0.0000 0.0000 0.0000
0.0000 0.0000 0.0000
0.0068 0.0000 0.0000
0.1107 0.0000 0.0000
0.2222 0.0000 0.0000
0.3372 0.0000 0.0000
0.4546 0.0000 0.0000
0.5745 0.0000 0.0000
0.6996 0.0000 0.0000
0.8301 0.0000 0.0000
0.9688 0.0000 0.0000
1.0000 0.0000 0.0000
1.0000 0.0000 0.0000
1.0000 0.0000 0.0000
1.0000 0.0000 0.0000
1.0000 0.0000 0.0000
0.0000 0.0000 0.0000
0.0000 0.0000 0.0000
0.0000 0.0000 0.0000
0.0052 0.0000 0.0000
0.1095 0.0000 0.0000
0.2213 0.0000 0.0000
0.3365 0.0000 0.0000
0.4540 0.0000 0.0000
0.5740 0.0000 0.0000
0.6991 0.0000 0.0000
0.8297 0.0000 0.0000
0.9684 0.0000 0.0000
1.0000 0.0000 0.0000
1.0000 0.0000 0.0000
1.0000 0.0000 0.0000
1.0000 0.0000 0.0000
1.0000 0.0000 0.0000
0.0000 0.0072 0.0000
0.0000 0.0068 0.0000
0.0000 0.0052 0.0000
0.0021 0.0021 0.0000
0.1069 0.0000 0.0000
0.2193 0.0000 0.0000
0.3349 0.0000 0.0000
0.4528 0.0000 0.0000
0.5729 0.0000 0.0000
0.6982 0.0000 0.0000
0.8289 0.0000 0.0000
0.9676 0.0000 0.0000
1.0000 0.0000 0.0000
1.0000 0.0000 0.0000
1.0000 0.0000 0.0000
1.0000 0.0000 0.0000
1.0000 0.0000 0.0000
0.0000 0.1110 0.0000
0.0000 0.1107 0.0000
0.0000 0.1095 0.0000
0.0000 0.1069 0.0000
0.1028 0.1028 0.0000
0.2162 0.0969 0.0000
0.3325 0.0889 0.0000
0.4507 0.0786 0.0000
0.5712 0.0656 0.0000
0.6967 0.0494 0.0000
0.8275 0.0295 0.0000
0.9662 0.0057 0.0000
1.0000 0.0000 0.0000
1.0000 0.0000 0.0000
1.0000 0.0000 0.0000
1.0000 0.0000 0.0000
1.0000 0.0000 0.0000
0.0000 0.2224 0.0000
0.0000 0.2222 0.0000
0.0000 0.2213 0.0000
0.0000 0.2193 0.0000
0.0969 0.2162 0.0000
0.2118 0.2118 0.0000
0.3290 0.2058 0.0000
0.4479 0.1982 0.0000
0.5687 0.1886 0.0000
0.6945 0.1770 0.0000
0.8255 0.1629 0.0000
0.9644 0.1462 0.0000
1.0000 0.1262 0.0000
1.0000 0.1025 0.0000
1.0000 0.0742 0.0000
1.0000 0.0399 0.0000
1.0000 0.0000 0.0000
0.0000 0.3374 0.0000
0.0000 0.3372 0.0000
0.0000 0.3365 0.0000
0.0000 0.3349 0.0000
0.0889 0.3325 0.0000
0.2058 0.3290 0.0000
0.3243 0.3243 0.0000
0.4441 0.3183 0.0000
0.5655 0.3109 0.0000
0.6916 0.3020 0.0000
0.8229 0.2913 0.0000
0.9619 0.2788 0.0000
1.0000 0.2641 0.0000
1.0000 0.2471 0.0000
1.0000 0.2274 0.0000
1.0000 0.2047 0.0000
1.0000 0.1782 0.0000
0.0000 0.4548 0.0000
0.0000 0.4546 0.0000
0.0000 0.4540 0.0000
0.0000 0.4528 0.0000
0.0786 0.4507 0.0000
0.1982 0.4479 0.0000
0.3183 0.4441 0.0000
0.4392 0.4392 0.0000
0.5613 0.4332 0.0000
0.6880 0.4260 0.0000
0.8197 0.4175 0.0000
0.9587 0.4075 0.0000
1.0000 0.3960 0.0000
1.0000 0.3828 0.0000
1.0000 0.3677 0.0000
1.0000 0.3505 0.0000
1.0000 0.3311 0.0000
0.0000 0.5746 0.0000
0.0000 0.5745 0.0000
0.0000 0.5740 0.0000
0.0000 0.5729 0.0000
0.0656 0.5712 0.0000
0.1886 0.5687 0.0000
0.3109 0.5655 0.0000
0.4332 0.5613 0.0000
0.5563 0.5563 0.0000
0.6835 0.5502 0.0000
0.8156 0.5430 0.0000
0.9549 0.5347 0.0000
1.0000 0.5252 0.0000
1.0000 0.5144 0.0000
1.0000 0.5022 0.0000
1.0000 0.4884 0.0000
1.0000 0.4730 0.0000
0.0000 0.6997 0.0000
0.0000 0.6996 0.0000
0.0000 0.6991 0.0000
0.0000 0.6982 0.0000
0.0494 0.6967 0.0000
0.1770 0.6945 0.0000
0.3020 0.6916 0.0000
0.4260 0.6880 0.0000
0.5502 0.6835 0.0000
0.6782 0.6782 0.0000
0.8108 0.6719 0.0000
0.9504 0.6646 0.0000
1.0000 0.6563 0.0000
1.0000 0.6468 0.0000
1.0000 0.6362 0.0000
1.0000 0.6244 0.0000
1.0000 0.6112 0.0000
0.0000 0.8302 0.0000
0.0000 0.8301 0.0000
0.0000 0.8297 0.0000
0.0000 0.8289 0.0000
0.0295 0.8275 0.0000
0.1629 0.8255 0.0000
0.2913 0.8229 0.0000
0.4175 0.8197 0.0000
0.5430 0.8156 0.0000
0.6719 0.8108 0.0000
0.8052 0.8052 0.0000
0.9451 0.7987 0.0000
1.0000 0.7913 0.0000
1.0000 0.7829 0.0000
1.0000 0.7735 0.0000
1.0000 0.7630 0.0000
1.0000 0.7514 0.0000
0.0000 0.9689 0.0000
0.0000 0.9688 0.0000
0.0000 0.9684 0.0000
0.0000 0.9676 0.0000
0.0057 0.9662 0.0000
0.1462 0.9644 0.0000
0.2788 0.9619 0.0000
0.4075 0.9587 0.0000
0.5347 0.9549 0.0000
0.6646 0.9504 0.0000
0.7987 0.9451 0.0000
0.9390 0.9390 0.0000
1.0000 0.9321 0.0000
1.0000 0.9243 0.0000
1.0000 0.9156 0.0000
1.0000 0.9060 0.0000
1.0000 0.8954 0.0000
0.0000 1.0000 0.0000
0.0000 1.0000 0.0000
0.0000 1.0000 0.0000
0.0000 1.0000 0.0000
0.0000 1.0000 0.0000
0.1262 1.0000 0.0000
0.2641 1.0000 0.0000
0.3960 1.0000 0.0000
0.5252 1.0000 0.0000
0.6563 1.0000 0.0000
0.7913 1.0000 0.0000
0.9321 1.0000 0.0000
1.0000 1.0000 0.0000
1.0000 1.0000 0.0000
1.0000 1.0000 0.0000
1.0000 1.0000 0.0000
1.0000 1.0000 0.0000
0.0000 1.0000 0.0000
0.0000 1.0000 0.0000
0.0000 1.0000 0.0000
0.0000 1.0000 0.0000
0.0000 1.0000 0.0000
0.1025 1.0000 0.0000
0.2471 1.0000 0.0000
0.3828 1.0000 0.0000
0.5144 1.0000 0.0000
0.6468 1.0000 0.0000
0.7829 1.0000 0.0000
0.9243 1.0000 0.0000
1.0000 1.0000 0.0000
1.0000 1.0000 0.0000
1.0000 1.0000 0.0000
1.0000 1.0000 0.0000
1.0000 1.0000 0.0000
0.0000 1.0000 0.0000
0.0000 1.0000 0.0000
0.0000 1.0000 0.0000
0.0000 1.0000 0.0000
0.0000 1.0000 0.0000
0.0742 1.0000 0.0000
0.2274 1.0000 0.0000
0.3677 1.0000 0.0000
0.5022 1.0000 0.0000
0.6362 1.0000 0.0000
0.7735 1.0000 0.0000
0.9156 1.0000 0.0000
1.0000 1.0000 0.0000
1.0000 1.0000 0.0000
1.0000 1.0000 0.0000
1.0000 1.0000 0.0000
1.0000 1.0000 0.0000
0.0000 1.0000 0.0000
0.0000 1.0000 0.0000
0.0000 1.0000 0.0000
0.0000 1.0000 0.0000
0.0000 1.0000 0.0000
0.0399 1.0000 0.0000
0.2047 1.0000 0.0000
0.3505 1.0000 0.0000
0.4884 1.0000 0.0000
0.6244 1.0000 0.0000
0.7630 1.0000 0.0000
0.9060 1.0000 0.0000
1.0000 1.0000 0.0000
1.0000 1.0000 0.0000
1.0000 1.0000 0.0000
1.0000 1.0000 0.0000
1.0000 1.0000 0.0000
0.0000 1.0000 0.0000
0.0000 1.0000 0.0000
0.0000 1.0000 0.0000
0.0000 1.0000 0.0000
0.0000 1.0000 0.0000
0.0000 1.0000 0.0000
0.1782 1.0000 0.0000
0.3311 1.0000 0.0000
0.4730 1.0000 0.0000
0.6112 1.0000 0.0000
0.7514 1.0000 0.0000
0.8954 1.0000 0.0000
1.0000 1.0000 0.0000
1.0000 1.0000 0.0000
1.0000 1.0000 0.0000
1.0000 1.0000 0.0000
1.0000 1.0000 0.0000
0.0000 0.0000 0.0000
0.0000 0.0000 0.0000
0.0000 0.0000 0.0000
0.0056 0.0000 0.0000
0.1098 0.0000 0.0000
0.2215 0.0000 0.0000
0.3367 0.0000 0.0000
0.4542 0.0000 0.0000
0.5741 0.0000 0.0000
0.6992 0.0000 0.0000
0.8298 0.0000 0.0000
0.9685 0.0000 0.0000
1.0000 0.0000 0.0000
1.0000 0.0000 0.0000
1.0000 0.0000 0.0000
1.0000 0.0000 0.0000
1.0000 0.0000 0.0000
0.0000 0.0000 0.0000
0.0000 0.0000 0.0000
0.0000 0.0000 0.0000
0.0052 0.0000 0.0000
0.1095 0.0000 0.0000
0.2213 0.0000 0.0000
0.3365 0.0000 0.0000
0.4540 0.0000 0.0000
0.5740 0.0000 0.0000
0.6991 0.0000 0.0000
0.8297 0.0000 0.0000
0.9684 0.0000 0.0000
1.0000 0.0000 0.0000
1.0000 0.0000 0.0000
1.0000 0.0000 0.0000
1.0000 0.0000 0.0000
1.0000 0.0000 0.0000
0.0000 0.0000 0.0000
0.0000 0.0000 0.0000
0.0000 0.0000 0.0000
0.0037 0.0000 0.0000
0.1082 0.0000 0.0000
0.2203 0.0000 0.0000
0.3357 0.0000 0.0000
0.4534 0.0000 0.0000
0.5735 0.0000 0.0000
0.6987 0.0000 0.0000
0.8293 0.0000 0.0000
0.9680 0.0000 0.0000
1.0000 0.0000 0.0000
1.0000 0.0000 0.0000
1.0000 0.0000 0.0000
1.0000 0.0000 0.0000
1.0000 0.0000 0.0000
0.0000 0.0056 0.0000
0.0000 0.0052 0.0000
0.0000 0.0037 0.0000
0.0006 0.0006 0.0000
0.1057 0.0000 0.0000
0.2184 0.0000 0.0000
0.3342 0.0000 0.0000
0.4521 0.0000 0.0000
0.5724 0.0000 0.0000
0.6977 0.0000 0.0000
0.8284 0.0000 0.0000
0.9671 0.0000 0.0000
1.0000 0.0000 0.0000
1.0000 0.0000 0.0000
1.0000 0.0000 0.0000
1.0000 0.0000 0.0000
1.0000 0.0000 0.0000
0.0000 0.1098 0.0000
0.0000 0.1095 0.0000
0.0000 0.1082 0.0000
0.0000 0.1057 0.0000
0.1015 0.1015 0.0000
0.2153 0.0956 0.0000
0.3317 0.0876 0.0000
0.4501 0.0772 0.0000
0.5707 0.0641 0.0000
0.6962 0.0479 0.0000
0.8271 0.0279 0.0000
0.9658 0.0041 0.0000
1.0000 0.0000 0.0000
1.0000 0.0000 0.0000
1.0000 0.0000 0.0000
1.0000 0.0000 0.0000
1.0000 0.0000 0.0000
0.0000 0.2215 0.0000
0.0000 0.2213 0.0000
0.0000 0.2203 0.0000
0.0000 0.2184 0.0000
0.0956 0.2153 0.0000
0.2108 0.2108 0.0000
0.3282 0.2048 0.0000
0.4472 0.1972 0.0000
0.5682 0.1876 0.0000
0.6940 0.1759 0.0000
0.8251 0.1619 0.0000
0.9639 0.1451 0.0000
1.0000 0.1251 0.0000
1.0000 0.1012 0.0000
1.0000 0.0728 0.0000
1.0000 0.0384 0.0000
1.0000 0.0000 0.0000
0.0000 0.3367 0.0000
0.0000 0.3365 0.0000
0.0000 0.3357 0.0000
0.0000 0.3342 0.0000
0.0876 0.3317 0.0000
0.2048 0.3282 0.0000
0.3235 0.3235 0.0000
0.4434 0.3175 0.0000
0.5649 0.3101 0.0000
0.6911 0.3012 0.0000
0.8225 0.2905 0.0000
0.9615 0.2779 0.0000
1.0000 0.2633 0.0000
1.0000 0.2462 0.0000
1.0000 0.2265 0.0000
1.0000 0.2037 0.0000
1.0000 0.1772 0.0000
0.0000 0.4542 0.0000
0.0000 0.4540 0.0000
0.0000 0.4534 0.0000
0.0000 0.4521 0.0000
0.0772 0.4501 0.0000
0.1972 0.4472 0.0000
0.3175 0.4434 0.0000
0.4386 0.4386 0.0000
0.5608 0.4326 0.0000
0.6875 0.4254 0.0000
0.8192 0.4168 0.0000
0.9583 0.4068 0.0000
1.0000 0.3953 0.0000
1.0000 0.3821 0.0000
1.0000 0.3670 0.0000
1.0000 0.3498 0.0000
1.0000 0.3303 0.0000
0.0000 0.5741 0.0000
0.0000 0.5740 0.0000
0.0000 0.5735 0.0000
0.0000 0.5724 0.0000
0.0641 0.5707 0.0000
0.1876 0.5682 0.0000
0.3101 0.5649 0.0000
0.4326 0.5608 0.0000
0.5557 0.5557 0.0000
0.6830 0.5497 0.0000
0.8152 0.5425 0.0000
0.9545 0.5342 0.0000
1.0000 0.5247 0.0000
1.0000 0.5138 0.0000
1.0000 0.5016 0.0000
1.0000 0.4879 0.0000
1.0000 0.4724 0.0000
0.0000 0.6992 0.0000
0.0000 0.6991 0.0000
0.0000 0.6987 0.0000
0.0000 0.6977 0.0000
0.0479 0.6962 0.0000
0.1759 0.6940 0.0000
0.3012 0.6911 0.0000
0.4254 0.6875 0.0000
0.5497 0.6830 0.0000
0.6777 0.6777 0.0000
0.8104 0.6714 0.0000
0.9500 0.6641 0.0000
1.0000 0.6558 0.0000
1.0000 0.6464 0.0000
1.0000 0.6357 0.0000
1.0000 0.6239 0.0000
1.0000 0.6107 0.0000
0.0000 0.8298 0.0000
0.0000 0.8297 0.0000
0.0000 0.8293 0.0000
0.0000 0.8284 0.0000
0.0279 0.8271 0.0000
0.1619 0.8251 0.0000
0.2905 0.8225 0.0000
0.4168 0.8192 0.0000
0.5425 0.8152 0.0000
0.6714 0.8104 0.0000
0.8048 0.8048 0.0000
0.9447 0.7983 0.0000
1.0000 0.7908 0.0000
1.0000 0.7824 0.0000
1.0000 0.7730 0.0000
1.0000 0.7626 0.0000
1.0000 0.7509 0.0000
0.0000 0.9685 0.0000
0.0000 0.9684 0.0000
0.0000 0.9680 0.0000
0.0000 0.9671 0.0000
0.0041 0.9658 0.0000
0.1451 0.9639 0.0000
0.2779 0.9615 0.0000
0.4068 0.9583 0.0000
0.5342 0.9545 0.0000
0.6641 0.9500 0.0000
0.7983 0.9447 0.0000
0.9386 0.9386 0.0000
1.0000 0.9317 0.0000
1.0000 0.9239 0.0000
1.0000 0.9152 0.0000
1.0000 0.9056 0.0000
1.0000 0.8950 0.0000
0.0000 1.0000 0.0000
0.0000 1.0000 0.0000
0.0000 1.0000 0.0000
0.0000 1.0000 0.0000
0.0000 1.0000 0.0000
0.1251 1.0000 0.0000
0.2633 1.0000 0.0000
0.3953 1.0000 0.0000
0.5247 1.0000 0.0000
0.6558 1.0000 0.0000
0.7908 1.0000 0.0000
0.9317 1.0000 0.0000
1.0000 1.0000 0.0000
1.0000 1.0000 0.0000
1.0000 1.0000 0.0000
1.0000 1.0000 0.0000
1.0000 1.0000 0.0000
0.0000 1.0000 0.0000
0.0000 1.0000 0.0000
0.0000 1.0000 0.0000
0.0000 1.0000 0.0000
0.0000 1.0000 0.0000
0.1012 1.0000 0.0000
0.2462 1.0000 0.0000
0.3821 1.0000 0.0000
0.5138 1.0000 0.0000
0.6464 1.0000 0.0000
0.7824 1.0000 0.0000
0.9239 1.0000 0.0000
1.0000 1.0000 0.0000
1.0000 1.0000 0.0000
1.0000 1.0000 0.0000
1.0000 1.0000 0.0000
1.0000 1.0000 0.0000
0.0000 1.0000 0.0000
0.0000 1.0000 0.0000
0.0000 1.0000 0.0000
0.0000 1.0000 0.0000
0.0000 1.0000 0.0000
0.0728 1.0000 0.0000
0.2265 1.0000 0.0000
0.3670 1.0000 0.0000
0.5016 1.0000 0.0000
0.6357 1.0000 0.0000
0.7730 1.0000 0.0000
0.9152 1.0000 0.0000
1.0000 1.0000 0.0000
1.0000 1.0000 0.0000
1.0000 1.0000 0.0000
1.0000 1.0000 0.0000
1.0000 1.0000 0.0000
0.0000 1.0000 0.0000
0.0000 1.0000 0.0000
0.0000 1.0000 0.0000
0.0000 1.0000 0.0000
0.0000 1.0000 0.0000
0.0384 1.0000 0.0000
0.2037 1.0000 0.0000
0.3498 1.0000 0.0000
0.4879 1.0000 0.0000
0.6239 1.0000 0.0000
0.7626 1.0000 0.0000
0.9056 1.0000 0.0000
1.0000 1.0000 0.0000
1.0000 1.0000 0.0000
1.0000 1.0000 0.0000
1.0000 1.0000 0.0000
1.0000 1.0000 0.0000
0.0000 1.0000 0.0000
0.0000 1.0000 0.0000
0.0000 1.0000 0.0000
0.0000 1.0000 0.0000
0.0000 1.0000 0.0000
0.0000 1.0000 0.0000
0.1772 1.0000 0.0000
0.3303 1.0000 0.0000
0.4724 1.0000 0.0000
0.6107 1.0000 0.0000
0.7509 1.0000 0.0000
0.8950 1.0000 0.0000
1.0000 1.0000 0.0000
1.0000 1.0000 0.0000
1.0000 1.0000 0.0000
1.0000 1.0000 0.0000
1.0000 1.0000 0.0000
0.0000 0.0000 0.0076
0.0000 0.0000 0.0072
0.0000 0.0000 0.0056
0.0025 0.0000 0.0025
0.1072 0.0000 0.0000
0.2196 0.0000 0.0000
0.3351 0.0000 0.0000
0.4529 0.0000 0.0000
0.5730 0.0000 0.0000
0.6983 0.0000 0.0000
0.8290 0.0000 0.0000
0.9676 0.0000 0.0000
1.0000 0.0000 0.0000
1.0000 0.0000 0.0000
1.0000 0.0000 0.0000
1.0000 0.0000 0.0000
1.0000 0.0000 0.0000
0.0000 0.0000 0.0072
0.0000 0.0000 0.0068
0.0000 0.0000 0.0052
0.0021 0.0000 0.0021
0.1069 0.0000 0.0000
0.2193 0.0000 0.0000
0.3349 0.0000 0.0000
0.4528 0.0000 0.0000
0.5729 0.0000 0.0000
0.6982 0.0000 0.0000
0.8289 0.0000 0.0000
0.9676 0.0000 0.0000
1.0000 0.0000 0.0000
1.0000 0.0000 0.0000
1.0000 0.0000 0.0000
1.0000 0.0000 0.0000
