assets/luts/LUTs/JD SLOG3 CONVERSION +1.CUBE
TITLE "ColorFinale Export"
# Created by Jeven Dovey on 2023-09-02 23:30:57 +0000
# Color Finale Plugin v.2.6.0 (537)
LUT_3D_SIZE 9
0.0000 0.0000 0.0000
0.0000 0.0000 0.0000
0.0637 0.0000 0.0000
0.3550 0.0000 0.0000
0.7080 0.0000 0.0000
0.9426 0.0000 0.0000
1.0000 0.0000 0.0000
1.0000 0.0000 0.0000
1.0000 0.0000 0.0000
0.0000 0.0000 0.0000
0.0000 0.0000 0.0000
0.0618 0.0000 0.0000
0.3525 0.0000 0.0000
0.7068 0.0000 0.0000
0.9421 0.0000 0.0000
1.0000 0.0000 0.0000
1.0000 0.0000 0.0000
1.0000 0.0000 0.0000
0.0000 0.0637 0.0000
0.0000 0.0618 0.0000
0.0537 0.0537 0.0000
0.3420 0.0381 0.0000
0.7017 0.0167 0.0000
0.9400 0.0000 0.0000
1.0000 0.0000 0.0000
1.0000 0.0000 0.0000
1.0000 0.0000 0.0000
0.0000 0.3550 0.0000
0.0000 0.3525 0.0000
0.0381 0.3420 0.0000
0.3206 0.3206 0.0000
0.6909 0.2866 0.0000
0.9355 0.2390 0.0000
1.0000 0.1773 0.0000
1.0000 0.1035 0.0000
1.0000 0.0268 0.0000
0.0000 0.7080 0.0000
0.0000 0.7068 0.0000
0.0167 0.7017 0.0000
0.2866 0.6909 0.0000
0.6732 0.6732 0.0000
0.9279 0.6468 0.0000
1.0000 0.6091 0.0000
1.0000 0.5564 0.0000
1.0000 0.4819 0.0000
0.0000 0.9426 0.0000
0.0000 0.9421 0.0000
0.0000 0.9400 0.0000
0.2390 0.9355 0.0000
0.6468 0.9279 0.0000
0.9165 0.9165 0.0000
1.0000 0.9002 0.0000
1.0000 0.8776 0.0000
1.0000 0.8466 0.0000
0.0000 1.0000 0.0000
0.0000 1.0000 0.0000
0.0000 1.0000 0.0000
0.1773 1.0000 0.0000
0.6091 1.0000 0.0000
0.9002 1.0000 0.0000
1.0000 1.0000 0.0000
1.0000 1.0000 0.0000
1.0000 1.0000 0.0000
0.0000 1.0000 0.0000
0.0000 1.0000 0.0000
0.0000 1.0000 0.0000
0.1035 1.0000 0.0000
0.5564 1.0000 0.0000
0.8776 1.0000 0.0000
1.0000 1.0000 0.0000
1.0000 1.0000 0.0000
1.0000 1.0000 0.0000
0.0000 1.0000 0.0000
0.0000 1.0000 0.0000
0.0000 1.0000 0.0000
0.0268 1.0000 0.0000
0.4819 1.0000 0.0000
0.8466 1.0000 0.0000
1.0000 1.0000 0.0000
1.0000 1.0000 0.0000
1.0000 1.0000 0.0000
0.0000 0.0000 0.0000
0.0000 0.0000 0.0000
0.0618 0.0000 0.0000
0.3525 0.0000 0.0000
0.7068 0.0000 0.0000
0.9421 0.0000 0.0000
1.0000 0.0000 0.0000
1.0000 0.0000 0.0000
1.0000 0.0000 0.0000
0.0000 0.0000 0.0000
0.0000 0.0000 0.0000
0.0598 0.0000 0.0000
0.3501 0.0000 0.0000
0.7056 0.0000 0.0000
0.9416 0.0000 0.0000
1.0000 0.0000 0.0000
1.0000 0.0000 0.0000
1.0000 0.0000 0.0000
0.0000 0.0618 0.0000
0.0000 0.0598 0.0000
0.0518 0.0518 0.0000
0.3395 0.0364 0.0000
0.7004 0.0153 0.0000
0.9395 0.0000 0.0000
1.0000 0.0000 0.0000
1.0000 0.0000 0.0000
1.0000 0.0000 0.0000
0.0000 0.3525 0.0000
0.0000 0.3501 0.0000
0.0364 0.3395 0.0000
0.3181 0.3181 0.0000
0.6897 0.2842 0.0000
0.9349 0.2366 0.0000
1.0000 0.1750 0.0000
1.0000 0.1013 0.0000
1.0000 0.0253 0.0000
0.0000 0.7068 0.0000
0.0000 0.7056 0.0000
0.0153 0.7004 0.0000
0.2842 0.6897 0.0000
0.6719 0.6719 0.0000
0.9274 0.6454 0.0000
1.0000 0.6076 0.0000
1.0000 0.5547 0.0000
1.0000 0.4798 0.0000
0.0000 0.9421 0.0000
0.0000 0.9416 0.0000
0.0000 0.9395 0.0000
0.2366 0.9349 0.0000
0.6454 0.9274 0.0000
0.9159 0.9159 0.0000
1.0000 0.8996 0.0000
1.0000 0.8768 0.0000
1.0000 0.8458 0.0000
0.0000 1.0000 0.0000
0.0000 1.0000 0.0000
0.0000 1.0000 0.0000
0.1750 1.0000 0.0000
0.6076 1.0000 0.0000
0.8996 1.0000 0.0000
1.0000 1.0000 0.0000
1.0000 1.0000 0.0000
1.0000 1.0000 0.0000
0.0000 1.0000 0.0000
0.0000 1.0000 0.0000
0.0000 1.0000 0.0000
0.1013 1.0000 0.0000
0.5547 1.0000 0.0000
0.8768 1.0000 0.0000
1.0000 1.0000 0.0000
1.0000 1.0000 0.0000
1.0000 1.0000 0.0000
0.0000 1.0000 0.0000
0.0000 1.0000 0.0000
0.0000 1.0000 0.0000
0.0253 1.0000 0.0000
0.4798 1.0000 0.0000
0.8458 1.0000 0.0000
1.0000 1.0000 0.0000
1.0000 1.0000 0.0000
1.0000 1.0000 0.0000
0.0000 0.0000 0.0637
0.0000 0.0000 0.0618
0.0537 0.0000 0.0537
0.3420 0.0000 0.0381
0.7017 0.0000 0.0167
0.9400 0.0000 0.0000
1.0000 0.0000 0.0000
1.0000 0.0000 0.0000
1.0000 0.0000 0.0000
0.0000 0.0000 0.0618
0.0000 0.0000 0.0598
0.0518 0.0000 0.0518
0.3395 0.0000 0.0364
0.7004 0.0000 0.0153
0.9395 0.0000 0.0000
1.0000 0.0000 0.0000
1.0000 0.0000 0.0000
1.0000 0.0000 0.0000
0.0000 0.0537 0.0537
0.0000 0.0518 0.0518
0.0440 0.0440 0.0440
0.3290 0.0294 0.0294
0.6952 0.0101 0.0101
0.9373 0.0000 0.0000
1.0000 0.0000 0.0000
1.0000 0.0000 0.0000
1.0000 0.0000 0.0000
0.0000 0.3420 0.0381
0.0000 0.3395 0.0364
0.0294 0.3290 0.0294
0.3077 0.3077 0.0166
0.6843 0.2738 0.0023
0.9326 0.2263 0.0000
1.0000 0.1651 0.0000
1.0000 0.0923 0.0000
1.0000 0.0190 0.0000
0.0000 0.7017 0.0167
0.0000 0.7004 0.0153
0.0101 0.6952 0.0101
0.2738 0.6843 0.0023
0.6663 0.6663 0.0000
0.9250 0.6394 0.0000
1.0000 0.6010 0.0000
1.0000 0.5473 0.0000
1.0000 0.4711 0.0000
0.0000 0.9400 0.0000
0.0000 0.9395 0.0000
0.0000 0.9373 0.0000
0.2263 0.9326 0.0000
0.6394 0.9250 0.0000
0.9134 0.9134 0.0000
1.0000 0.8968 0.0000
1.0000 0.8737 0.0000
1.0000 0.8423 0.0000
0.0000 1.0000 0.0000
0.0000 1.0000 0.0000
0.0000 1.0000 0.0000
0.1651 1.0000 0.0000
0.6010 1.0000 0.0000
0.8968 1.0000 0.0000
1.0000 1.0000 0.0000
1.0000 1.0000 0.0000
1.0000 1.0000 0.0000
0.0000 1.0000 0.0000
0.0000 1.0000 0.0000
0.0000 1.0000 0.0000
0.0923 1.0000 0.0000
0.5473 1.0000 0.0000
0.8737 1.0000 0.0000
1.0000 1.0000 0.0000
1.0000 1.0000 0.0000
1.0000 1.0000 0.0000
0.0000 1.0000 0.0000
0.0000 1.0000 0.0000
0.0000 1.0000 0.0000
0.0190 1.0000 0.0000
0.4711 1.0000 0.0000
0.8423 1.0000 0.0000
1.0000 1.0000 0.0000
1.0000 1.0000 0.0000
1.0000 1.0000 0.0000
0.0000 0.0000 0.3550
0.0000 0.0000 0.3525
0.0381 0.0000 0.3420
0.3206 0.0000 0.3206
0.6909 0.0000 0.2866
0.9355 0.0000 0.2390
1.0000 0.0000 0.1773
1.0000 0.0000 0.1035
1.0000 0.0000 0.0268
0.0000 0.0000 0.3525
0.0000 0.0000 0.3501
0.0364 0.0000 0.3395
0.3181 0.0000 0.3181
0.6897 0.0000 0.2842
0.9349 0.0000 0.2366
1.0000 0.0000 0.1750
1.0000 0.0000 0.1013
1.0000 0.0000 0.0253
0.0000 0.0381 0.3420
0.0000 0.0364 0.3395
0.0294 0.0294 0.3290
0.3077 0.0166 0.3077
0.6843 0.0023 0.2738
0.9326 0.0000 0.2263
1.0000 0.0000 0.1651
1.0000 0.0000 0.0923
1.0000 0.0000 0.0190
0.0000 0.3206 0.3206
0.0000 0.3181 0.3181
0.0166 0.3077 0.3077
0.2864 0.2864 0.2864
0.6731 0.2528 0.2528
0.9279 0.2057 0.2057
1.0000 0.1453 0.1453
1.0000 0.0745 0.0745
1.0000 0.0083 0.0083
0.0000 0.6909 0.2866
0.0000 0.6897 0.2842
0.0023 0.6843 0.2738
0.2528 0.6731 0.2528
0.6547 0.6547 0.2196
0.9200 0.6270 0.1733
1.0000 0.5875 0.1145
1.0000 0.5320 0.0479
1.0000 0.4526 0.0000
0.0000 0.9355 0.2390
0.0000 0.9349 0.2366
0.0000 0.9326 0.2263
0.2057 0.9279 0.2057
0.6270 0.9200 0.1733
0.9080 0.9080 0.1286
1.0000 0.8909 0.0732
1.0000 0.8673 0.0163
1.0000 0.8351 0.0000
0.0000 1.0000 0.1773
0.0000 1.0000 0.1750
0.0000 1.0000 0.1651
0.1453 1.0000 0.1453
0.5875 1.0000 0.1145
0.8909 1.0000 0.0732
1.0000 1.0000 0.0262
1.0000 1.0000 0.0000
1.0000 1.0000 0.0000
0.0000 1.0000 0.1035
0.0000 1.0000 0.1013
0.0000 1.0000 0.0923
0.0745 1.0000 0.0745
0.5320 1.0000 0.0479
0.8673 1.0000 0.0163
1.0000 1.0000 0.0000
1.0000 1.0000 0.0000
1.0000 1.0000 0.0000
0.0000 1.0000 0.0268
0.0000 1.0000 0.0253
0.0000 1.0000 0.0190
0.0083 1.0000 0.0083
0.4526 1.0000 0.0000
0.8351 1.0000 0.0000
1.0000 1.0000 0.0000
1.0000 1.0000 0.0000
1.0000 1.0000 0.0000
0.0000 0.0000 0.7080
0.0000 0.0000 0.7068
0.0167 0.0000 0.7017
0.2866 0.0000 0.6909
0.6732 0.0000 0.6732
0.9279 0.0000 0.6468
1.0000 0.0000 0.6091
1.0000 0.0000 0.5564
1.0000 0.0000 0.4819
0.0000 0.0000 0.7068
0.0000 0.0000 0.7056
0.0153 0.0000 0.7004
0.2842 0.0000 0.6897
0.6719 0.0000 0.6719
0.9274 0.0000 0.6454
1.0000 0.0000 0.6076
1.0000 0.0000 0.5547
1.0000 0.0000 0.4798
0.0000 0.0167 0.7017
0.0000 0.0153 0.7004
0.0101 0.0101 0.6952
0.2738 0.0023 0.6843
0.6663 0.0000 0.6663
0.9250 0.0000 0.6394
1.0000 0.0000 0.6010
1.0000 0.0000 0.5473
1.0000 0.0000 0.4711
0.0000 0.2866 0.6909
0.0000 0.2842 0.6897
0.0023 0.2738 0.6843
0.2528 0.2528 0.6731
0.6547 0.2196 0.6547
0.9200 0.1733 0.6270
1.0000 0.1145 0.5875
1.0000 0.0479 0.5320
1.0000 0.0000 0.4526
0.0000 0.6732 0.6732
0.0000 0.6719 0.6719
0.0000 0.6663 0.6663
0.2196 0.6547 0.6547
0.6354 0.6354 0.6354
0.9116 0.6064 0.6064
1.0000 0.5650 0.5650
1.0000 0.5063 0.5063
1.0000 0.4211 0.4211
0.0000 0.9279 0.6468
0.0000 0.9274 0.6454
0.0000 0.9250 0.6394
0.1733 0.9200 0.6270
0.6064 0.9116 0.6064
0.8991 0.8991 0.5755
1.0000 0.8813 0.5309
1.0000 0.8566 0.4669
1.0000 0.8231 0.3725
0.0000 1.0000 0.6091
0.0000 1.0000 0.6076
0.0000 1.0000 0.6010
0.1145 1.0000 0.5875
0.5650 1.0000 0.5650
0.8813 1.0000 0.5309
1.0000 1.0000 0.4811
1.0000 1.0000 0.4077
1.0000 1.0000 0.3081
0.0000 1.0000 0.5564
0.0000 1.0000 0.5547
0.0000 1.0000 0.5473
0.0479 1.0000 0.5320
0.5063 1.0000 0.5063
0.8566 1.0000 0.4669
1.0000 1.0000 0.4077
1.0000 1.0000 0.3261
1.0000 1.0000 0.2283
0.0000 1.0000 0.4819
0.0000 1.0000 0.4798
0.0000 1.0000 0.4711
0.0000 1.0000 0.4526
0.4211 1.0000 0.4211
0.8231 1.0000 0.3725
1.0000 1.0000 0.3081
1.0000 1.0000 0.2283
1.0000 1.0000 0.1348
0.0000 0.0000 0.9426
0.0000 0.0000 0.9421
0.0000 0.0000 0.9400
0.2390 0.0000 0.9355
0.6468 0.0000 0.9279
0.9165 0.0000 0.9165
1.0000 0.0000 0.9002
1.0000 0.0000 0.8776
1.0000 0.0000 0.8466
0.0000 0.0000 0.9421
0.0000 0.0000 0.9416
0.0000 0.0000 0.9395
0.2366 0.0000 0.9349
0.6454 0.0000 0.9274
0.9159 0.0000 0.9159
1.0000 0.0000 0.8996
1.0000 0.0000 0.8768
1.0000 0.0000 0.8458
0.0000 0.0000 0.9400
0.0000 0.0000 0.9395
0.0000 0.0000 0.9373
0.2263 0.0000 0.9326
0.6394 0.0000 0.9250
0.9134 0.0000 0.9134
1.0000 0.0000 0.8968
1.0000 0.0000 0.8737
1.0000 0.0000 0.8423
0.0000 0.2390 0.9355
0.0000 0.2366 0.9349
0.0000 0.2263 0.9326
0.2057 0.2057 0.9279
0.6270 0.1733 0.9200
0.9080 0.1286 0.9080
1.0000 0.0732 0.8909
1.0000 0.0163 0.8673
1.0000 0.0000 0.8351
0.0000 0.6468 0.9279
0.0000 0.6454 0.9274
0.0000 0.6394 0.9250
0.1733 0.6270 0.9200
0.6064 0.6064 0.9116
0.8991 0.5755 0.8991
1.0000 0.5309 0.8813
1.0000 0.4669 0.8566
1.0000 0.3725 0.8231
0.0000 0.9165 0.9165
0.0000 0.9159 0.9159
0.0000 0.9134 0.9134
0.1286 0.9080 0.9080
0.5755 0.8991 0.8991
0.8858 0.8858 0.8858
1.0000 0.8668 0.8668
1.0000 0.8407 0.8407
1.0000 0.8052 0.8052
0.0000 1.0000 0.9002
0.0000 1.0000 0.8996
0.0000 1.0000 0.8968
0.0732 1.0000 0.8909
0.5309 1.0000 0.8813
0.8668 1.0000 0.8668
1.0000 1.0000 0.8463
1.0000 1.0000 0.8182
1.0000 0.9989 0.7801
0.0000 1.0000 0.8776
0.0000 1.0000 0.8768
0.0000 1.0000 0.8737
0.0163 1.0000 0.8673
0.4669 1.0000 0.8566
0.8407 1.0000 0.8407
1.0000 1.0000 0.8182
1.0000 1.0000 0.7873
1.0000 1.0000 0.7456
0.0000 1.0000 0.8466
0.0000 1.0000 0.8458
0.0000 1.0000 0.8423
0.0000 1.0000 0.8351
0.3725 1.0000 0.8231
0.8052 1.0000 0.8052
0.9989 1.0000 0.7801
1.0000 1.0000 0.7456
1.0000 1.0000 0.6989
0.0000 0.0000 1.0000
0.0000 0.0000 1.0000
0.0000 0.0000 1.0000
0.1773 0.0000 1.0000
0.6091 0.0000 1.0000
0.9002 0.0000 1.0000
1.0000 0.0000 1.0000
1.0000 0.0000 1.0000
1.0000 0.0000 1.0000
0.0000 0.0000 1.0000
0.0000 0.0000 1.0000
0.0000 0.0000 1.0000
0.1750 0.0000 1.0000
0.6076 0.0000 1.0000
0.8996 0.0000 1.0000
1.0000 0.0000 1.0000
1.0000 0.0000 1.0000
1.0000 0.0000 1.0000
0.0000 0.0000 1.0000
0.0000 0.0000 1.0000
0.0000 0.0000 1.0000
0.1651 0.0000 1.0000
0.6010 0.0000 1.0000
0.8968 0.0000 1.0000
1.0000 0.0000 1.0000
1.0000 0.0000 1.0000
1.0000 0.0000 1.0000
0.0000 0.1773 1.0000
0.0000 0.1750 1.0000
0.0000 0.1651 1.0000
0.1453 0.1453 1.0000
0.5875 0.1145 1.0000
0.8909 0.0732 1.0000
1.0000 0.0262 1.0000
1.0000 0.0000 1.0000
1.0000 0.0000 1.0000
0.0000 0.6091 1.0000
0.0000 0.6076 1.0000
0.0000 0.6010 1.0000
0.1145 0.5875 1.0000
0.5650 0.5650 1.0000
0.8813 0.5309 1.0000
1.0000 0.4811 1.0000
1.0000 0.4077 1.0000
1.0000 0.3081 1.0000
0.0000 0.9002 1.0000
0.0000 0.8996 1.0000
0.0000 0.8968 1.0000
0.0732 0.8909 1.0000
0.5309 0.8813 1.0000
0.8668 0.8668 1.0000
1.0000 0.8463 1.0000
1.0000 0.8182 1.0000
1.0000 0.7801 0.9989
0.0000 1.0000 1.0000
0.0000 1.0000 1.0000
0.0000 1.0000 1.0000
0.0262 1.0000 1.0000
0.4811 1.0000 1.0000
0.8463 1.0000 1.0000
1.0000 1.0000 1.0000
1.0000 0.9998 0.9998
1.0000 0.9957 0.9957
0.0000 1.0000 1.0000
0.0000 1.0000 1.0000
0.0000 1.0000 1.0000
0.0000 1.0000 1.0000
0.4077 1.0000 1.0000
0.8182 1.0000 1.0000
0.9998 1.0000 0.9998
1.0000 1.0000 0.9968
1.0000 1.0000 0.9892
0.0000 1.0000 1.0000
0.0000 1.0000 1.0000
0.0000 1.0000 1.0000
0.0000 1.0000 1.0000
0.3081 1.0000 1.0000
0.7801 1.0000 0.9989
0.9957 1.0000 0.9957
1.0000 1.0000 0.9892
1.0000 1.0000 0.9779
0.0000 0.0000 1.0000
0.0000 0.0000 1.0000
0.0000 0.0000 1.0000
0.1035 0.0000 1.0000
0.5564 0.0000 1.0000
0.8776 0.0000 1.0000
1.0000 0.0000 1.0000
1.0000 0.0000 1.0000
1.0000 0.0000 1.0000
0.0000 0.0000 1.0000
0.0000 0.0000 1.0000
0.0000 0.0000 1.0000
0.1013 0.0000 1.0000
0.5547 0.0000 1.0000
0.8768 0.0000 1.0000
1.0000 0.0000 1.0000
1.0000 0.0000 1.0000
1.0000 0.0000 1.0000
0.0000 0.0000 1.0000
0.0000 0.0000 1.0000
0.0000 0.0000 1.0000
0.0923 0.0000 1.0000
0.5473 0.0000 1.0000
0.8737 0.0000 1.0000
1.0000 0.0000 1.0000
1.0000 0.0000 1.0000
1.0000 0.0000 1.0000
0.0000 0.1035 1.0000
0.0000 0.1013 1.0000
0.0000 0.0923 1.0000
0.0745 0.0745 1.0000
0.5320 0.0479 1.0000
0.8673 0.0163 1.0000
1.0000 0.0000 1.0000
1.0000 0.0000 1.0000
1.0000 0.0000 1.0000
0.0000 0.5564 1.0000
0.0000 0.5547 1.0000
0.0000 0.5473 1.0000
0.0479 0.5320 1.0000
0.5063 0.5063 1.0000
0.8566 0.4669 1.0000
1.0000 0.4077 1.0000
1.0000 0.3261 1.0000
1.0000 0.2283 1.0000
0.0000 0.8776 1.0000
0.0000 0.8768 1.0000
0.0000 0.8737 1.0000
0.0163 0.8673 1.0000
0.4669 0.8566 1.0000
0.8407 0.8407 1.0000
1.0000 0.8182 1.0000
1.0000 0.7873 1.0000
1.0000 0.7456 1.0000
0.0000 1.0000 1.0000
0.0000 1.0000 1.0000
0.0000 1.0000 1.0000
0.0000 1.0000 1.0000
0.4077 1.0000 1.0000
0.8182 1.0000 1.0000
0.9998 0.9998 1.0000
1.0000 0.9968 1.0000
1.0000 0.9892 1.0000
0.0000 1.0000 1.0000
0.0000 1.0000 1.0000
0.0000 1.0000 1.0000
0.0000 1.0000 1.0000
0.3261 1.0000 1.0000
0.7873 1.0000 1.0000
0.9968 1.0000 1.0000
1.0000 1.0000 1.0000
1.0000 1.0000 1.0000
0.0000 1.0000 1.0000
0.0000 1.0000 1.0000
0.0000 1.0000 1.0000
0.0000 1.0000 1.0000
0.2283 1.0000 1.0000
0.7456 1.0000 1.0000
0.9892 1.0000 1.0000
1.0000 1.0000 1.0000
1.0000 1.0000 1.0000
0.0000 0.0000 1.0000
0.0000 0.0000 1.0000
0.0000 0.0000 1.0000
0.0268 0.0000 1.0000
0.4819 0.0000 1.0000
0.8466 0.0000 1.0000
1.0000 0.0000 1.0000
1.0000 0.0000 1.0000
1.0000 0.0000 1.0000
0.0000 0.0000 1.0000
0.0000 0.0000 1.0000
0.0000 0.0000 1.0000
0.0253 0.0000 1.0000
0.4798 0.0000 1.0000
0.8458 0.0000 1.0000
1.0000 0.0000 1.0000
1.0000 0.0000 1.0000
1.0000 0.0000 1.0000
0.0000 0.0000 1.0000
0.0000 0.0000 1.0000
0.0000 0.0000 1.0000
0.0190 0.0000 1.0000
0.4711 0.0000 1.0000
0.8423 0.0000 1.0000
1.0000 0.0000 1.0000
1.0000 0.0000 1.0000
1.0000 0.0000 1.0000
0.0000 0.0268 1.0000
0.0000 0.0253 1.0000
0.0000 0.0190 1.0000
0.0083 0.0083 1.0000
0.4526 0.0000 1.0000
0.8351 0.0000 1.0000
1.0000 0.0000 1.0000
1.0000 0.0000 1.0000
1.0000 0.0000 1.0000
0.0000 0.4819 1.0000
0.0000 0.4798 1.0000
0.0000 0.4711 1.0000
0.0000 0.4526 1.0000
0.4211 0.4211 1.0000
0.8231 0.3725 1.0000
1.0000 0.3081 1.0000
1.0000 0.2283 1.0000
1.0000 0.1348 1.0000
0.0000 0.8466 1.0000
0.0000 0.8458 1.0000
0.0000 0.8423 1.0000
0.0000 0.8351 1.0000
0.3725 0.8231 1.0000
0.8052 0.8052 1.0000
0.9989 0.7801 1.0000
1.0000 0.7456 1.0000
1.0000 0.6989 1.0000
0.0000 1.0000 1.0000
0.0000 1.0000 1.0000
0.0000 1.0000 1.0000
0.0000 1.0000 1.0000
0.3081 1.0000 1.0000
0.7801 0.9989 1.0000
0.9957 0.9957 1.0000
1.0000 0.9892 1.0000
1.0000 0.9779 1.0000
0.0000 1.0000 1.0000
0.0000 1.0000 1.0000
0.0000 1.0000 1.0000
0.0000 1.0000 1.0000
0.2283 1.0000 1.0000
0.7456 1.0000 1.0000
0.9892 1.0000 1.0000
1.0000 1.0000 1.0000
1.0000 1.0000 1.0000
0.0000 1.0000 1.0000
0.0000 1.0000 1.0000
0.0000 1.0000 1.0000
0.0000 1.0000 1.0000
0.1348 1.0000 1.0000
0.6989 1.0000 1.0000
0.9779 1.0000 1.0000
1.0000 1.0000 1.0000
1.0000 1.0000 1.0000
