assets/luts/LUTs/JD_ANGOON.CUBE
TITLE "ColorFinale Export"
# Created by Jeven Dovey on 2023-09-02 23:26:34 +0000
# Color Finale Plugin v.2.6.0 (537)
LUT_3D_SIZE 9
0.0162 0.0154 0.0142
0.0620 0.0270 0.0243
0.1268 0.0370 0.0392
0.2073 0.0401 0.0578
0.3068 0.0456 0.0773
0.4381 0.0410 0.1003
0.6022 0.0164 0.1283
0.7754 0.0224 0.1610
0.9258 0.0022 0.1969
0.0172 0.0545 0.0277
0.0545 0.0618 0.0322
0.1288 0.0669 0.0454
0.2153 0.0705 0.0636
0.3167 0.0700 0.0838
0.4500 0.0537 0.1071
0.6131 0.0382 0.1344
0.7852 0.0311 0.1681
0.9359 0.0024 0.2068
0.0062 0.1137 0.0418
0.0257 0.1235 0.0430
0.1050 0.1365 0.0527
0.2223 0.1431 0.0739
0.3429 0.1442 0.0979
0.4860 0.1362 0.1248
0.6490 0.1109 0.1558
0.8188 0.0761 0.1927
0.9532 0.0839 0.2366
0.0001 0.1914 0.0562
0.0024 0.2007 0.0556
0.0479 0.2209 0.0600
0.1823 0.2378 0.0768
0.3533 0.2491 0.1061
0.5246 0.2547 0.1410
0.6924 0.2535 0.1801
0.8532 0.2547 0.2261
0.9683 0.2596 0.2797
0.0000 0.2904 0.0732
0.0000 0.3007 0.0715
0.0116 0.3289 0.0700
0.0848 0.3585 0.0785
0.2856 0.3819 0.1043
0.5288 0.4004 0.1459
0.7235 0.4165 0.1980
0.8766 0.4357 0.2568
0.9807 0.4618 0.3250
0.0000 0.4241 0.0930
0.0000 0.4351 0.0906
0.0001 0.4659 0.0840
0.0114 0.5029 0.0841
0.1647 0.5365 0.1015
0.4600 0.5634 0.1440
0.7171 0.5855 0.2086
0.8821 0.6106 0.2853
0.9691 0.6414 0.3693
0.0000 0.5823 0.1244
0.0000 0.5912 0.1220
0.0000 0.6202 0.1149
0.0000 0.6563 0.1111
0.0386 0.6912 0.1228
0.3188 0.7204 0.1616
0.6588 0.7392 0.2319
0.8629 0.7557 0.3186
0.9533 0.7757 0.4175
0.0000 0.7375 0.2000
0.0000 0.7437 0.1993
0.0000 0.7651 0.1975
0.0000 0.7904 0.1999
0.0016 0.8166 0.2107
0.1881 0.8356 0.2418
0.5925 0.8456 0.2963
0.8275 0.8528 0.3762
0.9332 0.8627 0.4750
0.0000 0.8527 0.3258
0.0000 0.8564 0.3263
0.0000 0.8673 0.3277
0.0000 0.8835 0.3328
0.0008 0.8995 0.3424
0.1033 0.9079 0.3659
0.5465 0.9119 0.4068
0.7891 0.9134 0.4685
0.9110 0.9158 0.5512
0.0268 0.0216 0.0401
0.0620 0.0274 0.0437
0.1261 0.0348 0.0545
0.2069 0.0377 0.0701
0.3059 0.0446 0.0873
0.4373 0.0403 0.1084
0.6017 0.0166 0.1355
0.7746 0.0215 0.1669
0.9258 0.0015 0.2012
0.0238 0.0516 0.0533
0.0578 0.0584 0.0549
0.1292 0.0640 0.0631
0.2146 0.0679 0.0775
0.3154 0.0686 0.0946
0.4486 0.0526 0.1154
0.6127 0.0378 0.1421
0.7849 0.0293 0.1741
0.9357 0.0018 0.2113
0.0090 0.1112 0.0661
0.0306 0.1208 0.0670
0.1092 0.1343 0.0745
0.2226 0.1418 0.0904
0.3427 0.1434 0.1112
0.4850 0.1357 0.1352
0.6485 0.1081 0.1644
0.8187 0.0741 0.1994
0.9532 0.0834 0.2417
0.0006 0.1891 0.0799
0.0051 0.1987 0.0792
0.0537 0.2194 0.0814
0.1865 0.2378 0.0949
0.3559 0.2489 0.1213
0.5251 0.2542 0.1535
0.6920 0.2523 0.1905
0.8532 0.2538 0.2342
0.9681 0.2585 0.2856
0.0000 0.2892 0.0940
0.0000 0.2995 0.0925
0.0125 0.3284 0.0900
0.0865 0.3586 0.0961
0.2893 0.3823 0.1201
0.5313 0.4006 0.1606
0.7239 0.4167 0.2102
0.8769 0.4359 0.2665
0.9804 0.4615 0.3325
0.0000 0.4236 0.1117
0.0000 0.4340 0.1093
0.0001 0.4651 0.1027
0.0116 0.5029 0.1025
0.1684 0.5369 0.1193
0.4633 0.5634 0.1595
0.7188 0.5861 0.2216
0.8830 0.6113 0.2955
0.9690 0.6418 0.3787
0.0000 0.5818 0.1430
0.0000 0.5907 0.1409
0.0000 0.6197 0.1347
0.0000 0.6562 0.1309
0.0405 0.6911 0.1413
0.3245 0.7205 0.1775
0.6620 0.7398 0.2441
0.8635 0.7557 0.3295
0.9532 0.7760 0.4259
0.0000 0.7371 0.2149
0.0000 0.7436 0.2142
0.0000 0.7652 0.2125
0.0000 0.7905 0.2149
0.0017 0.8168 0.2246
0.1910 0.8360 0.2536
0.5941 0.8456 0.3070
0.8284 0.8531 0.3857
0.9335 0.8627 0.4821
0.0000 0.8528 0.3356
0.0000 0.8562 0.3357
0.0000 0.8674 0.3375
0.0000 0.8833 0.3415
0.0012 0.8994 0.3517
0.1057 0.9080 0.3760
0.5485 0.9118 0.4147
0.7897 0.9134 0.4750
0.9112 0.9158 0.5561
0.0376 0.0240 0.0769
0.0653 0.0267 0.0791
0.1284 0.0290 0.0881
0.2086 0.0329 0.1017
0.3068 0.0401 0.1171
0.4363 0.0324 0.1361
0.5998 0.0179 0.1604
0.7726 0.0169 0.1881
0.9197 0.0006 0.2169
0.0346 0.0470 0.0940
0.0630 0.0513 0.0954
0.1318 0.0577 0.1010
0.2149 0.0606 0.1120
0.3161 0.0607 0.1264
0.4482 0.0425 0.1450
0.6106 0.0367 0.1679
0.7831 0.0224 0.1962
0.9332 0.0006 0.2300
0.0159 0.1069 0.1179
0.0434 0.1145 0.1188
0.1202 0.1281 0.1232
0.2260 0.1359 0.1338
0.3421 0.1362 0.1497
0.4828 0.1285 0.1689
0.6462 0.0990 0.1936
0.8172 0.0661 0.2249
0.9516 0.0830 0.2642
0.0046 0.1850 0.1363
0.0139 0.1938 0.1367
0.0703 0.2156 0.1389
0.1976 0.2358 0.1488
0.3608 0.2471 0.1694
0.5247 0.2523 0.1957
0.6901 0.2496 0.2264
0.8525 0.2503 0.2649
0.9681 0.2468 0.3120
0.0002 0.2862 0.1540
0.0004 0.2961 0.1539
0.0169 0.3251 0.1522
0.0953 0.3578 0.1561
0.3028 0.3838 0.1751
0.5397 0.4018 0.2099
0.7268 0.4173 0.2540
0.8765 0.4351 0.3049
0.9791 0.4586 0.3640
0.0000 0.4207 0.1738
0.0000 0.4310 0.1727
0.0000 0.4627 0.1688
0.0134 0.5022 0.1674
0.1817 0.5382 0.1790
0.4772 0.5652 0.2140
0.7271 0.5876 0.2712
0.8845 0.6126 0.3389
0.9682 0.6423 0.4128
0.0000 0.5795 0.2056
0.0000 0.5885 0.2044
0.0000 0.6178 0.2012
0.0000 0.6553 0.1991
0.0456 0.6920 0.2061
0.3430 0.7223 0.2349
0.6726 0.7408 0.2928
0.8667 0.7575 0.3720
0.9533 0.7768 0.4592
0.0000 0.7362 0.2689
0.0000 0.7428 0.2688
0.0000 0.7644 0.2681
0.0000 0.7900 0.2703
0.0021 0.8167 0.2783
0.2039 0.8364 0.3018
0.6044 0.8462 0.3488
0.8316 0.8537 0.4210
0.9345 0.8633 0.5100
0.0000 0.8521 0.3771
0.0000 0.8560 0.3774
0.0000 0.8667 0.3792
0.0000 0.8828 0.3836
0.0026 0.8990 0.3927
0.1186 0.9077 0.4120
0.5540 0.9118 0.4458
0.7927 0.9136 0.5008
0.9122 0.9161 0.5781
0.0470 0.0181 0.1218
0.0709 0.0190 0.1235
0.1301 0.0229 0.1295
0.2094 0.0290 0.1400
0.3090 0.0295 0.1549
0.4389 0.0148 0.1752
0.5984 0.0166 0.1990
0.7681 0.0056 0.2237
0.9141 0.0000 0.2473
0.0414 0.0408 0.1386
0.0685 0.0426 0.1398
0.1344 0.0468 0.1443
0.2180 0.0494 0.1539
0.3210 0.0412 0.1682
0.4525 0.0301 0.1868
0.6095 0.0292 0.2082
0.7800 0.0070 0.2340
0.9321 0.0000 0.2650
0.0298 0.0982 0.1739
0.0564 0.1035 0.1749
0.1318 0.1148 0.1787
0.2325 0.1219 0.1872
0.3465 0.1204 0.1999
0.4850 0.1135 0.2171
0.6470 0.0720 0.2403
0.8154 0.0525 0.2687
0.9498 0.0788 0.3023
0.0148 0.1785 0.2056
0.0267 0.1866 0.2073
0.0913 0.2075 0.2116
0.2158 0.2284 0.2200
0.3690 0.2405 0.2363
0.5236 0.2437 0.2575
0.6874 0.2386 0.2831
0.8516 0.2384 0.3151
0.9680 0.2246 0.3565
0.0017 0.2814 0.2346
0.0024 0.2907 0.2356
0.0282 0.3193 0.2385
0.1159 0.3550 0.2441
0.3255 0.3829 0.2585
0.5484 0.4010 0.2893
0.7272 0.4157 0.3274
0.8753 0.4322 0.3688
0.9770 0.4530 0.4163
0.0000 0.4174 0.2631
0.0000 0.4274 0.2633
0.0000 0.4585 0.2644
0.0210 0.4993 0.2656
0.2043 0.5387 0.2727
0.4986 0.5680 0.3025
0.7379 0.5902 0.3533
0.8858 0.6149 0.4108
0.9669 0.6417 0.4712
0.0000 0.5770 0.3009
0.0000 0.5856 0.3007
0.0000 0.6148 0.3004
0.0003 0.6530 0.3007
0.0554 0.6922 0.3042
0.3759 0.7242 0.3236
0.6909 0.7433 0.3734
0.8719 0.7597 0.4437
0.9528 0.7783 0.5196
0.0000 0.7351 0.3581
0.0000 0.7419 0.3581
0.0000 0.7631 0.3588
0.0000 0.7890 0.3610
0.0028 0.8163 0.3665
0.2272 0.8369 0.3819
0.6192 0.8473 0.4194
0.8366 0.8545 0.4845
0.9358 0.8642 0.5657
0.0000 0.8521 0.4480
0.0000 0.8556 0.4482
0.0000 0.8663 0.4502
0.0000 0.8820 0.4540
0.0065 0.8981 0.4622
0.1410 0.9071 0.4775
0.5651 0.9117 0.5049
0.7984 0.9138 0.5535
0.9141 0.9165 0.6221
0.0466 0.0161 0.1544
0.0654 0.0169 0.1561
0.1215 0.0185 0.1634
0.2026 0.0177 0.1769
0.3080 0.0101 0.1960
0.4414 0.0081 0.2180
0.5902 0.0124 0.2375
0.7371 0.0018 0.2492
0.9152 0.0000 0.2942
0.0480 0.0277 0.1790
0.0689 0.0287 0.1804
0.1304 0.0291 0.1868
0.2156 0.0246 0.1983
0.3232 0.0170 0.2146
0.4537 0.0247 0.2313
0.6044 0.0182 0.2516
0.7602 0.0021 0.2697
0.9276 0.0068 0.3101
0.0427 0.0796 0.2335
0.0625 0.0836 0.2347
0.1344 0.0908 0.2384
0.2347 0.0962 0.2458
0.3525 0.0949 0.2582
0.4949 0.0792 0.2762
0.6531 0.0478 0.2996
0.8133 0.0555 0.3254
0.9451 0.0611 0.3526
0.0232 0.1659 0.2846
0.0323 0.1726 0.2863
0.1090 0.1898 0.2915
0.2337 0.2088 0.3002
0.3781 0.2188 0.3128
0.5320 0.2195 0.3311
0.6934 0.2169 0.3550
0.8530 0.2074 0.3847
0.9676 0.1849 0.4186
0.0040 0.2738 0.3308
0.0070 0.2826 0.3328
0.0397 0.3090 0.3395
0.1532 0.3433 0.3485
0.3619 0.3752 0.3627
0.5567 0.3936 0.3868
0.7266 0.4054 0.4143
0.8738 0.4212 0.4464
0.9745 0.4403 0.4842
0.0001 0.4130 0.3734
0.0003 0.4221 0.3748
0.0009 0.4525 0.3797
0.0485 0.4932 0.3871
0.2454 0.5357 0.3961
0.5251 0.5679 0.4168
0.7482 0.5905 0.4601
0.8844 0.6155 0.5037
0.9652 0.6383 0.5472
0.0000 0.5736 0.4174
0.0000 0.5817 0.4181
0.0003 0.6109 0.4211
0.0044 0.6498 0.4261
0.0768 0.6897 0.4308
0.4042 0.7260 0.4412
0.7131 0.7460 0.4795
0.8757 0.7630 0.5411
0.9514 0.7792 0.5995
0.0000 0.7329 0.4709
0.0000 0.7398 0.4714
0.0000 0.7604 0.4735
0.0002 0.7871 0.4777
0.0036 0.8145 0.4832
0.2605 0.8376 0.4916
0.6403 0.8482 0.5174
0.8433 0.8559 0.5718
0.9374 0.8653 0.6390
0.0000 0.8518 0.5448
0.0000 0.8550 0.5452
0.0000 0.8650 0.5474
0.0000 0.8804 0.5517
0.0144 0.8965 0.5582
0.1749 0.9061 0.5692
0.5805 0.9114 0.5878
0.8052 0.9141 0.6251
0.9167 0.9171 0.6799
0.0424 0.0058 0.1743
0.0549 0.0058 0.1749
0.1033 0.0046 0.1776
0.1742 0.0022 0.1821
0.2677 0.0035 0.1944
0.3984 0.0053 0.2248
0.5604 0.0026 0.2621
0.7371 0.0001 0.2990
0.8754 0.0021 0.2936
0.0448 0.0076 0.1843
0.0577 0.0076 0.1848
0.1077 0.0067 0.1882
0.1827 0.0102 0.2010
0.2849 0.0119 0.2218
0.4202 0.0084 0.2502
0.5839 0.0032 0.2857
0.7586 0.0001 0.3195
0.8864 0.0053 0.3138
0.0399 0.0527 0.2777
0.0515 0.0554 0.2789
0.1242 0.0579 0.2841
0.2223 0.0574 0.2953
0.3436 0.0385 0.3142
0.4962 0.0215 0.3386
0.6525 0.0351 0.3584
0.8053 0.0414 0.3785
0.9272 0.0171 0.3904
0.0193 0.1399 0.3701
0.0346 0.1446 0.3714
0.1154 0.1574 0.3760
0.2384 0.1704 0.3833
0.3832 0.1748 0.3954
0.5449 0.1740 0.4129
0.7088 0.1626 0.4366
0.8601 0.1418 0.4619
0.9690 0.1328 0.4888
0.0058 0.2575 0.4385
0.0150 0.2644 0.4403
0.0443 0.2878 0.4463
0.1901 0.3182 0.4553
0.3881 0.3478 0.4664
0.5727 0.3652 0.4827
0.7395 0.3780 0.5047
0.8799 0.3957 0.5317
0.9746 0.4118 0.5625
0.0009 0.4020 0.4947
0.0014 0.4102 0.4960
0.0048 0.4401 0.5022
0.0729 0.4801 0.5131
0.3092 0.5226 0.5255
0.5648 0.5632 0.5445
0.7532 0.5838 0.5716
0.8810 0.6056 0.5992
0.9645 0.6256 0.6295
0.0000 0.5667 0.5450
0.0000 0.5747 0.5463
0.0014 0.6039 0.5512
0.0069 0.6437 0.5595
0.1192 0.6839 0.5701
0.4477 0.7236 0.5805
0.7417 0.7488 0.6042
0.8756 0.7634 0.6483
0.9488 0.7779 0.6836
0.0000 0.7294 0.5965
0.0000 0.7365 0.5975
0.0000 0.7562 0.6008
0.0007 0.7840 0.6068
0.0125 0.8116 0.6151
0.3144 0.8361 0.6226
0.6593 0.8482 0.6344
0.8503 0.8569 0.6703
0.9386 0.8662 0.7174
0.0000 0.8504 0.6535
0.0000 0.8532 0.6545
0.0000 0.8628 0.6571
0.0000 0.8779 0.6612
0.0274 0.8935 0.6671
0.2190 0.9040 0.6743
0.6034 0.9102 0.6840
0.8124 0.9144 0.7056
0.9202 0.9179 0.7429
0.0212 0.0008 0.2090
0.0349 0.0010 0.2099
0.0817 0.0017 0.2131
0.1534 0.0024 0.2190
0.2447 0.0010 0.2267
0.3591 0.0001 0.2341
0.4930 0.0000 0.2392
0.6330 0.0000 0.2401
0.8262 0.0000 0.3032
0.0218 0.0037 0.2185
0.0361 0.0039 0.2193
0.0843 0.0044 0.2220
0.1569 0.0044 0.2267
0.2491 0.0015 0.2331
0.3635 0.0001 0.2387
0.4958 0.0000 0.2416
0.6533 0.0005 0.2648
0.8424 0.0000 0.3276
0.0252 0.0132 0.2490
0.0408 0.0132 0.2491
0.0935 0.0133 0.2503
0.1693 0.0108 0.2522
0.2688 0.0100 0.2660
0.4033 0.0154 0.2937
0.5683 0.0116 0.3311
0.7473 0.0022 0.3790
0.9057 0.0000 0.4220
0.0234 0.0926 0.4239
0.0394 0.0951 0.4251
0.0946 0.1048 0.4304
0.2209 0.1122 0.4421
0.3673 0.1056 0.4611
0.5379 0.0771 0.4877
0.7093 0.0585 0.5088
0.8612 0.0738 0.5285
0.9579 0.1089 0.5377
0.0111 0.2186 0.5438
0.0159 0.2249 0.5449
0.0424 0.2463 0.5498
0.2060 0.2713 0.5567
0.3982 0.2915 0.5655
0.5834 0.3077 0.5791
0.7582 0.3189 0.5983
0.8969 0.3287 0.6198
0.9772 0.3351 0.6413
0.0011 0.3748 0.6147
0.0014 0.3841 0.6159
0.0202 0.4139 0.6212
0.0945 0.4535 0.6289
0.3593 0.4931 0.6390
0.5881 0.5292 0.6500
0.7675 0.5558 0.6652
0.8921 0.5739 0.6842
0.9699 0.5950 0.7056
0.0000 0.5501 0.6679
0.0000 0.5598 0.6693
0.0028 0.5887 0.6737
0.0239 0.6304 0.6819
0.1805 0.6726 0.6928
0.5284 0.7127 0.7076
0.7621 0.7473 0.7210
0.8746 0.7571 0.7358
0.9484 0.7703 0.7536
0.0000 0.7221 0.7136
0.0000 0.7281 0.7140
0.0000 0.7493 0.7170
0.0003 0.7798 0.7218
0.0438 0.8061 0.7292
0.3957 0.8300 0.7362
0.6927 0.8450 0.7437
0.8586 0.8571 0.7592
0.9388 0.8658 0.7852
0.0000 0.8440 0.7498
0.0000 0.8468 0.7503
0.0000 0.8585 0.7522
0.0000 0.8742 0.7557
0.0514 0.8894 0.7605
0.2848 0.9005 0.7659
0.6413 0.9079 0.7715
0.8227 0.9142 0.7808
0.9245 0.9185 0.8015
0.0139 0.0000 0.2938
0.0190 0.0000 0.2930
0.0435 0.0000 0.2914
0.1332 0.0000 0.2936
0.2322 0.0000 0.2971
0.3513 0.0000 0.3023
0.5001 0.0000 0.3094
0.6577 0.0000 0.3194
0.8130 0.0000 0.3348
0.0143 0.0000 0.2938
0.0191 0.0000 0.2933
0.0441 0.0000 0.2918
0.1335 0.0000 0.2940
0.2325 0.0000 0.2974
0.3517 0.0000 0.3026
0.5008 0.0000 0.3102
0.6583 0.0000 0.3199
0.8130 0.0000 0.3349
0.0151 0.0015 0.2982
0.0197 0.0016 0.2980
0.0467 0.0020 0.2974
0.1377 0.0027 0.3010
0.2377 0.0027 0.3056
0.3578 0.0015 0.3102
0.5047 0.0002 0.3136
0.6596 0.0000 0.3209
0.8143 0.0000 0.3359
0.0165 0.0131 0.3294
0.0209 0.0131 0.3281
0.0533 0.0133 0.3259
0.1489 0.0125 0.3251
0.2545 0.0168 0.3372
0.3923 0.0270 0.3627
0.5641 0.0349 0.3969
0.7472 0.0211 0.4469
0.8957 0.0001 0.4972
0.0031 0.1363 0.6091
0.0036 0.1451 0.6100
0.0545 0.1673 0.6147
0.2005 0.1862 0.6247
0.3883 0.1958 0.6425
0.5766 0.1932 0.6607
0.7537 0.1800 0.6687
0.8918 0.1442 0.6698
0.9712 0.1592 0.6750
0.0001 0.3079 0.7214
0.0001 0.3249 0.7216
0.0302 0.3579 0.7236
0.1145 0.3987 0.7277
0.3832 0.4362 0.7335
0.6003 0.4681 0.7393
0.7816 0.4875 0.7462
0.9090 0.5051 0.7563
0.9794 0.5253 0.7684
0.0000 0.5149 0.7672
0.0003 0.5257 0.7673
0.0014 0.5563 0.7698
0.0523 0.6012 0.7739
0.2499 0.6470 0.7789
0.5660 0.6823 0.7838
0.7732 0.7113 0.7888
0.8876 0.7316 0.7970
0.9548 0.7477 0.8073
0.0000 0.6976 0.7987
0.0000 0.7044 0.7992
0.0000 0.7309 0.8001
0.0001 0.7648 0.8021
0.0954 0.7947 0.8061
0.4772 0.8180 0.8109
0.7380 0.8368 0.8172
0.8686 0.8524 0.8247
0.9399 0.8606 0.8343
0.0000 0.8234 0.8216
0.0000 0.8288 0.8215
0.0000 0.8498 0.8218
0.0000 0.8677 0.8239
0.0961 0.8837 0.8272
0.3757 0.8956 0.8314
0.6908 0.9037 0.8359
0.8400 0.9123 0.8409
0.9292 0.9187 0.8499
0.0008 0.0000 0.4118
0.0008 0.0000 0.4096
0.0241 0.0000 0.4063
0.0817 0.0000 0.4062
0.2152 0.0000 0.4097
0.3487 0.0000 0.4154
0.5107 0.0000 0.4233
0.6849 0.0000 0.4336
0.8425 0.0000 0.4478
0.0007 0.0000 0.4120
0.0008 0.0000 0.4095
0.0242 0.0000 0.4067
0.0822 0.0000 0.4062
0.2157 0.0000 0.4097
0.3491 0.0000 0.4159
0.5114 0.0000 0.4233
0.6849 0.0000 0.4336
0.8425 0.0000 0.4478
0.0006 0.0000 0.4120
0.0007 0.0000 0.4098
0.0257 0.0000 0.4072
0.0843 0.0000 0.4071
0.2165 0.0000 0.4107
0.3508 0.0000 0.4164
0.5125 0.0000 0.4242
0.6861 0.0000 0.4346
0.8436 0.0000 0.4488
0.0003 0.0003 0.4133
0.0004 0.0003 0.4109
0.0280 0.0003 0.4094
0.0882 0.0000 0.4084
0.2191 0.0000 0.4122
0.3535 0.0000 0.4179
0.5156 0.0000 0.4258
0.6884 0.0000 0.4362
0.8453 0.0000 0.4504
0.0000 0.0015 0.4161
0.0035 0.0023 0.4162
0.0314 0.0054 0.4201
0.0958 0.0139 0.4301
0.2373 0.0285 0.4504
0.3925 0.0468 0.4768
0.5756 0.0676 0.5089
0.7578 0.0884 0.5461
0.9004 0.1077 0.5860
0.0026 0.1929 0.7834
0.0067 0.2017 0.7836
0.0218 0.2361 0.7818
0.1248 0.2770 0.7782
0.3625 0.3017 0.7737
0.5750 0.3200 0.7704
0.7541 0.3333 0.7684
0.8871 0.3463 0.7682
0.9650 0.3678 0.7713
0.0000 0.3991 0.8382
0.0000 0.4138 0.8379
0.0000 0.4686 0.8368
0.0820 0.5305 0.8361
0.2806 0.5783 0.8363
0.5796 0.6147 0.8369
0.7819 0.6432 0.8388
0.9022 0.6642 0.8424
0.9690 0.6841 0.8481
0.0000 0.5997 0.8625
0.0000 0.6158 0.8616
0.0000 0.6771 0.8586
0.0045 0.7277 0.8576
0.1589 0.7685 0.8579
0.5164 0.7950 0.8592
0.7582 0.8160 0.8611
0.8784 0.8323 0.8643
0.9474 0.8451 0.8692
0.0000 0.7620 0.8763
0.0000 0.7765 0.8749
0.0000 0.8246 0.8710
0.0000 0.8508 0.8713
0.1450 0.8736 0.8725
0.4425 0.8872 0.8747
0.7305 0.8970 0.8775
0.8613 0.9069 0.8809
0.9352 0.9154 0.8850
