assets/luts/LUTs/JD_ANGOON.CUBE
TITLE "ColorFinale Export"
# Created by Jeven Dovey on 2023-09-02 23:26:34 +0000
# Color Finale Plugin v.2.6.0 (537)
LUT_3D_SIZE 5
0.0162 0.0154 0.0142
0.1268 0.0370 0.0392
0.3068 0.0456 0.0773
0.6022 0.0164 0.1283
0.9258 0.0022 0.1969
0.0062 0.1137 0.0418
0.1050 0.1365 0.0527
0.3429 0.1442 0.0979
0.6490 0.1109 0.1558
0.9532 0.0839 0.2366
0.0000 0.2904 0.0732
0.0116 0.3289 0.0700
0.2856 0.3819 0.1043
0.7235 0.4165 0.1980
0.9807 0.4618 0.3250
0.0000 0.5823 0.1244
0.0000 0.6202 0.1149
0.0386 0.6912 0.1228
0.6588 0.7392 0.2319
0.9533 0.7757 0.4175
0.0000 0.8527 0.3258
0.0000 0.8673 0.3277
0.0008 0.8995 0.3424
0.5465 0.9119 0.4068
0.9110 0.9158 0.5512
0.0376 0.0240 0.0769
0.1284 0.0290 0.0881
0.3068 0.0401 0.1171
0.5998 0.0179 0.1604
0.9197 0.0006 0.2169
0.0159 0.1069 0.1179
0.1202 0.1281 0.1232
0.3421 0.1362 0.1497
0.6462 0.0990 0.1936
0.9516 0.0830 0.2642
0.0002 0.2862 0.1540
0.0169 0.3251 0.1522
0.3028 0.3838 0.1751
0.7268 0.4173 0.2540
0.9791 0.4586 0.3640
0.0000 0.5795 0.2056
0.0000 0.6178 0.2012
0.0456 0.6920 0.2061
0.6726 0.7408 0.2928
0.9533 0.7768 0.4592
0.0000 0.8521 0.3771
0.0000 0.8667 0.3792
0.0026 0.8990 0.3927
0.5540 0.9118 0.4458
0.9122 0.9161 0.5781
0.0466 0.0161 0.1544
0.1215 0.0185 0.1634
0.3080 0.0101 0.1960
0.5902 0.0124 0.2375
0.9152 0.0000 0.2942
0.0427 0.0796 0.2335
0.1344 0.0908 0.2384
0.3525 0.0949 0.2582
0.6531 0.0478 0.2996
0.9451 0.0611 0.3526
0.0040 0.2738 0.3308
0.0397 0.3090 0.3395
0.3619 0.3752 0.3627
0.7266 0.4054 0.4143
0.9745 0.4403 0.4842
0.0000 0.5736 0.4174
0.0003 0.6109 0.4211
0.0768 0.6897 0.4308
0.7131 0.7460 0.4795
0.9514 0.7792 0.5995
0.0000 0.8518 0.5448
0.0000 0.8650 0.5474
0.0144 0.8965 0.5582
0.5805 0.9114 0.5878
0.9167 0.9171 0.6799
0.0212 0.0008 0.2090
0.0817 0.0017 0.2131
0.2447 0.0010 0.2267
0.4930 0.0000 0.2392
0.8262 0.0000 0.3032
0.0252 0.0132 0.2490
0.0935 0.0133 0.2503
0.2688 0.0100 0.2660
0.5683 0.0116 0.3311
0.9057 0.0000 0.4220
0.0111 0.2186 0.5438
0.0424 0.2463 0.5498
0.3982 0.2915 0.5655
0.7582 0.3189 0.5983
0.9772 0.3351 0.6413
0.0000 0.5501 0.6679
0.0028 0.5887 0.6737
0.1805 0.6726 0.6928
0.7621 0.7473 0.7210
0.9484 0.7703 0.7536
0.0000 0.8440 0.7498
0.0000 0.8585 0.7522
0.0514 0.8894 0.7605
0.6413 0.9079 0.7715
0.9245 0.9185 0.8015
0.0008 0.0000 0.4118
0.0241 0.0000 0.4063
0.2152 0.0000 0.4097
0.5107 0.0000 0.4233
0.8425 0.0000 0.4478
0.0006 0.0000 0.4120
0.0257 0.0000 0.4072
0.2165 0.0000 0.4107
0.5125 0.0000 0.4242
0.8436 0.0000 0.4488
0.0000 0.0015 0.4161
0.0314 0.0054 0.4201
0.2373 0.0285 0.4504
0.5756 0.0676 0.5089
0.9004 0.1077 0.5860
0.0000 0.3991 0.8382
0.0000 0.4686 0.8368
0.2806 0.5783 0.8363
0.7819 0.6432 0.8388
0.9690 0.6841 0.8481
0.0000 0.7620 0.8763
0.0000 0.8246 0.8710
0.1450 0.8736 0.8725
0.7305 0.8970 0.8775
0.9352 0.9154 0.8850
