assets/luts/LUTs/JD_ANGOON.CUBE
TITLE "ColorFinale Export"
# Created by Jeven Dovey on 2023-09-02 23:26:34 +0000
# Color Finale Plugin v.2.6.0 (537)
LUT_3D_SIZE 17
0.0162 0.0154 0.0142
0.0384 0.0206 0.0189
0.0620 0.0270 0.0243
0.0926 0.0323 0.0312
0.1268 0.0370 0.0392
0.1649 0.0404 0.0483
0.2073 0.0401 0.0578
0.2527 0.0431 0.0672
0.3068 0.0456 0.0773
0.3653 0.0472 0.0882
0.4381 0.0410 0.1003
0.5162 0.0284 0.1134
0.6022 0.0164 0.1283
0.6887 0.0208 0.1442
0.7754 0.0224 0.1610
0.8520 0.0153 0.1776
0.9258 0.0022 0.1969
0.0163 0.0336 0.0201
0.0342 0.0354 0.0221
0.0605 0.0386 0.0267
0.0937 0.0412 0.0337
0.1289 0.0436 0.0414
0.1671 0.0455 0.0503
0.2090 0.0471 0.0591
0.2547 0.0494 0.0685
0.3091 0.0506 0.0787
0.3675 0.0515 0.0896
0.4403 0.0436 0.1017
0.5186 0.0297 0.1146
0.6049 0.0208 0.1296
0.6906 0.0237 0.1453
0.7773 0.0241 0.1625
0.8539 0.0160 0.1793
0.9280 0.0021 0.1987
0.0172 0.0545 0.0277
0.0290 0.0572 0.0286
0.0545 0.0618 0.0322
0.0907 0.0643 0.0383
0.1288 0.0669 0.0454
0.1704 0.0696 0.0541
0.2153 0.0705 0.0636
0.2617 0.0716 0.0735
0.3167 0.0700 0.0838
0.3757 0.0679 0.0949
0.4500 0.0537 0.1071
0.5284 0.0434 0.1198
0.6131 0.0382 0.1344
0.6986 0.0364 0.1505
0.7852 0.0311 0.1681
0.8621 0.0189 0.1859
0.9359 0.0024 0.2068
0.0126 0.0821 0.0346
0.0172 0.0852 0.0348
0.0382 0.0910 0.0371
0.0798 0.0958 0.0420
0.1258 0.0997 0.0495
0.1759 0.1023 0.0600
0.2244 0.1033 0.0708
0.2724 0.1047 0.0817
0.3292 0.1013 0.0919
0.3905 0.0985 0.1027
0.4657 0.0881 0.1149
0.5443 0.0803 0.1281
0.6286 0.0695 0.1435
0.7139 0.0592 0.1604
0.8004 0.0438 0.1787
0.8769 0.0244 0.1987
0.9474 0.0166 0.2205
0.0062 0.1137 0.0418
0.0076 0.1168 0.0416
0.0257 0.1235 0.0430
0.0582 0.1307 0.0461
0.1050 0.1365 0.0527
0.1654 0.1407 0.0629
0.2223 0.1431 0.0739
0.2792 0.1459 0.0856
0.3429 0.1442 0.0979
0.4093 0.1430 0.1110
0.4860 0.1362 0.1248
0.5649 0.1285 0.1397
0.6490 0.1109 0.1558
0.7344 0.0898 0.1740
0.8188 0.0761 0.1927
0.8894 0.0760 0.2137
0.9532 0.0839 0.2366
0.0022 0.1501 0.0492
0.0025 0.1529 0.0488
0.0100 0.1595 0.0490
0.0195 0.1687 0.0500
0.0701 0.1760 0.0557
0.1474 0.1823 0.0647
0.2181 0.1865 0.0768
0.2880 0.1907 0.0911
0.3585 0.1915 0.1060
0.4292 0.1938 0.1204
0.5068 0.1920 0.1351
0.5875 0.1870 0.1505
0.6703 0.1750 0.1678
0.7531 0.1654 0.1870
0.8351 0.1600 0.2079
0.9014 0.1615 0.2317
0.9606 0.1666 0.2569
0.0001 0.1914 0.0562
0.0006 0.1935 0.0561
0.0024 0.2007 0.0556
0.0053 0.2113 0.0559
0.0479 0.2209 0.0600
0.1040 0.2307 0.0659
0.1823 0.2378 0.0768
0.2690 0.2453 0.0899
0.3533 0.2491 0.1061
0.4396 0.2529 0.1232
0.5246 0.2547 0.1410
0.6092 0.2552 0.1597
0.6924 0.2535 0.1801
0.7741 0.2527 0.2024
0.8532 0.2547 0.2261
0.9147 0.2578 0.2526
0.9683 0.2596 0.2797
0.0002 0.2353 0.0652
0.0003 0.2374 0.0648
0.0005 0.2450 0.0640
0.0008 0.2566 0.0635
0.0228 0.2687 0.0652
0.0470 0.2826 0.0679
0.1425 0.2923 0.0777
0.2477 0.3027 0.0893
0.3454 0.3095 0.1077
0.4453 0.3168 0.1266
0.5362 0.3230 0.1461
0.6254 0.3289 0.1674
0.7103 0.3344 0.1904
0.7903 0.3394 0.2150
0.8655 0.3446 0.2410
0.9224 0.3496 0.2705
0.9743 0.3575 0.3011
0.0000 0.2904 0.0732
0.0000 0.2928 0.0728
0.0000 0.3007 0.0715
0.0012 0.3140 0.0700
0.0116 0.3289 0.0700
0.0228 0.3454 0.0705
0.0848 0.3585 0.0785
0.1517 0.3722 0.0880
0.2856 0.3819 0.1043
0.4191 0.3922 0.1228
0.5288 0.4004 0.1459
0.6319 0.4090 0.1710
0.7235 0.4165 0.1980
0.8044 0.4251 0.2270
0.8766 0.4357 0.2568
0.9314 0.4475 0.2908
0.9807 0.4618 0.3250
0.0000 0.3504 0.0821
0.0000 0.3526 0.0817
0.0000 0.3610 0.0802
0.0000 0.3753 0.0781
0.0002 0.3921 0.0764
0.0032 0.4108 0.0758
0.0264 0.4271 0.0807
0.0723 0.4439 0.0879
0.2286 0.4575 0.1023
0.3774 0.4700 0.1206
0.5069 0.4807 0.1458
0.6243 0.4911 0.1734
0.7251 0.5009 0.2040
0.8081 0.5116 0.2369
0.8807 0.5232 0.2709
0.9307 0.5362 0.3081
0.9749 0.5503 0.3457
0.0000 0.4241 0.0930
0.0000 0.4262 0.0926
0.0000 0.4351 0.0906
0.0000 0.4486 0.0875
0.0001 0.4659 0.0840
0.0026 0.4845 0.0825
0.0114 0.5029 0.0841
0.0483 0.5209 0.0887
0.1647 0.5365 0.1015
0.2981 0.5509 0.1191
0.4600 0.5634 0.1440
0.6000 0.5745 0.1739
0.7171 0.5855 0.2086
0.8064 0.5977 0.2461
0.8821 0.6106 0.2853
0.9293 0.6255 0.3271
0.9691 0.6414 0.3693
0.0000 0.5011 0.1061
0.0000 0.5030 0.1054
0.0000 0.5111 0.1034
0.0000 0.5242 0.0997
0.0000 0.5412 0.0956
0.0000 0.5604 0.0924
0.0000 0.5794 0.0927
0.0273 0.5980 0.0973
0.1019 0.6150 0.1078
0.2214 0.6300 0.1248
0.3971 0.6433 0.1493
0.5522 0.6542 0.1812
0.6922 0.6642 0.2186
0.7902 0.6741 0.2593
0.8734 0.6849 0.3015
0.9205 0.6966 0.3462
0.9611 0.7090 0.3929
0.0000 0.5823 0.1244
0.0000 0.5846 0.1241
0.0000 0.5912 0.1220
0.0000 0.6037 0.1188
0.0000 0.6202 0.1149
0.0000 0.6377 0.1125
0.0000 0.6563 0.1111
0.0130 0.6743 0.1149
0.0386 0.6912 0.1228
0.1424 0.7066 0.1389
0.3188 0.7204 0.1616
0.4903 0.7310 0.1941
0.6588 0.7392 0.2319
0.7689 0.7476 0.2746
0.8629 0.7557 0.3186
0.9110 0.7661 0.3678
0.9533 0.7757 0.4175
0.0000 0.6617 0.1568
0.0000 0.6630 0.1563
0.0000 0.6690 0.1548
0.0000 0.6802 0.1529
0.0000 0.6954 0.1506
0.0000 0.7101 0.1493
0.0000 0.7266 0.1493
0.0029 0.7422 0.1537
0.0078 0.7576 0.1613
0.1036 0.7704 0.1770
0.2546 0.7818 0.1974
0.4325 0.7892 0.2282
0.6253 0.7951 0.2625
0.7424 0.8005 0.3036
0.8463 0.8056 0.3467
0.8966 0.8129 0.3958
0.9432 0.8204 0.4455
0.0000 0.7375 0.2000
0.0000 0.7387 0.2000
0.0000 0.7437 0.1993
0.0000 0.7532 0.1983
0.0000 0.7651 0.1975
0.0000 0.7771 0.1980
0.0000 0.7904 0.1999
0.0007 0.8034 0.2045
0.0016 0.8166 0.2107
0.0803 0.8269 0.2251
0.1881 0.8356 0.2418
0.3784 0.8411 0.2682
0.5925 0.8456 0.2963
0.7155 0.8496 0.3353
0.8275 0.8528 0.3762
0.8827 0.8579 0.4257
0.9332 0.8627 0.4750
0.0000 0.7988 0.2607
0.0000 0.7997 0.2608
0.0000 0.8039 0.2607
0.0000 0.8110 0.2605
0.0000 0.8193 0.2610
0.0000 0.8290 0.2628
0.0000 0.8397 0.2652
0.0000 0.8495 0.2702
0.0000 0.8604 0.2765
0.0670 0.8670 0.2889
0.1451 0.8737 0.3034
0.3484 0.8770 0.3258
0.5706 0.8799 0.3505
0.6926 0.8820 0.3853
0.8075 0.8843 0.4215
0.8681 0.8874 0.4661
0.9219 0.8905 0.5116
0.0000 0.8527 0.3258
0.0000 0.8536 0.3261
0.0000 0.8564 0.3263
0.0000 0.8612 0.3266
0.0000 0.8673 0.3277
0.0000 0.8751 0.3297
0.0000 0.8835 0.3328
0.0000 0.8912 0.3370
0.0008 0.8995 0.3424
0.0511 0.9036 0.3531
0.1033 0.9079 0.3659
0.3269 0.9099 0.3863
0.5465 0.9119 0.4068
0.6723 0.9127 0.4370
0.7891 0.9134 0.4685
0.8545 0.9144 0.5089
0.9110 0.9158 0.5512
0.0215 0.0185 0.0257
0.0378 0.0210 0.0271
0.0616 0.0267 0.0304
0.0923 0.0319 0.0361
0.1265 0.0363 0.0431
0.1642 0.0397 0.0515
0.2071 0.0396 0.0606
0.2524 0.0426 0.0696
0.3069 0.0453 0.0794
0.3651 0.0471 0.0901
0.4379 0.0409 0.1019
0.5159 0.0283 0.1147
0.6026 0.0165 0.1298
0.6884 0.0206 0.1453
0.7753 0.0223 0.1623
0.8520 0.0151 0.1787
0.9260 0.0020 0.1976
0.0193 0.0321 0.0300
0.0351 0.0342 0.0309
0.0608 0.0378 0.0335
0.0935 0.0404 0.0388
0.1283 0.0429 0.0456
0.1664 0.0448 0.0537
0.2089 0.0466 0.0620
0.2547 0.0489 0.0711
0.3089 0.0504 0.0808
0.3672 0.0514 0.0915
0.4401 0.0435 0.1033
0.5184 0.0296 0.1161
0.6046 0.0206 0.1309
0.6905 0.0238 0.1467
0.7773 0.0240 0.1637
0.8539 0.0158 0.1804
0.9281 0.0020 0.1998
0.0190 0.0533 0.0364
0.0305 0.0561 0.0369
0.0556 0.0609 0.0391
0.0910 0.0634 0.0438
0.1286 0.0663 0.0498
0.1705 0.0691 0.0578
0.2153 0.0699 0.0667
0.2617 0.0711 0.0762
0.3168 0.0697 0.0861
0.3759 0.0676 0.0969
0.4498 0.0535 0.1088
0.5283 0.0437 0.1214
0.6130 0.0383 0.1361
0.6985 0.0364 0.1520
0.7850 0.0307 0.1693
0.8621 0.0187 0.1870
0.9358 0.0023 0.2075
0.0135 0.0813 0.0417
0.0181 0.0844 0.0417
0.0394 0.0903 0.0433
0.0809 0.0953 0.0472
0.1267 0.0994 0.0539
0.1760 0.1019 0.0642
0.2240 0.1028 0.0743
0.2719 0.1041 0.0844
0.3288 0.1011 0.0944
0.3903 0.0985 0.1047
0.4654 0.0877 0.1167
0.5440 0.0801 0.1298
0.6285 0.0695 0.1451
0.7136 0.0587 0.1617
0.8002 0.0433 0.1798
0.8767 0.0240 0.1997
0.9478 0.0172 0.2215
0.0067 0.1131 0.0476
0.0082 0.1161 0.0474
0.0266 0.1227 0.0483
0.0590 0.1305 0.0508
0.1058 0.1360 0.0572
0.1655 0.1404 0.0672
0.2222 0.1429 0.0775
0.2795 0.1458 0.0887
0.3428 0.1441 0.1007
0.4092 0.1431 0.1134
0.4858 0.1359 0.1269
0.5652 0.1280 0.1414
0.6489 0.1106 0.1577
0.7342 0.0890 0.1754
0.8187 0.0763 0.1940
0.8894 0.0765 0.2150
0.9535 0.0835 0.2375
0.0023 0.1495 0.0541
0.0026 0.1523 0.0537
0.0102 0.1592 0.0538
0.0207 0.1683 0.0552
0.0723 0.1754 0.0608
0.1485 0.1819 0.0690
0.2187 0.1862 0.0806
0.2883 0.1905 0.0946
0.3585 0.1917 0.1090
0.4291 0.1936 0.1229
0.5072 0.1918 0.1374
0.5874 0.1871 0.1525
0.6706 0.1742 0.1696
0.7529 0.1648 0.1886
0.8349 0.1595 0.2094
0.9013 0.1611 0.2330
0.9606 0.1662 0.2580
0.0002 0.1908 0.0616
0.0008 0.1929 0.0615
0.0030 0.2004 0.0609
0.0064 0.2108 0.0611
0.0494 0.2205 0.0647
0.1049 0.2305 0.0700
0.1831 0.2376 0.0805
0.2696 0.2451 0.0932
0.3537 0.2489 0.1092
0.4399 0.2533 0.1260
0.5247 0.2546 0.1435
0.6089 0.2549 0.1621
0.6922 0.2531 0.1822
0.7739 0.2524 0.2042
0.8530 0.2544 0.2276
0.9146 0.2574 0.2540
0.9683 0.2592 0.2808
0.0002 0.2348 0.0701
0.0003 0.2372 0.0697
0.0006 0.2449 0.0688
0.0010 0.2561 0.0682
0.0231 0.2688 0.0695
0.0477 0.2824 0.0719
0.1432 0.2923 0.0813
0.2486 0.3026 0.0930
0.3461 0.3095 0.1109
0.4466 0.3168 0.1295
0.5370 0.3229 0.1488
0.6253 0.3287 0.1701
0.7102 0.3342 0.1925
0.7902 0.3391 0.2170
0.8655 0.3444 0.2427
0.9227 0.3492 0.2722
0.9743 0.3572 0.3023
0.0000 0.2904 0.0775
0.0000 0.2925 0.0772
0.0000 0.3008 0.0759
0.0013 0.3137 0.0745
0.0119 0.3287 0.0741
0.0236 0.3454 0.0744
0.0852 0.3584 0.0821
0.1520 0.3721 0.0913
0.2868 0.3824 0.1076
0.4198 0.3922 0.1256
0.5291 0.4003 0.1489
0.6321 0.4089 0.1737
0.7236 0.4164 0.2003
0.8045 0.4257 0.2291
0.8770 0.4356 0.2588
0.9313 0.4474 0.2923
0.9807 0.4616 0.3263
0.0000 0.3502 0.0862
0.0000 0.3523 0.0858
0.0000 0.3612 0.0844
0.0000 0.3751 0.0820
0.0001 0.3920 0.0803
0.0032 0.4107 0.0795
0.0266 0.4272 0.0842
0.0721 0.4444 0.0910
0.2292 0.4575 0.1052
0.3782 0.4700 0.1236
0.5075 0.4807 0.1488
0.6246 0.4911 0.1761
0.7253 0.5009 0.2063
0.8082 0.5115 0.2391
0.8808 0.5231 0.2730
0.9307 0.5361 0.3097
0.9748 0.5502 0.3475
0.0000 0.4240 0.0967
0.0000 0.4261 0.0963
0.0000 0.4349 0.0944
0.0000 0.4483 0.0914
0.0001 0.4657 0.0879
0.0026 0.4849 0.0859
0.0114 0.5028 0.0875
0.0482 0.5214 0.0921
0.1654 0.5365 0.1052
0.2990 0.5509 0.1224
0.4607 0.5634 0.1469
0.6005 0.5745 0.1768
0.7175 0.5855 0.2111
0.8066 0.5977 0.2485
0.8821 0.6112 0.2872
0.9294 0.6255 0.3288
0.9691 0.6413 0.3712
0.0000 0.5008 0.1094
0.0000 0.5029 0.1089
0.0000 0.5110 0.1069
0.0000 0.5240 0.1033
0.0000 0.5415 0.0989
0.0000 0.5603 0.0963
0.0000 0.5792 0.0969
0.0275 0.5979 0.1014
0.1025 0.6149 0.1115
0.2221 0.6300 0.1280
0.3978 0.6433 0.1525
0.5534 0.6548 0.1844
0.6926 0.6642 0.2211
0.7903 0.6746 0.2614
0.8736 0.6849 0.3034
0.9206 0.6965 0.3483
0.9611 0.7090 0.3945
0.0000 0.5827 0.1283
0.0000 0.5843 0.1276
0.0000 0.5910 0.1259
0.0000 0.6036 0.1224
0.0000 0.6201 0.1190
0.0000 0.6381 0.1165
0.0000 0.6561 0.1152
0.0131 0.6742 0.1185
0.0389 0.6912 0.1264
0.1429 0.7066 0.1420
0.3196 0.7204 0.1646
0.4910 0.7310 0.1969
0.6592 0.7392 0.2341
0.7692 0.7476 0.2766
0.8630 0.7557 0.3205
0.9110 0.7661 0.3695
0.9533 0.7757 0.4191
0.0000 0.6614 0.1600
0.0000 0.6629 0.1598
0.0000 0.6689 0.1584
0.0000 0.6800 0.1562
0.0000 0.6952 0.1539
0.0000 0.7099 0.1528
0.0000 0.7265 0.1528
0.0030 0.7421 0.1572
0.0080 0.7577 0.1643
0.1040 0.7704 0.1799
0.2553 0.7818 0.2002
0.4344 0.7892 0.2306
0.6257 0.7951 0.2645
0.7426 0.8005 0.3055
0.8464 0.8056 0.3484
0.8970 0.8129 0.3977
0.9432 0.8207 0.4468
0.0000 0.7375 0.2030
0.0000 0.7387 0.2030
0.0000 0.7435 0.2023
0.0000 0.7531 0.2010
0.0000 0.7651 0.2002
0.0000 0.7770 0.2012
0.0000 0.7903 0.2027
0.0007 0.8034 0.2073
0.0015 0.8169 0.2137
0.0806 0.8269 0.2277
0.1894 0.8356 0.2441
0.3788 0.8411 0.2702
0.5928 0.8456 0.2982
0.7157 0.8496 0.3371
0.8276 0.8529 0.3779
0.8828 0.8579 0.4272
0.9333 0.8627 0.4764
0.0000 0.7988 0.2630
0.0000 0.7997 0.2631
0.0000 0.8039 0.2630
0.0000 0.8109 0.2628
0.0000 0.8193 0.2633
0.0000 0.8289 0.2652
0.0000 0.8396 0.2676
0.0000 0.8497 0.2730
0.0000 0.8604 0.2785
0.0672 0.8670 0.2908
0.1456 0.8736 0.3052
0.3488 0.8770 0.3279
0.5709 0.8799 0.3522
0.6926 0.8822 0.3872
0.8076 0.8843 0.4230
0.8682 0.8874 0.4674
0.9220 0.8905 0.5128
0.0000 0.8529 0.3279
0.0000 0.8537 0.3281
0.0000 0.8563 0.3280
0.0000 0.8615 0.3286
0.0000 0.8676 0.3298
0.0000 0.8750 0.3317
0.0000 0.8834 0.3344
0.0000 0.8912 0.3387
0.0008 0.8995 0.3441
0.0514 0.9036 0.3552
0.1038 0.9079 0.3679
0.3272 0.9099 0.3879
0.5467 0.9119 0.4083
0.6733 0.9127 0.4383
0.7892 0.9134 0.4698
0.8546 0.9144 0.5101
0.9110 0.9158 0.5521
0.0268 0.0216 0.0401
0.0384 0.0233 0.0408
0.0620 0.0274 0.0437
0.0921 0.0311 0.0484
0.1261 0.0348 0.0545
0.1642 0.0373 0.0620
0.2069 0.0377 0.0701
0.2519 0.0413 0.0784
0.3059 0.0446 0.0873
0.3641 0.0467 0.0973
0.4373 0.0403 0.1084
0.5156 0.0271 0.1208
0.6017 0.0166 0.1355
0.6876 0.0206 0.1505
0.7746 0.0215 0.1669
0.8517 0.0140 0.1825
0.9258 0.0015 0.2012
0.0255 0.0312 0.0450
0.0375 0.0331 0.0455
0.0623 0.0365 0.0476
0.0935 0.0385 0.0518
0.1279 0.0406 0.0574
0.1666 0.0420 0.0646
0.2088 0.0444 0.0717
0.2540 0.0473 0.0800
0.3082 0.0496 0.0889
0.3666 0.0508 0.0989
0.4396 0.0428 0.1098
0.5182 0.0284 0.1224
0.6039 0.0210 0.1369
0.6896 0.0237 0.1520
0.7767 0.0231 0.1683
0.8536 0.0147 0.1842
0.9276 0.0016 0.2030
0.0238 0.0516 0.0533
0.0336 0.0542 0.0535
0.0578 0.0584 0.0549
0.0917 0.0613 0.0583
0.1292 0.0640 0.0631
0.1702 0.0668 0.0700
0.2146 0.0679 0.0775
0.2604 0.0695 0.0857
0.3154 0.0686 0.0946
0.3746 0.0666 0.1046
0.4486 0.0526 0.1154
0.5273 0.0430 0.1277
0.6127 0.0378 0.1421
0.6983 0.0357 0.1575
0.7849 0.0293 0.1741
0.8615 0.0174 0.1910
0.9357 0.0018 0.2113
0.0164 0.0793 0.0594
0.0209 0.0821 0.0594
0.0436 0.0878 0.0609
0.0841 0.0933 0.0638
0.1287 0.0974 0.0696
0.1758 0.0999 0.0780
0.2229 0.1011 0.0862
0.2707 0.1027 0.0950
0.3277 0.0997 0.1036
0.3895 0.0973 0.1131
0.4649 0.0873 0.1239
0.5430 0.0791 0.1367
0.6274 0.0680 0.1513
0.7129 0.0573 0.1675
0.8003 0.0410 0.1851
0.8767 0.0222 0.2041
0.9473 0.0175 0.2253
0.0090 0.1112 0.0661
0.0107 0.1139 0.0660
0.0306 0.1208 0.0670
0.0631 0.1287 0.0691
0.1092 0.1343 0.0745
0.1666 0.1389 0.0818
0.2226 0.1418 0.0904
0.2795 0.1445 0.1005
0.3427 0.1434 0.1112
0.4089 0.1425 0.1228
0.4850 0.1357 0.1352
0.5642 0.1267 0.1490
0.6485 0.1081 0.1644
0.7340 0.0859 0.1815
0.8187 0.0741 0.1994
0.8894 0.0754 0.2198
0.9532 0.0834 0.2417
0.0029 0.1475 0.0730
0.0034 0.1504 0.0729
0.0134 0.1570 0.0731
0.0260 0.1666 0.0737
0.0785 0.1739 0.0778
0.1526 0.1809 0.0841
0.2214 0.1855 0.0946
0.2900 0.1903 0.1077
0.3591 0.1914 0.1204
0.4294 0.1938 0.1331
0.5065 0.1911 0.1463
0.5862 0.1855 0.1607
0.6697 0.1725 0.1770
0.7529 0.1638 0.1954
0.8345 0.1591 0.2154
0.9009 0.1603 0.2382
0.9604 0.1658 0.2624
0.0006 0.1891 0.0799
0.0016 0.1914 0.0797
0.0051 0.1987 0.0792
0.0101 0.2093 0.0788
0.0537 0.2194 0.0814
0.1083 0.2300 0.0852
0.1865 0.2378 0.0949
0.2725 0.2451 0.1066
0.3559 0.2489 0.1213
0.4417 0.2533 0.1370
0.5251 0.2542 0.1535
0.6086 0.2541 0.1715
0.6920 0.2523 0.1905
0.7733 0.2518 0.2114
0.8532 0.2538 0.2342
0.9143 0.2567 0.2598
0.9681 0.2585 0.2856
0.0003 0.2336 0.0871
0.0004 0.2359 0.0869
0.0008 0.2433 0.0860
0.0013 0.2550 0.0854
0.0244 0.2681 0.0858
0.0501 0.2825 0.0868
0.1468 0.2924 0.0955
0.2522 0.3029 0.1065
0.3493 0.3098 0.1233
0.4482 0.3170 0.1410
0.5371 0.3230 0.1601
0.6255 0.3287 0.1802
0.7098 0.3341 0.2014
0.7899 0.3390 0.2249
0.8652 0.3442 0.2498
0.9225 0.3491 0.2782
0.9741 0.3570 0.3076
0.0000 0.2892 0.0940
0.0000 0.2916 0.0937
0.0000 0.2995 0.0925
0.0015 0.3128 0.0912
0.0125 0.3284 0.0900
0.0250 0.3453 0.0893
0.0865 0.3586 0.0961
0.1538 0.3726 0.1044
0.2893 0.3823 0.1201
0.4229 0.3925 0.1382
0.5313 0.4006 0.1606
0.6328 0.4086 0.1843
0.7239 0.4167 0.2102
0.8045 0.4253 0.2377
0.8769 0.4359 0.2665
0.9311 0.4469 0.2988
0.9804 0.4615 0.3325
0.0000 0.3492 0.1022
0.0000 0.3519 0.1019
0.0000 0.3602 0.1004
0.0000 0.3746 0.0983
0.0001 0.3918 0.0958
0.0035 0.4109 0.0942
0.0266 0.4275 0.0980
0.0741 0.4444 0.1042
0.2327 0.4579 0.1188
0.3819 0.4705 0.1367
0.5104 0.4812 0.1610
0.6269 0.4909 0.1876
0.7269 0.5008 0.2169
0.8091 0.5120 0.2483
0.8808 0.5236 0.2809
0.9310 0.5366 0.3170
0.9747 0.5495 0.3547
0.0000 0.4236 0.1117
0.0000 0.4257 0.1113
0.0000 0.4340 0.1093
0.0000 0.4481 0.1060
0.0001 0.4651 0.1027
0.0027 0.4843 0.1008
0.0116 0.5029 0.1025
0.0502 0.5210 0.1077
0.1684 0.5369 0.1193
0.3028 0.5515 0.1357
0.4633 0.5634 0.1595
0.6032 0.5751 0.1886
0.7188 0.5861 0.2216
0.8080 0.5977 0.2580
0.8830 0.6113 0.2955
0.9294 0.6260 0.3364
0.9690 0.6418 0.3787
0.0000 0.5005 0.1241
0.0000 0.5026 0.1238
0.0000 0.5101 0.1217
0.0000 0.5231 0.1186
0.0000 0.5407 0.1149
0.0000 0.5594 0.1127
0.0000 0.5791 0.1131
0.0286 0.5981 0.1169
0.1047 0.6148 0.1259
0.2244 0.6305 0.1418
0.4015 0.6439 0.1653
0.5559 0.6548 0.1956
0.6940 0.6647 0.2313
0.7920 0.6747 0.2708
0.8741 0.6850 0.3113
0.9205 0.6970 0.3563
0.9611 0.7089 0.4014
0.0000 0.5818 0.1430
0.0000 0.5835 0.1427
0.0000 0.5907 0.1409
0.0000 0.6026 0.1379
0.0000 0.6197 0.1347
0.0000 0.6374 0.1322
0.0000 0.6562 0.1309
0.0138 0.6739 0.1339
0.0405 0.6911 0.1413
0.1446 0.7071 0.1561
0.3245 0.7205 0.1775
0.4953 0.7311 0.2082
0.6620 0.7398 0.2441
0.7709 0.7477 0.2854
0.8635 0.7557 0.3295
0.9114 0.7667 0.3778
0.9532 0.7760 0.4259
0.0000 0.6607 0.1737
0.0000 0.6623 0.1736
0.0000 0.6687 0.1726
0.0000 0.6794 0.1705
0.0000 0.6950 0.1685
0.0000 0.7100 0.1672
0.0000 0.7261 0.1669
0.0033 0.7419 0.1710
0.0086 0.7575 0.1775
0.1066 0.7707 0.1925
0.2579 0.7822 0.2118
0.4366 0.7896 0.2409
0.6268 0.7955 0.2733
0.7437 0.8005 0.3142
0.8468 0.8060 0.3567
0.8972 0.8133 0.4051
0.9433 0.8208 0.4532
0.0000 0.7371 0.2149
0.0000 0.7383 0.2146
0.0000 0.7436 0.2142
0.0000 0.7532 0.2134
0.0000 0.7652 0.2125
0.0000 0.7768 0.2130
0.0000 0.7905 0.2149
0.0008 0.8032 0.2188
0.0017 0.8168 0.2246
0.0825 0.8268 0.2379
0.1910 0.8360 0.2536
0.3807 0.8411 0.2786
0.5941 0.8456 0.3070
0.7175 0.8496 0.3453
0.8284 0.8531 0.3857
0.8835 0.8579 0.4339
0.9335 0.8627 0.4821
0.0000 0.7988 0.2731
0.0000 0.7997 0.2733
0.0000 0.8035 0.2728
0.0000 0.8110 0.2731
0.0000 0.8194 0.2736
0.0000 0.8286 0.2748
0.0000 0.8394 0.2772
0.0000 0.8496 0.2817
0.0000 0.8602 0.2872
0.0685 0.8672 0.2995
0.1481 0.8736 0.3134
0.3521 0.8769 0.3360
0.5733 0.8801 0.3602
0.6943 0.8822 0.3943
0.8080 0.8846 0.4294
0.8685 0.8874 0.4729
0.9220 0.8907 0.5178
0.0000 0.8528 0.3356
0.0000 0.8535 0.3355
0.0000 0.8562 0.3357
0.0000 0.8613 0.3363
0.0000 0.8674 0.3375
0.0000 0.8749 0.3388
0.0000 0.8833 0.3415
0.0000 0.8910 0.3457
0.0012 0.8994 0.3517
0.0522 0.9036 0.3638
0.1057 0.9080 0.3760
0.3284 0.9098 0.3947
0.5485 0.9118 0.4147
0.6740 0.9126 0.4441
0.7897 0.9134 0.4750
0.8553 0.9143 0.5149
0.9112 0.9158 0.5561
0.0321 0.0233 0.0581
0.0410 0.0246 0.0586
0.0633 0.0275 0.0606
0.0929 0.0303 0.0645
0.1269 0.0329 0.0699
0.1655 0.0341 0.0768
0.2073 0.0361 0.0841
0.2515 0.0402 0.0919
0.3054 0.0434 0.1003
0.3639 0.0447 0.1098
0.4365 0.0372 0.1203
0.5147 0.0242 0.1322
0.6009 0.0172 0.1461
0.6869 0.0207 0.1603
0.7740 0.0198 0.1757
0.8508 0.0122 0.1902
0.9242 0.0009 0.2075
0.0318 0.0301 0.0630
0.0408 0.0315 0.0633
0.0641 0.0342 0.0649
0.0945 0.0361 0.0682
0.1291 0.0376 0.0731
0.1670 0.0399 0.0794
0.2087 0.0427 0.0861
0.2531 0.0461 0.0937
0.3073 0.0484 0.1021
0.3658 0.0483 0.1114
0.4389 0.0395 0.1218
0.5174 0.0253 0.1339
0.6029 0.0210 0.1475
0.6888 0.0233 0.1615
0.7758 0.0211 0.1770
0.8528 0.0128 0.1919
