assets/luts/LUTs/JD_Belize.CUBE
TITLE "ColorFinale Export"
# Created by Jeven Dovey on 2021-07-15 17:41:35 +0000
# Color Finale Plugin v.2.3.2 (520)
LUT_3D_SIZE 9
0.0049 0.0054 0.0020
0.0547 0.0089 0.0000
0.1587 0.0250 0.0000
0.2937 0.0538 0.0032
0.4299 0.0659 0.0000
0.5504 0.0798 0.0000
0.6552 0.1400 0.0000
0.7477 0.2070 0.0000
0.8419 0.2594 0.0000
0.0091 0.0572 0.0116
0.0569 0.0603 0.0123
0.1571 0.0702 0.0063
0.2843 0.0933 0.0140
0.4251 0.1085 0.0000
0.5457 0.1292 0.0000
0.6521 0.1915 0.0000
0.7436 0.2531 0.0000
0.8348 0.3054 0.0000
0.0382 0.1524 0.0269
0.0860 0.1537 0.0243
0.1818 0.1490 0.0304
0.3049 0.1481 0.0325
0.4381 0.1666 0.0109
0.5499 0.2017 0.0000
0.6570 0.2565 0.0012
0.7479 0.3104 0.0081
0.8356 0.3595 0.0117
0.1037 0.2833 0.0565
0.1475 0.2869 0.0587
0.2359 0.2729 0.0716
0.3411 0.2759 0.0647
0.4781 0.2765 0.0387
0.5824 0.3029 0.0242
0.6806 0.3417 0.0212
0.7593 0.3808 0.0251
0.8445 0.4199 0.0269
0.1470 0.4301 0.0727
0.1983 0.4318 0.0796
0.2766 0.4194 0.0795
0.3798 0.4134 0.1134
0.5095 0.4333 0.0814
0.6302 0.4321 0.0770
0.7207 0.4529 0.0635
0.7889 0.4821 0.0574
0.8598 0.5130 0.0544
0.1996 0.5708 0.0969
0.2449 0.5713 0.0986
0.3206 0.5699 0.1006
0.4091 0.5529 0.1037
0.5213 0.5621 0.1274
0.6435 0.5799 0.1101
0.7546 0.5760 0.1125
0.8411 0.5889 0.1006
0.8742 0.6090 0.0949
0.2700 0.6936 0.1232
0.3172 0.6931 0.1256
0.3801 0.6905 0.1267
0.4552 0.6789 0.1139
0.5387 0.6704 0.1516
0.6330 0.6857 0.1401
0.7589 0.7076 0.1353
0.8509 0.6970 0.1405
0.8871 0.6986 0.1350
0.3455 0.8046 0.1464
0.3942 0.8063 0.1516
0.4442 0.8014 0.1506
0.5025 0.7924 0.1383
0.5717 0.7794 0.1528
0.6320 0.7777 0.1786
0.7089 0.7903 0.1845
0.8178 0.8164 0.1638
0.8805 0.8080 0.1623
0.3991 0.8779 0.1581
0.4430 0.8767 0.1613
0.4925 0.8758 0.1603
0.5379 0.8739 0.1524
0.5940 0.8654 0.1486
0.6414 0.8636 0.1702
0.6916 0.8635 0.2033
0.7667 0.8787 0.2143
0.8397 0.8931 0.2233
0.0068 0.0086 0.0598
0.0606 0.0088 0.0509
0.1594 0.0185 0.0447
0.3013 0.0450 0.0452
0.4445 0.0516 0.0519
0.5537 0.0848 0.0000
0.6584 0.1462 0.0000
0.7510 0.2072 0.0026
0.8474 0.2616 0.0071
0.0009 0.0707 0.0776
0.0629 0.0679 0.0748
0.1656 0.0728 0.0524
0.2966 0.0941 0.0399
0.4303 0.1142 0.0213
0.5509 0.1440 0.0068
0.6563 0.1988 0.0074
0.7483 0.2553 0.0136
0.8405 0.3091 0.0210
0.0306 0.1705 0.0869
0.0887 0.1683 0.0796
0.1900 0.1630 0.0726
0.3106 0.1666 0.0597
0.4408 0.1878 0.0424
0.5562 0.2164 0.0236
0.6627 0.2624 0.0249
0.7514 0.3148 0.0316
0.8391 0.3604 0.0355
0.0921 0.3031 0.1057
0.1378 0.3019 0.0945
0.2271 0.2877 0.0910
0.3500 0.2907 0.0907
0.4841 0.2907 0.0659
0.5891 0.3155 0.0497
0.6869 0.3493 0.0458
0.7730 0.3869 0.0486
0.8511 0.4236 0.0513
0.1454 0.4459 0.1135
0.2005 0.4429 0.1177
0.2742 0.4314 0.1189
0.3812 0.4198 0.1433
0.5179 0.4436 0.1053
0.6348 0.4437 0.0981
0.7247 0.4624 0.0861
0.7926 0.4875 0.0775
0.8626 0.5155 0.0749
0.2011 0.5799 0.1346
0.2509 0.5784 0.1352
0.3249 0.5755 0.1404
0.4148 0.5532 0.1394
0.5338 0.5673 0.1726
0.6524 0.5875 0.1318
0.7582 0.5857 0.1326
0.8435 0.5951 0.1193
0.8766 0.6134 0.1139
0.2668 0.7041 0.1581
0.3167 0.7020 0.1607
0.3814 0.6986 0.1629
0.4574 0.6862 0.1520
0.5441 0.6715 0.1835
0.6397 0.6872 0.1786
0.7636 0.7134 0.1606
0.8541 0.6983 0.1583
0.8908 0.7028 0.1533
0.3462 0.8135 0.1835
0.3955 0.8104 0.1857
0.4502 0.8081 0.1871
0.5102 0.7999 0.1801
0.5792 0.7846 0.1867
0.6386 0.7800 0.2092
0.7142 0.7926 0.2175
0.8220 0.8208 0.1987
0.8816 0.8125 0.1842
0.4060 0.8851 0.1953
0.4512 0.8837 0.1973
0.5004 0.8798 0.2007
0.5469 0.8760 0.1954
0.6009 0.8682 0.1857
0.6483 0.8629 0.2038
0.6989 0.8633 0.2341
0.7747 0.8833 0.2456
0.8429 0.8957 0.2497
0.0115 0.0292 0.1625
0.0642 0.0255 0.1438
0.1387 0.0307 0.1363
0.2694 0.0423 0.1434
0.4283 0.0455 0.1052
0.5620 0.0710 0.0714
0.6618 0.1521 0.0377
0.7599 0.2151 0.0414
0.8532 0.2640 0.0450
0.0000 0.0969 0.1762
0.0550 0.0916 0.1731
0.1494 0.0931 0.1573
0.2953 0.0938 0.1497
0.4465 0.1035 0.1038
0.5579 0.1639 0.0547
0.6623 0.2172 0.0507
0.7543 0.2669 0.0557
0.8508 0.3171 0.0587
0.0235 0.2033 0.2030
0.0626 0.2028 0.2000
0.1887 0.1966 0.1939
0.3269 0.2055 0.1627
0.4503 0.2277 0.1169
0.5642 0.2534 0.0819
0.6687 0.2909 0.0742
0.7600 0.3340 0.0752
0.8483 0.3769 0.0793
0.0968 0.3339 0.2128
0.1305 0.3354 0.2135
0.2098 0.3226 0.1853
0.3599 0.3275 0.1932
0.4958 0.3327 0.1482
0.5990 0.3498 0.1035
0.6937 0.3748 0.0933
0.7731 0.4048 0.0913
0.8525 0.4384 0.0943
0.1156 0.4727 0.2081
0.1755 0.4699 0.1932
0.2624 0.4587 0.1766
0.3627 0.4409 0.1674
0.5292 0.4700 0.1694
0.6478 0.4724 0.1414
0.7311 0.4870 0.1191
0.8017 0.5059 0.1117
0.8697 0.5273 0.1074
0.1853 0.6001 0.1905
0.2385 0.5973 0.1889
0.3141 0.5901 0.1864
0.4008 0.5727 0.1788
0.5333 0.5714 0.2161
0.6619 0.6039 0.1647
0.7698 0.6047 0.1579
0.8249 0.6135 0.1486
0.8813 0.6299 0.1408
0.2635 0.7183 0.1980
0.3106 0.7161 0.1986
0.3695 0.7096 0.1963
0.4462 0.6989 0.1974
0.5452 0.6771 0.2133
0.6471 0.6916 0.2299
0.7715 0.7264 0.1894
0.8610 0.7162 0.1825
0.8938 0.7191 0.1777
0.3408 0.8259 0.2193
0.3890 0.8224 0.2223
0.4407 0.8161 0.2209
0.5050 0.8085 0.2207
0.5813 0.7913 0.2148
0.6420 0.7834 0.2398
0.7177 0.7955 0.2541
0.8268 0.8276 0.2402
0.8822 0.8228 0.2152
0.4036 0.8957 0.2321
0.4482 0.8917 0.2353
0.4972 0.8880 0.2352
0.5493 0.8843 0.2345
0.6018 0.8745 0.2211
0.6538 0.8675 0.2336
0.7055 0.8675 0.2642
0.7831 0.8894 0.2769
0.8493 0.9001 0.2902
0.0222 0.0677 0.2804
0.0752 0.0540 0.2590
0.1391 0.0625 0.2393
0.2427 0.0870 0.2471
0.3975 0.0894 0.2619
0.5509 0.0531 0.2294
0.6812 0.0598 0.1534
0.7732 0.1872 0.0725
0.8424 0.2571 0.0774
0.0100 0.1422 0.2934
0.0596 0.1362 0.2971
0.1406 0.1221 0.2730
0.2609 0.1434 0.2664
0.4119 0.1515 0.2692
0.5620 0.1129 0.2272
0.6916 0.1367 0.1372
0.7711 0.2493 0.0841
0.8583 0.3132 0.0891
0.0354 0.2406 0.3202
0.0666 0.2423 0.3234
0.1428 0.2365 0.3215
0.3035 0.2441 0.3061
0.4480 0.2492 0.2819
0.5974 0.2434 0.2437
0.6928 0.2879 0.1405
0.7707 0.3430 0.1163
0.8579 0.3900 0.1211
0.0783 0.3717 0.3598
0.1179 0.3742 0.3622
0.1779 0.3772 0.3625
0.3536 0.3710 0.3573
0.4980 0.3809 0.3245
0.6136 0.3981 0.2812
0.7105 0.4126 0.1996
0.7861 0.4348 0.1574
0.8640 0.4647 0.1536
0.0997 0.5084 0.3542
0.1373 0.5097 0.3564
0.2455 0.5040 0.3686
0.3521 0.4831 0.3407
0.5380 0.5051 0.3653
0.6673 0.5154 0.3357
0.7517 0.5205 0.2535
0.8144 0.5333 0.1865
0.8773 0.5545 0.1740
0.1479 0.6208 0.3571
0.1837 0.6259 0.3524
0.2779 0.6224 0.3295
0.3901 0.6029 0.3082
0.5177 0.5891 0.3073
0.6789 0.6259 0.3425
0.7950 0.6312 0.3032
0.8486 0.6367 0.2377
0.8919 0.6508 0.1892
0.2146 0.7352 0.2932
0.2598 0.7386 0.2903
0.3456 0.7330 0.2831
0.4268 0.7218 0.2738
0.5364 0.6971 0.2645
0.6449 0.6949 0.3020
0.7863 0.7390 0.2976
0.8657 0.7352 0.2888
0.9003 0.7379 0.2371
0.3113 0.8423 0.2972
0.3589 0.8434 0.2990
0.4169 0.8349 0.2927
0.4820 0.8250 0.2847
0.5688 0.8063 0.2632
0.6456 0.7862 0.2807
0.7238 0.7962 0.3067
0.8283 0.8307 0.3073
0.8881 0.8303 0.3019
0.3816 0.9117 0.3060
0.4288 0.9082 0.3058
0.4809 0.9025 0.3046
0.5405 0.8949 0.3019
0.6030 0.8874 0.2951
0.6557 0.8740 0.2878
0.7160 0.8708 0.3136
0.7907 0.8942 0.3284
0.8564 0.9058 0.3366
0.0404 0.1265 0.4031
0.0899 0.1135 0.3896
0.1557 0.1098 0.3728
0.2306 0.1329 0.3702
0.3702 0.1613 0.3822
0.5120 0.1727 0.3986
0.6441 0.1773 0.3994
0.7972 0.1274 0.3458
0.8939 0.1644 0.2493
0.0313 0.1971 0.4098
0.0766 0.1880 0.4108
0.1448 0.1756 0.4033
0.2401 0.1878 0.3986
0.3835 0.2181 0.3911
0.5216 0.2291 0.4067
0.6571 0.2257 0.3966
0.8069 0.1813 0.3344
0.8867 0.2324 0.2419
0.0395 0.2911 0.4296
0.0803 0.2898 0.4287
0.1356 0.2831 0.4361
0.2714 0.2819 0.4442
0.4212 0.3029 0.4249
0.5445 0.3125 0.4250
0.6860 0.2983 0.3966
0.8205 0.2924 0.3270
0.8870 0.3408 0.2366
0.0579 0.3988 0.4778
0.1111 0.4024 0.4789
0.1827 0.4074 0.4840
0.3069 0.4065 0.4853
0.4729 0.4183 0.4741
0.5990 0.4226 0.4522
0.7286 0.4173 0.4176
0.8289 0.4274 0.3362
0.8831 0.4632 0.2678
0.0814 0.5324 0.5124
0.1179 0.5355 0.5156
0.2063 0.5403 0.5214
0.3374 0.5444 0.5256
0.5195 0.5392 0.5172
0.6511 0.5542 0.4980
0.7552 0.5653 0.4636
0.8362 0.5755 0.4122
0.8895 0.5918 0.3382
0.1231 0.6567 0.5015
0.1569 0.6604 0.5046
0.2355 0.6645 0.5137
0.3816 0.6543 0.5217
0.5179 0.6321 0.4956
0.6761 0.6519 0.5208
0.8009 0.6715 0.5184
0.8669 0.6707 0.4629
0.9076 0.6800 0.3832
0.1747 0.7534 0.4778
0.2125 0.7544 0.4842
0.2924 0.7583 0.4952
0.4191 0.7541 0.4855
0.5490 0.7296 0.4679
0.6386 0.7060 0.4531
0.8000 0.7536 0.5130
0.8935 0.7665 0.5169
0.9286 0.7688 0.4617
0.2408 0.8449 0.4510
0.2994 0.8516 0.4543
0.3879 0.8550 0.4583
0.4860 0.8468 0.4484
0.5874 0.8346 0.4156
0.6654 0.8062 0.3940
0.7412 0.7950 0.4240
0.8550 0.8400 0.4947
0.9210 0.8491 0.5099
0.3614 0.9247 0.4141
0.4049 0.9299 0.4396
0.4790 0.9278 0.4330
0.5463 0.9187 0.4203
0.6321 0.9092 0.4150
0.6904 0.8901 0.4000
0.7366 0.8700 0.4113
0.8074 0.8920 0.4472
0.8775 0.9094 0.4668
0.0471 0.1902 0.5224
0.1033 0.1715 0.5078
0.1716 0.1669 0.4941
0.2403 0.1761 0.4930
0.3637 0.2097 0.4937
0.5047 0.2326 0.5036
0.6243 0.2406 0.5181
0.7422 0.2713 0.5285
0.8527 0.2764 0.5189
0.0392 0.2568 0.5263
0.0920 0.2491 0.5259
0.1587 0.2353 0.5180
0.2409 0.2350 0.5136
0.3739 0.2643 0.5027
0.5116 0.2879 0.5106
0.6334 0.2923 0.5256
0.7517 0.3176 0.5292
0.8592 0.3183 0.5126
0.0369 0.3457 0.5398
0.0884 0.3418 0.5382
0.1498 0.3348 0.5399
0.2519 0.3269 0.5540
0.4080 0.3429 0.5412
0.5358 0.3646 0.5314
0.6510 0.3697 0.5409
0.7712 0.3838 0.5331
0.8747 0.3803 0.5067
0.0463 0.4395 0.5818
0.1009 0.4409 0.5816
0.1826 0.4427 0.5799
0.2851 0.4394 0.5889
0.4482 0.4466 0.5922
0.5851 0.4650 0.5750
0.6894 0.4713 0.5662
0.8015 0.4662 0.5377
0.8972 0.4610 0.4997
0.0756 0.5493 0.6221
0.1179 0.5504 0.6249
0.1986 0.5539 0.6257
0.3353 0.5624 0.6358
0.4844 0.5635 0.6235
0.6338 0.5779 0.6164
0.7416 0.5823 0.5934
0.8440 0.5783 0.5785
0.9117 0.5933 0.5141
0.1075 0.6692 0.6510
0.1416 0.6731 0.6552
0.2158 0.6781 0.6582
0.3599 0.6806 0.6627
0.5113 0.6831 0.6555
0.6678 0.6814 0.6484
0.7822 0.6971 0.6375
0.8700 0.7023 0.6029
0.9241 0.7132 0.5716
0.1418 0.7838 0.6406
0.1748 0.7881 0.6419
0.2510 0.7915 0.6498
0.3728 0.7870 0.6509
0.5382 0.7781 0.6457
0.6630 0.7607 0.6262
0.7971 0.7750 0.6496
0.9037 0.7981 0.6563
0.9451 0.7975 0.6230
0.1758 0.8684 0.6063
0.2102 0.8692 0.6136
0.2977 0.8710 0.6217
0.4133 0.8649 0.6207
0.5676 0.8628 0.6244
0.6957 0.8537 0.6127
0.7592 0.8122 0.5858
0.8891 0.8621 0.6447
0.9505 0.8743 0.6637
0.2527 0.9278 0.5772
0.3007 0.9327 0.5892
0.3860 0.9408 0.5958
0.5058 0.9404 0.6029
0.6404 0.9359 0.6248
0.7402 0.9296 0.6185
0.7728 0.8892 0.5797
0.8376 0.8953 0.6086
0.9164 0.9204 0.6447
0.0630 0.2670 0.6491
0.1255 0.2490 0.6388
0.1979 0.2417 0.6298
0.2688 0.2448 0.6274
0.3764 0.2613 0.6210
0.5187 0.3000 0.6184
0.6356 0.3188 0.6259
0.7416 0.3224 0.6329
0.8253 0.3565 0.6406
0.0510 0.3325 0.6517
0.1108 0.3211 0.6501
0.1839 0.3076 0.6447
0.2722 0.3052 0.6428
0.3881 0.3155 0.6367
0.5291 0.3522 0.6231
0.6442 0.3676 0.6314
0.7471 0.3690 0.6375
0.8290 0.4005 0.6456
0.0430 0.4085 0.6594
0.1006 0.4035 0.6608
0.1735 0.3970 0.6634
0.2760 0.3875 0.6652
0.4101 0.3923 0.6606
0.5499 0.4243 0.6385
0.6602 0.4375 0.6423
0.7615 0.4387 0.6473
0.8418 0.4643 0.6495
0.0607 0.4893 0.6885
0.1137 0.4901 0.6872
0.1961 0.4908 0.6869
0.3011 0.4834 0.6875
0.4394 0.4840 0.6922
0.5882 0.5119 0.6729
0.6973 0.5258 0.6704
0.7862 0.5255 0.6671
0.8603 0.5455 0.6589
0.0765 0.5780 0.7140
0.1249 0.5791 0.7141
0.2071 0.5821 0.7193
0.3328 0.5860 0.7155
0.4640 0.5855 0.7143
0.6178 0.5986 0.7089
0.7386 0.6193 0.7047
0.8228 0.6248 0.6910
0.8928 0.6373 0.6803
0.1036 0.6796 0.7441
0.1461 0.6803 0.7464
0.2187 0.6829 0.7497
0.3494 0.6853 0.7514
0.4887 0.6916 0.7523
0.6399 0.6972 0.7364
0.7732 0.7135 0.7335
0.8571 0.7200 0.7202
0.9418 0.7203 0.7205
0.1308 0.7929 0.7640
0.1648 0.7965 0.7698
0.2453 0.7984 0.7737
0.3751 0.8013 0.7787
0.5161 0.8054 0.7807
0.6633 0.8049 0.7680
0.7971 0.7991 0.7598
0.8900 0.8147 0.7524
0.9547 0.8208 0.7328
0.1589 0.8879 0.7549
0.1897 0.8898 0.7604
0.2779 0.8910 0.7653
0.3921 0.8915 0.7683
0.5311 0.8882 0.7654
0.6721 0.8865 0.7658
0.7975 0.8774 0.7507
0.9043 0.8823 0.7652
0.9653 0.8983 0.7762
0.1785 0.9546 0.7311
0.2150 0.9612 0.7379
0.3088 0.9580 0.7439
0.4218 0.9556 0.7426
0.5687 0.9519 0.7426
0.7008 0.9549 0.7497
0.8229 0.9488 0.7454
0.8736 0.9204 0.7275
0.9516 0.9434 0.7639
0.1159 0.3608 0.7734
0.1797 0.3392 0.7641
0.2707 0.3348 0.7570
0.3571 0.3348 0.7489
0.4550 0.3428 0.7277
0.5652 0.3680 0.7127
0.6731 0.3970 0.7198
0.7671 0.4069 0.7256
0.8364 0.4021 0.7222
0.1073 0.4218 0.7723
0.1724 0.4093 0.7734
0.2588 0.3957 0.7672
0.3607 0.3929 0.7586
0.4596 0.3949 0.7421
0.5709 0.4167 0.7179
0.6795 0.4421 0.7247
0.7739 0.4490 0.7293
0.8430 0.4475 0.7270
0.1165 0.4905 0.7759
0.1710 0.4849 0.7793
0.2514 0.4798 0.7818
0.3600 0.4678 0.7716
0.4739 0.4667 0.7600
0.5888 0.4824 0.7356
0.6940 0.5055 0.7348
0.7852 0.5078 0.7373
0.8516 0.5061 0.7325
0.1405 0.5624 0.7923
0.1916 0.5613 0.7927
0.2620 0.5576 0.7906
0.3692 0.5491 0.7863
0.4875 0.5439 0.7788
0.6144 0.5568 0.7644
0.7192 0.5811 0.7553
0.8069 0.5862 0.7545
0.8686 0.5840 0.7482
0.1412 0.6404 0.8154
0.1988 0.6399 0.8149
0.2767 0.6398 0.8134
0.3839 0.6362 0.7995
0.4986 0.6304 0.7971
0.6260 0.6298 0.7935
0.7483 0.6552 0.7839
0.8388 0.6660 0.7819
0.9004 0.6697 0.7741
0.1319 0.7153 0.8320
0.1841 0.7161 0.8346
0.2659 0.7165 0.8383
0.3783 0.7180 0.8314
0.5024 0.7177 0.8209
0.6322 0.7180 0.8177
0.7669 0.7283 0.8045
0.8670 0.7483 0.8113
0.9295 0.7539 0.8002
0.1522 0.8121 0.8603
0.1992 0.8121 0.8633
0.2867 0.8150 0.8664
0.3911 0.8199 0.8676
0.5162 0.8184 0.8630
0.6383 0.8203 0.8557
0.7808 0.8129 0.8336
0.8889 0.8306 0.8341
0.9557 0.8360 0.8361
0.1665 0.9032 0.8698
0.2164 0.9044 0.8722
0.3074 0.9070 0.8777
0.4113 0.9077 0.8775
0.5417 0.9065 0.8751
0.6589 0.9065 0.8716
0.7961 0.9097 0.8677
0.9085 0.9014 0.8608
0.9724 0.9143 0.8551
0.1789 0.9688 0.8651
0.2426 0.9694 0.8729
0.3357 0.9683 0.8737
0.4315 0.9673 0.8789
0.5619 0.9640 0.8768
0.6750 0.9619 0.8743
0.7956 0.9634 0.8720
0.9072 0.9626 0.8479
0.9679 0.9598 0.8634
0.2738 0.4410 0.8668
0.3331 0.4240 0.8579
0.4175 0.4211 0.8495
0.4930 0.4218 0.8326
0.5608 0.4268 0.8100
0.6354 0.4366 0.7981
0.7194 0.4521 0.8005
0.8035 0.4692 0.8063
0.8660 0.4694 0.8025
0.2576 0.4971 0.8722
0.3194 0.4904 0.8716
0.3969 0.4813 0.8618
0.4857 0.4751 0.8463
0.5627 0.4753 0.8271
0.6387 0.4844 0.8032
0.7212 0.4967 0.8041
0.8083 0.5111 0.8064
0.8678 0.5114 0.8060
0.2503 0.5607 0.8741
0.3092 0.5557 0.8793
0.3823 0.5552 0.8796
0.4739 0.5416 0.8618
0.5627 0.5405 0.8457
0.6494 0.5467 0.8247
0.7324 0.5574 0.8144
0.8171 0.5678 0.8146
0.8779 0.5698 0.8130
0.2495 0.6201 0.8787
0.3094 0.6171 0.8823
0.3815 0.6152 0.8858
0.4715 0.6107 0.8758
0.5664 0.6027 0.8623
0.6664 0.6087 0.8451
0.7510 0.6240 0.8331
0.8347 0.6368 0.8328
0.8922 0.6375 0.8304
0.2537 0.6933 0.8987
0.3090 0.6921 0.8982
0.3796 0.6905 0.8951
0.4673 0.6873 0.8925
0.5636 0.6814 0.8864
0.6709 0.6749 0.8711
0.7659 0.6880 0.8557
0.8580 0.7065 0.8600
0.9171 0.7118 0.8588
0.2377 0.7593 0.9192
0.2915 0.7598 0.9218
0.3674 0.7608 0.9205
0.4591 0.7601 0.9136
0.5600 0.7604 0.9056
0.6744 0.7539 0.9003
0.7832 0.7521 0.8873
0.8804 0.7770 0.8865
0.9460 0.7847 0.8890
0.2309 0.8382 0.9446
0.2812 0.8379 0.9416
0.3661 0.8396 0.9385
0.4553 0.8435 0.9358
0.5619 0.8438 0.9338
0.6727 0.8421 0.9295
0.7886 0.8329 0.9183
0.8992 0.8435 0.9094
0.9634 0.8532 0.9126
0.2449 0.9196 0.9493
0.2948 0.9220 0.9470
0.3835 0.9246 0.9439
0.4759 0.9255 0.9404
0.5891 0.9236 0.9375
0.6871 0.9221 0.9332
0.7936 0.9238 0.9309
0.9061 0.9132 0.9274
0.9801 0.9226 0.9226
0.2481 0.9811 0.9480
0.2981 0.9787 0.9506
0.4055 0.9787 0.9465
0.5046 0.9756 0.9439
0.6172 0.9736 0.9411
0.7141 0.9705 0.9378
0.8003 0.9719 0.9391
0.9099 0.9753 0.9335
0.9785 0.9715 0.9382
