assets/luts/LUTs/JD_Belize.CUBE
TITLE "ColorFinale Export"
# Created by Jeven Dovey on 2021-07-15 17:41:35 +0000
# Color Finale Plugin v.2.3.2 (520)
LUT_3D_SIZE 5
0.0049 0.0054 0.0020
0.1587 0.0250 0.0000
0.4299 0.0659 0.0000
0.6552 0.1400 0.0000
0.8419 0.2594 0.0000
0.0382 0.1524 0.0269
0.1818 0.1490 0.0304
0.4381 0.1666 0.0109
0.6570 0.2565 0.0012
0.8356 0.3595 0.0117
0.1470 0.4301 0.0727
0.2766 0.4194 0.0795
0.5095 0.4333 0.0814
0.7207 0.4529 0.0635
0.8598 0.5130 0.0544
0.2700 0.6936 0.1232
0.3801 0.6905 0.1267
0.5387 0.6704 0.1516
0.7589 0.7076 0.1353
0.8871 0.6986 0.1350
0.3991 0.8779 0.1581
0.4925 0.8758 0.1603
0.5940 0.8654 0.1486
0.6916 0.8635 0.2033
0.8397 0.8931 0.2233
0.0115 0.0292 0.1625
0.1387 0.0307 0.1363
0.4283 0.0455 0.1052
0.6618 0.1521 0.0377
0.8532 0.2640 0.0450
0.0235 0.2033 0.2030
0.1887 0.1966 0.1939
0.4503 0.2277 0.1169
0.6687 0.2909 0.0742
0.8483 0.3769 0.0793
0.1156 0.4727 0.2081
0.2624 0.4587 0.1766
0.5292 0.4700 0.1694
0.7311 0.4870 0.1191
0.8697 0.5273 0.1074
0.2635 0.7183 0.1980
0.3695 0.7096 0.1963
0.5452 0.6771 0.2133
0.7715 0.7264 0.1894
0.8938 0.7191 0.1777
0.4036 0.8957 0.2321
0.4972 0.8880 0.2352
0.6018 0.8745 0.2211
0.7055 0.8675 0.2642
0.8493 0.9001 0.2902
0.0404 0.1265 0.4031
0.1557 0.1098 0.3728
0.3702 0.1613 0.3822
0.6441 0.1773 0.3994
0.8939 0.1644 0.2493
0.0395 0.2911 0.4296
0.1356 0.2831 0.4361
0.4212 0.3029 0.4249
0.6860 0.2983 0.3966
0.8870 0.3408 0.2366
0.0814 0.5324 0.5124
0.2063 0.5403 0.5214
0.5195 0.5392 0.5172
0.7552 0.5653 0.4636
0.8895 0.5918 0.3382
0.1747 0.7534 0.4778
0.2924 0.7583 0.4952
0.5490 0.7296 0.4679
0.8000 0.7536 0.5130
0.9286 0.7688 0.4617
0.3614 0.9247 0.4141
0.4790 0.9278 0.4330
0.6321 0.9092 0.4150
0.7366 0.8700 0.4113
0.8775 0.9094 0.4668
0.0630 0.2670 0.6491
0.1979 0.2417 0.6298
0.3764 0.2613 0.6210
0.6356 0.3188 0.6259
0.8253 0.3565 0.6406
0.0430 0.4085 0.6594
0.1735 0.3970 0.6634
0.4101 0.3923 0.6606
0.6602 0.4375 0.6423
0.8418 0.4643 0.6495
0.0765 0.5780 0.7140
0.2071 0.5821 0.7193
0.4640 0.5855 0.7143
0.7386 0.6193 0.7047
0.8928 0.6373 0.6803
0.1308 0.7929 0.7640
0.2453 0.7984 0.7737
0.5161 0.8054 0.7807
0.7971 0.7991 0.7598
0.9547 0.8208 0.7328
0.1785 0.9546 0.7311
0.3088 0.9580 0.7439
0.5687 0.9519 0.7426
0.8229 0.9488 0.7454
0.9516 0.9434 0.7639
0.2738 0.4410 0.8668
0.4175 0.4211 0.8495
0.5608 0.4268 0.8100
0.7194 0.4521 0.8005
0.8660 0.4694 0.8025
0.2503 0.5607 0.8741
0.3823 0.5552 0.8796
0.5627 0.5405 0.8457
0.7324 0.5574 0.8144
0.8779 0.5698 0.8130
0.2537 0.6933 0.8987
0.3796 0.6905 0.8951
0.5636 0.6814 0.8864
0.7659 0.6880 0.8557
0.9171 0.7118 0.8588
0.2309 0.8382 0.9446
0.3661 0.8396 0.9385
0.5619 0.8438 0.9338
0.7886 0.8329 0.9183
0.9634 0.8532 0.9126
0.2481 0.9811 0.9480
0.4055 0.9787 0.9465
0.6172 0.9736 0.9411
0.8003 0.9719 0.9391
0.9785 0.9715 0.9382
