assets/luts/LUTs/JD_Belize.CUBE
TITLE "ColorFinale Export"
# Created by Jeven Dovey on 2021-07-15 17:41:35 +0000
# Color Finale Plugin v.2.3.2 (520)
LUT_3D_SIZE 17
0.0049 0.0054 0.0020
0.0216 0.0061 0.0000
0.0547 0.0089 0.0000
0.0995 0.0154 0.0000
0.1587 0.0250 0.0000
0.2215 0.0440 0.0070
0.2937 0.0538 0.0032
0.3616 0.0599 0.0000
0.4299 0.0659 0.0000
0.4903 0.0714 0.0000
0.5504 0.0798 0.0000
0.6040 0.1033 0.0000
0.6552 0.1400 0.0000
0.7045 0.1747 0.0000
0.7477 0.2070 0.0000
0.7873 0.2380 0.0000
0.8419 0.2594 0.0000
0.0066 0.0220 0.0058
0.0216 0.0224 0.0064
0.0543 0.0274 0.0036
0.0981 0.0329 0.0001
0.1553 0.0432 0.0000
0.2213 0.0572 0.0069
0.2891 0.0721 0.0077
0.3589 0.0793 0.0000
0.4268 0.0840 0.0000
0.4885 0.0905 0.0000
0.5476 0.0989 0.0000
0.6021 0.1260 0.0000
0.6531 0.1626 0.0000
0.7020 0.1972 0.0000
0.7443 0.2289 0.0000
0.7839 0.2587 0.0000
0.8389 0.2782 0.0000
0.0091 0.0572 0.0116
0.0284 0.0578 0.0108
0.0569 0.0603 0.0123
0.1032 0.0628 0.0116
0.1571 0.0702 0.0063
0.2219 0.0806 0.0113
0.2843 0.0933 0.0140
0.3575 0.1022 0.0072
0.4251 0.1085 0.0000
0.4879 0.1127 0.0000
0.5457 0.1292 0.0000
0.6001 0.1544 0.0000
0.6521 0.1915 0.0000
0.7003 0.2231 0.0000
0.7436 0.2531 0.0000
0.7821 0.2826 0.0000
0.8348 0.3054 0.0000
0.0183 0.0951 0.0166
0.0408 0.0958 0.0169
0.0700 0.0954 0.0181
0.1111 0.0981 0.0197
0.1707 0.0982 0.0168
0.2309 0.1058 0.0181
0.2910 0.1164 0.0216
0.3626 0.1234 0.0136
0.4296 0.1296 0.0000
0.4894 0.1409 0.0000
0.5471 0.1590 0.0000
0.6008 0.1884 0.0000
0.6539 0.2206 0.0000
0.7039 0.2509 0.0000
0.7442 0.2791 0.0000
0.7821 0.3072 0.0046
0.8331 0.3315 0.0061
0.0382 0.1524 0.0269
0.0581 0.1543 0.0260
0.0860 0.1537 0.0243
0.1317 0.1501 0.0337
0.1818 0.1490 0.0304
0.2482 0.1425 0.0344
0.3049 0.1481 0.0325
0.3725 0.1572 0.0238
0.4381 0.1666 0.0109
0.4959 0.1807 0.0000
0.5499 0.2017 0.0000
0.6043 0.2279 0.0000
0.6570 0.2565 0.0012
0.7071 0.2836 0.0036
0.7479 0.3104 0.0081
0.7826 0.3377 0.0126
0.8356 0.3595 0.0117
0.0691 0.2158 0.0413
0.0847 0.2187 0.0403
0.1110 0.2177 0.0401
0.1561 0.2102 0.0374
0.2008 0.2070 0.0401
0.2630 0.2074 0.0510
0.3267 0.2012 0.0502
0.3926 0.2021 0.0359
0.4547 0.2155 0.0221
0.5105 0.2303 0.0118
0.5638 0.2516 0.0099
0.6151 0.2704 0.0088
0.6670 0.2942 0.0093
0.7155 0.3196 0.0128
0.7524 0.3443 0.0162
0.7871 0.3668 0.0193
0.8394 0.3897 0.0199
0.1037 0.2833 0.0565
0.1232 0.2851 0.0577
0.1475 0.2869 0.0587
0.1858 0.2803 0.0556
0.2359 0.2729 0.0716
0.2791 0.2748 0.0622
0.3411 0.2759 0.0647
0.4201 0.2756 0.0546
0.4781 0.2765 0.0387
0.5319 0.2882 0.0296
0.5824 0.3029 0.0242
0.6333 0.3217 0.0217
0.6806 0.3417 0.0212
0.7251 0.3610 0.0224
0.7593 0.3808 0.0251
0.7951 0.4022 0.0271
0.8445 0.4199 0.0269
0.1304 0.3530 0.0654
0.1529 0.3562 0.0677
0.1761 0.3566 0.0706
0.2104 0.3517 0.0715
0.2597 0.3431 0.0746
0.3103 0.3413 0.0977
0.3523 0.3445 0.0738
0.4301 0.3543 0.0692
0.5023 0.3542 0.0665
0.5585 0.3523 0.0556
0.6056 0.3613 0.0476
0.6548 0.3772 0.0415
0.6989 0.3941 0.0383
0.7382 0.4118 0.0376
0.7756 0.4268 0.0366
0.8210 0.4451 0.0367
0.8530 0.4620 0.0382
0.1470 0.4301 0.0727
0.1736 0.4309 0.0758
0.1983 0.4318 0.0796
0.2322 0.4285 0.0833
0.2766 0.4194 0.0795
0.3265 0.4136 0.0926
0.3798 0.4134 0.1134
0.4298 0.4233 0.0795
0.5095 0.4333 0.0814
0.5786 0.4340 0.0838
0.6302 0.4321 0.0770
0.6792 0.4394 0.0688
0.7207 0.4529 0.0635
0.7550 0.4684 0.0597
0.7889 0.4821 0.0574
0.8406 0.4983 0.0539
0.8598 0.5130 0.0544
0.1695 0.5029 0.0839
0.1899 0.5019 0.0852
0.2160 0.5038 0.0867
0.2524 0.5002 0.0909
0.2943 0.4932 0.0899
0.3434 0.4830 0.0890
0.3929 0.4826 0.1122
0.4540 0.4863 0.1186
0.5044 0.4980 0.0865
0.5818 0.5067 0.0969
0.6448 0.5065 0.0994
0.6985 0.5052 0.0952
0.7412 0.5113 0.0884
0.7812 0.5230 0.0828
0.8153 0.5352 0.0783
0.8503 0.5493 0.0737
0.8665 0.5620 0.0749
0.1996 0.5708 0.0969
0.2223 0.5741 0.0977
0.2449 0.5713 0.0986
0.2786 0.5713 0.1007
0.3206 0.5699 0.1006
0.3646 0.5621 0.0931
0.4091 0.5529 0.1037
0.4676 0.5556 0.1329
0.5213 0.5621 0.1274
0.5725 0.5717 0.0993
0.6435 0.5799 0.1101
0.7091 0.5806 0.1143
0.7546 0.5760 0.1125
0.7963 0.5807 0.1075
0.8411 0.5889 0.1006
0.8576 0.5989 0.0962
0.8742 0.6090 0.0949
0.2333 0.6327 0.1082
0.2566 0.6330 0.1092
0.2812 0.6333 0.1113
0.3129 0.6324 0.1142
0.3496 0.6296 0.1138
0.3886 0.6250 0.1069
0.4306 0.6152 0.1042
0.4784 0.6114 0.1293
0.5336 0.6160 0.1480
0.5802 0.6243 0.1289
0.6321 0.6333 0.1109
0.7074 0.6424 0.1227
0.7611 0.6409 0.1290
0.8027 0.6350 0.1261
0.8487 0.6361 0.1209
0.8658 0.6412 0.1165
0.8823 0.6495 0.1145
0.2700 0.6936 0.1232
0.2937 0.6928 0.1237
0.3172 0.6931 0.1256
0.3461 0.6922 0.1283
0.3801 0.6905 0.1267
0.4170 0.6864 0.1217
0.4552 0.6789 0.1139
0.4944 0.6712 0.1299
0.5387 0.6704 0.1516
0.5905 0.6751 0.1617
0.6330 0.6857 0.1401
0.6919 0.6973 0.1235
0.7589 0.7076 0.1353
0.8073 0.7049 0.1411
0.8509 0.6970 0.1405
0.8700 0.6929 0.1365
0.8871 0.6986 0.1350
0.3071 0.7491 0.1355
0.3311 0.7482 0.1387
0.3544 0.7487 0.1396
0.3793 0.7472 0.1407
0.4110 0.7458 0.1387
0.4430 0.7424 0.1362
0.4771 0.7356 0.1258
0.5157 0.7289 0.1323
0.5511 0.7230 0.1512
0.5936 0.7238 0.1690
0.6375 0.7293 0.1730
0.6806 0.7414 0.1479
0.7419 0.7549 0.1373
0.8021 0.7675 0.1503
0.8459 0.7600 0.1512
0.8711 0.7473 0.1513
0.8885 0.7464 0.1492
0.3455 0.8046 0.1464
0.3695 0.8056 0.1500
0.3942 0.8063 0.1516
0.4184 0.8033 0.1514
0.4442 0.8014 0.1506
0.4719 0.7965 0.1465
0.5025 0.7924 0.1383
0.5418 0.7853 0.1383
0.5717 0.7794 0.1528
0.6011 0.7773 0.1672
0.6320 0.7777 0.1786
0.6701 0.7791 0.1886
0.7089 0.7903 0.1845
0.7694 0.8035 0.1730
0.8178 0.8164 0.1638
0.8571 0.8150 0.1652
0.8805 0.8080 0.1623
0.3753 0.8446 0.1566
0.3985 0.8457 0.1569
0.4220 0.8451 0.1586
0.4452 0.8446 0.1600
0.4713 0.8431 0.1574
0.4969 0.8391 0.1560
0.5241 0.8352 0.1483
0.5572 0.8318 0.1450
0.5866 0.8276 0.1530
0.6099 0.8237 0.1639
0.6334 0.8234 0.1742
0.6611 0.8231 0.1897
0.6938 0.8235 0.1990
0.7252 0.8316 0.1993
0.7754 0.8422 0.1989
0.8254 0.8559 0.2030
0.8476 0.8523 0.1909
0.3991 0.8779 0.1581
0.4210 0.8789 0.1600
0.4430 0.8767 0.1613
0.4693 0.8778 0.1628
0.4925 0.8758 0.1603
0.5180 0.8741 0.1578
0.5379 0.8739 0.1524
0.5653 0.8713 0.1462
0.5940 0.8654 0.1486
0.6201 0.8640 0.1591
0.6414 0.8636 0.1702
0.6646 0.8632 0.1877
0.6916 0.8635 0.2033
0.7205 0.8675 0.2091
0.7667 0.8787 0.2143
0.8162 0.8939 0.2247
0.8397 0.8931 0.2233
0.0068 0.0051 0.0264
0.0253 0.0053 0.0236
0.0600 0.0090 0.0223
0.1006 0.0123 0.0174
0.1612 0.0210 0.0211
0.2290 0.0372 0.0374
0.3025 0.0461 0.0463
0.3624 0.0578 0.0037
0.4297 0.0641 0.0000
0.4905 0.0706 0.0000
0.5502 0.0797 0.0000
0.6027 0.1060 0.0000
0.6562 0.1411 0.0000
0.7050 0.1755 0.0000
0.7486 0.2062 0.0000
0.7899 0.2375 0.0000
0.8443 0.2606 0.0000
0.0024 0.0265 0.0300
0.0253 0.0253 0.0293
0.0583 0.0275 0.0275
0.1014 0.0314 0.0200
0.1575 0.0416 0.0138
0.2215 0.0558 0.0175
0.2910 0.0701 0.0180
0.3606 0.0776 0.0099
0.4282 0.0831 0.0000
0.4900 0.0898 0.0000
0.5475 0.1040 0.0000
0.6008 0.1286 0.0000
0.6526 0.1663 0.0000
0.7031 0.1966 0.0000
0.7454 0.2283 0.0000
0.7867 0.2580 0.0000
0.8410 0.2810 0.0000
0.0098 0.0605 0.0352
0.0316 0.0603 0.0362
0.0607 0.0613 0.0374
0.1059 0.0640 0.0305
0.1598 0.0695 0.0208
0.2224 0.0805 0.0194
0.2924 0.0925 0.0244
0.3601 0.1015 0.0174
0.4269 0.1079 0.0023
0.4893 0.1147 0.0000
0.5470 0.1330 0.0000
0.6009 0.1613 0.0000
0.6526 0.1938 0.0000
0.7004 0.2241 0.0000
0.7432 0.2525 0.0004
0.7850 0.2817 0.0074
0.8390 0.3064 0.0072
0.0168 0.1001 0.0406
0.0426 0.1003 0.0411
0.0717 0.0983 0.0378
0.1150 0.0994 0.0397
0.1720 0.0992 0.0308
0.2310 0.1056 0.0269
0.2970 0.1166 0.0306
0.3638 0.1252 0.0234
0.4294 0.1343 0.0107
0.4900 0.1454 0.0000
0.5487 0.1627 0.0000
0.6026 0.1927 0.0000
0.6556 0.2225 0.0000
0.7053 0.2519 0.0037
0.7455 0.2799 0.0085
0.7840 0.3078 0.0131
0.8365 0.3312 0.0128
0.0348 0.1584 0.0461
0.0607 0.1584 0.0471
0.0902 0.1583 0.0476
0.1373 0.1540 0.0536
0.1858 0.1538 0.0441
0.2507 0.1501 0.0451
0.3067 0.1519 0.0436
0.3734 0.1625 0.0337
0.4376 0.1743 0.0224
0.4961 0.1880 0.0101
0.5514 0.2061 0.0074
0.6059 0.2320 0.0080
0.6587 0.2582 0.0096
0.7088 0.2860 0.0139
0.7493 0.3120 0.0177
0.7849 0.3390 0.0215
0.8370 0.3592 0.0206
0.0632 0.2221 0.0584
0.0821 0.2221 0.0564
0.1102 0.2232 0.0556
0.1562 0.2164 0.0549
0.2031 0.2117 0.0556
0.2659 0.2131 0.0596
0.3289 0.2095 0.0616
0.3946 0.2091 0.0475
0.4554 0.2227 0.0335
0.5116 0.2371 0.0222
0.5658 0.2547 0.0192
0.6163 0.2730 0.0182
0.6684 0.2956 0.0195
0.7170 0.3216 0.0222
0.7546 0.3446 0.0248
0.7899 0.3683 0.0283
0.8422 0.3896 0.0274
0.0979 0.2912 0.0749
0.1205 0.2913 0.0735
0.1429 0.2922 0.0735
0.1799 0.2878 0.0718
0.2333 0.2774 0.0793
0.2810 0.2774 0.0745
0.3455 0.2806 0.0773
0.4230 0.2795 0.0670
0.4813 0.2805 0.0504
0.5351 0.2923 0.0398
0.5844 0.3067 0.0351
0.6362 0.3256 0.0328
0.6826 0.3438 0.0322
0.7275 0.3636 0.0327
0.7697 0.3830 0.0342
0.8158 0.4044 0.0374
0.8485 0.4213 0.0376
0.1264 0.3617 0.0844
0.1516 0.3607 0.0861
0.1749 0.3615 0.0881
0.2097 0.3585 0.0891
0.2584 0.3484 0.0884
0.3101 0.3440 0.1083
0.3566 0.3478 0.0869
0.4338 0.3575 0.0811
0.5061 0.3565 0.0758
0.5620 0.3572 0.0660
0.6080 0.3658 0.0586
0.6579 0.3817 0.0549
0.7015 0.3978 0.0518
0.7413 0.4147 0.0490
0.7799 0.4282 0.0476
0.8340 0.4462 0.0464
0.8551 0.4617 0.0469
0.1508 0.4348 0.0918
0.1760 0.4346 0.0942
0.2017 0.4346 0.0964
0.2362 0.4313 0.1003
0.2773 0.4239 0.0978
0.3292 0.4147 0.1067
0.3827 0.4147 0.1289
0.4350 0.4265 0.0943
0.5128 0.4374 0.0929
0.5819 0.4377 0.0939
0.6321 0.4373 0.0869
0.6807 0.4440 0.0791
0.7223 0.4567 0.0732
0.7574 0.4697 0.0688
0.7905 0.4819 0.0661
0.8419 0.4972 0.0625
0.8611 0.5109 0.0629
0.1716 0.5043 0.1010
0.1974 0.5031 0.1035
0.2239 0.5041 0.1043
0.2584 0.5021 0.1095
0.2985 0.4963 0.1104
0.3457 0.4868 0.1072
0.3967 0.4836 0.1291
0.4589 0.4885 0.1398
0.5099 0.5020 0.1014
0.5860 0.5111 0.1083
0.6465 0.5110 0.1091
0.7002 0.5090 0.1047
0.7422 0.5150 0.0981
0.7825 0.5258 0.0923
0.8152 0.5364 0.0876
0.8500 0.5480 0.0815
0.8677 0.5617 0.0829
0.2026 0.5732 0.1133
0.2257 0.5718 0.1146
0.2521 0.5767 0.1167
0.2833 0.5715 0.1189
0.3240 0.5703 0.1192
0.3662 0.5607 0.1127
0.4133 0.5522 0.1216
0.4706 0.5558 0.1513
0.5286 0.5637 0.1484
0.5786 0.5755 0.1126
0.6474 0.5838 0.1210
0.7110 0.5840 0.1253
0.7561 0.5800 0.1221
0.7979 0.5845 0.1171
0.8422 0.5904 0.1094
0.8577 0.5993 0.1046
0.8755 0.6111 0.1047
0.2334 0.6384 0.1256
0.2580 0.6364 0.1262
0.2826 0.6355 0.1288
0.3143 0.6363 0.1320
0.3512 0.6322 0.1323
0.3913 0.6278 0.1254
0.4340 0.6179 0.1228
0.4822 0.6122 0.1465
0.5375 0.6173 0.1658
0.5857 0.6261 0.1490
0.6366 0.6353 0.1240
0.7101 0.6448 0.1331
0.7631 0.6428 0.1375
0.8040 0.6364 0.1357
0.8499 0.6391 0.1303
0.8669 0.6431 0.1252
0.8830 0.6526 0.1240
0.2679 0.6981 0.1400
0.2927 0.6972 0.1407
0.3186 0.6966 0.1430
0.3484 0.6962 0.1452
0.3825 0.6945 0.1450
0.4184 0.6891 0.1410
0.4575 0.6813 0.1338
0.4984 0.6731 0.1455
0.5421 0.6715 0.1668
0.5932 0.6763 0.1782
0.6365 0.6870 0.1569
0.6957 0.6996 0.1368
0.7610 0.7103 0.1474
0.8088 0.7046 0.1512
0.8520 0.6969 0.1493
0.8722 0.6940 0.1454
0.8882 0.6984 0.1438
0.3060 0.7521 0.1528
0.3321 0.7511 0.1551
0.3568 0.7505 0.1557
0.3834 0.7509 0.1574
0.4141 0.7487 0.1568
0.4466 0.7452 0.1524
0.4807 0.7381 0.1448
0.5208 0.7291 0.1496
0.5544 0.7238 0.1664
0.5956 0.7234 0.1835
0.6395 0.7298 0.1886
0.6844 0.7426 0.1683
0.7465 0.7570 0.1512
0.8033 0.7703 0.1621
0.8472 0.7630 0.1619
0.8724 0.7507 0.1621
0.8900 0.7482 0.1596
0.3465 0.8089 0.1640
0.3737 0.8083 0.1675
0.3971 0.8076 0.1681
0.4233 0.8073 0.1698
0.4501 0.8039 0.1689
0.4779 0.8002 0.1658
0.5075 0.7953 0.1589
0.5453 0.7882 0.1576
0.5751 0.7815 0.1691
0.6032 0.7775 0.1820
0.6352 0.7777 0.1929
0.6729 0.7800 0.2031
0.7107 0.7916 0.1989
0.7719 0.8066 0.1937
0.8199 0.8208 0.1811
0.8597 0.8182 0.1763
0.8803 0.8127 0.1735
0.3790 0.8493 0.1725
0.4066 0.8471 0.1729
0.4275 0.8481 0.1746
0.4525 0.8474 0.1774
0.4772 0.8459 0.1759
0.5028 0.8425 0.1746
0.5292 0.8396 0.1686
0.5630 0.8339 0.1647
0.5908 0.8300 0.1701
0.6134 0.8251 0.1804
0.6378 0.8248 0.1908
0.6644 0.8239 0.2044
0.6973 0.8236 0.2157
0.7286 0.8330 0.2150
0.7775 0.8450 0.2144
0.8274 0.8573 0.2184
0.8495 0.8535 0.2078
0.4014 0.8790 0.1740
0.4249 0.8784 0.1760
0.4457 0.8792 0.1776
0.4730 0.8772 0.1788
0.4990 0.8774 0.1781
0.5214 0.8750 0.1759
0.5401 0.8744 0.1719
0.5686 0.8718 0.1638
0.5973 0.8677 0.1657
0.6225 0.8636 0.1746
0.6446 0.8650 0.1857
0.6674 0.8628 0.2017
0.6948 0.8644 0.2172
0.7241 0.8701 0.2234
0.7697 0.8818 0.2284
0.8192 0.8936 0.2387
0.8412 0.8928 0.2355
0.0068 0.0086 0.0598
0.0260 0.0085 0.0525
0.0606 0.0088 0.0509
0.0984 0.0107 0.0509
0.1594 0.0185 0.0447
0.2262 0.0368 0.0399
0.3013 0.0450 0.0452
0.3748 0.0491 0.0494
0.4445 0.0516 0.0519
0.5095 0.0591 0.0596
0.5537 0.0848 0.0000
0.6070 0.1119 0.0000
0.6584 0.1462 0.0000
0.7047 0.1783 0.0000
0.7510 0.2072 0.0026
0.7932 0.2383 0.0080
0.8474 0.2616 0.0071
0.0019 0.0337 0.0704
0.0249 0.0307 0.0653
0.0618 0.0319 0.0579
0.1009 0.0330 0.0548
0.1607 0.0378 0.0468
0.2288 0.0505 0.0506
0.3021 0.0621 0.0624
0.3643 0.0745 0.0260
0.4321 0.0809 0.0126
0.4918 0.0936 0.0058
0.5505 0.1095 0.0011
0.6034 0.1375 0.0001
0.6562 0.1696 0.0013
0.7042 0.2006 0.0041
0.7488 0.2292 0.0090
0.7910 0.2604 0.0134
0.8449 0.2804 0.0134
0.0009 0.0707 0.0776
0.0228 0.0699 0.0785
0.0629 0.0679 0.0748
0.1086 0.0690 0.0690
0.1656 0.0728 0.0524
0.2287 0.0792 0.0420
0.2966 0.0941 0.0399
0.3635 0.1054 0.0343
0.4303 0.1142 0.0213
0.4936 0.1238 0.0104
0.5509 0.1440 0.0068
0.6045 0.1705 0.0062
0.6563 0.1988 0.0074
0.7053 0.2281 0.0103
0.7483 0.2553 0.0136
0.7887 0.2846 0.0197
0.8405 0.3091 0.0210
0.0128 0.1126 0.0781
0.0363 0.1098 0.0787
0.0727 0.1070 0.0795
0.1191 0.1068 0.0754
0.1758 0.1082 0.0609
0.2356 0.1140 0.0482
0.3007 0.1251 0.0482
0.3658 0.1349 0.0430
0.4332 0.1440 0.0306
0.4930 0.1569 0.0175
0.5512 0.1753 0.0133
0.6054 0.2009 0.0129
0.6583 0.2285 0.0151
0.7084 0.2562 0.0180
0.7493 0.2829 0.0218
0.7885 0.3103 0.0277
0.8397 0.3339 0.0278
0.0306 0.1705 0.0869
0.0551 0.1689 0.0829
0.0887 0.1683 0.0796
0.1372 0.1624 0.0774
0.1900 0.1630 0.0726
0.2546 0.1632 0.0611
0.3106 0.1666 0.0597
0.3759 0.1764 0.0534
0.4408 0.1878 0.0424
0.4997 0.2007 0.0283
0.5562 0.2164 0.0236
0.6102 0.2383 0.0234
0.6627 0.2624 0.0249
0.7116 0.2887 0.0275
0.7514 0.3148 0.0316
0.7875 0.3392 0.0362
0.8391 0.3604 0.0355
0.0592 0.2345 0.0955
0.0778 0.2341 0.0848
0.1075 0.2315 0.0811
0.1522 0.2285 0.0815
0.2099 0.2210 0.0879
0.2700 0.2220 0.0746
0.3322 0.2192 0.0786
0.3977 0.2223 0.0652
0.4576 0.2342 0.0514
0.5144 0.2476 0.0385
0.5681 0.2619 0.0342
0.6198 0.2791 0.0322
0.6706 0.3015 0.0339
0.7190 0.3259 0.0352
0.7579 0.3486 0.0381
0.7925 0.3710 0.0439
0.8444 0.3896 0.0427
0.0921 0.3031 0.1057
0.1168 0.3035 0.0975
0.1378 0.3019 0.0945
0.1746 0.2989 0.0923
0.2271 0.2877 0.0910
0.2835 0.2859 0.0953
0.3500 0.2907 0.0907
0.4258 0.2899 0.0830
0.4841 0.2907 0.0659
0.5379 0.3016 0.0543
0.5891 0.3155 0.0497
0.6388 0.3316 0.0476
0.6869 0.3493 0.0458
0.7314 0.3676 0.0468
0.7730 0.3869 0.0486
0.8210 0.4065 0.0500
0.8511 0.4236 0.0513
0.1200 0.3730 0.1062
0.1488 0.3710 0.1078
0.1714 0.3694 0.1056
0.2052 0.3675 0.1062
0.2496 0.3584 0.1022
0.3074 0.3493 0.1166
0.3619 0.3560 0.1104
0.4391 0.3652 0.0967
0.5089 0.3651 0.0872
0.5636 0.3660 0.0799
0.6112 0.3744 0.0731
0.6593 0.3879 0.0677
0.7047 0.4042 0.0649
0.7450 0.4196 0.0636
0.7825 0.4323 0.0624
0.8362 0.4500 0.0592
0.8568 0.4647 0.0586
0.1454 0.4459 0.1135
0.1749 0.4431 0.1168
0.2005 0.4429 0.1177
0.2341 0.4409 0.1193
0.2742 0.4314 0.1189
0.3265 0.4202 0.1208
0.3812 0.4198 0.1433
0.4401 0.4308 0.1145
0.5179 0.4436 0.1053
0.5847 0.4445 0.1046
0.6348 0.4437 0.0981
0.6835 0.4514 0.0916
0.7247 0.4624 0.0861
0.7604 0.4768 0.0813
0.7926 0.4875 0.0775
0.8432 0.5011 0.0722
0.8626 0.5155 0.0749
0.1676 0.5129 0.1230
0.1973 0.5125 0.1256
0.2234 0.5108 0.1271
0.2590 0.5080 0.1295
0.2990 0.5034 0.1313
0.3442 0.4922 0.1269
0.3965 0.4853 0.1418
0.4603 0.4921 0.1610
0.5162 0.5081 0.1190
0.5904 0.5176 0.1197
0.6491 0.5165 0.1204
0.7025 0.5156 0.1155
0.7451 0.5205 0.1086
0.7847 0.5308 0.1022
0.8162 0.5405 0.0967
0.8519 0.5512 0.0917
0.8689 0.5639 0.0922
0.2011 0.5799 0.1346
0.2274 0.5789 0.1355
0.2509 0.5784 0.1352
0.2836 0.5767 0.1374
0.3249 0.5755 0.1404
0.3658 0.5645 0.1371
0.4148 0.5532 0.1394
0.4721 0.5548 0.1691
0.5338 0.5673 0.1726
0.5848 0.5814 0.1289
0.6524 0.5875 0.1318
0.7133 0.5892 0.1357
0.7582 0.5857 0.1326
0.7993 0.5891 0.1270
0.8435 0.5951 0.1193
0.8592 0.6020 0.1153
0.8766 0.6134 0.1139
0.2357 0.6430 0.1463
0.2604 0.6437 0.1475
0.2837 0.6428 0.1463
0.3141 0.6401 0.1485
0.3510 0.6367 0.1505
0.3908 0.6319 0.1469
0.4345 0.6224 0.1428
0.4844 0.6140 0.1631
0.5402 0.6180 0.1871
0.5912 0.6299 0.1736
0.6412 0.6404 0.1388
0.7144 0.6504 0.1459
0.7653 0.6467 0.1484
0.8065 0.6411 0.1455
0.8510 0.6418 0.1398
0.8681 0.6463 0.1351
0.8842 0.6557 0.1334
0.2668 0.7041 0.1581
0.2926 0.7033 0.1598
0.3167 0.7020 0.1607
0.3461 0.7004 0.1622
0.3814 0.6986 0.1629
0.4187 0.6932 0.1609
0.4574 0.6862 0.1520
0.5013 0.6750 0.1616
0.5441 0.6715 0.1835
0.5959 0.6766 0.1969
0.6397 0.6872 0.1786
0.6987 0.7025 0.1504
0.7636 0.7134 0.1606
0.8109 0.7077 0.1610
0.8541 0.6983 0.1583
0.8744 0.6967 0.1547
0.8908 0.7028 0.1533
0.3043 0.7589 0.1719
0.3312 0.7584 0.1729
0.3528 0.7550 0.1731
0.3815 0.7554 0.1749
0.4151 0.7530 0.1758
0.4475 0.7496 0.1739
0.4822 0.7448 0.1656
0.5236 0.7343 0.1668
0.5584 0.7261 0.1817
0.5982 0.7253 0.1991
0.6409 0.7303 0.2069
0.6866 0.7436 0.1888
0.7464 0.7596 0.1658
0.8047 0.7717 0.1731
0.8483 0.7647 0.1717
0.8735 0.7520 0.1712
0.8912 0.7527 0.1695
0.3462 0.8135 0.1835
0.3732 0.8124 0.1856
0.3955 0.8104 0.1857
0.4228 0.8099 0.1872
0.4502 0.8081 0.1871
0.4800 0.8048 0.1861
0.5102 0.7999 0.1801
0.5493 0.7921 0.1761
0.5792 0.7846 0.1867
0.6065 0.7807 0.1982
0.6386 0.7800 0.2092
0.6755 0.7814 0.2201
0.7142 0.7926 0.2175
0.7742 0.8078 0.2109
0.8220 0.8208 0.1987
0.8598 0.8199 0.1875
0.8816 0.8125 0.1842
0.3817 0.8505 0.1934
0.4070 0.8498 0.1940
0.4290 0.8505 0.1940
0.4525 0.8487 0.1955
0.4790 0.8483 0.1967
0.5054 0.8459 0.1953
0.5324 0.8414 0.1899
0.5655 0.8371 0.1831
0.5944 0.8319 0.1878
0.6184 0.8283 0.1967
0.6403 0.8260 0.2077
0.6667 0.8242 0.2197
0.7013 0.8262 0.2317
0.7324 0.8359 0.2309
0.7808 0.8465 0.2301
0.8307 0.8601 0.2342
0.8530 0.8566 0.2253
0.4060 0.8851 0.1953
0.4285 0.8828 0.1986
0.4512 0.8837 0.1973
0.4748 0.8816 0.1987
0.5004 0.8798 0.2007
0.5243 0.8778 0.1987
0.5469 0.8760 0.1954
0.5722 0.8717 0.1871
0.6009 0.8682 0.1857
0.6262 0.8641 0.1923
0.6483 0.8629 0.2038
0.6711 0.8640 0.2172
0.6989 0.8633 0.2341
0.7290 0.8721 0.2404
0.7747 0.8833 0.2456
0.8226 0.8968 0.2530
0.8429 0.8957 0.2497
0.0076 0.0169 0.1051
0.0290 0.0146 0.0989
0.0594 0.0154 0.0888
0.0953 0.0155 0.0895
0.1486 0.0209 0.0901
0.2097 0.0335 0.0913
0.2897 0.0418 0.0805
0.3665 0.0467 0.0570
0.4389 0.0528 0.0532
0.5055 0.0645 0.0649
0.5712 0.0825 0.0830
0.6075 0.1241 0.0186
0.6602 0.1518 0.0192
0.7097 0.1792 0.0211
0.7564 0.2109 0.0225
0.7979 0.2372 0.0256
0.8509 0.2606 0.0264
0.0013 0.0412 0.1116
0.0232 0.0396 0.1087
0.0615 0.0373 0.0990
0.0954 0.0405 0.0952
0.1517 0.0428 0.0975
0.2170 0.0473 0.0918
0.2949 0.0602 0.0827
0.3694 0.0668 0.0671
0.4446 0.0722 0.0725
0.4965 0.0987 0.0298
0.5519 0.1231 0.0254
0.6059 0.1508 0.0244
0.6587 0.1777 0.0240
0.7073 0.2040 0.0261
0.7515 0.2316 0.0276
0.7942 0.2597 0.0309
