assets/luts/LUTs/JD_BOULDER.CUBE
TITLE "ColorFinale Export"
# Created by Jeven Dovey on 2022-12-25 14:33:23 +0000
# Color Finale Plugin v.2.6.0 (537)
LUT_3D_SIZE 5
0.0000 0.0000 0.0140
0.2366 0.0322 0.0981
0.4300 0.0922 0.1889
0.5672 0.1793 0.2864
0.6932 0.2717 0.3852
0.0000 0.2091 0.0272
0.2678 0.2302 0.0720
0.4908 0.2716 0.1837
0.6593 0.3385 0.3052
0.7745 0.4308 0.4335
0.0000 0.4172 0.0403
0.2525 0.4319 0.0670
0.5341 0.4599 0.1762
0.7331 0.5093 0.3096
0.8853 0.5804 0.4523
0.0000 0.6234 0.0533
0.2355 0.6314 0.0792
0.5402 0.6495 0.1782
0.7858 0.6882 0.3267
0.9630 0.7458 0.4746
0.0000 0.8292 0.0663
0.2215 0.8289 0.0943
0.5416 0.8371 0.2041
0.8120 0.8658 0.3393
0.9853 0.9162 0.4879
0.0000 0.0000 0.1994
0.2039 0.0232 0.2298
0.4619 0.0520 0.3159
0.6504 0.1186 0.3866
0.7895 0.2089 0.4628
0.0000 0.1828 0.2043
0.2402 0.2493 0.2605
0.4898 0.2824 0.3446
0.6833 0.3425 0.4355
0.8205 0.4295 0.5329
0.0000 0.3893 0.2097
0.2081 0.4594 0.2588
0.5211 0.4804 0.3185
0.7441 0.5219 0.4302
0.9126 0.5888 0.5517
0.0000 0.5939 0.2132
0.1789 0.6675 0.2594
0.5058 0.6821 0.3135
0.7873 0.7101 0.4227
0.9863 0.7595 0.5561
0.0000 0.7965 0.2184
0.1527 0.8737 0.2622
0.4887 0.8816 0.3258
0.7935 0.8998 0.4247
0.9875 0.9384 0.5748
0.0000 0.0003 0.3716
0.1719 0.0022 0.3850
0.3756 0.0793 0.3998
0.6040 0.1220 0.4905
0.8297 0.1666 0.5781
0.0000 0.1540 0.3777
0.2094 0.2219 0.4459
0.4572 0.2734 0.4763
0.7152 0.3022 0.5624
0.9036 0.3688 0.6331
0.0000 0.3554 0.3832
0.2073 0.4328 0.4524
0.4935 0.4995 0.5070
0.7431 0.5326 0.5911
0.9365 0.5927 0.6820
0.0000 0.5537 0.3998
0.1809 0.6390 0.4591
0.4614 0.7096 0.5053
0.7743 0.7306 0.5650
0.9973 0.7721 0.6767
0.0000 0.7495 0.4143
0.1578 0.8433 0.4639
0.4322 0.9177 0.5059
0.7591 0.9323 0.5601
0.9900 0.9603 0.6709
0.0000 0.0008 0.5305
0.1425 0.0010 0.5279
0.3461 0.0639 0.5202
0.5021 0.1672 0.5238
0.7001 0.2244 0.6182
0.0000 0.1268 0.5433
0.1805 0.1961 0.6181
0.4251 0.2524 0.6315
0.6289 0.3295 0.6463
0.8573 0.3722 0.7370
0.0000 0.3267 0.5372
0.1839 0.4038 0.6256
0.4626 0.4721 0.6924
0.7105 0.5237 0.7229
0.9685 0.5524 0.8090
0.0000 0.5169 0.5506
0.2005 0.6053 0.6316
0.4605 0.6830 0.6989
0.7467 0.7498 0.7535
0.9964 0.7829 0.8377
0.0000 0.7072 0.5773
0.1869 0.8034 0.6487
0.4342 0.8892 0.7056
0.7146 0.9598 0.7518
0.9942 0.9808 0.8126
0.0000 0.0013 0.6868
0.1152 0.0015 0.6594
0.3183 0.0497 0.6309
0.4768 0.1565 0.6108
0.6195 0.2615 0.6386
0.0000 0.1010 0.6970
0.1535 0.1720 0.7770
0.3955 0.2327 0.7747
0.5993 0.3142 0.7667
0.7554 0.4174 0.7703
0.0000 0.2996 0.6834
0.1604 0.3764 0.7905
0.4337 0.4463 0.8646
0.6784 0.5026 0.8780
0.8822 0.5797 0.8928
0.0000 0.4888 0.6874
0.1846 0.5765 0.7860
0.4372 0.6540 0.8721
0.7159 0.7223 0.9389
0.9637 0.7739 0.9694
0.0000 0.6762 0.7157
0.2198 0.7670 0.7982
0.4537 0.8556 0.8781
0.7138 0.9332 0.9454
1.0000 1.0000 1.0000
