assets/luts/LUTs/JD_BOULDER.CUBE
TITLE "ColorFinale Export"
# Created by Jeven Dovey on 2022-12-25 14:33:23 +0000
# Color Finale Plugin v.2.6.0 (537)
LUT_3D_SIZE 17
0.0000 0.0000 0.0140
0.0539 0.0052 0.0345
0.1188 0.0123 0.0552
0.1794 0.0214 0.0765
0.2366 0.0322 0.0981
0.2902 0.0447 0.1202
0.3403 0.0588 0.1427
0.3869 0.0747 0.1656
0.4300 0.0922 0.1889
0.4696 0.1115 0.2127
0.5056 0.1324 0.2368
0.5382 0.1550 0.2614
0.5672 0.1793 0.2864
0.5928 0.2052 0.3118
0.6148 0.2329 0.3376
0.6491 0.2546 0.3620
0.6932 0.2717 0.3852
0.0000 0.0511 0.0172
0.0583 0.0570 0.0248
0.1249 0.0633 0.0456
0.1874 0.0712 0.0683
0.2461 0.0809 0.0917
0.3012 0.0924 0.1155
0.3527 0.1055 0.1398
0.4006 0.1204 0.1644
0.4450 0.1369 0.1895
0.4859 0.1552 0.2150
0.5231 0.1751 0.2409
0.5569 0.1968 0.2672
0.5870 0.2202 0.2940
0.6137 0.2453 0.3212
0.6368 0.2720 0.3488
0.6563 0.3005 0.3768
0.6886 0.3231 0.4021
0.0000 0.1043 0.0206
0.0519 0.1090 0.0220
0.1292 0.1148 0.0372
0.1936 0.1217 0.0604
0.2544 0.1302 0.0848
0.3114 0.1405 0.1100
0.3647 0.1525 0.1359
0.4144 0.1661 0.1622
0.4605 0.1815 0.1889
0.5031 0.1986 0.2161
0.5421 0.2174 0.2437
0.5776 0.2378 0.2717
0.6096 0.2600 0.3001
0.6381 0.2838 0.3290
0.6630 0.3094 0.3582
0.6844 0.3366 0.3879
0.7023 0.3655 0.4179
0.0000 0.1568 0.0239
0.0433 0.1620 0.0199
0.1242 0.1664 0.0330
0.1989 0.1725 0.0531
0.2616 0.1800 0.0780
0.3208 0.1890 0.1040
0.3763 0.1997 0.1309
0.4282 0.2121 0.1585
0.4766 0.2261 0.1865
0.5216 0.2417 0.2151
0.5630 0.2590 0.2440
0.6011 0.2780 0.2734
0.6357 0.2985 0.3033
0.6669 0.3207 0.3335
0.6947 0.3446 0.3641
0.7190 0.3701 0.3951
0.7400 0.3972 0.4265
0.0000 0.2091 0.0272
0.0357 0.2142 0.0228
0.1168 0.2190 0.0299
0.1956 0.2234 0.0482
0.2678 0.2302 0.0720
0.3287 0.2382 0.0984
0.3862 0.2478 0.1260
0.4402 0.2589 0.1545
0.4908 0.2716 0.1837
0.5380 0.2860 0.2134
0.5818 0.3019 0.2435
0.6222 0.3194 0.2742
0.6593 0.3385 0.3052
0.6931 0.3592 0.3367
0.7235 0.3815 0.3686
0.7507 0.4054 0.4008
0.7745 0.4308 0.4335
0.0000 0.2613 0.0305
0.0284 0.2662 0.0265
0.1096 0.2708 0.0303
0.1899 0.2752 0.0447
0.2661 0.2804 0.0664
0.3357 0.2878 0.0937
0.3949 0.2964 0.1217
0.4508 0.3064 0.1507
0.5033 0.3180 0.1808
0.5526 0.3312 0.2114
0.5985 0.3458 0.2426
0.6412 0.3620 0.2743
0.6806 0.3798 0.3064
0.7168 0.3991 0.3390
0.7498 0.4199 0.3720
0.7795 0.4422 0.4054
0.8061 0.4661 0.4391
0.0000 0.3134 0.0338
0.0213 0.3181 0.0302
0.1027 0.3224 0.0311
0.1839 0.3263 0.0458
0.2619 0.3314 0.0628
0.3356 0.3372 0.0876
0.4028 0.3452 0.1183
0.4602 0.3544 0.1478
0.5146 0.3650 0.1782
0.5656 0.3771 0.2097
0.6135 0.3906 0.2417
0.6582 0.4056 0.2743
0.6998 0.4221 0.3073
0.7383 0.4401 0.3409
0.7736 0.4596 0.3748
0.8058 0.4805 0.4092
0.8350 0.5029 0.4439
0.0000 0.3653 0.0370
0.0144 0.3699 0.0338
0.0960 0.3740 0.0322
0.1781 0.3772 0.0474
0.2572 0.3817 0.0647
0.3329 0.3875 0.0842
0.4042 0.3940 0.1119
0.4689 0.4026 0.1458
0.5247 0.4124 0.1766
0.5775 0.4235 0.2083
0.6271 0.4360 0.2411
0.6737 0.4500 0.2744
0.7172 0.4653 0.3083
0.7578 0.4821 0.3426
0.7953 0.5004 0.3774
0.8298 0.5200 0.4126
0.8613 0.5411 0.4482
0.0000 0.4172 0.0403
0.0077 0.4215 0.0375
0.0895 0.4253 0.0334
0.1724 0.4280 0.0493
0.2525 0.4319 0.0670
0.3294 0.4370 0.0869
0.4029 0.4435 0.1086
0.4718 0.4507 0.1392
0.5341 0.4599 0.1762
0.5883 0.4703 0.2082
0.6396 0.4819 0.2412
0.6878 0.4949 0.2751
0.7331 0.5093 0.3096
0.7755 0.5250 0.3446
0.8150 0.5421 0.3801
0.8516 0.5606 0.4160
0.8853 0.5804 0.4523
0.0000 0.4689 0.0436
0.0012 0.4731 0.0411
0.0833 0.4766 0.0348
0.1670 0.4787 0.0514
0.2480 0.4819 0.0697
0.3260 0.4864 0.0900
0.4006 0.4922 0.1123
0.4720 0.4994 0.1362
0.5385 0.5072 0.1694
0.5984 0.5171 0.2095
0.6510 0.5281 0.2426
0.7008 0.5402 0.2766
0.7476 0.5537 0.3117
0.7917 0.5685 0.3472
0.8330 0.5846 0.3833
0.8715 0.6020 0.4198
0.9072 0.6207 0.4567
0.0000 0.5205 0.0468
0.0000 0.5245 0.0446
0.0773 0.5277 0.0381
0.1617 0.5292 0.0537
0.2436 0.5319 0.0727
0.3226 0.5357 0.0935
0.3984 0.5409 0.1163
0.4708 0.5474 0.1408
0.5400 0.5552 0.1668
0.6042 0.5637 0.2028
0.6617 0.5742 0.2457
0.7128 0.5858 0.2798
0.7612 0.5985 0.3148
0.8067 0.6125 0.3508
0.8496 0.6277 0.3873
0.8898 0.6441 0.4242
0.9273 0.6618 0.4616
0.0000 0.5720 0.0501
0.0000 0.5758 0.0482
0.0716 0.5786 0.0416
0.1567 0.5796 0.0562
0.2394 0.5817 0.0759
0.3194 0.5849 0.0973
0.3963 0.5894 0.1206
0.4698 0.5953 0.1457
0.5401 0.6024 0.1724
0.6071 0.6109 0.2005
0.6690 0.6201 0.2391
0.7242 0.6313 0.2847
0.7738 0.6434 0.3197
0.8207 0.6567 0.3556
0.8650 0.6711 0.3924
0.9067 0.6867 0.4297
0.9458 0.7036 0.4675
0.0000 0.6234 0.0533
0.0000 0.6270 0.0517
0.0660 0.6295 0.0451
0.1519 0.6299 0.0588
0.2355 0.6314 0.0792
0.3163 0.6340 0.1013
0.3942 0.6379 0.1252
0.4688 0.6430 0.1509
0.5402 0.6495 0.1782
0.6083 0.6574 0.2071
0.6732 0.6666 0.2374
0.7328 0.6764 0.2784
0.7858 0.6882 0.3267
0.8339 0.7010 0.3624
0.8795 0.7148 0.3990
0.9225 0.7297 0.4366
0.9630 0.7458 0.4746
0.0000 0.6746 0.0565
0.0000 0.6780 0.0552
0.0606 0.6802 0.0486
0.1473 0.6801 0.0615
0.2317 0.6809 0.0828
0.3134 0.6830 0.1056
0.3922 0.6862 0.1301
0.4680 0.6907 0.1563
0.5404 0.6966 0.1843
0.6096 0.7037 0.2138
0.6756 0.7122 0.2449
0.7384 0.7221 0.2773
0.7957 0.7326 0.3207
0.8464 0.7451 0.3715
0.8931 0.7584 0.4079
0.9374 0.7728 0.4451
0.9791 0.7882 0.4833
0.0000 0.7257 0.0598
0.0000 0.7290 0.0587
0.0554 0.7308 0.0520
0.1429 0.7301 0.0644
0.2281 0.7304 0.0865
0.3107 0.7318 0.1100
0.3904 0.7345 0.1352
0.4671 0.7383 0.1621
0.5407 0.7435 0.1906
0.6110 0.7500 0.2209
0.6781 0.7578 0.2526
0.7419 0.7670 0.2857
0.8026 0.7775 0.3202
0.8576 0.7888 0.3661
0.9062 0.8019 0.4192
0.9514 0.8158 0.4561
0.9890 0.8307 0.4940
0.0000 0.7773 0.0630
0.0000 0.7798 0.0622
0.0504 0.7813 0.0554
0.1386 0.7800 0.0674
0.2247 0.7797 0.0903
0.3081 0.7806 0.1146
0.3888 0.7826 0.1405
0.4665 0.7858 0.1680
0.5411 0.7903 0.1972
0.6125 0.7962 0.2281
0.6806 0.8033 0.2605
0.7455 0.8118 0.2944
0.8073 0.8217 0.3297
0.8658 0.8329 0.3663
0.9186 0.8448 0.4144
0.9691 0.8590 0.4568
0.9874 0.8731 0.4953
0.0000 0.8292 0.0663
0.0000 0.8310 0.0657
0.0455 0.8317 0.0588
0.1346 0.8298 0.0706
0.2215 0.8289 0.0943
0.3058 0.8292 0.1194
0.3873 0.8306 0.1460
0.4659 0.8332 0.1742
0.5416 0.8371 0.2041
0.6140 0.8423 0.2356
0.6832 0.8488 0.2687
0.7492 0.8566 0.3033
0.8120 0.8658 0.3393
0.8716 0.8763 0.3767
0.9280 0.8881 0.4154
0.9822 0.9016 0.4517
0.9853 0.9162 0.4879
0.0000 0.0000 0.0607
0.0445 0.0028 0.0712
0.1140 0.0075 0.0925
0.1786 0.0150 0.1121
0.2393 0.0244 0.1319
0.2965 0.0355 0.1521
0.3502 0.0482 0.1727
0.4005 0.0626 0.1937
0.4472 0.0787 0.2151
0.4905 0.0964 0.2369
0.5303 0.1158 0.2591
0.5667 0.1369 0.2817
0.5996 0.1596 0.3048
0.6290 0.1840 0.3282
0.6549 0.2101 0.3521
0.6774 0.2378 0.3763
0.7128 0.2591 0.4000
0.0000 0.0454 0.0619
0.0503 0.0616 0.0756
0.1172 0.0677 0.0961
0.1821 0.0748 0.1168
0.2427 0.0839 0.1381
0.2999 0.0947 0.1598
0.3535 0.1072 0.1818
0.4036 0.1214 0.2043
0.4502 0.1372 0.2272
0.4933 0.1548 0.2506
0.5329 0.1740 0.2743
0.5689 0.1949 0.2985
0.6015 0.2175 0.3230
0.6305 0.2418 0.3480
0.6561 0.2678 0.3734
0.6781 0.2954 0.3993
0.7124 0.3172 0.4236
0.0000 0.0985 0.0623
0.0430 0.1137 0.0758
0.1216 0.1195 0.0864
0.1882 0.1258 0.1072
0.2507 0.1338 0.1299
0.3094 0.1435 0.1533
0.3645 0.1549 0.1771
0.4160 0.1681 0.2014
0.4640 0.1829 0.2260
0.5083 0.1995 0.2511
0.5492 0.2177 0.2766
0.5865 0.2377 0.3025
0.6202 0.2594 0.3289
0.6504 0.2827 0.3556
0.6770 0.3078 0.3828
0.7001 0.3346 0.4104
0.7196 0.3631 0.4384
0.0000 0.1516 0.0612
0.0338 0.1669 0.0745
0.1152 0.1716 0.0836
0.1925 0.1774 0.0988
0.2570 0.1843 0.1220
0.3177 0.1928 0.1464
0.3747 0.2030 0.1717
0.4280 0.2150 0.1975
0.4777 0.2287 0.2238
0.5238 0.2441 0.2505
0.5664 0.2611 0.2777
0.6055 0.2799 0.3053
0.6410 0.3004 0.3333
0.6729 0.3225 0.3618
0.7014 0.3464 0.3906
0.7263 0.3719 0.4198
0.7477 0.3991 0.4495
0.0000 0.2043 0.0602
0.0259 0.2194 0.0741
0.1066 0.2246 0.0815
0.1875 0.2290 0.0946
0.2623 0.2351 0.1148
0.3249 0.2426 0.1396
0.3841 0.2516 0.1656
0.4396 0.2623 0.1925
0.4915 0.2746 0.2201
0.5399 0.2886 0.2482
0.5849 0.3043 0.2767
0.6264 0.3216 0.3057
0.6644 0.3405 0.3351
0.6990 0.3611 0.3649
0.7302 0.3833 0.3951
0.7580 0.4072 0.4257
0.7824 0.4326 0.4568
0.0000 0.2570 0.0592
0.0181 0.2717 0.0739
0.0989 0.2768 0.0816
0.1801 0.2815 0.0915
0.2589 0.2860 0.1098
0.3311 0.2928 0.1336
0.3920 0.3008 0.1601
0.4496 0.3103 0.1876
0.5035 0.3215 0.2162
0.5541 0.3342 0.2453
0.6013 0.3485 0.2750
0.6451 0.3645 0.3052
0.6855 0.3820 0.3358
0.7226 0.4011 0.3668
0.7564 0.4218 0.3983
0.7869 0.4440 0.4302
0.8140 0.4679 0.4624
0.0000 0.3094 0.0584
0.0106 0.3239 0.0738
0.0914 0.3289 0.0818
0.1729 0.3333 0.0920
0.2532 0.3378 0.1063
0.3294 0.3429 0.1280
0.3990 0.3503 0.1553
0.4582 0.3589 0.1833
0.5142 0.3690 0.2124
0.5667 0.3806 0.2424
0.6159 0.3937 0.2731
0.6618 0.4084 0.3043
0.7045 0.4246 0.3359
0.7439 0.4423 0.3681
0.7801 0.4616 0.4006
0.8131 0.4824 0.4336
0.8429 0.5048 0.4670
0.0000 0.3618 0.0577
0.0032 0.3760 0.0739
0.0842 0.3808 0.0822
0.1660 0.3850 0.0928
0.2472 0.3889 0.1074
0.3252 0.3940 0.1245
0.3989 0.3998 0.1492
0.4661 0.4078 0.1799
0.5235 0.4170 0.2094
0.5779 0.4276 0.2398
0.6289 0.4396 0.2713
0.6768 0.4532 0.3033
0.7216 0.4682 0.3359
0.7631 0.4847 0.3690
0.8016 0.5027 0.4025
0.8369 0.5221 0.4364
0.8691 0.5430 0.4708
0.0000 0.4140 0.0572
0.0000 0.4280 0.0741
0.0771 0.4326 0.0828
0.1593 0.4365 0.0938
0.2414 0.4398 0.1090
0.3205 0.4443 0.1263
0.3962 0.4501 0.1458
0.4675 0.4565 0.1735
0.5322 0.4652 0.2074
0.5880 0.4749 0.2382
0.6408 0.4860 0.2700
0.6904 0.4986 0.3027
0.7370 0.5125 0.3361
0.7805 0.5279 0.3699
0.8211 0.5447 0.4042
0.8586 0.5629 0.4390
0.8931 0.5826 0.4742
0.0000 0.4661 0.0569
0.0000 0.4798 0.0745
0.0703 0.4843 0.0835
0.1528 0.4879 0.0950
0.2357 0.4906 0.1109
0.3159 0.4944 0.1287
0.3927 0.4996 0.1485
0.4662 0.5061 0.1702
0.5351 0.5132 0.2008
0.5974 0.5225 0.2378
0.6516 0.5328 0.2698
0.7029 0.5445 0.3028
0.7511 0.5575 0.3367
0.7964 0.5718 0.3712
0.8388 0.5876 0.4062
0.8783 0.6047 0.4417
0.9149 0.6231 0.4776
0.0000 0.5181 0.0567
0.0000 0.5315 0.0750
0.0636 0.5359 0.0843
0.1466 0.5391 0.0964
0.2303 0.5412 0.1130
0.3113 0.5445 0.1313
0.3893 0.5490 0.1517
0.4640 0.5548 0.1739
0.5353 0.5620 0.1978
0.6018 0.5698 0.2311
0.6617 0.5797 0.2711
0.7143 0.5906 0.3042
0.7641 0.6028 0.3383
0.8110 0.6163 0.3733
0.8550 0.6311 0.4089
0.8963 0.6472 0.4449
0.9348 0.6646 0.4814
0.0000 0.5700 0.0566
0.0000 0.5832 0.0756
0.0572 0.5874 0.0853
0.1406 0.5902 0.0979
0.2250 0.5918 0.1153
0.3069 0.5944 0.1343
0.3859 0.5983 0.1551
0.4617 0.6034 0.1779
0.5342 0.6099 0.2024
0.6033 0.6178 0.2284
0.6675 0.6263 0.2644
0.7251 0.6368 0.3073
0.7761 0.6483 0.3414
0.8245 0.6610 0.3764
0.8700 0.6750 0.4124
0.9129 0.6902 0.4489
0.9531 0.7067 0.4859
0.0000 0.6217 0.0567
0.0000 0.6346 0.0764
0.0509 0.6387 0.0863
0.1347 0.6412 0.0996
0.2200 0.6422 0.1178
0.3028 0.6443 0.1375
0.3827 0.6475 0.1589
0.4596 0.6520 0.1822
0.5331 0.6578 0.2073
0.6034 0.6650 0.2340
0.6704 0.6735 0.2622
0.7323 0.6827 0.3007
0.7875 0.6938 0.3463
0.8371 0.7060 0.3813
0.8841 0.7192 0.4172
0.9283 0.7337 0.4540
0.9700 0.7493 0.4914
0.0000 0.6733 0.0570
0.0000 0.6860 0.0773
0.0448 0.6899 0.0876
0.1291 0.6921 0.1013
0.2152 0.6925 0.1204
0.2988 0.6939 0.1409
0.3796 0.6966 0.1630
0.4575 0.7004 0.1868
0.5322 0.7056 0.2125
0.6035 0.7121 0.2398
0.6716 0.7199 0.2687
0.7366 0.7291 0.2990
0.7961 0.7390 0.3400
0.8491 0.7508 0.3883
0.8972 0.7635 0.4240
0.9428 0.7773 0.4606
0.9858 0.7922 0.4982
0.0000 0.7248 0.0597
0.0000 0.7373 0.0784
0.0388 0.7410 0.0890
0.1236 0.7429 0.1032
0.2106 0.7426 0.1232
0.2950 0.7435 0.1444
0.3767 0.7455 0.1672
0.4555 0.7488 0.1917
0.5313 0.7533 0.2180
0.6037 0.7591 0.2459
0.6729 0.7663 0.2755
0.7389 0.7748 0.3065
0.8017 0.7846 0.3389
0.8590 0.7952 0.3823
0.9097 0.8077 0.4331
0.9564 0.8210 0.4695
0.9893 0.8353 0.5070
0.0000 0.7761 0.0629
0.0000 0.7884 0.0794
0.0331 0.7920 0.0905
0.1184 0.7935 0.1053
0.2062 0.7927 0.1260
0.2914 0.7929 0.1481
0.3740 0.7944 0.1717
0.4537 0.7970 0.1968
0.5305 0.8009 0.2237
0.6040 0.8061 0.2523
0.6743 0.8125 0.2825
0.7414 0.8204 0.3142
0.8052 0.8296 0.3474
0.8659 0.8401 0.3819
0.9209 0.8513 0.4277
0.9695 0.8644 0.4808
0.9880 0.8783 0.5185
0.0000 0.8279 0.0662
0.0000 0.8400 0.0798
0.0276 0.8429 0.0921
0.1133 0.8440 0.1075
0.2020 0.8426 0.1291
0.2880 0.8423 0.1520
0.3714 0.8431 0.1763
0.4521 0.8452 0.2021
0.5298 0.8484 0.2296
0.6044 0.8529 0.2589
0.6758 0.8587 0.2897
0.7439 0.8659 0.3221
0.8088 0.8744 0.3560
0.8706 0.8842 0.3913
0.9291 0.8954 0.4279
0.9819 0.9074 0.4760
0.9862 0.9214 0.5199
0.0000 0.0000 0.1084
0.0367 0.0000 0.1181
0.1011 0.0072 0.1276
0.1694 0.0125 0.1490
0.2379 0.0178 0.1699
0.2981 0.0277 0.1884
0.3549 0.0392 0.2073
0.4084 0.0524 0.2265
0.4584 0.0672 0.2462
0.5050 0.0836 0.2662
0.5483 0.1016 0.2866
0.5882 0.1212 0.3074
0.6247 0.1425 0.3286
0.6578 0.1654 0.3502
0.6875 0.1899 0.3722
0.7139 0.2161 0.3946
0.7369 0.2438 0.4174
0.0000 0.0385 0.1089
0.0425 0.0547 0.1223
0.1078 0.0654 0.1329
0.1773 0.0701 0.1542
0.2419 0.0776 0.1737
0.3026 0.0869 0.1935
0.3598 0.0980 0.2137
0.4135 0.1108 0.2343
0.4638 0.1252 0.2553
0.5105 0.1412 0.2767
0.5538 0.1590 0.2985
0.5937 0.1784 0.3207
0.6300 0.1994 0.3434
0.6629 0.2222 0.3664
0.6923 0.2466 0.3898
0.7183 0.2726 0.4137
0.7407 0.3003 0.4380
0.0000 0.0923 0.1106
0.0412 0.1078 0.1239
0.1136 0.1242 0.1372
0.1805 0.1303 0.1577
0.2454 0.1374 0.1785
0.3061 0.1465 0.1997
0.3632 0.1573 0.2214
0.4168 0.1698 0.2435
0.4669 0.1839 0.2660
0.5135 0.1998 0.2889
0.5566 0.2173 0.3122
0.5962 0.2366 0.3359
0.6323 0.2575 0.3601
0.6648 0.2801 0.3847
0.6939 0.3044 0.4097
0.7194 0.3303 0.4351
0.7414 0.3580 0.4609
0.0000 0.1450 0.1112
0.0319 0.1609 0.1249
0.1063 0.1762 0.1374
0.1850 0.1821 0.1480
0.2515 0.1884 0.1688
0.3140 0.1963 0.1915
0.3727 0.2060 0.2149
0.4278 0.2175 0.2388
0.4793 0.2306 0.2630
0.5273 0.2455 0.2877
0.5717 0.2620 0.3128
0.6125 0.2803 0.3383
0.6498 0.3003 0.3642
0.6835 0.3219 0.3905
0.7137 0.3453 0.4173
0.7403 0.3704 0.4444
0.7634 0.3972 0.4720
0.0000 0.1980 0.1107
0.0230 0.2139 0.1243
0.0972 0.2295 0.1361
0.1785 0.2341 0.1453
0.2558 0.2399 0.1604
0.3203 0.2468 0.1836
0.3811 0.2553 0.2080
0.4380 0.2656 0.2333
0.4913 0.2776 0.2591
0.5410 0.2912 0.2854
0.5871 0.3066 0.3122
0.6297 0.3237 0.3394
0.6688 0.3425 0.3670
0.7043 0.3629 0.3950
0.7362 0.3851 0.4234
0.7647 0.4089 0.4522
0.7896 0.4345 0.4815
0.0000 0.2506 0.1099
0.0148 0.2666 0.1238
0.0892 0.2819 0.1357
0.1700 0.2871 0.1431
0.2508 0.2915 0.1563
0.3256 0.2977 0.1764
0.3882 0.3051 0.2012
0.4474 0.3141 0.2272
0.5029 0.3248 0.2542
0.5548 0.3372 0.2817
0.6032 0.3512 0.3098
0.6482 0.3668 0.3383
0.6897 0.3841 0.3673
0.7277 0.4031 0.3967
0.7623 0.4236 0.4265
0.7935 0.4459 0.4567
0.8213 0.4697 0.4874
0.0000 0.3031 0.1092
0.0067 0.3191 0.1233
0.0815 0.3342 0.1355
0.1622 0.3394 0.1432
0.2434 0.3441 0.1531
0.3222 0.3485 0.1714
0.3944 0.3553 0.1952
0.4553 0.3633 0.2217
0.5129 0.3729 0.2492
0.5669 0.3840 0.2778
0.6174 0.3968 0.3069
0.6646 0.4111 0.3366
0.7084 0.4270 0.3668
0.7488 0.4445 0.3974
0.7859 0.4636 0.4285
0.8197 0.4843 0.4599
0.8502 0.5066 0.4918
0.0000 0.3555 0.1085
0.0000 0.3715 0.1229
0.0739 0.3865 0.1354
0.1547 0.3914 0.1435
0.2362 0.3959 0.1536
0.3165 0.4004 0.1679
0.3927 0.4055 0.1896
0.4624 0.4129 0.2170
0.5215 0.4215 0.2450
0.5775 0.4315 0.2740
0.6300 0.4431 0.3040
0.6792 0.4563 0.3347
0.7251 0.4709 0.3659
0.7678 0.4872 0.3976
0.8072 0.5049 0.4297
0.8434 0.5242 0.4623
0.8764 0.5450 0.4952
0.0000 0.4078 0.1079
0.0000 0.4238 0.1227
0.0665 0.4385 0.1355
0.1475 0.4434 0.1439
0.2293 0.4476 0.1544
0.3106 0.4514 0.1691
0.3885 0.4565 0.1861
0.4622 0.4623 0.2109
0.5294 0.4703 0.2416
0.5869 0.4795 0.2710
0.6412 0.4901 0.3015
0.6923 0.5022 0.3329
0.7401 0.5157 0.3650
0.7849 0.5307 0.3975
0.8265 0.5472 0.4306
0.8649 0.5652 0.4641
0.9002 0.5847 0.4981
0.0000 0.4599 0.1075
0.0000 0.4760 0.1226
0.0593 0.4905 0.1357
0.1404 0.4952 0.1444
0.2226 0.4991 0.1554
0.3047 0.5023 0.1706
0.3838 0.5068 0.1880
0.4595 0.5126 0.2074
0.5308 0.5191 0.2351
0.5955 0.5277 0.2691
0.6513 0.5375 0.2999
0.7041 0.5486 0.3316
0.7537 0.5611 0.3644
0.8003 0.5751 0.3977
0.8439 0.5905 0.4315
0.8844 0.6073 0.4659
0.9219 0.6255 0.5006
0.0000 0.5119 0.1072
0.0000 0.5281 0.1226
0.0523 0.5424 0.1361
0.1336 0.5469 0.1451
0.2161 0.5504 0.1567
0.2990 0.5531 0.1725
0.3792 0.5570 0.1903
0.4561 0.5621 0.2102
0.5296 0.5686 0.2319
0.5984 0.5758 0.2624
0.6607 0.5850 0.2995
0.7149 0.5954 0.3315
0.7662 0.6070 0.3644
0.8144 0.6200 0.3984
0.8597 0.6344 0.4329
0.9021 0.6501 0.4679
0.9416 0.6672 0.5033
0.0000 0.5638 0.1070
0.0000 0.5800 0.1228
0.0454 0.5941 0.1366
0.1269 0.5985 0.1459
0.2099 0.6017 0.1580
0.2936 0.6038 0.1746
0.3746 0.6071 0.1930
0.4526 0.6115 0.2133
0.5273 0.6174 0.2355
0.5986 0.6245 0.2594
0.6651 0.6323 0.2927
0.7250 0.6422 0.3327
0.7776 0.6532 0.3659
0.8274 0.6654 0.3999
0.8743 0.6788 0.4349
0.9183 0.6936 0.4705
0.9596 0.7097 0.5065
0.0000 0.6156 0.1070
0.0000 0.6318 0.1230
0.0388 0.6457 0.1372
0.1205 0.6499 0.1469
0.2039 0.6528 0.1595
0.2884 0.6543 0.1769
0.3702 0.6570 0.1959
0.4493 0.6609 0.2168
0.5250 0.6660 0.2395
0.5975 0.6725 0.2640
0.6667 0.6803 0.2901
0.7308 0.6888 0.3260
0.7884 0.6994 0.3689
0.8394 0.7109 0.4030
0.8878 0.7236 0.4380
0.9333 0.7376 0.4740
0.9762 0.7528 0.5105
0.0000 0.6672 0.1071
0.0000 0.6836 0.1232
0.0323 0.6972 0.1380
0.1142 0.7013 0.1480
0.1980 0.7038 0.1612
0.2833 0.7047 0.1794
0.3661 0.7068 0.1991
0.4460 0.7101 0.2206
0.5229 0.7145 0.2438
0.5964 0.7204 0.2689
0.6667 0.7275 0.2956
0.7338 0.7360 0.3238
0.7956 0.7452 0.3623
0.8508 0.7564 0.4080
0.9004 0.7685 0.4429
0.9474 0.7818 0.4788
0.9912 0.7962 0.5157
0.0000 0.7188 0.1075
0.0000 0.7352 0.1234
0.0260 0.7486 0.1390
0.1081 0.7525 0.1492
0.1924 0.7547 0.1630
0.2785 0.7550 0.1820
0.3621 0.7565 0.2025
0.4429 0.7591 0.2246
0.5208 0.7630 0.2485
0.5955 0.7682 0.2741
0.6668 0.7747 0.3015
0.7350 0.7825 0.3303
0.7999 0.7917 0.3606
0.8594 0.8015 0.4016
0.9124 0.8134 0.4499
0.9605 0.8261 0.4857
0.9897 0.8398 0.5227
0.0000 0.7701 0.1079
0.0000 0.7867 0.1239
0.0199 0.7998 0.1400
0.1022 0.8036 0.1506
0.1869 0.8054 0.1649
0.2739 0.8052 0.1848
0.3583 0.8061 0.2061
0.4400 0.8081 0.2289
0.5188 0.8113 0.2533
0.5946 0.8159 0.2796
0.6671 0.8217 0.3076
0.7363 0.8288 0.3371
0.8022 0.8374 0.3681
0.8650 0.8472 0.4005
0.9223 0.8578 0.4440
0.9731 0.8702 0.4947
0.9882 0.8835 0.5320
0.0000 0.8214 0.1085
0.0000 0.8381 0.1245
0.0140 0.8510 0.1412
0.0964 0.8546 0.1521
0.1817 0.8561 0.1669
0.2695 0.8552 0.1877
0.3547 0.8555 0.2097
0.4373 0.8570 0.2333
0.5170 0.8596 0.2585
0.5938 0.8635 0.2853
0.6673 0.8686 0.3139
0.7376 0.8751 0.3441
0.8047 0.8829 0.3758
0.8685 0.8921 0.4090
0.9292 0.9026 0.4435
0.9843 0.9139 0.4893
0.9869 0.9269 0.5439
0.0000 0.0000 0.1543
0.0288 0.0000 0.1633
0.0926 0.0010 0.1722
0.1539 0.0142 0.1802
0.2206 0.0203 0.2020
0.2873 0.0264 0.2234
0.3532 0.0330 0.2442
0.4091 0.0452 0.2620
0.4617 0.0590 0.2801
0.5111 0.0743 0.2986
0.5572 0.0913 0.3174
0.6001 0.1097 0.3367
0.6397 0.1297 0.3562
0.6761 0.1513 0.3762
0.7093 0.1744 0.3966
0.7393 0.1990 0.4173
0.7660 0.2253 0.4384
0.0000 0.0314 0.1563
0.0346 0.0477 0.1700
0.1000 0.0584 0.1798
0.1644 0.0697 0.1893
0.2327 0.0751 0.2106
0.3012 0.0804 0.2315
0.3614 0.0902 0.2501
0.4182 0.1018 0.2689
0.4717 0.1149 0.2882
0.5217 0.1297 0.3078
0.5683 0.1461 0.3278
0.6116 0.1642 0.3482
0.6515 0.1838 0.3690
0.6880 0.2051 0.3902
0.7211 0.2280 0.4118
0.7508 0.2525 0.4338
