assets/luts/LUTs/JD_BOULDER.CUBE
TITLE "ColorFinale Export"
# Created by Jeven Dovey on 2022-12-25 14:33:23 +0000
# Color Finale Plugin v.2.6.0 (537)
LUT_3D_SIZE 9
0.0000 0.0000 0.0140
0.1188 0.0123 0.0552
0.2366 0.0322 0.0981
0.3403 0.0588 0.1427
0.4300 0.0922 0.1889
0.5056 0.1324 0.2368
0.5672 0.1793 0.2864
0.6148 0.2329 0.3376
0.6932 0.2717 0.3852
0.0000 0.1043 0.0206
0.1292 0.1148 0.0372
0.2544 0.1302 0.0848
0.3647 0.1525 0.1359
0.4605 0.1815 0.1889
0.5421 0.2174 0.2437
0.6096 0.2600 0.3001
0.6630 0.3094 0.3582
0.7023 0.3655 0.4179
0.0000 0.2091 0.0272
0.1168 0.2190 0.0299
0.2678 0.2302 0.0720
0.3862 0.2478 0.1260
0.4908 0.2716 0.1837
0.5818 0.3019 0.2435
0.6593 0.3385 0.3052
0.7235 0.3815 0.3686
0.7745 0.4308 0.4335
0.0000 0.3134 0.0338
0.1027 0.3224 0.0311
0.2619 0.3314 0.0628
0.4028 0.3452 0.1183
0.5146 0.3650 0.1782
0.6135 0.3906 0.2417
0.6998 0.4221 0.3073
0.7736 0.4596 0.3748
0.8350 0.5029 0.4439
0.0000 0.4172 0.0403
0.0895 0.4253 0.0334
0.2525 0.4319 0.0670
0.4029 0.4435 0.1086
0.5341 0.4599 0.1762
0.6396 0.4819 0.2412
0.7331 0.5093 0.3096
0.8150 0.5421 0.3801
0.8853 0.5804 0.4523
0.0000 0.5205 0.0468
0.0773 0.5277 0.0381
0.2436 0.5319 0.0727
0.3984 0.5409 0.1163
0.5400 0.5552 0.1668
0.6617 0.5742 0.2457
0.7612 0.5985 0.3148
0.8496 0.6277 0.3873
0.9273 0.6618 0.4616
0.0000 0.6234 0.0533
0.0660 0.6295 0.0451
0.2355 0.6314 0.0792
0.3942 0.6379 0.1252
0.5402 0.6495 0.1782
0.6732 0.6666 0.2374
0.7858 0.6882 0.3267
0.8795 0.7148 0.3990
0.9630 0.7458 0.4746
0.0000 0.7257 0.0598
0.0554 0.7308 0.0520
0.2281 0.7304 0.0865
0.3904 0.7345 0.1352
0.5407 0.7435 0.1906
0.6781 0.7578 0.2526
0.8026 0.7775 0.3202
0.9062 0.8019 0.4192
0.9890 0.8307 0.4940
0.0000 0.8292 0.0663
0.0455 0.8317 0.0588
0.2215 0.8289 0.0943
0.3873 0.8306 0.1460
0.5416 0.8371 0.2041
0.6832 0.8488 0.2687
0.8120 0.8658 0.3393
0.9280 0.8881 0.4154
0.9853 0.9162 0.4879
0.0000 0.0000 0.1084
0.1011 0.0072 0.1276
0.2379 0.0178 0.1699
0.3549 0.0392 0.2073
0.4584 0.0672 0.2462
0.5483 0.1016 0.2866
0.6247 0.1425 0.3286
0.6875 0.1899 0.3722
0.7369 0.2438 0.4174
0.0000 0.0923 0.1106
0.1136 0.1242 0.1372
0.2454 0.1374 0.1785
0.3632 0.1573 0.2214
0.4669 0.1839 0.2660
0.5566 0.2173 0.3122
0.6323 0.2575 0.3601
0.6939 0.3044 0.4097
0.7414 0.3580 0.4609
0.0000 0.1980 0.1107
0.0972 0.2295 0.1361
0.2558 0.2399 0.1604
0.3811 0.2553 0.2080
0.4913 0.2776 0.2591
0.5871 0.3066 0.3122
0.6688 0.3425 0.3670
0.7362 0.3851 0.4234
0.7896 0.4345 0.4815
0.0000 0.3031 0.1092
0.0815 0.3342 0.1355
0.2434 0.3441 0.1531
0.3944 0.3553 0.1952
0.5129 0.3729 0.2492
0.6174 0.3968 0.3069
0.7084 0.4270 0.3668
0.7859 0.4636 0.4285
0.8502 0.5066 0.4918
0.0000 0.4078 0.1079
0.0665 0.4385 0.1355
0.2293 0.4476 0.1544
0.3885 0.4565 0.1861
0.5294 0.4703 0.2416
0.6412 0.4901 0.3015
0.7401 0.5157 0.3650
0.8265 0.5472 0.4306
0.9002 0.5847 0.4981
0.0000 0.5119 0.1072
0.0523 0.5424 0.1361
0.2161 0.5504 0.1567
0.3792 0.5570 0.1903
0.5296 0.5686 0.2319
0.6607 0.5850 0.2995
0.7662 0.6070 0.3644
0.8597 0.6344 0.4329
0.9416 0.6672 0.5033
0.0000 0.6156 0.1070
0.0388 0.6457 0.1372
0.2039 0.6528 0.1595
0.3702 0.6570 0.1959
0.5250 0.6660 0.2395
0.6667 0.6803 0.2901
0.7884 0.6994 0.3689
0.8878 0.7236 0.4380
0.9762 0.7528 0.5105
0.0000 0.7188 0.1075
0.0260 0.7486 0.1390
0.1924 0.7547 0.1630
0.3621 0.7565 0.2025
0.5208 0.7630 0.2485
0.6668 0.7747 0.3015
0.7999 0.7917 0.3606
0.9124 0.8134 0.4499
0.9897 0.8398 0.5227
0.0000 0.8214 0.1085
0.0140 0.8510 0.1412
0.1817 0.8561 0.1669
0.3547 0.8555 0.2097
0.5170 0.8596 0.2585
0.6673 0.8686 0.3139
0.8047 0.8829 0.3758
0.9292 0.9026 0.4435
0.9869 0.9269 0.5439
0.0000 0.0000 0.1994
0.0845 0.0000 0.2158
0.2039 0.0232 0.2298
0.3338 0.0370 0.2738
0.4619 0.0520 0.3159
0.5623 0.0823 0.3506
0.6504 0.1186 0.3866
0.7261 0.1608 0.4240
0.7895 0.2089 0.4628
0.0000 0.0778 0.2033
0.0979 0.1103 0.2316
0.2277 0.1323 0.2509
0.3645 0.1429 0.2932
0.4816 0.1643 0.3306
0.5850 0.1923 0.3694
0.6749 0.2267 0.4099
0.7513 0.2676 0.4519
0.8141 0.3151 0.4955
0.0000 0.1828 0.2043
0.0938 0.2173 0.2347
0.2402 0.2493 0.2605
0.3720 0.2625 0.3017
0.4898 0.2824 0.3446
0.5936 0.3091 0.3892
0.6833 0.3425 0.4355
0.7589 0.3826 0.4834
0.8205 0.4295 0.5329
0.0000 0.2865 0.2079
0.0769 0.3228 0.2358
0.2238 0.3546 0.2593
0.3825 0.3650 0.2837
0.5077 0.3805 0.3313
0.6179 0.4027 0.3824
0.7138 0.4317 0.4354
0.7954 0.4676 0.4902
0.8629 0.5102 0.5466
0.0000 0.3893 0.2097
0.0608 0.4277 0.2353
0.2081 0.4594 0.2588
0.3700 0.4692 0.2764
0.5211 0.4804 0.3185
0.6395 0.4980 0.3725
0.7441 0.5219 0.4302
0.8350 0.5521 0.4901
0.9126 0.5888 0.5517
0.0000 0.4918 0.2113
0.0456 0.5323 0.2349
0.1931 0.5637 0.2588
0.3559 0.5727 0.2777
0.5152 0.5816 0.3093
0.6560 0.5955 0.3648
0.7678 0.6152 0.4247
0.8668 0.6408 0.4882
0.9531 0.6723 0.5539
0.0000 0.5939 0.2132
0.0311 0.6363 0.2350
0.1789 0.6675 0.2594
0.3428 0.6756 0.2799
0.5058 0.6821 0.3135
0.6562 0.6937 0.3551
0.7873 0.7101 0.4227
0.8928 0.7321 0.4877
0.9863 0.7595 0.5561
0.0000 0.6954 0.2155
0.0173 0.7399 0.2356
0.1654 0.7708 0.2605
0.3305 0.7779 0.2828
0.4969 0.7821 0.3192
0.6517 0.7911 0.3628
0.7933 0.8054 0.4133
0.9150 0.8245 0.4922
0.9907 0.8487 0.5619
0.0000 0.7965 0.2184
0.0044 0.8430 0.2367
0.1527 0.8737 0.2622
0.3190 0.8798 0.2862
0.4887 0.8816 0.3258
0.6474 0.8881 0.3717
0.7935 0.8998 0.4247
0.9265 0.9168 0.4839
0.9875 0.9384 0.5748
0.0000 0.0000 0.2872
0.0689 0.0002 0.3003
0.1876 0.0125 0.3090
0.2954 0.0473 0.3205
0.4182 0.0643 0.3660
0.5387 0.0829 0.4091
0.6592 0.1016 0.4520
0.7451 0.1396 0.4847
0.8198 0.1830 0.5186
0.0000 0.0636 0.2955
0.0827 0.0967 0.3227
0.2111 0.1199 0.3391
0.3306 0.1483 0.3531
0.4604 0.1621 0.3971
0.5886 0.1771 0.4392
0.6890 0.2074 0.4738
0.7770 0.2437 0.5098
0.8527 0.2859 0.5472
0.0000 0.1682 0.2914
0.0801 0.2026 0.3274
0.2246 0.2354 0.3549
0.3544 0.2574 0.3741
0.4911 0.2680 0.4164
0.6082 0.2894 0.4538
0.7116 0.3174 0.4927
0.8016 0.3518 0.5331
0.8779 0.3928 0.5751
0.0000 0.2705 0.2952
0.0806 0.3077 0.3291
0.2205 0.3424 0.3580
0.3668 0.3744 0.3837
0.4987 0.3876 0.4250
0.6165 0.4075 0.4679
0.7202 0.4342 0.5125
0.8099 0.4676 0.5587
0.8855 0.5077 0.6066
0.0000 0.3723 0.3018
0.0667 0.4112 0.3334
0.2035 0.4479 0.3590
0.3504 0.4797 0.3826
0.5091 0.4902 0.4070
0.6343 0.5056 0.4545
0.7446 0.5278 0.5056
0.8404 0.5569 0.5587
0.9220 0.5927 0.6135
0.0000 0.4728 0.3064
0.0543 0.5139 0.3358
0.1875 0.5529 0.3585
0.3347 0.5845 0.3820
0.4967 0.5943 0.3996
0.6477 0.6055 0.4417
0.7661 0.6231 0.4958
0.8707 0.6470 0.5535
0.9616 0.6772 0.6133
0.0000 0.5731 0.3109
0.0424 0.6162 0.3382
0.1722 0.6574 0.3582
0.3198 0.6888 0.3820
0.4826 0.6978 0.4009
0.6418 0.7068 0.4326
0.7826 0.7206 0.4881
0.8945 0.7403 0.5480
0.9934 0.7659 0.6115
0.0000 0.6730 0.3155
0.0311 0.7182 0.3407
0.1577 0.7614 0.3583
0.3055 0.7926 0.3826
0.4694 0.8007 0.4032
0.6324 0.8072 0.4368
0.7828 0.8188 0.4784
0.9140 0.8352 0.5460
0.9921 0.8572 0.6116
0.0000 0.7725 0.3204
0.0206 0.8197 0.3436
0.1440 0.8650 0.3588
0.2921 0.8959 0.3838
0.4571 0.9030 0.4060
0.6235 0.9072 0.4425
0.7783 0.9162 0.4860
0.9199 0.9306 0.5366
0.9885 0.9495 0.6171
0.0000 0.0003 0.3716
0.0540 0.0005 0.3818
0.1719 0.0022 0.3850
0.2797 0.0381 0.3908
0.3756 0.0793 0.3998
0.4911 0.0998 0.4465
0.6040 0.1220 0.4905
0.7169 0.1443 0.5343
0.8297 0.1666 0.5781
0.0000 0.0497 0.3848
0.0681 0.0836 0.4104
0.1953 0.1079 0.4239
0.3142 0.1377 0.4323
0.4221 0.1724 0.4438
0.5448 0.1895 0.4893
0.6654 0.2080 0.5323
0.7859 0.2267 0.5753
0.8717 0.2647 0.6079
0.0000 0.1540 0.3777
0.0659 0.1883 0.4191
0.2094 0.2219 0.4459
0.3377 0.2451 0.4624
0.4572 0.2734 0.4763
0.5870 0.2872 0.5204
0.7152 0.3022 0.5624
0.8156 0.3325 0.5971
0.9036 0.3688 0.6331
0.0000 0.2559 0.3776
0.0693 0.2929 0.4164
0.2068 0.3277 0.4507
0.3512 0.3605 0.4781
0.4810 0.3825 0.4974
0.6177 0.3931 0.5397
0.7348 0.4146 0.5771
0.8383 0.4425 0.6159
0.9282 0.4769 0.6564
0.0000 0.3554 0.3832
0.0740 0.3953 0.4203
0.2073 0.4328 0.4524
0.3471 0.4675 0.4812
0.4935 0.4995 0.5070
0.6253 0.5127 0.5482
0.7431 0.5326 0.5911
0.8468 0.5593 0.6357
0.9365 0.5927 0.6820
0.0000 0.4553 0.3925
0.0629 0.4970 0.4273
0.1934 0.5363 0.4566
0.3302 0.5730 0.4823
0.4770 0.6048 0.5058
0.6357 0.6153 0.5302
0.7609 0.6307 0.5778
0.8712 0.6529 0.6289
0.9670 0.6820 0.6819
0.0000 0.5537 0.3998
0.0541 0.5974 0.4324
0.1809 0.6390 0.4591
0.3141 0.6780 0.4818
0.4614 0.7096 0.5053
0.6233 0.7194 0.5229
0.7743 0.7306 0.5650
0.8928 0.7482 0.6190
0.9973 0.7721 0.6767
0.0000 0.6518 0.4070
0.0457 0.6976 0.4374
0.1690 0.7414 0.4614
0.2988 0.7825 0.4814
0.4464 0.8139 0.5053
0.6092 0.8229 0.5242
0.7684 0.8319 0.5559
0.9093 0.8457 0.6113
0.9939 0.8654 0.6718
0.0000 0.7495 0.4143
0.0377 0.7974 0.4424
0.1578 0.8433 0.4639
0.2843 0.8865 0.4815
0.4322 0.9177 0.5059
0.5960 0.9258 0.5264
0.7591 0.9323 0.5601
0.9094 0.9440 0.6016
0.9900 0.9603 0.6709
0.0000 0.0006 0.4528
0.0397 0.0007 0.4602
0.1569 0.0007 0.4579
0.2644 0.0292 0.4582
0.3606 0.0715 0.4612
0.4445 0.1192 0.4675
0.5525 0.1433 0.5153
0.6578 0.1692 0.5602
0.7630 0.1951 0.6050
0.0000 0.0363 0.4708
0.0538 0.0710 0.4948
0.1801 0.0962 0.5055
0.2985 0.1273 0.5082
0.4063 0.1632 0.5141
0.5023 0.2044 0.5230
0.6177 0.2249 0.5697
0.7306 0.2471 0.6137
0.8435 0.2694 0.6576
0.0000 0.1402 0.4619
0.0521 0.1745 0.5081
0.1947 0.2088 0.5337
0.3219 0.2330 0.5471
0.4408 0.2628 0.5555
0.5487 0.2975 0.5671
0.6714 0.3146 0.6125
0.7920 0.3332 0.6556
0.9125 0.3518 0.6985
0.0000 0.2417 0.4584
0.0573 0.2787 0.5023
0.1925 0.3135 0.5424
0.3360 0.3470 0.5692
0.4643 0.3702 0.5856
0.5838 0.3986 0.5996
0.7137 0.4124 0.6436
0.8418 0.4273 0.6857
0.9422 0.4577 0.7203
0.0000 0.3410 0.4613
0.0644 0.3806 0.5030
0.1959 0.4180 0.5397
0.3334 0.4528 0.5739
0.4778 0.4856 0.6014
0.6076 0.5076 0.6207
0.7444 0.5183 0.6629
0.8615 0.5397 0.7003
0.9649 0.5676 0.7392
0.0000 0.4376 0.4684
0.0738 0.4802 0.5084
0.2006 0.5204 0.5436
0.3339 0.5579 0.5756
0.4737 0.5926 0.6045
0.6201 0.6247 0.6302
0.7519 0.6378 0.6715
0.8697 0.6577 0.7144
0.9735 0.6844 0.7590
0.0000 0.5357 0.4803
0.0654 0.5801 0.5179
0.1895 0.6221 0.5506
0.3200 0.6614 0.5799
0.4568 0.6981 0.6055
0.6037 0.7299 0.6291
0.7623 0.7404 0.6535
0.8876 0.7558 0.7010
0.9978 0.7780 0.7521
0.0000 0.6318 0.4901
0.0603 0.6783 0.5255
0.1808 0.7225 0.5557
0.3076 0.7641 0.5823
0.4407 0.8031 0.6050
0.5880 0.8347 0.6285
0.7499 0.8445 0.6461
0.9009 0.8558 0.6883
0.9960 0.8733 0.7427
0.0000 0.7277 0.4999
0.0553 0.7764 0.5329
0.1723 0.8227 0.5606
0.2956 0.8665 0.5847
0.4255 0.9076 0.6047
0.5730 0.9390 0.6285
0.7358 0.9480 0.6474
0.8951 0.9570 0.6791
0.9919 0.9707 0.7360
0.0000 0.0008 0.5305
0.0258 0.0010 0.5355
0.1425 0.0010 0.5279
0.2497 0.0207 0.5229
0.3461 0.0639 0.5202
0.4305 0.1127 0.5204
0.5021 0.1672 0.5238
0.6025 0.1948 0.5724
0.7001 0.2244 0.6182
0.0000 0.0232 0.5535
0.0401 0.0587 0.5759
0.1655 0.0849 0.5840
0.2834 0.1173 0.5813
0.3910 0.1543 0.5814
0.4873 0.1966 0.5845
0.5712 0.2443 0.5908
0.6791 0.2684 0.6385
0.7844 0.2943 0.6834
0.0000 0.1268 0.5433
0.0389 0.1610 0.5939
0.1805 0.1961 0.6181
0.3067 0.2214 0.6288
0.4251 0.2524 0.6315
0.5329 0.2883 0.6373
0.6289 0.3295 0.6463
0.7443 0.3500 0.6930
0.8573 0.3722 0.7370
0.0000 0.2280 0.5375
0.0453 0.2648 0.5862
0.1787 0.2996 0.6314
0.3213 0.3339 0.6569
0.4485 0.3581 0.6704
0.5675 0.3879 0.6788
0.6753 0.4226 0.6903
0.7980 0.4397 0.7358
0.9186 0.4583 0.7788
0.0000 0.3267 0.5372
0.0546 0.3663 0.5838
0.1839 0.4038 0.6256
0.3192 0.4386 0.6656
0.4626 0.4721 0.6924
0.5910 0.4953 0.7089
0.7105 0.5237 0.7229
0.8403 0.5375 0.7669
0.9685 0.5524 0.8090
0.0000 0.4233 0.5422
0.0658 0.4657 0.5867
0.1911 0.5057 0.6263
0.3226 0.5432 0.6630
0.4600 0.5779 0.6972
0.6044 0.6107 0.7246
0.7343 0.6327 0.7439
0.8710 0.6434 0.7862
0.9881 0.6648 0.8236
0.0000 0.5169 0.5506
0.0802 0.5624 0.5933
0.2005 0.6053 0.6316
0.3272 0.6455 0.6668
0.4605 0.6830 0.6989
0.6004 0.7178 0.7278
0.7467 0.7498 0.7535
0.8786 0.7629 0.7947
0.9964 0.7829 0.8377
0.0000 0.6132 0.5651
0.0745 0.6604 0.6053
0.1920 0.7052 0.6412
0.3161 0.7472 0.6738
0.4466 0.7865 0.7031
0.5834 0.8232 0.7288
0.7303 0.8550 0.7524
0.8890 0.8655 0.7767
0.9984 0.8809 0.8245
0.0000 0.7072 0.5773
0.0728 0.7565 0.6152
0.1869 0.8034 0.6487
0.3074 0.8476 0.6789
0.4342 0.8892 0.7056
0.5674 0.9282 0.7283
0.7146 0.9598 0.7518
0.8766 0.9697 0.7694
0.9942 0.9808 0.8126
0.0000 0.0011 0.6050
0.0124 0.0012 0.6077
0.1286 0.0013 0.5951
0.2354 0.0124 0.5849
0.3320 0.0567 0.5767
0.4169 0.1064 0.5710
0.4893 0.1617 0.5682
0.5484 0.2231 0.5685
0.6410 0.2545 0.6179
0.0000 0.0106 0.6328
0.0268 0.0469 0.6537
0.1513 0.0740 0.6595
0.2688 0.1076 0.6515
0.3763 0.1458 0.6461
0.4727 0.1890 0.6434
0.5572 0.2378 0.6436
0.6287 0.2923 0.6470
0.7291 0.3200 0.6957
0.0000 0.1137 0.6217
0.0261 0.1479 0.6764
0.1667 0.1838 0.6992
0.2921 0.2100 0.7073
0.4100 0.2424 0.7045
0.5177 0.2794 0.7047
0.6139 0.3217 0.7078
0.6978 0.3695 0.7140
0.8058 0.3935 0.7618
0.0000 0.2145 0.6142
0.0338 0.2513 0.6673
0.1655 0.2861 0.7172
0.3071 0.3212 0.7413
0.4334 0.3465 0.7520
0.5518 0.3775 0.7548
0.6595 0.4134 0.7606
0.7555 0.4546 0.7695
0.8710 0.4751 0.8162
0.0000 0.3130 0.6114
0.0446 0.3524 0.6626
0.1720 0.3899 0.7094
0.3054 0.4247 0.7546
0.4479 0.4590 0.7802
0.5752 0.4833 0.7936
0.6941 0.5130 0.8020
0.8020 0.5477 0.8136
0.9247 0.5648 0.8590
0.0000 0.4091 0.6136
0.0580 0.4513 0.6627
0.1812 0.4914 0.7070
0.3105 0.5289 0.7489
0.4458 0.5637 0.7889
0.5893 0.5972 0.8157
0.7176 0.6204 0.8321
0.8371 0.6488 0.8461
0.9669 0.6626 0.8901
0.0000 0.5029 0.6203
0.0736 0.5480 0.6674
0.1925 0.5908 0.7100
0.3177 0.6308 0.7496
0.4492 0.6683 0.7862
0.5867 0.7031 0.8204
0.7311 0.7358 0.8479
0.8609 0.7579 0.8672
0.9976 0.7685 0.9095
0.0000 0.5935 0.6300
0.0932 0.6419 0.6750
0.2069 0.6875 0.7165
0.3271 0.7304 0.7549
0.4538 0.7706 0.7901
0.5871 0.8081 0.8221
0.7270 0.8429 0.8510
0.8734 0.8749 0.8767
1.0000 0.8881 0.9180
0.0000 0.6880 0.6469
0.0901 0.7381 0.6895
0.2011 0.7856 0.7286
0.3187 0.8303 0.7644
0.4428 0.8723 0.7971
0.5733 0.9116 0.8264
0.7101 0.9483 0.8521
0.8569 0.9801 0.8756
0.9969 0.9906 0.9006
0.0000 0.0013 0.6868
0.0000 0.0014 0.6768
0.1152 0.0015 0.6594
0.2216 0.0044 0.6444
0.3183 0.0497 0.6309
0.4036 0.1003 0.6196
0.4768 0.1565 0.6108
0.5369 0.2186 0.6047
0.6195 0.2615 0.6386
0.0000 0.0014 0.7087
0.0141 0.0355 0.7281
0.1376 0.0635 0.7317
0.2548 0.0982 0.7188
0.3621 0.1375 0.7082
0.4586 0.1818 0.7000
0.5435 0.2315 0.6943
0.6159 0.2868 0.6914
0.6750 0.3482 0.6918
0.0000 0.1010 0.6970
0.0139 0.1353 0.7555
0.1535 0.1720 0.7770
0.2779 0.1991 0.7827
0.3955 0.2327 0.7747
0.5029 0.2709 0.7694
0.5993 0.3142 0.7667
0.6838 0.3629 0.7669
0.7554 0.4174 0.7703
0.0000 0.2015 0.6883
0.0228 0.2382 0.7454
0.1528 0.2730 0.7997
0.2934 0.3089 0.8224
0.4187 0.3352 0.8306
0.5367 0.3675 0.8278
0.6443 0.4046 0.8279
0.7405 0.4468 0.8310
0.8244 0.4946 0.8373
0.0000 0.2996 0.6834
0.0348 0.3390 0.7390
0.1604 0.3764 0.7905
0.2921 0.4112 0.8404
0.4337 0.4463 0.8646
0.5600 0.4716 0.8753
0.6784 0.5026 0.8780
0.7862 0.5385 0.8838
0.8822 0.5797 0.8928
0.0000 0.3954 0.6832
0.0498 0.4375 0.7368
0.1712 0.4776 0.7858
0.2986 0.5150 0.8327
0.4320 0.5498 0.8779
0.5746 0.5841 0.9034
0.7018 0.6084 0.9169
0.8207 0.6381 0.9253
0.9286 0.6728 0.9368
0.0000 0.4888 0.6874
0.0674 0.5338 0.7389
0.1846 0.5765 0.7860
0.3079 0.6165 0.8303
0.4372 0.6540 0.8721
0.5724 0.6888 0.9122
0.7159 0.7223 0.9389
0.8442 0.7455 0.9554
0.9637 0.7739 0.9694
0.0000 0.5797 0.6957
0.0877 0.6277 0.7450
0.2002 0.6732 0.7907
0.3191 0.7159 0.8333
0.4443 0.7560 0.8728
0.5758 0.7934 0.9095
0.7133 0.8282 0.9437
0.8577 0.8609 0.9711
0.9875 0.8830 0.9904
0.0000 0.6762 0.7157
0.1127 0.7186 0.7535
0.2198 0.7670 0.7982
0.3335 0.8126 0.8398
0.4537 0.8556 0.8781
0.5805 0.8958 0.9133
0.7138 0.9332 0.9454
0.8536 0.9680 0.9743
1.0000 1.0000 1.0000
