assets/luts/LUTs/JD_Big_Bear.CUBE
TITLE "ColorFinale Export"
# Created by Jeven Dovey on 2021-07-15 17:42:10 +0000
# Color Finale Plugin v.2.3.2 (520)
LUT_3D_SIZE 5
0.0000 0.0000 0.0000
0.2565 0.0000 0.0000
0.5455 0.0000 0.0000
0.8267 0.0000 0.0000
1.0000 0.0000 0.0000
0.0000 0.2517 0.0000
0.2116 0.2511 0.0000
0.5353 0.2085 0.0000
0.8334 0.1047 0.0000
1.0000 0.0000 0.0000
0.0000 0.5356 0.0000
0.1499 0.5422 0.0000
0.4504 0.5343 0.0000
0.7702 0.5010 0.0000
1.0000 0.4438 0.0000
0.0000 0.8129 0.0000
0.0374 0.8197 0.0000
0.3890 0.8214 0.0000
0.6927 0.8111 0.0000
0.9850 0.7843 0.0000
0.0000 1.0000 0.0000
0.0000 1.0000 0.0000
0.3190 1.0000 0.0000
0.6331 1.0000 0.0000
0.9200 1.0000 0.0000
0.0000 0.0000 0.2703
0.2359 0.0000 0.2771
0.5330 0.0000 0.2454
0.8183 0.0000 0.1389
1.0000 0.0000 0.0000
0.0000 0.2438 0.2555
0.2349 0.2349 0.2590
0.5310 0.1998 0.2240
0.8161 0.0908 0.1061
1.0000 0.0000 0.0000
0.0000 0.5253 0.2536
0.1825 0.5266 0.2558
0.4824 0.5210 0.1795
0.7850 0.4923 0.0000
1.0000 0.4380 0.0000
0.0000 0.8023 0.1922
0.0553 0.8070 0.1801
0.4022 0.8154 0.0000
0.7002 0.8070 0.0000
0.9901 0.7806 0.0000
0.0000 1.0000 0.0000
0.0000 1.0000 0.0000
0.3252 1.0000 0.0000
0.6384 1.0000 0.0000
0.9238 1.0000 0.0000
0.0000 0.0000 0.5225
0.1783 0.0000 0.5434
0.5021 0.0000 0.5359
0.7975 0.0000 0.5138
1.0000 0.0000 0.4743
0.0000 0.2227 0.4956
0.1753 0.2097 0.5199
0.5062 0.1606 0.5213
0.7984 0.0000 0.5059
1.0000 0.0000 0.4684
0.0000 0.5189 0.4936
0.1575 0.5139 0.5019
0.5000 0.5000 0.5002
0.7955 0.4723 0.4759
1.0000 0.4253 0.4347
0.0000 0.7958 0.4981
0.0000 0.7940 0.5006
0.4541 0.7915 0.5055
0.7504 0.7839 0.4511
1.0000 0.7523 0.4032
0.0000 1.0000 0.4899
0.0000 1.0000 0.4900
0.3885 1.0000 0.4942
0.7001 1.0000 0.4391
0.9740 1.0000 0.3552
0.0000 0.0000 0.7889
0.0501 0.0000 0.8146
0.4524 0.0000 0.8204
0.7661 0.0000 0.8098
1.0000 0.0000 0.7895
0.0000 0.1360 0.7588
0.0410 0.1118 0.7883
0.4515 0.0000 0.8134
0.7664 0.0000 0.8050
1.0000 0.0000 0.7855
0.0000 0.5051 0.7406
0.0000 0.5015 0.7461
0.4465 0.4828 0.7783
0.7711 0.4473 0.7772
1.0000 0.3949 0.7554
0.0000 0.7896 0.7436
0.0000 0.7876 0.7452
0.4442 0.7778 0.7583
0.7631 0.7631 0.7541
1.0000 0.7397 0.7309
0.0000 1.0000 0.7499
0.0000 1.0000 0.7508
0.3937 1.0000 0.7673
0.7224 1.0000 0.7622
0.9918 1.0000 0.7079
0.0000 0.0000 1.0000
0.0000 0.0000 1.0000
0.3796 0.0000 1.0000
0.7225 0.0000 1.0000
1.0000 0.0000 1.0000
0.0000 0.0000 1.0000
0.0000 0.0000 1.0000
0.3768 0.0000 1.0000
0.7221 0.0000 1.0000
1.0000 0.0000 1.0000
0.0000 0.4740 0.9929
0.0000 0.4700 0.9962
0.3732 0.4465 1.0000
0.7239 0.4059 1.0000
1.0000 0.3418 1.0000
0.0000 0.7787 0.9855
0.0000 0.7769 0.9869
0.3648 0.7672 1.0000
0.7152 0.7495 1.0000
1.0000 0.7194 1.0000
0.0000 1.0000 0.9894
0.0000 1.0000 0.9900
0.3352 1.0000 1.0000
0.7165 1.0000 1.0000
1.0000 1.0000 1.0000
