assets/luts/LUTs/JD_Big_Bear.CUBE
TITLE "ColorFinale Export"
# Created by Jeven Dovey on 2021-07-15 17:42:10 +0000
# Color Finale Plugin v.2.3.2 (520)
LUT_3D_SIZE 9
0.0000 0.0000 0.0000
0.1205 0.0000 0.0000
0.2565 0.0000 0.0000
0.3990 0.0000 0.0000
0.5455 0.0000 0.0000
0.6886 0.0000 0.0000
0.8267 0.0000 0.0000
0.9569 0.0000 0.0000
1.0000 0.0000 0.0000
0.0000 0.1182 0.0000
0.0994 0.1180 0.0000
0.2516 0.0979 0.0000
0.4026 0.0492 0.0000
0.5455 0.0000 0.0000
0.6884 0.0000 0.0000
0.8265 0.0000 0.0000
0.9568 0.0000 0.0000
1.0000 0.0000 0.0000
0.0000 0.2517 0.0000
0.0704 0.2549 0.0000
0.2116 0.2511 0.0000
0.3691 0.2353 0.0000
0.5353 0.2085 0.0000
0.6922 0.1697 0.0000
0.8334 0.1047 0.0000
0.9578 0.0000 0.0000
1.0000 0.0000 0.0000
0.0000 0.3916 0.0000
0.0175 0.3953 0.0000
0.1827 0.3962 0.0000
0.3292 0.3907 0.0000
0.4894 0.3765 0.0000
0.6552 0.3539 0.0000
0.8125 0.3244 0.0000
0.9566 0.2869 0.0000
1.0000 0.2374 0.0000
0.0000 0.5356 0.0000
0.0000 0.5365 0.0000
0.1499 0.5422 0.0000
0.2993 0.5407 0.0000
0.4504 0.5343 0.0000
0.6103 0.5211 0.0000
0.7702 0.5010 0.0000
0.9233 0.4750 0.0000
1.0000 0.4438 0.0000
0.0000 0.6766 0.0000
0.0000 0.6772 0.0000
0.1059 0.6839 0.0000
0.2685 0.6845 0.0000
0.4195 0.6818 0.0000
0.5732 0.6751 0.0000
0.7279 0.6631 0.0000
0.8816 0.6455 0.0000
1.0000 0.6230 0.0000
0.0000 0.8129 0.0000
0.0000 0.8133 0.0000
0.0374 0.8197 0.0000
0.2331 0.8222 0.0000
0.3890 0.8214 0.0000
0.5422 0.8179 0.0000
0.6927 0.8111 0.0000
0.8422 0.8000 0.0000
0.9850 0.7843 0.0000
0.0000 0.9422 0.0000
0.0000 0.9425 0.0000
0.0000 0.9445 0.0000
0.1902 0.9516 0.0000
0.3561 0.9521 0.0000
0.5119 0.9506 0.0000
0.6624 0.9468 0.0000
0.8087 0.9403 0.0000
0.9508 0.9303 0.0000
0.0000 1.0000 0.0000
0.0000 1.0000 0.0000
0.0000 1.0000 0.0000
0.1355 1.0000 0.0000
0.3190 1.0000 0.0000
0.4798 1.0000 0.0000
0.6331 1.0000 0.0000
0.7792 1.0000 0.0000
0.9200 1.0000 0.0000
0.0000 0.0000 0.1328
0.1108 0.0000 0.1364
0.2505 0.0000 0.1196
0.3945 0.0000 0.0660
0.5440 0.0000 0.0000
0.6876 0.0000 0.0000
0.8260 0.0000 0.0000
0.9565 0.0000 0.0000
1.0000 0.0000 0.0000
0.0000 0.1145 0.1249
0.1103 0.1103 0.1267
0.2496 0.0938 0.1085
0.3933 0.0427 0.0502
0.5433 0.0000 0.0000
0.6872 0.0000 0.0000
0.8256 0.0000 0.0000
0.9562 0.0000 0.0000
1.0000 0.0000 0.0000
0.0000 0.2468 0.1239
0.0857 0.2475 0.1251
0.2266 0.2448 0.0860
0.3769 0.2313 0.0000
0.5383 0.2057 0.0000
0.6923 0.1676 0.0000
0.8321 0.1017 0.0000
0.9568 0.0000 0.0000
1.0000 0.0000 0.0000
0.0000 0.3860 0.0923
0.0260 0.3885 0.0863
0.1889 0.3930 0.0000
0.3330 0.3885 0.0000
0.4928 0.3746 0.0000
0.6577 0.3521 0.0000
0.8140 0.3228 0.0000
0.9572 0.2856 0.0000
1.0000 0.2362 0.0000
0.0000 0.5332 0.0000
0.0000 0.5341 0.0000
0.1528 0.5403 0.0000
0.3019 0.5391 0.0000
0.4526 0.5329 0.0000
0.6122 0.5199 0.0000
0.7720 0.4997 0.0000
0.9246 0.4738 0.0000
1.0000 0.4427 0.0000
0.0000 0.6751 0.0000
0.0000 0.6756 0.0000
0.1072 0.6825 0.0000
0.2705 0.6833 0.0000
0.4212 0.6808 0.0000
0.5747 0.6742 0.0000
0.7292 0.6622 0.0000
0.8829 0.6446 0.0000
1.0000 0.6222 0.0000
0.0000 0.8117 0.0000
0.0000 0.8121 0.0000
0.0367 0.8187 0.0000
0.2345 0.8212 0.0000
0.3904 0.8206 0.0000
0.5435 0.8172 0.0000
0.6938 0.8104 0.0000
0.8432 0.7993 0.0000
0.9859 0.7837 0.0000
0.0000 0.9413 0.0000
0.0000 0.9416 0.0000
0.0000 0.9437 0.0000
0.1911 0.9509 0.0000
0.3572 0.9515 0.0000
0.5130 0.9500 0.0000
0.6634 0.9463 0.0000
0.8096 0.9398 0.0000
0.9516 0.9298 0.0000
0.0000 1.0000 0.0000
0.0000 1.0000 0.0000
0.0000 1.0000 0.0000
0.1359 1.0000 0.0000
0.3199 1.0000 0.0000
0.4808 1.0000 0.0000
0.6340 1.0000 0.0000
0.7799 1.0000 0.0000
0.9206 1.0000 0.0000
0.0000 0.0000 0.2703
0.0838 0.0000 0.2809
0.2359 0.0000 0.2771
0.3834 0.0000 0.2659
0.5330 0.0000 0.2454
0.6784 0.0000 0.2095
0.8183 0.0000 0.1389
0.9535 0.0000 0.0000
1.0000 0.0000 0.0000
0.0000 0.1046 0.2566
0.0824 0.0985 0.2691
0.2378 0.0754 0.2698
0.3840 0.0000 0.2619
0.5331 0.0000 0.2423
0.6782 0.0000 0.2063
0.8181 0.0000 0.1343
0.9533 0.0000 0.0000
1.0000 0.0000 0.0000
0.0000 0.2438 0.2555
0.0740 0.2414 0.2598
0.2349 0.2349 0.2590
0.3824 0.2219 0.2462
0.5310 0.1998 0.2240
0.6759 0.1631 0.1856
0.8161 0.0908 0.1061
0.9521 0.0000 0.0000
1.0000 0.0000 0.0000
0.0000 0.3826 0.2579
0.0000 0.3816 0.2592
0.2133 0.3803 0.2617
0.3588 0.3763 0.2330
0.5256 0.3598 0.2065
0.6773 0.3404 0.1665
0.8207 0.3151 0.0515
0.9584 0.2800 0.0000
1.0000 0.2310 0.0000
0.0000 0.5253 0.2536
0.0000 0.5249 0.2537
0.1825 0.5266 0.2558
0.3329 0.5262 0.2264
0.4824 0.5210 0.1795
0.6438 0.5068 0.1117
0.7850 0.4923 0.0000
0.9319 0.4680 0.0000
1.0000 0.4380 0.0000
0.0000 0.6659 0.2372
0.0000 0.6657 0.2364
0.1368 0.6693 0.2361
0.3037 0.6707 0.2009
0.4512 0.6698 0.1394
0.5877 0.6683 0.0000
0.7380 0.6575 0.0000
0.8899 0.6402 0.0000
1.0000 0.6181 0.0000
0.0000 0.8023 0.1922
0.0000 0.8023 0.1897
0.0553 0.8070 0.1801
0.2611 0.8112 0.1026
0.4022 0.8154 0.0000
0.5519 0.8132 0.0000
0.7002 0.8070 0.0000
0.8485 0.7962 0.0000
0.9901 0.7806 0.0000
0.0000 0.9367 0.0000
0.0000 0.9370 0.0000
0.0000 0.9390 0.0000
0.1983 0.9469 0.0000
0.3647 0.9480 0.0000
0.5195 0.9471 0.0000
0.6686 0.9437 0.0000
0.8139 0.9374 0.0000
0.9552 0.9275 0.0000
0.0000 1.0000 0.0000
0.0000 1.0000 0.0000
0.0000 1.0000 0.0000
0.1391 1.0000 0.0000
0.3252 1.0000 0.0000
0.4860 1.0000 0.0000
0.6384 1.0000 0.0000
0.7837 1.0000 0.0000
0.9238 1.0000 0.0000
0.0000 0.0000 0.3966
0.0236 0.0000 0.4084
0.2125 0.0000 0.4111
0.3670 0.0000 0.4062
0.5197 0.0000 0.3968
0.6676 0.0000 0.3825
0.8093 0.0000 0.3617
0.9429 0.0000 0.3319
1.0000 0.0000 0.2876
0.0000 0.0639 0.3828
0.0192 0.0525 0.3963
0.2121 0.0000 0.4079
0.3671 0.0000 0.4040
0.5198 0.0000 0.3950
0.6677 0.0000 0.3809
0.8093 0.0000 0.3602
0.9428 0.0000 0.3303
1.0000 0.0000 0.2858
0.0000 0.2373 0.3745
0.0000 0.2356 0.3770
0.2097 0.2268 0.3917
0.3696 0.2101 0.3912
0.5229 0.1855 0.3813
0.6693 0.1444 0.3664
0.8096 0.0412 0.3472
0.9423 0.0000 0.3224
1.0000 0.0000 0.2776
0.0000 0.3793 0.3758
0.0000 0.3782 0.3765
0.2087 0.3731 0.3826
0.3654 0.3654 0.3806
0.5184 0.3532 0.3700
0.6657 0.3355 0.3544
0.8065 0.3108 0.3321
0.9397 0.2762 0.3002
1.0000 0.2261 0.2518
0.0000 0.5224 0.3787
0.0000 0.5217 0.3791
0.1850 0.5188 0.3867
0.3443 0.5162 0.3843
0.4939 0.5116 0.3594
0.6604 0.4951 0.3415
0.8066 0.4777 0.3217
0.9408 0.4571 0.2895
1.0000 0.4308 0.2373
0.0000 0.6628 0.3784
0.0000 0.6624 0.3787
0.1392 0.6617 0.3862
0.3178 0.6615 0.3833
0.4686 0.6601 0.3593
0.6192 0.6546 0.3257
0.7790 0.6402 0.2922
0.9296 0.6214 0.2562
1.0000 0.6012 0.1937
0.0000 0.7985 0.3732
0.0000 0.7983 0.3731
0.0337 0.7984 0.3784
0.2839 0.8004 0.3763
0.4423 0.8004 0.3517
0.5918 0.7985 0.3164
0.7384 0.7926 0.2702
0.8883 0.7805 0.2109
1.0000 0.7645 0.1129
0.0000 0.9281 0.3605
0.0000 0.9280 0.3601
0.0000 0.9276 0.3598
0.2401 0.9319 0.3610
0.4108 0.9330 0.3340
0.5645 0.9326 0.2951
0.7088 0.9303 0.2399
0.8488 0.9251 0.1518
0.9698 0.9206 0.0000
0.0000 1.0000 0.3364
0.0000 1.0000 0.3358
0.0000 1.0000 0.3336
0.1804 1.0000 0.3322
0.3722 1.0000 0.2992
0.5321 1.0000 0.2495
0.6769 1.0000 0.1647
0.7995 1.0000 0.0000
0.9342 1.0000 0.0000
0.0000 0.0000 0.5225
0.0000 0.0000 0.5262
0.1783 0.0000 0.5434
0.3444 0.0000 0.5417
0.5021 0.0000 0.5359
0.6537 0.0000 0.5267
0.7975 0.0000 0.5138
0.9332 0.0000 0.4965
1.0000 0.0000 0.4743
0.0000 0.0000 0.5179
0.0000 0.0000 0.5219
0.1770 0.0000 0.5412
0.3442 0.0000 0.5400
0.5022 0.0000 0.5345
0.6537 0.0000 0.5254
0.7976 0.0000 0.5126
0.9332 0.0000 0.4954
1.0000 0.0000 0.4733
0.0000 0.2227 0.4956
0.0000 0.2208 0.4976
0.1753 0.2097 0.5199
0.3451 0.1907 0.5260
0.5062 0.1606 0.5213
0.6575 0.1066 0.5127
0.7984 0.0000 0.5059
0.9335 0.0000 0.4901
1.0000 0.0000 0.4684
0.0000 0.3736 0.4914
0.0000 0.3726 0.4921
0.1714 0.3675 0.5051
0.3406 0.3583 0.5127
0.5048 0.3428 0.5116
0.6572 0.3236 0.5016
0.7998 0.2976 0.4877
0.9340 0.2609 0.4702
1.0000 0.2064 0.4482
0.0000 0.5189 0.4936
0.0000 0.5182 0.4939
0.1575 0.5139 0.5019
0.3413 0.5083 0.5027
0.5000 0.5000 0.5002
0.6521 0.4881 0.4898
0.7955 0.4723 0.4759
0.9306 0.4517 0.4579
1.0000 0.4253 0.4347
0.0000 0.6600 0.4967
0.0000 0.6595 0.4969
0.1076 0.6566 0.5052
0.3229 0.6533 0.5077
0.4790 0.6500 0.5046
0.6282 0.6452 0.4797
0.7900 0.6295 0.4640
0.9300 0.6140 0.4493
1.0000 0.5963 0.4272
0.0000 0.7958 0.4981
0.0000 0.7955 0.4983
0.0000 0.7940 0.5006
0.2912 0.7926 0.5095
0.4541 0.7915 0.5055
0.6041 0.7895 0.4819
0.7504 0.7839 0.4511
0.9050 0.7699 0.4248
1.0000 0.7523 0.4032
0.0000 0.9254 0.4960
0.0000 0.9251 0.4963
0.0000 0.9243 0.4971
0.2480 0.9246 0.5068
0.4243 0.9249 0.5023
0.5800 0.9243 0.4791
0.7246 0.9219 0.4480
0.8667 0.9161 0.4118
1.0000 0.9042 0.3748
0.0000 1.0000 0.4899
0.0000 1.0000 0.4897
0.0000 1.0000 0.4900
0.1874 1.0000 0.4991
0.3885 1.0000 0.4942
0.5520 1.0000 0.4706
0.7001 1.0000 0.4391
0.8401 1.0000 0.4007
0.9740 1.0000 0.3552
0.0000 0.0000 0.6543
0.0000 0.0000 0.6568
0.1291 0.0000 0.6796
0.3150 0.0000 0.6812
0.4799 0.0000 0.6779
0.6363 0.0000 0.6717
0.7832 0.0000 0.6625
0.9214 0.0000 0.6504
1.0000 0.0000 0.6349
0.0000 0.0000 0.6513
0.0000 0.0000 0.6538
0.1272 0.0000 0.6776
0.3144 0.0000 0.6799
0.4797 0.0000 0.6768
0.6363 0.0000 0.6706
0.7833 0.0000 0.6616
0.9214 0.0000 0.6495
1.0000 0.0000 0.6341
0.0000 0.1940 0.6241
0.0000 0.1918 0.6258
0.1259 0.1783 0.6531
0.3129 0.1548 0.6636
0.4827 0.1113 0.6641
0.6375 0.0000 0.6638
0.7839 0.0000 0.6565
0.9217 0.0000 0.6451
1.0000 0.0000 0.6302
0.0000 0.3633 0.6157
0.0000 0.3624 0.6167
0.1178 0.3562 0.6357
0.3104 0.3458 0.6481
0.4802 0.3290 0.6533
0.6411 0.3071 0.6479
0.7885 0.2781 0.6384
0.9260 0.2372 0.6261
1.0000 0.1735 0.6110
0.0000 0.5135 0.6144
0.0000 0.5129 0.6148
0.0933 0.5090 0.6250
0.3089 0.5032 0.6325
0.4752 0.4934 0.6391
0.6387 0.4782 0.6376
0.7869 0.4611 0.6275
0.9238 0.4398 0.6141
1.0000 0.4125 0.5978
0.0000 0.6565 0.6170
0.0000 0.6560 0.6172
0.0000 0.6535 0.6205
0.3039 0.6481 0.6289
0.4767 0.6420 0.6285
0.6337 0.6337 0.6256
0.7813 0.6226 0.6151
0.9193 0.6084 0.6018
1.0000 0.5907 0.5852
0.0000 0.7930 0.6203
0.0000 0.7926 0.6205
0.0000 0.7910 0.6223
0.2791 0.7868 0.6334
0.4603 0.7830 0.6341
0.6137 0.7793 0.6305
0.7580 0.7744 0.6050
0.9139 0.7594 0.5900
1.0000 0.7452 0.5771
0.0000 0.9228 0.6226
0.0000 0.9226 0.6227
0.0000 0.9214 0.6238
0.2365 0.9191 0.6362
0.4329 0.9171 0.6371
0.5906 0.9155 0.6326
0.7350 0.9133 0.6088
0.8762 0.9078 0.5780
1.0000 0.8946 0.5532
0.0000 1.0000 0.6225
0.0000 1.0000 0.6226
0.0000 1.0000 0.6231
0.1695 1.0000 0.6352
0.3983 1.0000 0.6366
0.5638 1.0000 0.6315
0.7126 1.0000 0.6083
0.8519 1.0000 0.5777
0.9846 1.0000 0.5429
0.0000 0.0000 0.7889
0.0000 0.0000 0.7908
0.0501 0.0000 0.8146
0.2774 0.0000 0.8214
0.4524 0.0000 0.8204
0.6152 0.0000 0.8163
0.7661 0.0000 0.8098
0.9074 0.0000 0.8009
1.0000 0.0000 0.7895
0.0000 0.0000 0.7866
0.0000 0.0000 0.7886
0.0467 0.0000 0.8126
0.2767 0.0000 0.8202
0.4521 0.0000 0.8195
0.6151 0.0000 0.8154
0.7661 0.0000 0.8090
0.9074 0.0000 0.8002
1.0000 0.0000 0.7888
0.0000 0.1360 0.7588
0.0000 0.1324 0.7605
0.0410 0.1118 0.7883
0.2735 0.0557 0.8055
0.4515 0.0000 0.8134
0.6153 0.0000 0.8107
0.7664 0.0000 0.8050
0.9077 0.0000 0.7965
1.0000 0.0000 0.7855
0.0000 0.3464 0.7468
0.0000 0.3454 0.7480
0.0065 0.3386 0.7646
0.2728 0.3263 0.7850
0.4494 0.3086 0.7933
0.6189 0.2832 0.7932
0.7719 0.2498 0.7872
0.9129 0.2012 0.7786
1.0000 0.1131 0.7687
0.0000 0.5051 0.7406
0.0000 0.5045 0.7411
0.0000 0.5015 0.7461
0.2696 0.4934 0.7682
0.4465 0.4828 0.7783
0.6152 0.4667 0.7829
0.7711 0.4473 0.7772
0.9131 0.4242 0.7676
1.0000 0.3949 0.7554
0.0000 0.6516 0.7407
0.0000 0.6511 0.7410
0.0000 0.6490 0.7433
0.2636 0.6436 0.7570
0.4459 0.6374 0.7621
0.6100 0.6277 0.7682
0.7681 0.6134 0.7665
0.9108 0.5981 0.7563
1.0000 0.5799 0.7435
0.0000 0.7896 0.7436
0.0000 0.7892 0.7438
0.0000 0.7876 0.7452
0.2450 0.7826 0.7567
0.4442 0.7778 0.7583
0.6119 0.7714 0.7573
0.7631 0.7631 0.7541
0.9052 0.7526 0.7437
1.0000 0.7397 0.7309
0.0000 0.9201 0.7470
0.0000 0.9198 0.7472
0.0000 0.9186 0.7482
0.2019 0.9148 0.7606
0.4252 0.9113 0.7634
0.5972 0.9072 0.7632
0.7440 0.9033 0.7593
0.8830 0.8985 0.7337
1.0000 0.8844 0.7193
0.0000 1.0000 0.7499
0.0000 1.0000 0.7501
0.0000 1.0000 0.7508
0.1149 1.0000 0.7622
0.3937 1.0000 0.7673
0.5729 1.0000 0.7670
0.7224 1.0000 0.7622
0.8612 1.0000 0.7384
0.9918 1.0000 0.7079
0.0000 0.0000 0.9216
0.0000 0.0000 0.9231
0.0000 0.0000 0.9322
0.2297 0.0000 0.9561
0.4192 0.0000 0.9574
0.5899 0.0000 0.9553
0.7460 0.0000 0.9509
0.8910 0.0000 0.9447
1.0000 0.0000 0.9365
0.0000 0.0000 0.9199
0.0000 0.0000 0.9213
0.0000 0.0000 0.9305
0.2287 0.0000 0.9551
0.4189 0.0000 0.9566
0.5897 0.0000 0.9546
0.7460 0.0000 0.9503
0.8910 0.0000 0.9442
1.0000 0.0000 0.9359
0.0000 0.0000 0.9088
0.0000 0.0000 0.9104
0.0000 0.0000 0.9203
0.2243 0.0000 0.9492
0.4172 0.0000 0.9524
0.5892 0.0000 0.9511
0.7459 0.0000 0.9472
0.8911 0.0000 0.9413
1.0000 0.0000 0.9333
0.0000 0.3199 0.8781
0.0000 0.3187 0.8790
0.0000 0.3132 0.8850
0.2251 0.2972 0.9193
0.4135 0.2777 0.9292
0.5914 0.2476 0.9334
0.7509 0.2061 0.9308
0.8963 0.1378 0.9258
1.0000 0.0000 0.9250
0.0000 0.4923 0.8697
0.0000 0.4916 0.8704
0.0000 0.4887 0.8747
0.2200 0.4790 0.9023
0.4129 0.4675 0.9145
0.5862 0.4513 0.9215
0.7498 0.4295 0.9210
0.8973 0.4040 0.9148
1.0000 0.3722 0.9062
0.0000 0.6445 0.8665
0.0000 0.6440 0.8668
0.0000 0.6420 0.8689
0.2081 0.6365 0.8893
0.4110 0.6291 0.8981
0.5831 0.6186 0.9069
0.7456 0.6036 0.9108
0.8958 0.5862 0.9052
1.0000 0.5664 0.8959
0.0000 0.7850 0.8674
0.0000 0.7846 0.8676
0.0000 0.7831 0.8689
0.1865 0.7784 0.8819
0.4091 0.7736 0.8868
0.5832 0.7671 0.8909
0.7404 0.7575 0.8963
0.8926 0.7440 0.8945
1.0000 0.7300 0.8847
0.0000 0.9168 0.8703
0.0000 0.9166 0.8704
0.0000 0.9154 0.8713
0.1310 0.9113 0.8822
0.3992 0.9071 0.8865
0.5831 0.9020 0.8870
0.7425 0.8956 0.8855
0.8877 0.8877 0.8823
1.0000 0.8778 0.8723
0.0000 1.0000 0.8736
0.0000 1.0000 0.8738
0.0000 1.0000 0.8745
0.0000 1.0000 0.8787
0.3732 1.0000 0.8910
0.5674 1.0000 0.8923
0.7291 1.0000 0.8915
0.8696 1.0000 0.8876
0.9968 1.0000 0.8626
0.0000 0.0000 1.0000
0.0000 0.0000 1.0000
0.0000 0.0000 1.0000
0.1676 0.0000 1.0000
0.3796 0.0000 1.0000
0.5600 0.0000 1.0000
0.7225 0.0000 1.0000
0.8720 0.0000 1.0000
1.0000 0.0000 1.0000
0.0000 0.0000 1.0000
0.0000 0.0000 1.0000
0.0000 0.0000 1.0000
0.1662 0.0000 1.0000
0.3791 0.0000 1.0000
0.5598 0.0000 1.0000
0.7224 0.0000 1.0000
0.8720 0.0000 1.0000
1.0000 0.0000 1.0000
0.0000 0.0000 1.0000
0.0000 0.0000 1.0000
0.0000 0.0000 1.0000
0.1605 0.0000 1.0000
0.3768 0.0000 1.0000
0.5590 0.0000 1.0000
0.7221 0.0000 1.0000
0.8719 0.0000 1.0000
1.0000 0.0000 1.0000
0.0000 0.2794 1.0000
0.0000 0.2780 1.0000
0.0000 0.2717 1.0000
0.1616 0.2527 1.0000
0.3717 0.2288 1.0000
0.5591 0.1891 1.0000
0.7255 0.1227 1.0000
0.8732 0.0000 1.0000
1.0000 0.0000 1.0000
0.0000 0.4740 0.9929
0.0000 0.4733 0.9935
0.0000 0.4700 0.9962
0.1531 0.4591 1.0000
0.3732 0.4465 1.0000
0.5531 0.4299 1.0000
0.7239 0.4059 1.0000
0.8777 0.3774 1.0000
1.0000 0.3418 1.0000
0.0000 0.6344 0.9869
0.0000 0.6339 0.9872
0.0000 0.6320 0.9892
0.1324 0.6255 1.0000
0.3703 0.6172 1.0000
0.5524 0.6062 1.0000
0.7182 0.5912 1.0000
0.8757 0.5717 1.0000
1.0000 0.5501 1.0000
0.0000 0.7787 0.9855
0.0000 0.7784 0.9857
0.0000 0.7769 0.9869
0.0864 0.7726 0.9989
0.3648 0.7672 1.0000
0.5512 0.7597 1.0000
0.7152 0.7495 1.0000
0.8711 0.7354 1.0000
1.0000 0.7194 1.0000
0.0000 0.9126 0.9870
0.0000 0.9123 0.9871
0.0000 0.9112 0.9878
0.0000 0.9084 0.9916
0.3570 0.9032 1.0000
0.5513 0.8982 1.0000
0.7155 0.8917 1.0000
0.8661 0.8825 1.0000
1.0000 0.8698 1.0000
0.0000 1.0000 0.9894
0.0000 1.0000 0.9895
0.0000 1.0000 0.9900
0.0000 1.0000 0.9923
0.3352 1.0000 1.0000
0.5453 1.0000 1.0000
0.7165 1.0000 1.0000
0.8684 1.0000 1.0000
1.0000 1.0000 1.0000
