assets/luts/LUTs/JD_Big_Bear.CUBE
TITLE "ColorFinale Export"
# Created by Jeven Dovey on 2021-07-15 17:42:10 +0000
# Color Finale Plugin v.2.3.2 (520)
LUT_3D_SIZE 17
0.0000 0.0000 0.0000
0.0566 0.0000 0.0000
0.1205 0.0000 0.0000
0.1874 0.0000 0.0000
0.2565 0.0000 0.0000
0.3271 0.0000 0.0000
0.3990 0.0000 0.0000
0.4720 0.0000 0.0000
0.5455 0.0000 0.0000
0.6177 0.0000 0.0000
0.6886 0.0000 0.0000
0.7583 0.0000 0.0000
0.8267 0.0000 0.0000
0.8933 0.0000 0.0000
0.9569 0.0000 0.0000
1.0000 0.0000 0.0000
1.0000 0.0000 0.0000
0.0000 0.0556 0.0000
0.0467 0.0554 0.0000
0.1182 0.0460 0.0000
0.1891 0.0231 0.0000
0.2565 0.0000 0.0000
0.3270 0.0000 0.0000
0.3989 0.0000 0.0000
0.4719 0.0000 0.0000
0.5454 0.0000 0.0000
0.6176 0.0000 0.0000
0.6885 0.0000 0.0000
0.7583 0.0000 0.0000
0.8266 0.0000 0.0000
0.8932 0.0000 0.0000
0.9569 0.0000 0.0000
1.0000 0.0000 0.0000
1.0000 0.0000 0.0000
0.0000 0.1182 0.0000
0.0331 0.1197 0.0000
0.0994 0.1180 0.0000
0.1734 0.1106 0.0000
0.2516 0.0979 0.0000
0.3289 0.0797 0.0000
0.4026 0.0492 0.0000
0.4725 0.0000 0.0000
0.5455 0.0000 0.0000
0.6175 0.0000 0.0000
0.6884 0.0000 0.0000
0.7581 0.0000 0.0000
0.8265 0.0000 0.0000
0.8931 0.0000 0.0000
0.9568 0.0000 0.0000
1.0000 0.0000 0.0000
1.0000 0.0000 0.0000
0.0000 0.1840 0.0000
0.0082 0.1857 0.0000
0.0859 0.1861 0.0000
0.1546 0.1835 0.0000
0.2299 0.1769 0.0000
0.3103 0.1662 0.0000
0.3914 0.1524 0.0000
0.4718 0.1348 0.0000
0.5500 0.1115 0.0000
0.6230 0.0765 0.0000
0.6900 0.0000 0.0000
0.7587 0.0000 0.0000
0.8267 0.0000 0.0000
0.8931 0.0000 0.0000
0.9568 0.0000 0.0000
1.0000 0.0000 0.0000
1.0000 0.0000 0.0000
0.0000 0.2517 0.0000
0.0000 0.2522 0.0000
0.0704 0.2549 0.0000
0.1406 0.2542 0.0000
0.2116 0.2511 0.0000
0.2880 0.2448 0.0000
0.3691 0.2353 0.0000
0.4523 0.2231 0.0000
0.5353 0.2085 0.0000
0.6152 0.1910 0.0000
0.6922 0.1697 0.0000
0.7645 0.1428 0.0000
0.8334 0.1047 0.0000
0.8979 0.0134 0.0000
0.9578 0.0000 0.0000
1.0000 0.0000 0.0000
1.0000 0.0000 0.0000
0.0000 0.3210 0.0000
0.0000 0.3213 0.0000
0.0497 0.3247 0.0000
0.1262 0.3250 0.0000
0.1971 0.3237 0.0000
0.2699 0.3203 0.0000
0.3472 0.3142 0.0000
0.4289 0.3054 0.0000
0.5131 0.2943 0.0000
0.5961 0.2811 0.0000
0.6763 0.2659 0.0000
0.7537 0.2484 0.0000
0.8283 0.2280 0.0000
0.8994 0.2038 0.0000
0.9641 0.1740 0.0000
1.0000 0.1336 0.0000
1.0000 0.0630 0.0000
0.0000 0.3916 0.0000
0.0000 0.3918 0.0000
0.0175 0.3953 0.0000
0.1095 0.3966 0.0000
0.1827 0.3962 0.0000
0.2549 0.3943 0.0000
0.3292 0.3907 0.0000
0.4073 0.3848 0.0000
0.4894 0.3765 0.0000
0.5730 0.3661 0.0000
0.6552 0.3539 0.0000
0.7352 0.3399 0.0000
0.8125 0.3244 0.0000
0.8867 0.3068 0.0000
0.9566 0.2869 0.0000
1.0000 0.2640 0.0000
1.0000 0.2374 0.0000
0.0000 0.4633 0.0000
0.0000 0.4634 0.0000
0.0000 0.4646 0.0000
0.0894 0.4688 0.0000
0.1673 0.4691 0.0000
0.2405 0.4682 0.0000
0.3139 0.4660 0.0000
0.3894 0.4622 0.0000
0.4684 0.4564 0.0000
0.5502 0.4485 0.0000
0.6322 0.4386 0.0000
0.7132 0.4271 0.0000
0.7924 0.4141 0.0000
0.8690 0.3996 0.0000
0.9418 0.3837 0.0000
1.0000 0.3660 0.0000
1.0000 0.3465 0.0000
0.0000 0.5356 0.0000
0.0000 0.5357 0.0000
0.0000 0.5365 0.0000
0.0637 0.5413 0.0000
0.1499 0.5422 0.0000
0.2254 0.5420 0.0000
0.2993 0.5407 0.0000
0.3738 0.5382 0.0000
0.4504 0.5343 0.0000
0.5299 0.5286 0.0000
0.6103 0.5211 0.0000
0.6906 0.5118 0.0000
0.7702 0.5010 0.0000
0.8483 0.4886 0.0000
0.9233 0.4750 0.0000
0.9920 0.4600 0.0000
1.0000 0.4438 0.0000
0.0000 0.6067 0.0000
0.0000 0.6068 0.0000
0.0000 0.6075 0.0000
0.0273 0.6122 0.0000
0.1297 0.6138 0.0000
0.2091 0.6141 0.0000
0.2843 0.6135 0.0000
0.3589 0.6119 0.0000
0.4346 0.6092 0.0000
0.5121 0.6053 0.0000
0.5906 0.5998 0.0000
0.6694 0.5928 0.0000
0.7483 0.5842 0.0000
0.8265 0.5740 0.0000
0.9027 0.5626 0.0000
0.9744 0.5500 0.0000
1.0000 0.5360 0.0000
0.0000 0.6766 0.0000
0.0000 0.6767 0.0000
0.0000 0.6772 0.0000
0.0000 0.6791 0.0000
0.1059 0.6839 0.0000
0.1911 0.6847 0.0000
0.2685 0.6845 0.0000
0.3440 0.6836 0.0000
0.4195 0.6818 0.0000
0.4961 0.6790 0.0000
0.5732 0.6751 0.0000
0.6504 0.6698 0.0000
0.7279 0.6631 0.0000
0.8052 0.6550 0.0000
0.8816 0.6455 0.0000
0.9549 0.6349 0.0000
1.0000 0.6230 0.0000
0.0000 0.7454 0.0000
0.0000 0.7454 0.0000
0.0000 0.7459 0.0000
0.0000 0.7470 0.0000
0.0765 0.7526 0.0000
0.1709 0.7538 0.0000
0.2516 0.7541 0.0000
0.3285 0.7537 0.0000
0.4044 0.7525 0.0000
0.4807 0.7505 0.0000
0.5574 0.7477 0.0000
0.6334 0.7437 0.0000
0.7093 0.7386 0.0000
0.7855 0.7322 0.0000
0.8612 0.7245 0.0000
0.9350 0.7156 0.0000
1.0000 0.7056 0.0000
0.0000 0.8129 0.0000
0.0000 0.8129 0.0000
0.0000 0.8133 0.0000
0.0000 0.8142 0.0000
0.0374 0.8197 0.0000
0.1479 0.8215 0.0000
0.2331 0.8222 0.0000
0.3121 0.8221 0.0000
0.3890 0.8214 0.0000
0.4656 0.8200 0.0000
0.5422 0.8179 0.0000
0.6178 0.8150 0.0000
0.6927 0.8111 0.0000
0.7675 0.8061 0.0000
0.8422 0.8000 0.0000
0.9157 0.7927 0.0000
0.9850 0.7843 0.0000
0.0000 0.8787 0.0000
0.0000 0.8788 0.0000
0.0000 0.8791 0.0000
0.0000 0.8799 0.0000
0.0000 0.8839 0.0000
0.1211 0.8873 0.0000
0.2128 0.8883 0.0000
0.2946 0.8886 0.0000
0.3730 0.8883 0.0000
0.4502 0.8874 0.0000
0.5272 0.8858 0.0000
0.6027 0.8837 0.0000
0.6773 0.8807 0.0000
0.7512 0.8769 0.0000
0.8247 0.8721 0.0000
0.8975 0.8662 0.0000
0.9676 0.8594 0.0000
0.0000 0.9422 0.0000
0.0000 0.9422 0.0000
0.0000 0.9425 0.0000
0.0000 0.9431 0.0000
0.0000 0.9445 0.0000
0.0889 0.9503 0.0000
0.1902 0.9516 0.0000
0.2758 0.9521 0.0000
0.3561 0.9521 0.0000
0.4343 0.9516 0.0000
0.5119 0.9506 0.0000
0.5880 0.9490 0.0000
0.6624 0.9468 0.0000
0.7359 0.9439 0.0000
0.8087 0.9403 0.0000
0.8807 0.9358 0.0000
0.9508 0.9303 0.0000
0.0000 0.9994 0.0000
0.0000 0.9994 0.0000
0.0000 0.9996 0.0000
0.0000 0.9999 0.0000
0.0000 1.0000 0.0000
0.0476 1.0000 0.0000
0.1647 1.0000 0.0000
0.2553 1.0000 0.0000
0.3382 1.0000 0.0000
0.4178 1.0000 0.0000
0.4961 1.0000 0.0000
0.5730 1.0000 0.0000
0.6478 1.0000 0.0000
0.7212 1.0000 0.0000
0.7937 1.0000 0.0000
0.8651 0.9979 0.0000
0.9349 0.9943 0.0000
0.0000 1.0000 0.0000
0.0000 1.0000 0.0000
0.0000 1.0000 0.0000
0.0000 1.0000 0.0000
0.0000 1.0000 0.0000
0.0000 1.0000 0.0000
0.1355 1.0000 0.0000
0.2330 1.0000 0.0000
0.3190 1.0000 0.0000
0.4004 1.0000 0.0000
0.4798 1.0000 0.0000
0.5577 1.0000 0.0000
0.6331 1.0000 0.0000
0.7068 1.0000 0.0000
0.7792 1.0000 0.0000
0.8504 1.0000 0.0000
0.9200 1.0000 0.0000
0.0000 0.0000 0.0631
0.0521 0.0000 0.0648
0.1177 0.0000 0.0567
0.1853 0.0000 0.0311
0.2558 0.0000 0.0000
0.3266 0.0000 0.0000
0.3986 0.0000 0.0000
0.4717 0.0000 0.0000
0.5452 0.0000 0.0000
0.6175 0.0000 0.0000
0.6884 0.0000 0.0000
0.7582 0.0000 0.0000
0.8266 0.0000 0.0000
0.8932 0.0000 0.0000
0.9569 0.0000 0.0000
1.0000 0.0000 0.0000
1.0000 0.0000 0.0000
0.0000 0.0538 0.0592
0.0518 0.0518 0.0601
0.1172 0.0441 0.0513
0.1848 0.0200 0.0236
0.2554 0.0000 0.0000
0.3264 0.0000 0.0000
0.3985 0.0000 0.0000
0.4716 0.0000 0.0000
0.5451 0.0000 0.0000
0.6174 0.0000 0.0000
0.6883 0.0000 0.0000
0.7581 0.0000 0.0000
0.8265 0.0000 0.0000
0.8931 0.0000 0.0000
0.9568 0.0000 0.0000
1.0000 0.0000 0.0000
1.0000 0.0000 0.0000
0.0000 0.1160 0.0587
0.0403 0.1162 0.0593
0.1065 0.1150 0.0406
0.1770 0.1086 0.0000
0.2530 0.0966 0.0000
0.3290 0.0787 0.0000
0.4019 0.0478 0.0000
0.4719 0.0000 0.0000
0.5451 0.0000 0.0000
0.6172 0.0000 0.0000
0.6881 0.0000 0.0000
0.7579 0.0000 0.0000
0.8263 0.0000 0.0000
0.8929 0.0000 0.0000
0.9567 0.0000 0.0000
1.0000 0.0000 0.0000
1.0000 0.0000 0.0000
0.0000 0.1813 0.0436
0.0122 0.1825 0.0407
0.0888 0.1846 0.0000
0.1564 0.1825 0.0000
0.2315 0.1759 0.0000
0.3115 0.1654 0.0000
0.3922 0.1516 0.0000
0.4722 0.1341 0.0000
0.5497 0.1109 0.0000
0.6226 0.0757 0.0000
0.6896 0.0000 0.0000
0.7584 0.0000 0.0000
0.8265 0.0000 0.0000
0.8930 0.0000 0.0000
0.9566 0.0000 0.0000
1.0000 0.0000 0.0000
1.0000 0.0000 0.0000
0.0000 0.2506 0.0000
0.0000 0.2510 0.0000
0.0718 0.2540 0.0000
0.1418 0.2534 0.0000
0.2126 0.2505 0.0000
0.2889 0.2443 0.0000
0.3700 0.2347 0.0000
0.4531 0.2226 0.0000
0.5358 0.2080 0.0000
0.6155 0.1906 0.0000
0.6924 0.1693 0.0000
0.7644 0.1424 0.0000
0.8332 0.1042 0.0000
0.8975 0.0083 0.0000
0.9576 0.0000 0.0000
1.0000 0.0000 0.0000
1.0000 0.0000 0.0000
0.0000 0.3203 0.0000
0.0000 0.3205 0.0000
0.0504 0.3240 0.0000
0.1271 0.3244 0.0000
0.1979 0.3231 0.0000
0.2706 0.3198 0.0000
0.3479 0.3138 0.0000
0.4296 0.3050 0.0000
0.5137 0.2938 0.0000
0.5966 0.2807 0.0000
0.6767 0.2655 0.0000
0.7540 0.2481 0.0000
0.8284 0.2277 0.0000
0.8993 0.2035 0.0000
0.9640 0.1736 0.0000
1.0000 0.1331 0.0000
1.0000 0.0620 0.0000
0.0000 0.3910 0.0000
0.0000 0.3912 0.0000
0.0172 0.3947 0.0000
0.1102 0.3961 0.0000
0.1834 0.3957 0.0000
0.2555 0.3939 0.0000
0.3298 0.3903 0.0000
0.4079 0.3844 0.0000
0.4900 0.3762 0.0000
0.5735 0.3658 0.0000
0.6556 0.3536 0.0000
0.7355 0.3396 0.0000
0.8128 0.3240 0.0000
0.8869 0.3065 0.0000
0.9567 0.2867 0.0000
1.0000 0.2638 0.0000
1.0000 0.2372 0.0000
0.0000 0.4628 0.0000
0.0000 0.4629 0.0000
0.0000 0.4642 0.0000
0.0898 0.4684 0.0000
0.1678 0.4688 0.0000
0.2410 0.4679 0.0000
0.3144 0.4657 0.0000
0.3899 0.4619 0.0000
0.4688 0.4561 0.0000
0.5507 0.4482 0.0000
0.6326 0.4384 0.0000
0.7136 0.4269 0.0000
0.7927 0.4138 0.0000
0.8693 0.3994 0.0000
0.9420 0.3834 0.0000
1.0000 0.3658 0.0000
1.0000 0.3463 0.0000
0.0000 0.5352 0.0000
0.0000 0.5353 0.0000
0.0000 0.5362 0.0000
0.0638 0.5410 0.0000
0.1503 0.5419 0.0000
0.2259 0.5417 0.0000
0.2997 0.5404 0.0000
0.3742 0.5380 0.0000
0.4508 0.5340 0.0000
0.5302 0.5284 0.0000
0.6106 0.5209 0.0000
0.6910 0.5116 0.0000
0.7706 0.5007 0.0000
0.8486 0.4884 0.0000
0.9235 0.4748 0.0000
0.9922 0.4598 0.0000
1.0000 0.4436 0.0000
0.0000 0.6064 0.0000
0.0000 0.6065 0.0000
0.0000 0.6071 0.0000
0.0271 0.6119 0.0000
0.1300 0.6135 0.0000
0.2095 0.6138 0.0000
0.2847 0.6132 0.0000
0.3593 0.6117 0.0000
0.4349 0.6090 0.0000
0.5124 0.6051 0.0000
0.5909 0.5996 0.0000
0.6697 0.5926 0.0000
0.7486 0.5840 0.0000
0.8268 0.5738 0.0000
0.9029 0.5624 0.0000
0.9746 0.5498 0.0000
1.0000 0.5359 0.0000
0.0000 0.6763 0.0000
0.0000 0.6764 0.0000
0.0000 0.6769 0.0000
0.0000 0.6788 0.0000
0.1061 0.6837 0.0000
0.1914 0.6844 0.0000
0.2689 0.6843 0.0000
0.3443 0.6834 0.0000
0.4198 0.6816 0.0000
0.4963 0.6788 0.0000
0.5735 0.6749 0.0000
0.6507 0.6696 0.0000
0.7281 0.6629 0.0000
0.8055 0.6548 0.0000
0.8818 0.6453 0.0000
0.9551 0.6347 0.0000
1.0000 0.6229 0.0000
0.0000 0.7451 0.0000
0.0000 0.7452 0.0000
0.0000 0.7456 0.0000
0.0000 0.7468 0.0000
0.0766 0.7524 0.0000
0.1712 0.7536 0.0000
0.2519 0.7539 0.0000
0.3288 0.7535 0.0000
0.4047 0.7524 0.0000
0.4810 0.7504 0.0000
0.5576 0.7475 0.0000
0.6336 0.7436 0.0000
0.7096 0.7385 0.0000
0.7857 0.7321 0.0000
0.8614 0.7243 0.0000
0.9352 0.7155 0.0000
1.0000 0.7054 0.0000
0.0000 0.8127 0.0000
0.0000 0.8127 0.0000
0.0000 0.8131 0.0000
0.0000 0.8140 0.0000
0.0372 0.8195 0.0000
0.1481 0.8213 0.0000
0.2334 0.8220 0.0000
0.3124 0.8219 0.0000
0.3893 0.8213 0.0000
0.4658 0.8199 0.0000
0.5424 0.8178 0.0000
0.6180 0.8149 0.0000
0.6929 0.8110 0.0000
0.7677 0.8060 0.0000
0.8423 0.7999 0.0000
0.9158 0.7926 0.0000
0.9852 0.7842 0.0000
0.0000 0.8786 0.0000
0.0000 0.8786 0.0000
0.0000 0.8789 0.0000
0.0000 0.8797 0.0000
0.0000 0.8836 0.0000
0.1212 0.8872 0.0000
0.2130 0.8881 0.0000
0.2949 0.8884 0.0000
0.3732 0.8881 0.0000
0.4504 0.8872 0.0000
0.5274 0.8857 0.0000
0.6030 0.8835 0.0000
0.6775 0.8806 0.0000
0.7514 0.8768 0.0000
0.8249 0.8720 0.0000
0.8977 0.8661 0.0000
0.9677 0.8593 0.0000
0.0000 0.9420 0.0000
0.0000 0.9421 0.0000
0.0000 0.9423 0.0000
0.0000 0.9429 0.0000
0.0000 0.9444 0.0000
0.0889 0.9502 0.0000
0.1904 0.9515 0.0000
0.2760 0.9520 0.0000
0.3563 0.9520 0.0000
0.4345 0.9515 0.0000
0.5121 0.9505 0.0000
0.5881 0.9489 0.0000
0.6626 0.9467 0.0000
0.7361 0.9438 0.0000
0.8089 0.9402 0.0000
0.8808 0.9357 0.0000
0.9510 0.9302 0.0000
0.0000 0.9993 0.0000
0.0000 0.9993 0.0000
0.0000 0.9995 0.0000
0.0000 0.9999 0.0000
0.0000 1.0000 0.0000
0.0475 1.0000 0.0000
0.1648 1.0000 0.0000
0.2555 1.0000 0.0000
0.3383 1.0000 0.0000
0.4180 1.0000 0.0000
0.4963 1.0000 0.0000
0.5732 1.0000 0.0000
0.6480 1.0000 0.0000
0.7214 1.0000 0.0000
0.7938 1.0000 0.0000
0.8653 0.9978 0.0000
0.9350 0.9942 0.0000
0.0000 1.0000 0.0000
0.0000 1.0000 0.0000
0.0000 1.0000 0.0000
0.0000 1.0000 0.0000
0.0000 1.0000 0.0000
0.0000 1.0000 0.0000
0.1356 1.0000 0.0000
0.2331 1.0000 0.0000
0.3192 1.0000 0.0000
0.4006 1.0000 0.0000
0.4800 1.0000 0.0000
0.5578 1.0000 0.0000
0.6333 1.0000 0.0000
0.7069 1.0000 0.0000
0.7793 1.0000 0.0000
0.8505 1.0000 0.0000
0.9201 1.0000 0.0000
0.0000 0.0000 0.1328
0.0394 0.0000 0.1384
0.1108 0.0000 0.1364
0.1801 0.0000 0.1304
0.2505 0.0000 0.1196
0.3219 0.0000 0.1010
0.3945 0.0000 0.0660
0.4700 0.0000 0.0000
0.5440 0.0000 0.0000
0.6165 0.0000 0.0000
0.6876 0.0000 0.0000
0.7575 0.0000 0.0000
0.8260 0.0000 0.0000
0.8927 0.0000 0.0000
0.9565 0.0000 0.0000
1.0000 0.0000 0.0000
1.0000 0.0000 0.0000
0.0000 0.0491 0.1254
0.0387 0.0463 0.1321
0.1117 0.0354 0.1325
0.1804 0.0000 0.1283
0.2505 0.0000 0.1179
0.3218 0.0000 0.0994
0.3944 0.0000 0.0638
0.4699 0.0000 0.0000
0.5439 0.0000 0.0000
0.6164 0.0000 0.0000
0.6876 0.0000 0.0000
0.7575 0.0000 0.0000
0.8259 0.0000 0.0000
0.8926 0.0000 0.0000
0.9564 0.0000 0.0000
1.0000 0.0000 0.0000
1.0000 0.0000 0.0000
0.0000 0.1145 0.1249
0.0347 0.1134 0.1272
0.1103 0.1103 0.1267
0.1796 0.1042 0.1200
0.2496 0.0938 0.1085
0.3207 0.0766 0.0890
0.3933 0.0427 0.0502
0.4691 0.0000 0.0000
0.5433 0.0000 0.0000
0.6159 0.0000 0.0000
0.6872 0.0000 0.0000
0.7571 0.0000 0.0000
0.8256 0.0000 0.0000
0.8924 0.0000 0.0000
0.9562 0.0000 0.0000
1.0000 0.0000 0.0000
1.0000 0.0000 0.0000
0.0000 0.1797 0.1261
0.0000 0.1793 0.1268
0.1002 0.1786 0.1282
0.1685 0.1768 0.1131
0.2470 0.1690 0.0995
0.3214 0.1599 0.0796
0.3958 0.1480 0.0242
0.4729 0.1315 0.0000
0.5481 0.1085 0.0000
0.6208 0.0721 0.0000
0.6879 0.0000 0.0000
0.7572 0.0000 0.0000
0.8256 0.0000 0.0000
0.8921 0.0000 0.0000
0.9560 0.0000 0.0000
1.0000 0.0000 0.0000
1.0000 0.0000 0.0000
0.0000 0.2468 0.1239
0.0000 0.2466 0.1239
0.0857 0.2475 0.1251
0.1564 0.2473 0.1097
0.2266 0.2448 0.0860
0.3046 0.2381 0.0529
0.3769 0.2313 0.0000
0.4573 0.2198 0.0000
0.5383 0.2057 0.0000
0.6168 0.1886 0.0000
0.6923 0.1676 0.0000
0.7635 0.1406 0.0000
0.8321 0.1017 0.0000
0.8950 0.0000 0.0000
0.9568 0.0000 0.0000
1.0000 0.0000 0.0000
1.0000 0.0000 0.0000
0.0000 0.3156 0.1153
0.0000 0.3155 0.1148
0.0643 0.3174 0.1147
0.1426 0.3181 0.0967
0.2119 0.3176 0.0663
0.2769 0.3168 0.0000
0.3524 0.3114 0.0000
0.4335 0.3028 0.0000
0.5169 0.2918 0.0000
0.5990 0.2789 0.0000
0.6783 0.2639 0.0000
0.7549 0.2466 0.0000
0.8290 0.2263 0.0000
0.8989 0.2022 0.0000
0.9634 0.1722 0.0000
1.0000 0.1313 0.0000
1.0000 0.0576 0.0000
0.0000 0.3860 0.0923
0.0000 0.3860 0.0911
0.0260 0.3885 0.0863
0.1227 0.3907 0.0485
0.1889 0.3930 0.0000
0.2596 0.3918 0.0000
0.3330 0.3885 0.0000
0.4108 0.3828 0.0000
0.4928 0.3746 0.0000
0.5761 0.3642 0.0000
0.6577 0.3521 0.0000
0.7371 0.3383 0.0000
0.8140 0.3228 0.0000
0.8877 0.3053 0.0000
0.9572 0.2856 0.0000
1.0000 0.2627 0.0000
1.0000 0.2362 0.0000
0.0000 0.4601 0.0000
0.0000 0.4602 0.0000
0.0000 0.4614 0.0000
0.0932 0.4661 0.0000
0.1713 0.4667 0.0000
0.2441 0.4661 0.0000
0.3170 0.4642 0.0000
0.3922 0.4605 0.0000
0.4710 0.4548 0.0000
0.5528 0.4469 0.0000
0.6346 0.4371 0.0000
0.7153 0.4256 0.0000
0.7942 0.4127 0.0000
0.8705 0.3983 0.0000
0.9429 0.3824 0.0000
1.0000 0.3648 0.0000
1.0000 0.3453 0.0000
0.0000 0.5332 0.0000
0.0000 0.5333 0.0000
0.0000 0.5341 0.0000
0.0653 0.5391 0.0000
0.1528 0.5403 0.0000
0.2283 0.5402 0.0000
0.3019 0.5391 0.0000
0.3762 0.5368 0.0000
0.4526 0.5329 0.0000
0.5319 0.5273 0.0000
0.6122 0.5199 0.0000
0.6926 0.5106 0.0000
0.7720 0.4997 0.0000
0.8499 0.4874 0.0000
0.9246 0.4738 0.0000
0.9929 0.4589 0.0000
1.0000 0.4427 0.0000
0.0000 0.6048 0.0000
0.0000 0.6049 0.0000
0.0000 0.6055 0.0000
0.0265 0.6104 0.0000
0.1318 0.6122 0.0000
0.2115 0.6126 0.0000
0.2866 0.6121 0.0000
0.3611 0.6106 0.0000
0.4365 0.6081 0.0000
0.5139 0.6042 0.0000
0.5923 0.5988 0.0000
0.6710 0.5918 0.0000
0.7499 0.5831 0.0000
0.8280 0.5730 0.0000
0.9040 0.5616 0.0000
0.9756 0.5489 0.0000
1.0000 0.5351 0.0000
0.0000 0.6751 0.0000
0.0000 0.6752 0.0000
0.0000 0.6756 0.0000
0.0000 0.6776 0.0000
0.1072 0.6825 0.0000
0.1930 0.6834 0.0000
0.2705 0.6833 0.0000
0.3459 0.6825 0.0000
0.4212 0.6808 0.0000
0.4977 0.6781 0.0000
0.5747 0.6742 0.0000
0.6519 0.6689 0.0000
0.7292 0.6622 0.0000
0.8066 0.6541 0.0000
0.8829 0.6446 0.0000
0.9560 0.6340 0.0000
1.0000 0.6222 0.0000
0.0000 0.7441 0.0000
0.0000 0.7441 0.0000
0.0000 0.7445 0.0000
0.0000 0.7458 0.0000
0.0770 0.7514 0.0000
0.1724 0.7527 0.0000
0.2532 0.7531 0.0000
0.3301 0.7527 0.0000
0.4060 0.7516 0.0000
0.4822 0.7497 0.0000
0.5588 0.7468 0.0000
0.6347 0.7429 0.0000
0.7106 0.7379 0.0000
0.7867 0.7314 0.0000
0.8623 0.7237 0.0000
0.9360 0.7148 0.0000
1.0000 0.7048 0.0000
0.0000 0.8117 0.0000
0.0000 0.8118 0.0000
0.0000 0.8121 0.0000
0.0000 0.8131 0.0000
0.0367 0.8187 0.0000
0.1490 0.8205 0.0000
0.2345 0.8212 0.0000
0.3136 0.8212 0.0000
0.3904 0.8206 0.0000
0.4669 0.8193 0.0000
0.5435 0.8172 0.0000
0.6189 0.8143 0.0000
0.6938 0.8104 0.0000
0.7685 0.8055 0.0000
0.8432 0.7993 0.0000
0.9166 0.7921 0.0000
0.9859 0.7837 0.0000
0.0000 0.8778 0.0000
0.0000 0.8778 0.0000
0.0000 0.8781 0.0000
0.0000 0.8789 0.0000
0.0000 0.8818 0.0000
0.1218 0.8865 0.0000
0.2140 0.8875 0.0000
0.2959 0.8878 0.0000
0.3743 0.8875 0.0000
0.4514 0.8867 0.0000
0.5283 0.8852 0.0000
0.6038 0.8830 0.0000
0.6783 0.8801 0.0000
0.7522 0.8763 0.0000
0.8256 0.8715 0.0000
0.8984 0.8657 0.0000
0.9684 0.8588 0.0000
0.0000 0.9413 0.0000
0.0000 0.9414 0.0000
0.0000 0.9416 0.0000
0.0000 0.9422 0.0000
0.0000 0.9437 0.0000
0.0891 0.9496 0.0000
0.1911 0.9509 0.0000
0.2769 0.9514 0.0000
0.3572 0.9515 0.0000
0.4355 0.9510 0.0000
0.5130 0.9500 0.0000
0.5890 0.9485 0.0000
0.6634 0.9463 0.0000
0.7368 0.9434 0.0000
0.8096 0.9398 0.0000
0.8815 0.9353 0.0000
0.9516 0.9298 0.0000
0.0000 0.9989 0.0000
0.0000 0.9989 0.0000
0.0000 0.9991 0.0000
0.0000 0.9994 0.0000
0.0000 1.0000 0.0000
0.0471 1.0000 0.0000
0.1654 1.0000 0.0000
0.2563 1.0000 0.0000
0.3392 1.0000 0.0000
0.4188 1.0000 0.0000
0.4972 1.0000 0.0000
0.5739 1.0000 0.0000
0.6487 1.0000 0.0000
0.7221 1.0000 0.0000
0.7945 1.0000 0.0000
0.8659 0.9975 0.0000
0.9356 0.9939 0.0000
0.0000 1.0000 0.0000
0.0000 1.0000 0.0000
0.0000 1.0000 0.0000
0.0000 1.0000 0.0000
0.0000 1.0000 0.0000
0.0000 1.0000 0.0000
0.1359 1.0000 0.0000
0.2337 1.0000 0.0000
0.3199 1.0000 0.0000
0.4014 1.0000 0.0000
0.4808 1.0000 0.0000
0.5586 1.0000 0.0000
0.6340 1.0000 0.0000
0.7076 1.0000 0.0000
0.7799 1.0000 0.0000
0.8511 1.0000 0.0000
0.9206 1.0000 0.0000
0.0000 0.0000 0.2028
0.0111 0.0000 0.2094
0.0998 0.0000 0.2109
0.1724 0.0000 0.2082
0.2442 0.0000 0.2029
0.3165 0.0000 0.1949
0.3897 0.0000 0.1832
0.4637 0.0000 0.1665
0.5379 0.0000 0.1421
0.6110 0.0000 0.1023
0.6851 0.0000 0.0000
0.7558 0.0000 0.0000
0.8246 0.0000 0.0000
0.8916 0.0000 0.0000
0.9555 0.0000 0.0000
1.0000 0.0000 0.0000
1.0000 0.0000 0.0000
0.0000 0.0300 0.1950
0.0090 0.0247 0.2026
0.0997 0.0000 0.2091
0.1725 0.0000 0.2069
0.2442 0.0000 0.2019
0.3165 0.0000 0.1940
0.3897 0.0000 0.1824
0.4636 0.0000 0.1656
0.5378 0.0000 0.1411
0.6110 0.0000 0.1010
0.6850 0.0000 0.0000
0.7557 0.0000 0.0000
0.8246 0.0000 0.0000
0.8915 0.0000 0.0000
0.9555 0.0000 0.0000
1.0000 0.0000 0.0000
