assets/luts/LUTs/JD_Chaing_Mai.CUBE
TITLE "ColorFinale Export"
# Created by Jeven Dovey on 2021-07-15 17:39:56 +0000
# Color Finale Plugin v.2.3.2 (520)
LUT_3D_SIZE 17
0.0000 0.0000 0.0000
0.0224 0.0000 0.0015
0.0486 0.0000 0.0033
0.0824 0.0000 0.0056
0.1278 0.0000 0.0088
0.1889 0.0000 0.0129
0.2668 0.0000 0.0182
0.3555 0.0000 0.0243
0.4470 0.0000 0.0305
0.5338 0.0000 0.0363
0.6163 0.0000 0.0418
0.7027 0.0000 0.0476
0.7979 0.0000 0.0540
0.8809 0.0000 0.0595
0.9393 0.0000 0.0634
0.9802 0.0000 0.0661
1.0000 0.0000 0.0682
0.0000 0.0229 0.0000
0.0230 0.0224 0.0000
0.0496 0.0201 0.0026
0.0828 0.0200 0.0052
0.1280 0.0198 0.0084
0.1890 0.0194 0.0126
0.2669 0.0189 0.0181
0.3556 0.0184 0.0241
0.4471 0.0177 0.0305
0.5340 0.0171 0.0364
0.6166 0.0165 0.0420
0.7031 0.0158 0.0478
0.7983 0.0151 0.0541
0.8814 0.0144 0.0596
0.9398 0.0139 0.0635
0.9808 0.0136 0.0663
1.0000 0.0133 0.0685
0.0000 0.0500 0.0000
0.0221 0.0500 0.0000
0.0498 0.0489 0.0000
0.0866 0.0454 0.0045
0.1294 0.0437 0.0073
0.1898 0.0436 0.0120
0.2674 0.0433 0.0176
0.3559 0.0429 0.0238
0.4475 0.0423 0.0304
0.5344 0.0418 0.0364
0.6170 0.0414 0.0420
0.7036 0.0408 0.0479
0.7989 0.0401 0.0545
0.8821 0.0395 0.0605
0.9405 0.0390 0.0644
0.9815 0.0387 0.0672
1.0000 0.0385 0.0694
0.0000 0.0853 0.0000
0.0221 0.0853 0.0000
0.0479 0.0853 0.0000
0.0844 0.0835 0.0000
0.1343 0.0790 0.0052
0.1921 0.0746 0.0101
0.2690 0.0747 0.0165
0.3571 0.0745 0.0232
0.4484 0.0742 0.0297
0.5352 0.0739 0.0360
0.6178 0.0736 0.0418
0.7045 0.0732 0.0480
0.7999 0.0727 0.0550
0.8831 0.0722 0.0607
0.9415 0.0718 0.0646
0.9826 0.0716 0.0675
1.0000 0.0714 0.0697
0.0000 0.1331 0.0000
0.0221 0.1331 0.0000
0.0479 0.1331 0.0000
0.0813 0.1331 0.0000
0.1309 0.1304 0.0000
0.1983 0.1243 0.0064
0.2746 0.1181 0.0151
0.3599 0.1168 0.0212
0.4506 0.1169 0.0286
0.5372 0.1169 0.0352
0.6196 0.1168 0.0412
0.7061 0.1167 0.0477
0.8015 0.1164 0.0546
0.8847 0.1161 0.0606
0.9432 0.1160 0.0648
0.9843 0.1158 0.0676
1.0000 0.1156 0.0699
0.0000 0.1973 0.0000
0.0221 0.1973 0.0000
0.0479 0.1973 0.0000
0.0813 0.1973 0.0000
0.1261 0.1973 0.0000
0.1934 0.1934 0.0000
0.2799 0.1858 0.0074
0.3710 0.1776 0.0212
0.4555 0.1735 0.0252
0.5413 0.1740 0.0330
0.6232 0.1744 0.0397
0.7095 0.1747 0.0467
0.8047 0.1748 0.0542
0.8877 0.1748 0.0603
0.9462 0.1748 0.0647
0.9873 0.1747 0.0678
1.0000 0.1747 0.0702
0.0000 0.2779 0.0000
0.0221 0.2779 0.0000
0.0479 0.2779 0.0000
0.0813 0.2779 0.0000
0.1261 0.2779 0.0000
0.1863 0.2779 0.0000
0.2734 0.2724 0.0000
0.3723 0.2640 0.0076
0.4708 0.2547 0.0237
0.5537 0.2493 0.0321
0.6300 0.2457 0.0357
0.7156 0.2465 0.0438
0.8102 0.2473 0.0520
0.8931 0.2477 0.0592
0.9514 0.2479 0.0640
0.9923 0.2482 0.0672
1.0000 0.2482 0.0699
0.0000 0.3674 0.0000
0.0221 0.3674 0.0000
0.0479 0.3674 0.0000
0.0813 0.3674 0.0000
0.1261 0.3674 0.0000
0.1863 0.3674 0.0000
0.2641 0.3670 0.0000
0.3646 0.3600 0.0000
0.4673 0.3516 0.0073
0.5622 0.3431 0.0209
0.6501 0.3351 0.0374
0.7309 0.3311 0.0438
0.8195 0.3275 0.0487
0.9009 0.3278 0.0558
0.9589 0.3285 0.0612
0.9997 0.3289 0.0650
1.0000 0.3291 0.0679
0.0000 0.4578 0.0000
0.0221 0.4578 0.0000
0.0479 0.4578 0.0000
0.0813 0.4578 0.0000
0.1261 0.4578 0.0000
0.1863 0.4578 0.0000
0.2632 0.4578 0.0000
0.3551 0.4556 0.0000
0.4592 0.4483 0.0000
0.5570 0.4406 0.0066
0.6482 0.4328 0.0182
0.7419 0.4246 0.0341
0.8405 0.4169 0.0515
0.9175 0.4142 0.0565
0.9721 0.4123 0.0600
1.0000 0.4110 0.0623
1.0000 0.4101 0.0640
0.0000 0.5419 0.0000
0.0221 0.5419 0.0000
0.0479 0.5419 0.0000
0.0813 0.5419 0.0000
0.1261 0.5419 0.0000
0.1863 0.5419 0.0000
0.2632 0.5419 0.0000
0.3507 0.5419 0.0000
0.4503 0.5374 0.0000
0.5491 0.5305 0.0000
0.6422 0.5233 0.0063
0.7385 0.5154 0.0179
0.8425 0.5066 0.0346
0.9320 0.4991 0.0516
0.9917 0.4950 0.0620
1.0000 0.4938 0.0648
1.0000 0.4929 0.0669
0.0000 0.6224 0.0000
0.0221 0.6224 0.0000
0.0479 0.6224 0.0000
0.0813 0.6224 0.0000
0.1261 0.6224 0.0000
0.1863 0.6224 0.0000
0.2632 0.6224 0.0000
0.3507 0.6224 0.0000
0.4418 0.6221 0.0000
0.5406 0.6158 0.0000
0.6347 0.6092 0.0000
0.7324 0.6018 0.0071
0.8387 0.5934 0.0197
0.9301 0.5859 0.0338
0.9936 0.5808 0.0451
1.0000 0.5772 0.0537
1.0000 0.5744 0.0607
0.0000 0.7077 0.0000
0.0221 0.7077 0.0000
0.0479 0.7077 0.0000
0.0813 0.7077 0.0000
0.1261 0.7077 0.0000
0.1863 0.7077 0.0000
0.2632 0.7077 0.0000
0.3507 0.7077 0.0000
0.4411 0.7077 0.0000
0.5315 0.7056 0.0000
0.6257 0.6996 0.0000
0.7243 0.6927 0.0001
0.8320 0.6848 0.0084
0.9252 0.6776 0.0191
0.9900 0.6725 0.0283
1.0000 0.6689 0.0354
1.0000 0.6662 0.0414
0.0000 0.7995 0.0000
0.0221 0.7995 0.0000
0.0479 0.7995 0.0000
0.0813 0.7995 0.0000
0.1261 0.7995 0.0000
0.1863 0.7995 0.0000
0.2632 0.7995 0.0000
0.3507 0.7995 0.0000
0.4411 0.7995 0.0000
0.5268 0.7995 0.0000
0.6156 0.7963 0.0000
0.7145 0.7901 0.0000
0.8231 0.7827 0.0006
0.9176 0.7758 0.0077
0.9834 0.7710 0.0145
1.0000 0.7675 0.0201
1.0000 0.7647 0.0249
0.0000 0.8766 0.0000
0.0221 0.8766 0.0000
0.0479 0.8766 0.0000
0.0813 0.8766 0.0000
0.1261 0.8766 0.0000
0.1863 0.8766 0.0000
0.2632 0.8766 0.0000
0.3507 0.8766 0.0000
0.4411 0.8766 0.0000
0.5268 0.8766 0.0000
0.6083 0.8766 0.0000
0.7061 0.8713 0.0000
0.8150 0.8644 0.0000
0.9098 0.8580 0.0014
0.9763 0.8533 0.0062
1.0000 0.8499 0.0104
1.0000 0.8472 0.0143
0.0000 0.9308 0.0000
0.0221 0.9308 0.0000
0.0479 0.9308 0.0000
0.0813 0.9308 0.0000
0.1261 0.9308 0.0000
0.1863 0.9308 0.0000
0.2632 0.9308 0.0000
0.3507 0.9308 0.0000
0.4411 0.9308 0.0000
0.5268 0.9308 0.0000
0.6083 0.9308 0.0000
0.7001 0.9281 0.0000
0.8090 0.9215 0.0000
0.9041 0.9153 0.0000
0.9707 0.9108 0.0019
1.0000 0.9075 0.0053
1.0000 0.9050 0.0083
0.0000 0.9693 0.0000
0.0221 0.9693 0.0000
0.0479 0.9693 0.0000
0.0813 0.9693 0.0000
0.1261 0.9693 0.0000
0.1863 0.9693 0.0000
0.2632 0.9693 0.0000
0.3507 0.9693 0.0000
0.4411 0.9693 0.0000
0.5268 0.9693 0.0000
0.6083 0.9693 0.0000
0.6959 0.9684 0.0000
0.8048 0.9620 0.0000
0.9000 0.9560 0.0000
0.9668 0.9516 0.0000
1.0000 0.9485 0.0024
1.0000 0.9459 0.0049
0.0000 1.0000 0.0000
0.0221 1.0000 0.0000
0.0479 1.0000 0.0000
0.0813 1.0000 0.0000
0.1261 1.0000 0.0000
0.1863 1.0000 0.0000
0.2632 1.0000 0.0000
0.3507 1.0000 0.0000
0.4411 1.0000 0.0000
0.5268 1.0000 0.0000
0.6083 1.0000 0.0000
0.6938 1.0000 0.0000
0.8014 0.9943 0.0000
0.8967 0.9884 0.0000
0.9636 0.9841 0.0000
1.0000 0.9811 0.0004
1.0000 0.9785 0.0026
0.0000 0.0005 0.0231
0.0221 0.0000 0.0234
0.0479 0.0000 0.0236
0.0813 0.0000 0.0259
0.1264 0.0000 0.0290
0.1874 0.0000 0.0332
0.2653 0.0000 0.0386
0.3539 0.0000 0.0446
0.4454 0.0000 0.0508
0.5322 0.0000 0.0568
0.6147 0.0000 0.0623
0.7012 0.0000 0.0680
0.7963 0.0000 0.0743
0.8793 0.0000 0.0798
0.9377 0.0000 0.0836
0.9787 0.0000 0.0863
1.0000 0.0000 0.0885
0.0000 0.0235 0.0193
0.0220 0.0230 0.0232
0.0482 0.0228 0.0250
0.0821 0.0225 0.0274
0.1275 0.0222 0.0305
0.1886 0.0218 0.0347
0.2665 0.0213 0.0400
0.3552 0.0206 0.0460
0.4467 0.0199 0.0523
0.5335 0.0192 0.0581
0.6160 0.0185 0.0636
0.7025 0.0177 0.0694
0.7976 0.0169 0.0757
0.8807 0.0161 0.0813
0.9390 0.0156 0.0851
0.9800 0.0152 0.0878
1.0000 0.0149 0.0900
0.0000 0.0500 0.0234
0.0221 0.0500 0.0234
0.0488 0.0495 0.0232
0.0831 0.0466 0.0265
0.1279 0.0465 0.0300
0.1887 0.0462 0.0343
0.2667 0.0458 0.0398
0.3553 0.0452 0.0458
0.4469 0.0446 0.0522
0.5338 0.0440 0.0582
0.6163 0.0434 0.0638
0.7029 0.0428 0.0696
0.7981 0.0420 0.0760
0.8812 0.0414 0.0815
0.9396 0.0409 0.0854
0.9806 0.0406 0.0881
1.0000 0.0403 0.0903
0.0000 0.0853 0.0234
0.0221 0.0853 0.0234
0.0479 0.0853 0.0234
0.0834 0.0841 0.0231
0.1328 0.0795 0.0293
0.1904 0.0775 0.0330
0.2676 0.0774 0.0389
0.3560 0.0771 0.0453
0.4475 0.0767 0.0518
0.5343 0.0762 0.0579
0.6170 0.0758 0.0639
0.7035 0.0753 0.0698
0.7989 0.0747 0.0763
0.8820 0.0742 0.0819
0.9405 0.0738 0.0858
0.9815 0.0735 0.0888
1.0000 0.0732 0.0911
0.0000 0.1331 0.0234
0.0221 0.1331 0.0234
0.0479 0.1331 0.0234
0.0813 0.1331 0.0234
0.1299 0.1309 0.0229
0.1970 0.1248 0.0303
0.2708 0.1193 0.0364
0.3582 0.1195 0.0438
0.4492 0.1195 0.0508
0.5358 0.1193 0.0572
0.6183 0.1191 0.0633
0.7049 0.1189 0.0695
0.8003 0.1185 0.0763
0.8835 0.1182 0.0821
0.9420 0.1179 0.0865
0.9831 0.1176 0.0896
1.0000 0.1174 0.0920
0.0000 0.1973 0.0234
0.0221 0.1973 0.0234
0.0479 0.1973 0.0234
0.0813 0.1973 0.0234
0.1261 0.1973 0.0234
0.1924 0.1940 0.0227
0.2786 0.1863 0.0311
0.3671 0.1789 0.0427
0.4535 0.1763 0.0481
0.5395 0.1766 0.0554
0.6216 0.1768 0.0621
0.7079 0.1770 0.0687
0.8030 0.1770 0.0759
0.8862 0.1769 0.0821
0.9447 0.1768 0.0865
0.9858 0.1767 0.0895
1.0000 0.1767 0.0919
0.0000 0.2779 0.0234
0.0221 0.2779 0.0234
0.0479 0.2779 0.0234
0.0813 0.2779 0.0234
0.1261 0.2779 0.0234
0.1863 0.2779 0.0234
0.2724 0.2729 0.0225
0.3711 0.2645 0.0312
0.4690 0.2551 0.0477
0.5498 0.2505 0.0535
0.6278 0.2482 0.0584
0.7135 0.2490 0.0662
0.8082 0.2496 0.0744
0.8911 0.2499 0.0812
0.9495 0.2501 0.0859
0.9905 0.2502 0.0892
1.0000 0.2503 0.0915
0.0000 0.3674 0.0234
0.0221 0.3674 0.0234
0.0479 0.3674 0.0234
0.0813 0.3674 0.0234
0.1261 0.3674 0.0234
0.1863 0.3674 0.0234
0.2632 0.3674 0.0234
0.3635 0.3606 0.0224
0.4661 0.3521 0.0307
0.5607 0.3435 0.0447
0.6473 0.3358 0.0604
0.7268 0.3323 0.0650
0.8162 0.3292 0.0702
0.8986 0.3301 0.0782
0.9566 0.3307 0.0834
0.9974 0.3311 0.0871
1.0000 0.3313 0.0897
0.0000 0.4578 0.0234
0.0221 0.4578 0.0234
0.0479 0.4578 0.0234
0.0813 0.4578 0.0234
0.1261 0.4578 0.0234
0.1863 0.4578 0.0234
0.2632 0.4578 0.0234
0.3541 0.4562 0.0221
0.4581 0.4489 0.0225
0.5558 0.4411 0.0299
0.6468 0.4332 0.0418
0.7402 0.4250 0.0579
0.8364 0.4181 0.0730
0.9134 0.4152 0.0778
0.9681 0.4133 0.0810
1.0000 0.4120 0.0832
1.0000 0.4122 0.0862
0.0000 0.5419 0.0234
0.0221 0.5419 0.0234
0.0479 0.5419 0.0234
0.0813 0.5419 0.0234
0.1261 0.5419 0.0234
0.1863 0.5419 0.0234
0.2632 0.5419 0.0234
0.3507 0.5419 0.0234
0.4493 0.5379 0.0210
0.5479 0.5310 0.0227
0.6411 0.5237 0.0296
0.7373 0.5158 0.0414
0.8410 0.5069 0.0583
0.9301 0.4994 0.0756
0.9875 0.4962 0.0834
1.0000 0.4949 0.0861
1.0000 0.4940 0.0882
0.0000 0.6224 0.0234
0.0221 0.6224 0.0234
0.0479 0.6224 0.0234
0.0813 0.6224 0.0234
0.1261 0.6224 0.0234
0.1863 0.6224 0.0234
0.2632 0.6224 0.0234
0.3507 0.6224 0.0234
0.4411 0.6224 0.0234
0.5396 0.6163 0.0206
0.6335 0.6097 0.0230
0.7312 0.6023 0.0304
0.8374 0.5937 0.0432
0.9286 0.5863 0.0574
0.9920 0.5810 0.0690
1.0000 0.5775 0.0775
1.0000 0.5747 0.0846
0.0000 0.7077 0.0234
0.0221 0.7077 0.0234
0.0479 0.7077 0.0234
0.0813 0.7077 0.0234
0.1261 0.7077 0.0234
0.1863 0.7077 0.0234
0.2632 0.7077 0.0234
0.3507 0.7077 0.0234
0.4411 0.7077 0.0234
0.5304 0.7060 0.0220
0.6245 0.7001 0.0203
0.7231 0.6932 0.0233
0.8308 0.6852 0.0316
0.9239 0.6780 0.0425
0.9886 0.6728 0.0518
1.0000 0.6692 0.0590
1.0000 0.6664 0.0651
0.0000 0.7995 0.0234
0.0221 0.7995 0.0234
0.0479 0.7995 0.0234
0.0813 0.7995 0.0234
0.1261 0.7995 0.0234
0.1863 0.7995 0.0234
0.2632 0.7995 0.0234
0.3507 0.7995 0.0234
0.4411 0.7995 0.0234
0.5268 0.7995 0.0234
0.6145 0.7968 0.0213
0.7134 0.7906 0.0202
0.8220 0.7831 0.0239
0.9164 0.7763 0.0310
0.9821 0.7714 0.0378
1.0000 0.7679 0.0434
1.0000 0.7651 0.0483
0.0000 0.8766 0.0234
0.0221 0.8766 0.0234
0.0479 0.8766 0.0234
0.0813 0.8766 0.0234
0.1261 0.8766 0.0234
0.1863 0.8766 0.0234
0.2632 0.8766 0.0234
0.3507 0.8766 0.0234
0.4411 0.8766 0.0234
0.5268 0.8766 0.0234
0.6083 0.8766 0.0234
0.7050 0.8718 0.0203
0.8138 0.8648 0.0206
0.9086 0.8584 0.0246
0.9750 0.8537 0.0294
1.0000 0.8503 0.0337
1.0000 0.8476 0.0375
0.0000 0.9308 0.0234
0.0221 0.9308 0.0234
0.0479 0.9308 0.0234
0.0813 0.9308 0.0234
0.1261 0.9308 0.0234
0.1863 0.9308 0.0234
0.2632 0.9308 0.0234
0.3507 0.9308 0.0234
0.4411 0.9308 0.0234
0.5268 0.9308 0.0234
0.6083 0.9308 0.0234
0.6990 0.9285 0.0215
0.8079 0.9220 0.0197
0.9030 0.9158 0.0218
0.9695 0.9113 0.0252
1.0000 0.9079 0.0285
1.0000 0.9054 0.0316
0.0000 0.9693 0.0234
0.0221 0.9693 0.0234
0.0479 0.9693 0.0234
0.0813 0.9693 0.0234
0.1261 0.9693 0.0234
0.1863 0.9693 0.0234
0.2632 0.9693 0.0234
0.3507 0.9693 0.0234
0.4411 0.9693 0.0234
0.5268 0.9693 0.0234
0.6083 0.9693 0.0234
0.6949 0.9688 0.0229
0.8036 0.9625 0.0197
0.8988 0.9565 0.0205
0.9656 0.9521 0.0229
1.0000 0.9489 0.0256
1.0000 0.9463 0.0282
0.0000 1.0000 0.0234
0.0221 1.0000 0.0234
0.0479 1.0000 0.0234
0.0813 1.0000 0.0234
0.1261 1.0000 0.0234
0.1863 1.0000 0.0234
0.2632 1.0000 0.0234
0.3507 1.0000 0.0234
0.4411 1.0000 0.0234
0.5268 1.0000 0.0234
0.6083 1.0000 0.0234
0.6938 1.0000 0.0234
0.8002 0.9948 0.0200
0.8955 0.9889 0.0198
0.9624 0.9846 0.0216
1.0000 0.9815 0.0237
1.0000 0.9790 0.0259
0.0000 0.0011 0.0505
0.0221 0.0000 0.0511
0.0479 0.0000 0.0511
0.0813 0.0000 0.0511
0.1259 0.0000 0.0530
0.1863 0.0000 0.0572
0.2638 0.0000 0.0625
0.3523 0.0000 0.0686
0.4437 0.0000 0.0748
0.5304 0.0000 0.0807
0.6129 0.0000 0.0863
0.6993 0.0000 0.0920
0.7944 0.0000 0.0986
0.8775 0.0000 0.1040
0.9358 0.0000 0.1078
0.9768 0.0000 0.1105
1.0000 0.0000 0.1128
0.0000 0.0252 0.0448
0.0200 0.0236 0.0506
0.0479 0.0229 0.0511
0.0812 0.0229 0.0514
0.1261 0.0228 0.0545
0.1869 0.0225 0.0587
0.2647 0.0219 0.0640
0.3533 0.0213 0.0701
0.4448 0.0207 0.0763
0.5316 0.0200 0.0821
0.6141 0.0193 0.0879
0.7006 0.0186 0.0937
0.7957 0.0178 0.1000
0.8788 0.0170 0.1055
0.9371 0.0165 0.1093
0.9781 0.0161 0.1120
1.0000 0.0158 0.1141
0.0000 0.0512 0.0421
0.0214 0.0507 0.0459
0.0477 0.0501 0.0506
0.0817 0.0498 0.0531
0.1271 0.0495 0.0562
0.1881 0.0491 0.0604
0.2661 0.0485 0.0658
0.3548 0.0479 0.0718
0.4463 0.0472 0.0780
0.5332 0.0465 0.0839
0.6157 0.0458 0.0894
0.7022 0.0451 0.0952
0.7973 0.0443 0.1016
0.8804 0.0435 0.1071
0.9387 0.0430 0.1110
0.9797 0.0426 0.1137
1.0000 0.0423 0.1159
0.0007 0.0855 0.0470
0.0221 0.0853 0.0511
0.0479 0.0853 0.0511
0.0822 0.0848 0.0509
0.1284 0.0810 0.0551
0.1887 0.0809 0.0598
0.2664 0.0805 0.0653
0.3550 0.0800 0.0716
0.4466 0.0794 0.0779
0.5335 0.0789 0.0838
0.6161 0.0783 0.0896
0.7026 0.0777 0.0956
0.7979 0.0770 0.1020
0.8810 0.0764 0.1076
0.9394 0.0759 0.1115
0.9804 0.0756 0.1143
1.0000 0.0753 0.1164
0.0000 0.1331 0.0511
0.0221 0.1331 0.0511
0.0479 0.1331 0.0511
0.0813 0.1331 0.0511
0.1287 0.1316 0.0507
0.1951 0.1254 0.0588
0.2687 0.1228 0.0636
0.3565 0.1227 0.0705
0.4477 0.1225 0.0771
0.5345 0.1222 0.0834
0.6171 0.1219 0.0893
0.7036 0.1215 0.0952
0.7991 0.1209 0.1024
0.8823 0.1205 0.1081
0.9407 0.1201 0.1121
0.9818 0.1199 0.1149
1.0000 0.1197 0.1171
0.0000 0.1973 0.0511
0.0221 0.1973 0.0511
0.0479 0.1973 0.0511
0.0813 0.1973 0.0511
0.1261 0.1973 0.0511
0.1912 0.1946 0.0504
0.2771 0.1869 0.0594
0.3625 0.1803 0.0681
0.4513 0.1795 0.0749
0.5374 0.1797 0.0819
0.6197 0.1798 0.0882
0.7060 0.1797 0.0947
0.8013 0.1796 0.1018
0.8846 0.1794 0.1079
0.9430 0.1792 0.1122
0.9841 0.1791 0.1151
1.0000 0.1790 0.1174
0.0000 0.2779 0.0511
0.0221 0.2779 0.0511
0.0479 0.2779 0.0511
0.0813 0.2779 0.0511
0.1261 0.2779 0.0511
0.1863 0.2779 0.0511
0.2711 0.2736 0.0502
0.3697 0.2651 0.0592
0.4657 0.2561 0.0750
0.5451 0.2518 0.0787
0.6253 0.2513 0.0852
0.7111 0.2519 0.0925
0.8059 0.2523 0.1004
0.8890 0.2526 0.1072
0.9473 0.2527 0.1117
0.9884 0.2527 0.1150
1.0000 0.2528 0.1176
0.0000 0.3674 0.0511
0.0221 0.3674 0.0511
0.0479 0.3674 0.0511
0.0813 0.3674 0.0511
0.1261 0.3674 0.0511
0.1863 0.3674 0.0511
0.2632 0.3674 0.0511
0.3623 0.3612 0.0501
0.4647 0.3527 0.0585
0.5589 0.3440 0.0730
0.6424 0.3372 0.0859
0.7221 0.3336 0.0902
0.8134 0.3321 0.0969
0.8958 0.3329 0.1045
0.9539 0.3334 0.1096
0.9948 0.3336 0.1133
1.0000 0.3339 0.1160
0.0000 0.4578 0.0511
0.0221 0.4578 0.0511
0.0479 0.4578 0.0511
0.0813 0.4578 0.0511
0.1261 0.4578 0.0511
0.1863 0.4578 0.0511
0.2632 0.4578 0.0511
0.3529 0.4568 0.0502
0.4568 0.4495 0.0501
0.5544 0.4416 0.0576
0.6451 0.4337 0.0698
0.7382 0.4253 0.0863
0.8315 0.4194 0.0984
0.9087 0.4165 0.1030
0.9634 0.4145 0.1061
1.0000 0.4145 0.1095
1.0000 0.4149 0.1126
0.0000 0.5419 0.0511
0.0221 0.5419 0.0511
0.0479 0.5419 0.0511
0.0813 0.5419 0.0511
0.1261 0.5419 0.0511
0.1863 0.5419 0.0511
0.2632 0.5419 0.0511
0.3507 0.5419 0.0511
0.4480 0.5385 0.0489
0.5466 0.5316 0.0503
0.6397 0.5243 0.0573
0.7357 0.5162 0.0693
0.8391 0.5073 0.0865
0.9278 0.4997 0.1040
0.9826 0.4975 0.1089
1.0000 0.4962 0.1114
1.0000 0.4953 0.1134
0.0000 0.6224 0.0511
0.0221 0.6224 0.0511
0.0479 0.6224 0.0511
0.0813 0.6224 0.0511
0.1261 0.6224 0.0511
0.1863 0.6224 0.0511
0.2632 0.6224 0.0511
0.3507 0.6224 0.0511
0.4411 0.6224 0.0511
0.5382 0.6169 0.0484
0.6322 0.6103 0.0506
0.7298 0.6028 0.0580
0.8358 0.5942 0.0710
0.9268 0.5866 0.0855
0.9899 0.5814 0.0971
1.0000 0.5778 0.1059
1.0000 0.5750 0.1130
0.0000 0.7077 0.0511
0.0221 0.7077 0.0511
0.0479 0.7077 0.0511
0.0813 0.7077 0.0511
0.1261 0.7077 0.0511
0.1863 0.7077 0.0511
0.2632 0.7077 0.0511
0.3507 0.7077 0.0511
0.4411 0.7077 0.0511
0.5292 0.7066 0.0501
0.6231 0.7007 0.0481
0.7218 0.6938 0.0509
0.8294 0.6857 0.0592
0.9223 0.6784 0.0702
0.9868 0.6732 0.0796
1.0000 0.6696 0.0870
1.0000 0.6668 0.0931
0.0000 0.7995 0.0511
0.0221 0.7995 0.0511
0.0479 0.7995 0.0511
0.0813 0.7995 0.0511
0.1261 0.7995 0.0511
0.1863 0.7995 0.0511
0.2632 0.7995 0.0511
0.3507 0.7995 0.0511
0.4411 0.7995 0.0511
0.5268 0.7995 0.0511
0.6133 0.7973 0.0493
0.7121 0.7911 0.0479
0.8206 0.7837 0.0514
0.9149 0.7768 0.0585
0.9806 0.7718 0.0654
1.0000 0.7682 0.0712
1.0000 0.7655 0.0760
0.0000 0.8766 0.0511
0.0221 0.8766 0.0511
0.0479 0.8766 0.0511
0.0813 0.8766 0.0511
0.1261 0.8766 0.0511
0.1863 0.8766 0.0511
0.2632 0.8766 0.0511
0.3507 0.8766 0.0511
0.4411 0.8766 0.0511
0.5268 0.8766 0.0511
0.6083 0.8766 0.0511
0.7036 0.8723 0.0482
0.8124 0.8654 0.0482
0.9072 0.8589 0.0522
0.9736 0.8542 0.0569
1.0000 0.8508 0.0612
1.0000 0.8481 0.0651
0.0000 0.9308 0.0511
0.0221 0.9308 0.0511
0.0479 0.9308 0.0511
0.0813 0.9308 0.0511
0.1261 0.9308 0.0511
0.1863 0.9308 0.0511
0.2632 0.9308 0.0511
0.3507 0.9308 0.0511
0.4411 0.9308 0.0511
0.5268 0.9308 0.0511
0.6083 0.9308 0.0511
0.6978 0.9291 0.0496
0.8066 0.9225 0.0474
0.9016 0.9163 0.0494
0.9681 0.9118 0.0527
1.0000 0.9084 0.0560
1.0000 0.9058 0.0591
0.0000 0.9693 0.0511
0.0221 0.9693 0.0511
0.0479 0.9693 0.0511
0.0813 0.9693 0.0511
0.1261 0.9693 0.0511
0.1863 0.9693 0.0511
0.2632 0.9693 0.0511
0.3507 0.9693 0.0511
0.4411 0.9693 0.0511
0.5268 0.9693 0.0511
0.6083 0.9693 0.0511
0.6938 0.9693 0.0511
0.8023 0.9630 0.0475
0.8974 0.9570 0.0481
0.9642 0.9526 0.0505
1.0000 0.9494 0.0531
1.0000 0.9468 0.0557
0.0000 1.0000 0.0511
0.0221 1.0000 0.0511
0.0479 1.0000 0.0511
0.0813 1.0000 0.0511
0.1261 1.0000 0.0511
0.1863 1.0000 0.0511
0.2632 1.0000 0.0511
0.3507 1.0000 0.0511
0.4411 1.0000 0.0511
0.5268 1.0000 0.0511
0.6083 1.0000 0.0511
0.6938 1.0000 0.0511
0.7989 0.9953 0.0479
0.8941 0.9894 0.0475
0.9609 0.9851 0.0491
1.0000 0.9820 0.0512
1.0000 0.9795 0.0534
0.0000 0.0019 0.0864
0.0215 0.0002 0.0875
0.0479 0.0000 0.0873
0.0813 0.0000 0.0873
0.1261 0.0000 0.0873
0.1861 0.0000 0.0888
0.2629 0.0000 0.0940
0.3508 0.0000 0.1001
0.4420 0.0000 0.1063
0.5285 0.0000 0.1123
0.6109 0.0000 0.1177
0.6972 0.0000 0.1236
0.7923 0.0000 0.1298
0.8753 0.0000 0.1356
0.9336 0.0000 0.1395
0.9746 0.0000 0.1424
1.0000 0.0000 0.1445
0.0000 0.0263 0.0816
0.0175 0.0244 0.0865
0.0479 0.0229 0.0873
0.0813 0.0229 0.0873
0.1261 0.0229 0.0873
0.1860 0.0229 0.0901
0.2632 0.0226 0.0954
0.3514 0.0221 0.1015
0.4427 0.0215 0.1079
0.5294 0.0209 0.1136
0.6118 0.0202 0.1191
0.6983 0.0195 0.1251
0.7934 0.0187 0.1315
0.8764 0.0180 0.1369
0.9347 0.0175 0.1407
0.9757 0.0171 0.1436
