assets/luts/LUTs/JD_COSTA RICA.CUBE
TITLE "ColorFinale Export"
# Created by Jeven Dovey on 2022-12-23 20:38:57 +0000
# Color Finale Plugin v.2.6.0 (537)
LUT_3D_SIZE 9
0.0000 0.0000 0.0000
0.0841 0.0000 0.0019
0.1602 0.0000 0.0037
0.2283 0.0000 0.0053
0.2884 0.0000 0.0067
0.3406 0.0000 0.0079
0.3848 0.0000 0.0089
0.4211 0.0000 0.0097
0.4749 0.0000 0.0110
0.0000 0.1250 0.0252
0.0732 0.1225 0.0024
0.1733 0.0727 0.0147
0.2388 0.0371 0.0091
0.3028 0.0029 0.0070
0.3606 0.0000 0.0083
0.4105 0.0000 0.0095
0.4524 0.0000 0.0105
0.4862 0.0000 0.0112
0.0000 0.2557 0.0515
0.0345 0.2525 0.0328
0.1461 0.2456 0.0050
0.2617 0.1897 0.0082
0.3409 0.1462 0.0289
0.3981 0.1128 0.0268
0.4507 0.0824 0.0197
0.4985 0.0544 0.0152
0.5398 0.0293 0.0133
0.0000 0.3921 0.0790
0.0000 0.3848 0.0671
0.1015 0.3799 0.0349
0.2186 0.3690 0.0076
0.3395 0.3101 0.0027
0.4345 0.2606 0.0241
0.5027 0.2207 0.0423
0.5537 0.1887 0.0437
0.5974 0.1608 0.0382
0.0000 0.5342 0.1076
0.0000 0.5221 0.1032
0.0565 0.5151 0.0710
0.1697 0.5073 0.0373
0.2909 0.4930 0.0103
0.4148 0.4313 0.0004
0.5186 0.3786 0.0158
0.5983 0.3335 0.0385
0.6583 0.2961 0.0547
0.0000 0.6786 0.1366
0.0000 0.6661 0.1341
0.0059 0.6550 0.1097
0.1204 0.6454 0.0742
0.2382 0.6350 0.0402
0.3628 0.6174 0.0131
0.4894 0.5529 0.0000
0.5983 0.4979 0.0095
0.6866 0.4492 0.0305
0.0000 0.8143 0.1640
0.0000 0.8123 0.1636
0.0000 0.8000 0.1505
0.0660 0.7879 0.1147
0.1852 0.7758 0.0775
0.3068 0.7630 0.0434
0.4344 0.7423 0.0161
0.5637 0.6748 0.0003
0.6759 0.6180 0.0053
0.0000 0.9501 0.1913
0.0000 0.9485 0.1910
0.0000 0.9465 0.1906
0.0052 0.9354 0.1576
0.1272 0.9210 0.1191
0.2505 0.9066 0.0808
0.3752 0.8915 0.0468
0.5057 0.8676 0.0191
0.6375 0.7971 0.0013
0.0000 1.0000 0.2042
0.0000 1.0000 0.2042
0.0000 1.0000 0.2042
0.0000 1.0000 0.1867
0.0691 1.0000 0.1534
0.1932 1.0000 0.1168
0.3180 1.0000 0.0816
0.4435 1.0000 0.0504
0.5777 0.9919 0.0219
0.0024 0.0306 0.1072
0.1317 0.0000 0.1171
0.2141 0.0007 0.0801
0.2881 0.0003 0.0573
0.3570 0.0000 0.0356
0.4183 0.0000 0.0114
0.4710 0.0000 0.0109
0.5156 0.0000 0.0119
0.5524 0.0000 0.0128
0.0049 0.1238 0.1454
0.1250 0.1250 0.1250
0.2089 0.0827 0.0959
0.2849 0.0440 0.0692
0.3530 0.0089 0.0449
0.4136 0.0000 0.0248
0.4662 0.0000 0.0108
0.5104 0.0000 0.0118
0.5466 0.0000 0.0126
0.0000 0.2494 0.1629
0.0943 0.2502 0.1385
0.1991 0.2474 0.0993
0.3045 0.1957 0.0939
0.3741 0.1575 0.0791
0.4351 0.1243 0.0562
0.4904 0.0939 0.0362
0.5388 0.0666 0.0199
0.5793 0.0429 0.0152
0.0000 0.3826 0.1719
0.0540 0.3813 0.1468
0.1564 0.3789 0.0993
0.2730 0.3702 0.0719
0.3899 0.3138 0.0667
0.4767 0.2677 0.0724
0.5409 0.2308 0.0699
0.5928 0.1999 0.0576
0.6378 0.1727 0.0442
0.0000 0.5221 0.1728
0.0042 0.5181 0.1500
0.1106 0.5131 0.1022
0.2248 0.5062 0.0579
0.3467 0.4934 0.0427
0.4679 0.4341 0.0412
0.5663 0.3837 0.0489
0.6414 0.3413 0.0609
0.6992 0.3061 0.0672
0.0000 0.6676 0.1660
0.0000 0.6607 0.1479
0.0569 0.6526 0.0996
0.1736 0.6437 0.0586
0.2945 0.6334 0.0273
0.4200 0.6172 0.0118
0.5441 0.5550 0.0168
0.6491 0.5019 0.0243
0.7330 0.4557 0.0417
0.0000 0.8147 0.1640
0.0000 0.8054 0.1622
0.0000 0.7960 0.1357
0.1182 0.7849 0.0987
0.2398 0.7733 0.0619
0.3638 0.7607 0.0307
0.4920 0.7416 0.0086
0.6195 0.6763 0.0000
0.7284 0.6214 0.0099
0.0000 0.9500 0.1913
0.0000 0.9411 0.1895
0.0000 0.9408 0.1768
0.0575 0.9306 0.1415
0.1809 0.9171 0.1025
0.3062 0.9032 0.0654
0.4328 0.8886 0.0343
0.5635 0.8665 0.0114
0.6936 0.7983 0.0000
0.0000 1.0000 0.2042
0.0000 1.0000 0.2042
0.0000 1.0000 0.1996
0.0024 1.0000 0.1726
0.1221 1.0000 0.1377
0.2477 1.0000 0.1011
0.3746 1.0000 0.0668
0.5016 1.0000 0.0380
0.6347 0.9919 0.0142
0.0050 0.0620 0.2174
0.0555 0.0242 0.2270
0.2634 0.0000 0.2341
0.3447 0.0000 0.1953
0.4282 0.0014 0.1601
0.4940 0.0015 0.1337
0.5541 0.0006 0.1126
0.6075 0.0000 0.0921
0.6536 0.0000 0.0714
0.0109 0.1571 0.2517
0.0544 0.1564 0.2437
0.2567 0.1235 0.2420
0.3411 0.0820 0.2013
0.4153 0.0451 0.1658
0.4822 0.0109 0.1381
0.5416 0.0009 0.1181
0.5940 0.0000 0.1015
0.6390 0.0000 0.0852
0.0098 0.2476 0.2908
0.1252 0.2486 0.2711
0.2500 0.2500 0.2500
0.3339 0.2077 0.2209
0.4099 0.1690 0.1942
0.4780 0.1339 0.1699
0.5380 0.1024 0.1480
0.5901 0.0744 0.1284
0.6343 0.0500 0.1111
0.0000 0.3740 0.3108
0.0947 0.3736 0.2914
0.2193 0.3752 0.2635
0.3241 0.3724 0.2243
0.4295 0.3207 0.2189
0.4991 0.2825 0.2041
0.5601 0.2493 0.1812
0.6154 0.2189 0.1612
0.6638 0.1916 0.1449
0.0000 0.5086 0.3244
0.0508 0.5058 0.3055
0.1790 0.5063 0.2718
0.2814 0.5039 0.2243
0.3980 0.4952 0.1969
0.5149 0.4388 0.1917
0.6017 0.3927 0.1974
0.6659 0.3558 0.1949
0.7178 0.3249 0.1826
0.0000 0.6497 0.3297
0.0000 0.6439 0.3135
0.1292 0.6431 0.2750
0.2356 0.6381 0.2272
0.3498 0.6312 0.1829
0.4717 0.6184 0.1677
0.5929 0.5591 0.1662
0.6913 0.5087 0.1739
0.7664 0.4663 0.1859
0.0000 0.7971 0.3272
0.0000 0.7878 0.3157
0.0698 0.7857 0.2729
0.1819 0.7776 0.2246
0.2984 0.7688 0.1778
0.4196 0.7584 0.1407
0.5450 0.7422 0.1368
0.6691 0.6800 0.1418
0.7741 0.6269 0.1493
0.0000 0.9462 0.3199
0.0000 0.9354 0.3064
0.0065 0.9307 0.2687
0.1191 0.9228 0.2164
0.2398 0.9114 0.1684
0.3638 0.8991 0.1269
0.4899 0.8858 0.0970
0.6181 0.8664 0.1042
0.7448 0.8012 0.1171
0.0000 1.0000 0.3035
0.0000 1.0000 0.2924
0.0000 1.0000 0.2616
0.0590 1.0000 0.1969
0.1776 1.0000 0.1461
0.3041 1.0000 0.1052
0.4319 1.0000 0.0731
0.5598 1.0000 0.0521
0.6910 0.9910 0.0698
0.0080 0.0943 0.3307
0.0075 0.0499 0.3384
0.1943 0.0284 0.3505
0.3951 0.0000 0.3512
0.4755 0.0000 0.3114
0.5588 0.0008 0.2748
0.6423 0.0021 0.2402
0.7007 0.0024 0.2107
0.7526 0.0019 0.1872
0.0142 0.1900 0.3623
0.0140 0.1884 0.3605
0.1805 0.1492 0.3520
0.3885 0.1221 0.3591
0.4717 0.0812 0.3172
0.5571 0.0390 0.2777
0.6241 0.0062 0.2387
0.6821 0.0024 0.2116
0.7332 0.0020 0.1910
0.0169 0.2805 0.3959
0.0591 0.2806 0.3885
0.1794 0.2814 0.3687
0.3817 0.2485 0.3670
0.4661 0.2070 0.3263
0.5403 0.1701 0.2908
0.6072 0.1359 0.2631
0.6668 0.1051 0.2385
0.7189 0.0777 0.2164
0.0147 0.3713 0.4361
0.1254 0.3723 0.4172
0.2502 0.3736 0.3961
0.3750 0.3750 0.3750
0.4589 0.3327 0.3459
0.5349 0.2940 0.3192
0.6030 0.2589 0.2949
0.6630 0.2274 0.2730
0.7151 0.1994 0.2534
0.0039 0.4990 0.4580
0.0932 0.4981 0.4403
0.2197 0.4986 0.4164
0.3443 0.5002 0.3885
0.4491 0.4974 0.3493
0.5545 0.4457 0.3439
0.6241 0.4075 0.3291
0.6851 0.3743 0.3062
0.7404 0.3439 0.2862
0.0000 0.6350 0.4750
0.0462 0.6315 0.4591
0.1758 0.6308 0.4305
0.3040 0.6313 0.3968
0.4064 0.6289 0.3493
0.5230 0.6202 0.3219
0.6399 0.5638 0.3167
0.7267 0.5177 0.3224
0.7909 0.4808 0.3199
0.0000 0.7777 0.4842
0.0000 0.7711 0.4717
0.1222 0.7689 0.4385
0.2542 0.7681 0.4000
0.3606 0.7631 0.3522
0.4748 0.7562 0.3079
0.5967 0.7434 0.2927
0.7179 0.6841 0.2912
0.8163 0.6337 0.2989
0.0000 0.9268 0.4857
0.0000 0.9175 0.4744
0.0590 0.9128 0.4411
0.1948 0.9107 0.3979
0.3069 0.9026 0.3496
0.4234 0.8938 0.3028
0.5446 0.8834 0.2657
0.6700 0.8672 0.2618
0.7941 0.8050 0.2668
0.0000 1.0000 0.4656
0.0000 1.0000 0.4547
0.0000 1.0000 0.4294
0.1367 1.0000 0.3847
0.2480 1.0000 0.3347
0.3673 1.0000 0.2895
0.4899 1.0000 0.2506
0.6149 1.0000 0.2220
0.7431 0.9914 0.2292
0.0116 0.1276 0.4472
0.0109 0.0817 0.4530
0.1121 0.0486 0.4601
0.3281 0.0273 0.4693
0.5269 0.0000 0.4683
0.6062 0.0000 0.4276
0.6895 0.0000 0.3907
0.7729 0.0015 0.3545
0.8564 0.0028 0.3202
0.0173 0.2230 0.4760
0.0171 0.2208 0.4735
0.1019 0.1741 0.4663
0.3193 0.1534 0.4755
0.5202 0.1206 0.4761
0.6025 0.0804 0.4333
0.6877 0.0382 0.3934
0.7729 0.0015 0.3545
0.8312 0.0026 0.3167
0.0221 0.3160 0.5076
0.0220 0.3145 0.5058
0.1067 0.3135 0.4907
0.3055 0.2742 0.4770
0.5135 0.2471 0.4841
0.5967 0.2062 0.4422
0.6821 0.1640 0.4027
0.7491 0.1312 0.3637
0.8082 0.1015 0.3320
0.0219 0.4032 0.5398
0.0620 0.4033 0.5327
0.1841 0.4056 0.5135
0.3044 0.4064 0.4937
0.5067 0.3735 0.4920
0.5911 0.3320 0.4513
0.6653 0.2951 0.4158
0.7322 0.2609 0.3881
0.7918 0.2301 0.3635
0.0195 0.4951 0.5815
0.1256 0.4959 0.5632
0.2504 0.4973 0.5422
0.3752 0.4986 0.5211
0.5000 0.5000 0.5000
0.5839 0.4577 0.4709
0.6599 0.4190 0.4442
0.7280 0.3839 0.4199
0.7880 0.3524 0.3980
0.0094 0.6241 0.6051
0.0909 0.6229 0.5887
0.2182 0.6231 0.5653
0.3447 0.6236 0.5414
0.4693 0.6252 0.5135
0.5741 0.6224 0.4743
0.6795 0.5707 0.4689
0.7491 0.5325 0.4541
0.8101 0.4993 0.4312
0.0000 0.7617 0.6249
0.0408 0.7577 0.6113
0.1712 0.7565 0.5841
0.3008 0.7558 0.5555
0.4290 0.7563 0.5218
0.5314 0.7539 0.4743
0.6480 0.7452 0.4469
0.7649 0.6888 0.4417
0.8517 0.6427 0.4474
0.0000 0.9060 0.6375
0.0000 0.8987 0.6280
0.1138 0.8961 0.5967
0.2472 0.8939 0.5635
0.3792 0.8931 0.5250
0.4856 0.8881 0.4772
0.5998 0.8812 0.4329
0.7217 0.8684 0.4177
0.8429 0.8091 0.4162
0.0000 0.9921 0.6285
0.0000 0.9925 0.6194
0.0517 0.9965 0.5939
0.1882 1.0000 0.5588
0.3230 1.0000 0.5175
0.4337 1.0000 0.4715
0.5491 1.0000 0.4268
0.6696 1.0000 0.3907
0.7950 0.9922 0.3868
0.0157 0.1621 0.5671
0.0151 0.1148 0.5710
0.0310 0.0723 0.5769
0.2530 0.0532 0.5854
0.4609 0.0251 0.5871
0.6586 0.0000 0.5854
0.7370 0.0000 0.5438
0.8202 0.0000 0.5067
0.9035 0.0008 0.4701
0.0208 0.2569 0.5929
0.0206 0.2542 0.5898
0.0282 0.2066 0.5917
0.2371 0.1736 0.5851
0.4531 0.1523 0.5943
0.6520 0.1191 0.5931
0.7332 0.0796 0.5496
0.8185 0.0374 0.5094
0.9035 0.0008 0.4701
0.0260 0.3508 0.6220
0.0259 0.3487 0.6195
0.0320 0.3466 0.6161
0.2269 0.2991 0.5913
0.4443 0.2784 0.6005
0.6452 0.2456 0.6011
0.7275 0.2054 0.5583
0.8127 0.1632 0.5184
0.8982 0.1209 0.4790
0.0285 0.4404 0.6526
0.0285 0.4388 0.6508
0.1108 0.4390 0.6365
0.2317 0.4385 0.6157
0.4305 0.3992 0.6020
0.6385 0.3721 0.6091
0.7217 0.3312 0.5672
0.8071 0.2890 0.5277
0.8741 0.2562 0.4887
0.0269 0.5259 0.6838
0.0648 0.5259 0.6770
0.1870 0.5283 0.6577
0.3091 0.5306 0.6385
0.4294 0.5314 0.6187
0.6317 0.4985 0.6170
0.7161 0.4570 0.5763
0.7903 0.4201 0.5408
0.8572 0.3859 0.5131
0.0244 0.6189 0.7269
0.1258 0.6196 0.7093
0.2506 0.6209 0.6882
0.3754 0.6223 0.6672
0.5002 0.6236 0.6461
0.6250 0.6250 0.6250
0.7089 0.5827 0.5959
0.7849 0.5440 0.5692
0.8530 0.5089 0.5449
0.0147 0.7493 0.7522
0.0882 0.7478 0.7370
0.2159 0.7479 0.7137
0.3432 0.7481 0.6903
0.4697 0.7486 0.6664
0.5943 0.7502 0.6385
0.6991 0.7474 0.5993
0.8045 0.6957 0.5939
0.8741 0.6575 0.5791
0.0007 0.8886 0.7746
0.0346 0.8841 0.7629
0.1658 0.8827 0.7363
0.2962 0.8815 0.7091
0.4258 0.8808 0.6805
0.5540 0.8813 0.6468
0.6564 0.8789 0.5993
0.7730 0.8702 0.5719
0.8899 0.8138 0.5667
0.0000 0.9852 0.7788
0.0000 0.9855 0.7718
0.1085 0.9899 0.7454
0.2418 0.9949 0.7160
0.3743 1.0000 0.6847
0.5056 1.0000 0.6476
0.6110 1.0000 0.6015
0.7248 1.0000 0.5579
0.8467 0.9934 0.5427
0.0206 0.1979 0.6903
0.0200 0.1492 0.6925
0.0209 0.1043 0.6973
0.1704 0.0739 0.6999
0.3913 0.0548 0.7083
0.5938 0.0229 0.7050
0.7903 0.0000 0.7024
0.8678 0.0000 0.6600
0.9509 0.0000 0.6228
0.0249 0.2919 0.7132
0.0247 0.2886 0.7095
0.0226 0.2401 0.7115
0.1560 0.1973 0.7019
0.3780 0.1782 0.7104
0.5859 0.1501 0.7121
0.7837 0.1177 0.7101
0.8640 0.0787 0.6658
0.9492 0.0366 0.6255
0.0300 0.3858 0.7395
0.0298 0.3832 0.7364
0.0296 0.3805 0.7334
0.1532 0.3316 0.7167
0.3621 0.2986 0.7101
0.5781 0.2773 0.7193
0.7770 0.2441 0.7181
0.8582 0.2046 0.6746
0.9435 0.1624 0.6344
0.0336 0.4769 0.7677
0.0335 0.4749 0.7653
0.0350 0.4728 0.7626
0.1570 0.4716 0.7411
0.3519 0.4241 0.7163
0.5693 0.4034 0.7255
0.7702 0.3706 0.7261
0.8525 0.3304 0.6833
0.9377 0.2882 0.6434
0.0340 0.5638 0.7971
0.0339 0.5623 0.7953
0.1134 0.5629 0.7818
0.2358 0.5640 0.7615
0.3567 0.5635 0.7407
0.5555 0.5242 0.7270
0.7635 0.4971 0.7341
0.8467 0.4562 0.6922
0.9321 0.4140 0.6527
0.0319 0.6486 0.8279
0.0675 0.6486 0.8214
0.1898 0.6509 0.8020
0.3120 0.6533 0.7827
0.4341 0.6556 0.7635
0.5544 0.6564 0.7437
0.7567 0.6235 0.7420
0.8411 0.5820 0.7013
0.9153 0.5451 0.6658
0.0293 0.7427 0.8723
0.1260 0.7432 0.8554
0.2508 0.7446 0.8343
0.3756 0.7459 0.8132
0.5004 0.7473 0.7922
0.6252 0.7486 0.7711
0.7500 0.7500 0.7500
0.8339 0.7077 0.7209
0.9099 0.6690 0.6942
0.0199 0.8745 0.8993
0.0854 0.8728 0.8853
0.2132 0.8728 0.8620
0.3409 0.8729 0.8387
0.4682 0.8731 0.8153
0.5947 0.8736 0.7914
0.7193 0.8752 0.7635
0.8241 0.8724 0.7243
0.9295 0.8207 0.7189
0.0099 0.9801 0.9156
0.0308 0.9809 0.9072
0.1620 0.9850 0.8822
0.2927 0.9892 0.8569
0.4227 0.9936 0.8312
0.5516 0.9986 0.8040
0.6793 1.0000 0.7714
0.7814 1.0000 0.7243
0.8980 0.9952 0.6969
0.0261 0.2348 0.8169
0.0256 0.1848 0.8175
0.0264 0.1383 0.8203
0.0891 0.0983 0.8215
0.3124 0.0775 0.8259
0.5268 0.0535 0.8285
0.7267 0.0206 0.8230
0.9220 0.0000 0.8195
0.9986 0.0000 0.7763
0.0297 0.3281 0.8369
0.0294 0.3243 0.8325
0.0276 0.2746 0.8331
0.0794 0.2280 0.8291
0.2954 0.1989 0.8249
0.5163 0.1798 0.8333
0.7188 0.1479 0.8300
0.9154 0.1162 0.8272
0.9948 0.0779 0.7820
0.0343 0.4217 0.8603
0.0341 0.4184 0.8566
0.0339 0.4152 0.8529
0.0787 0.3661 0.8470
0.2810 0.3223 0.8269
0.5030 0.3032 0.8354
0.7109 0.2751 0.8371
0.9087 0.2427 0.8351
0.9890 0.2037 0.7908
0.0382 0.5134 0.8859
0.0380 0.5108 0.8828
0.0379 0.5081 0.8798
0.0803 0.5056 0.8701
0.2782 0.4566 0.8417
0.4871 0.4236 0.8351
0.7031 0.4023 0.8443
0.9020 0.3691 0.8431
0.9832 0.3296 0.7996
0.0402 0.6019 0.9133
0.0401 0.5998 0.9109
0.0400 0.5978 0.9085
0.1600 0.5978 0.8876
0.2820 0.5966 0.8661
0.4769 0.5491 0.8413
0.6943 0.5284 0.8505
0.8952 0.4956 0.8511
0.9775 0.4554 0.8083
0.0392 0.6870 0.9416
0.0391 0.6855 0.9398
0.1152 0.6861 0.9267
0.2384 0.6879 0.9068
0.3608 0.6890 0.8865
0.4817 0.6885 0.8657
0.6805 0.6492 0.8520
0.8885 0.6221 0.8591
0.9717 0.5812 0.8172
0.0368 0.7713 0.9719
0.0701 0.7712 0.9658
0.1925 0.7736 0.9464
0.3148 0.7759 0.9270
0.4370 0.7783 0.9077
0.5591 0.7806 0.8885
0.6794 0.7814 0.8687
0.8817 0.7485 0.8670
0.9661 0.7070 0.8263
0.0342 0.8664 1.0000
0.1262 0.8669 1.0000
0.2510 0.8682 0.9804
0.3758 0.8696 0.9593
0.5006 0.8709 0.9382
0.6254 0.8723 0.9172
0.7502 0.8736 0.8961
0.8750 0.8750 0.8750
0.9589 0.8327 0.8459
0.0268 0.9764 1.0000
0.0838 0.9781 1.0000
0.2116 0.9817 1.0000
0.3393 0.9853 0.9840
0.4667 0.9890 0.9616
0.5937 0.9929 0.9391
0.7199 0.9970 0.9161
0.8443 1.0000 0.8885
0.9491 0.9974 0.8493
0.0318 0.2707 0.9378
0.0319 0.2216 0.9457
0.0326 0.1736 0.9466
0.0343 0.1289 0.9495
0.2304 0.0998 0.9463
0.4527 0.0794 0.9506
0.6609 0.0506 0.9474
0.8596 0.0184 0.9409
1.0000 0.0000 0.9301
0.0351 0.3655 0.9639
0.0348 0.3611 0.9590
0.0333 0.3102 0.9581
0.0326 0.2624 0.9591
0.2141 0.2233 0.9465
0.4374 0.2025 0.9509
0.6518 0.1785 0.9535
0.8517 0.1456 0.9480
1.0000 0.1148 0.9385
0.0391 0.4585 0.9844
0.0389 0.4547 0.9801
0.0386 0.4509 0.9757
0.0368 0.4012 0.9758
0.2044 0.3530 0.9541
0.4204 0.3239 0.9499
0.6413 0.3048 0.9583
0.8438 0.2729 0.9550
1.0000 0.2412 0.9473
0.0429 0.5504 1.0000
0.0427 0.5471 1.0000
0.0425 0.5439 0.9999
0.0423 0.5407 0.9962
0.2037 0.4911 0.9720
0.4060 0.4473 0.9519
0.6280 0.4282 0.9604
0.8359 0.4001 0.9621
1.0000 0.3677 0.9561
0.0455 0.6398 1.0000
0.0453 0.6372 1.0000
0.0452 0.6345 1.0000
0.0820 0.6324 1.0000
0.2053 0.6306 0.9951
0.4032 0.5816 0.9667
0.6121 0.5486 0.9601
0.8281 0.5273 0.9693
1.0000 0.4942 0.9649
0.0460 0.7262 1.0000
0.0460 0.7241 1.0000
0.0459 0.7220 1.0000
0.1619 0.7227 1.0000
0.2850 0.7228 1.0000
0.4070 0.7216 0.9911
0.6019 0.6741 0.9663
0.8193 0.6534 0.9755
1.0000 0.6206 0.9737
0.0442 0.8103 1.0000
0.0441 0.8088 1.0000
0.1168 0.8092 1.0000
0.2402 0.8111 1.0000
0.3634 0.8129 1.0000
0.4858 0.8140 1.0000
0.6067 0.8135 0.9907
0.8055 0.7742 0.9770
1.0000 0.7471 0.9824
0.0416 0.8940 1.0000
0.0727 0.8939 1.0000
0.1951 0.8962 1.0000
0.3175 0.8986 1.0000
0.4398 0.9009 1.0000
0.5620 0.9033 1.0000
0.6841 0.9056 1.0000
0.8044 0.9064 0.9937
1.0000 0.8735 0.9912
0.0384 0.9740 1.0000
0.1259 0.9764 1.0000
0.2508 0.9798 1.0000
0.3756 0.9831 1.0000
0.5005 0.9865 1.0000
0.6254 0.9899 1.0000
0.7503 0.9933 1.0000
0.8751 0.9966 1.0000
1.0000 1.0000 1.0000
