assets/luts/LUTs/JD_Chaing_Mai.CUBE
TITLE "ColorFinale Export"
# Created by Jeven Dovey on 2021-07-15 17:39:56 +0000
# Color Finale Plugin v.2.3.2 (520)
LUT_3D_SIZE 9
0.0000 0.0000 0.0000
0.0486 0.0000 0.0033
0.1278 0.0000 0.0088
0.2668 0.0000 0.0182
0.4470 0.0000 0.0305
0.6163 0.0000 0.0418
0.7979 0.0000 0.0540
0.9393 0.0000 0.0634
1.0000 0.0000 0.0682
0.0000 0.0500 0.0000
0.0498 0.0489 0.0000
0.1294 0.0437 0.0073
0.2674 0.0433 0.0176
0.4475 0.0423 0.0304
0.6170 0.0414 0.0420
0.7989 0.0401 0.0545
0.9405 0.0390 0.0644
1.0000 0.0385 0.0694
0.0000 0.1331 0.0000
0.0479 0.1331 0.0000
0.1309 0.1304 0.0000
0.2746 0.1181 0.0151
0.4506 0.1169 0.0286
0.6196 0.1168 0.0412
0.8015 0.1164 0.0546
0.9432 0.1160 0.0648
1.0000 0.1156 0.0699
0.0000 0.2779 0.0000
0.0479 0.2779 0.0000
0.1261 0.2779 0.0000
0.2734 0.2724 0.0000
0.4708 0.2547 0.0237
0.6300 0.2457 0.0357
0.8102 0.2473 0.0520
0.9514 0.2479 0.0640
1.0000 0.2482 0.0699
0.0000 0.4578 0.0000
0.0479 0.4578 0.0000
0.1261 0.4578 0.0000
0.2632 0.4578 0.0000
0.4592 0.4483 0.0000
0.6482 0.4328 0.0182
0.8405 0.4169 0.0515
0.9721 0.4123 0.0600
1.0000 0.4101 0.0640
0.0000 0.6224 0.0000
0.0479 0.6224 0.0000
0.1261 0.6224 0.0000
0.2632 0.6224 0.0000
0.4418 0.6221 0.0000
0.6347 0.6092 0.0000
0.8387 0.5934 0.0197
0.9936 0.5808 0.0451
1.0000 0.5744 0.0607
0.0000 0.7995 0.0000
0.0479 0.7995 0.0000
0.1261 0.7995 0.0000
0.2632 0.7995 0.0000
0.4411 0.7995 0.0000
0.6156 0.7963 0.0000
0.8231 0.7827 0.0006
0.9834 0.7710 0.0145
1.0000 0.7647 0.0249
0.0000 0.9308 0.0000
0.0479 0.9308 0.0000
0.1261 0.9308 0.0000
0.2632 0.9308 0.0000
0.4411 0.9308 0.0000
0.6083 0.9308 0.0000
0.8090 0.9215 0.0000
0.9707 0.9108 0.0019
1.0000 0.9050 0.0083
0.0000 1.0000 0.0000
0.0479 1.0000 0.0000
0.1261 1.0000 0.0000
0.2632 1.0000 0.0000
0.4411 1.0000 0.0000
0.6083 1.0000 0.0000
0.8014 0.9943 0.0000
0.9636 0.9841 0.0000
1.0000 0.9785 0.0026
0.0000 0.0011 0.0505
0.0479 0.0000 0.0511
0.1259 0.0000 0.0530
0.2638 0.0000 0.0625
0.4437 0.0000 0.0748
0.6129 0.0000 0.0863
0.7944 0.0000 0.0986
0.9358 0.0000 0.1078
1.0000 0.0000 0.1128
0.0000 0.0512 0.0421
0.0477 0.0501 0.0506
0.1271 0.0495 0.0562
0.2661 0.0485 0.0658
0.4463 0.0472 0.0780
0.6157 0.0458 0.0894
0.7973 0.0443 0.1016
0.9387 0.0430 0.1110
1.0000 0.0423 0.1159
0.0000 0.1331 0.0511
0.0479 0.1331 0.0511
0.1287 0.1316 0.0507
0.2687 0.1228 0.0636
0.4477 0.1225 0.0771
0.6171 0.1219 0.0893
0.7991 0.1209 0.1024
0.9407 0.1201 0.1121
1.0000 0.1197 0.1171
0.0000 0.2779 0.0511
0.0479 0.2779 0.0511
0.1261 0.2779 0.0511
0.2711 0.2736 0.0502
0.4657 0.2561 0.0750
0.6253 0.2513 0.0852
0.8059 0.2523 0.1004
0.9473 0.2527 0.1117
1.0000 0.2528 0.1176
0.0000 0.4578 0.0511
0.0479 0.4578 0.0511
0.1261 0.4578 0.0511
0.2632 0.4578 0.0511
0.4568 0.4495 0.0501
0.6451 0.4337 0.0698
0.8315 0.4194 0.0984
0.9634 0.4145 0.1061
1.0000 0.4149 0.1126
0.0000 0.6224 0.0511
0.0479 0.6224 0.0511
0.1261 0.6224 0.0511
0.2632 0.6224 0.0511
0.4411 0.6224 0.0511
0.6322 0.6103 0.0506
0.8358 0.5942 0.0710
0.9899 0.5814 0.0971
1.0000 0.5750 0.1130
0.0000 0.7995 0.0511
0.0479 0.7995 0.0511
0.1261 0.7995 0.0511
0.2632 0.7995 0.0511
0.4411 0.7995 0.0511
0.6133 0.7973 0.0493
0.8206 0.7837 0.0514
0.9806 0.7718 0.0654
1.0000 0.7655 0.0760
0.0000 0.9308 0.0511
0.0479 0.9308 0.0511
0.1261 0.9308 0.0511
0.2632 0.9308 0.0511
0.4411 0.9308 0.0511
0.6083 0.9308 0.0511
0.8066 0.9225 0.0474
0.9681 0.9118 0.0527
1.0000 0.9058 0.0591
0.0000 1.0000 0.0511
0.0479 1.0000 0.0511
0.1261 1.0000 0.0511
0.2632 1.0000 0.0511
0.4411 1.0000 0.0511
0.6083 1.0000 0.0511
0.7989 0.9953 0.0479
0.9609 0.9851 0.0491
1.0000 0.9795 0.0534
0.0000 0.0029 0.1349
0.0479 0.0000 0.1364
0.1261 0.0000 0.1364
0.2632 0.0000 0.1368
0.4406 0.0000 0.1488
0.6088 0.0000 0.1603
0.7899 0.0000 0.1725
0.9310 0.0000 0.1820
1.0000 0.0000 0.1869
0.0000 0.0560 0.1225
0.0415 0.0520 0.1352
0.1261 0.0500 0.1364
0.2629 0.0500 0.1397
0.4415 0.0491 0.1520
0.6104 0.0480 0.1636
0.7918 0.0466 0.1758
0.9331 0.0454 0.1852
1.0000 0.0447 0.1904
0.0000 0.1364 0.1124
0.0457 0.1353 0.1208
0.1254 0.1334 0.1347
0.2648 0.1323 0.1450
0.4451 0.1310 0.1574
0.6145 0.1297 0.1689
0.7962 0.1282 0.1811
0.9376 0.1269 0.1905
1.0000 0.1263 0.1954
0.0004 0.2779 0.1346
0.0479 0.2779 0.1364
0.1261 0.2779 0.1364
0.2673 0.2757 0.1357
0.4514 0.2606 0.1533
0.6186 0.2608 0.1671
0.8000 0.2608 0.1807
0.9417 0.2605 0.1913
1.0000 0.2603 0.1966
0.0000 0.4578 0.1364
0.0479 0.4578 0.1364
0.1261 0.4578 0.1364
0.2632 0.4578 0.1364
0.4529 0.4515 0.1354
0.6400 0.4352 0.1565
0.8168 0.4235 0.1762
0.9539 0.4224 0.1871
1.0000 0.4231 0.1936
0.0000 0.6224 0.1364
0.0479 0.6224 0.1364
0.1261 0.6224 0.1364
0.2632 0.6224 0.1364
0.4411 0.6224 0.1364
0.6281 0.6121 0.1357
0.8309 0.5955 0.1569
0.9834 0.5824 0.1844
1.0000 0.5785 0.1932
0.0000 0.7995 0.1364
0.0479 0.7995 0.1364
0.1261 0.7995 0.1364
0.2632 0.7995 0.1364
0.4411 0.7995 0.1364
0.6094 0.7991 0.1359
0.8164 0.7853 0.1364
0.9761 0.7732 0.1506
1.0000 0.7667 0.1616
0.0000 0.9308 0.1364
0.0479 0.9308 0.1364
0.1261 0.9308 0.1364
0.2632 0.9308 0.1364
0.4411 0.9308 0.1364
0.6083 0.9308 0.1364
0.8024 0.9242 0.1330
0.9639 0.9134 0.1376
1.0000 0.9073 0.1440
0.0000 1.0000 0.1364
0.0479 1.0000 0.1364
0.1261 1.0000 0.1364
0.2632 1.0000 0.1364
0.4411 1.0000 0.1364
0.6083 1.0000 0.1364
0.7949 0.9969 0.1341
0.9567 0.9867 0.1342
1.0000 0.9810 0.1382
0.0000 0.0061 0.2803
0.0402 0.0022 0.2839
0.1261 0.0000 0.2834
0.2632 0.0000 0.2834
0.4411 0.0000 0.2834
0.6075 0.0000 0.2882
0.7863 0.0000 0.3001
0.9263 0.0000 0.3095
0.9990 0.0000 0.3144
0.0000 0.0593 0.2715
0.0315 0.0551 0.2805
0.1261 0.0500 0.2834
0.2632 0.0500 0.2834
0.4411 0.0500 0.2834
0.6073 0.0499 0.2911
0.7867 0.0492 0.3033
0.9271 0.0484 0.3128
0.9999 0.0479 0.3176
0.0000 0.1454 0.2477
0.0210 0.1434 0.2599
0.1142 0.1369 0.2807
0.2632 0.1331 0.2834
0.4408 0.1331 0.2850
0.6077 0.1326 0.2963
0.7882 0.1316 0.3087
0.9292 0.1306 0.3180
1.0000 0.1300 0.3230
0.0000 0.2848 0.2335
0.0425 0.2837 0.2419
0.1222 0.2818 0.2556
0.2620 0.2786 0.2800
0.4430 0.2769 0.2940
0.6124 0.2757 0.3056
0.7942 0.2743 0.3180
0.9357 0.2731 0.3275
1.0000 0.2725 0.3324
0.0041 0.4592 0.2579
0.0509 0.4585 0.2676
0.1261 0.4578 0.2832
0.2632 0.4578 0.2834
0.4463 0.4550 0.2825
0.6250 0.4395 0.3027
0.8004 0.4371 0.3155
0.9415 0.4374 0.3269
1.0000 0.4375 0.3324
0.0000 0.6224 0.2834
0.0479 0.6224 0.2834
0.1261 0.6224 0.2834
0.2632 0.6224 0.2834
0.4411 0.6224 0.2834
0.6213 0.6154 0.2825
0.8218 0.5979 0.3059
0.9611 0.5883 0.3235
1.0000 0.5854 0.3271
0.0000 0.7995 0.2834
0.0479 0.7995 0.2834
0.1261 0.7995 0.2834
0.2632 0.7995 0.2834
0.4411 0.7995 0.2834
0.6083 0.7995 0.2834
0.8094 0.7884 0.2829
0.9681 0.7757 0.2977
1.0000 0.7689 0.3097
0.0000 0.9308 0.2834
0.0479 0.9308 0.2834
0.1261 0.9308 0.2834
0.2632 0.9308 0.2834
0.4411 0.9308 0.2834
0.6083 0.9308 0.2834
0.7954 0.9272 0.2810
0.9566 0.9162 0.2839
1.0000 0.9099 0.2903
0.0000 1.0000 0.2834
0.0479 1.0000 0.2834
0.1261 1.0000 0.2834
0.2632 1.0000 0.2834
0.4411 1.0000 0.2834
0.6083 1.0000 0.2834
0.7881 0.9999 0.2832
0.9495 0.9896 0.2808
1.0000 0.9838 0.2844
0.0000 0.0099 0.4558
0.0280 0.0060 0.4605
0.1252 0.0002 0.4611
0.2632 0.0000 0.4609
0.4411 0.0000 0.4609
0.6083 0.0000 0.4609
0.7878 0.0000 0.4609
0.9268 0.0000 0.4646
0.9985 0.0000 0.4694
0.0000 0.0630 0.4482
0.0193 0.0590 0.4561
0.1165 0.0527 0.4618
0.2632 0.0500 0.4609
0.4411 0.0500 0.4609
0.6083 0.0500 0.4609
0.7878 0.0500 0.4609
0.9264 0.0499 0.4675
0.9983 0.0498 0.4723
0.0000 0.1514 0.4269
0.0067 0.1474 0.4404
0.1021 0.1407 0.4563
0.2632 0.1331 0.4609
0.4411 0.1331 0.4609
0.6083 0.1331 0.4609
0.7873 0.1331 0.4632
0.9261 0.1328 0.4725
0.9983 0.1326 0.4773
0.0000 0.2962 0.3921
0.0105 0.2949 0.4024
0.0904 0.2926 0.4198
0.2473 0.2831 0.4566
0.4411 0.2779 0.4609
0.6083 0.2779 0.4609
0.7869 0.2776 0.4719
0.9271 0.2770 0.4813
0.9999 0.2765 0.4864
0.0000 0.4688 0.3801
0.0393 0.4677 0.3885
0.1191 0.4658 0.4022
0.2589 0.4626 0.4262
0.4402 0.4584 0.4574
0.6102 0.4569 0.4709
0.7921 0.4556 0.4834
0.9337 0.4545 0.4930
1.0000 0.4539 0.4979
0.0046 0.6273 0.3984
0.0527 0.6263 0.4077
0.1307 0.6249 0.4229
0.2654 0.6228 0.4505
0.4411 0.6224 0.4609
0.6134 0.6196 0.4601
0.8012 0.6040 0.4797
0.9391 0.6031 0.4904
1.0000 0.6032 0.4963
0.0060 0.8009 0.4296
0.0524 0.8004 0.4394
0.1275 0.7997 0.4551
0.2632 0.7995 0.4609
0.4411 0.7995 0.4609
0.6083 0.7995 0.4609
0.8011 0.7923 0.4601
0.9582 0.7789 0.4766
1.0000 0.7716 0.4905
0.0018 0.9310 0.4535
0.0479 0.9308 0.4609
0.1261 0.9308 0.4609
0.2632 0.9308 0.4609
0.4411 0.9308 0.4609
0.6083 0.9308 0.4609
0.7878 0.9308 0.4609
0.9482 0.9199 0.4608
1.0000 0.9133 0.4675
0.0000 1.0000 0.4609
0.0479 1.0000 0.4609
0.1261 1.0000 0.4609
0.2632 1.0000 0.4609
0.4411 1.0000 0.4609
0.6083 1.0000 0.4609
0.7878 1.0000 0.4609
0.9411 0.9934 0.4584
1.0000 0.9873 0.4612
0.0000 0.0132 0.6128
0.0171 0.0093 0.6178
0.1144 0.0033 0.6210
0.2632 0.0000 0.6195
0.4411 0.0000 0.6195
0.6083 0.0000 0.6195
0.7878 0.0000 0.6195
0.9276 0.0000 0.6195
1.0000 0.0000 0.6195
0.0000 0.0664 0.6056
0.0085 0.0624 0.6130
0.1056 0.0560 0.6200
0.2632 0.0500 0.6195
0.4411 0.0500 0.6195
0.6083 0.0500 0.6195
0.7878 0.0500 0.6195
0.9276 0.0500 0.6195
1.0000 0.0500 0.6195
0.0000 0.1549 0.5875
0.0000 0.1507 0.5991
0.0913 0.1440 0.6133
0.2616 0.1335 0.6199
0.4411 0.1331 0.6195
0.6083 0.1331 0.6195
0.7878 0.1331 0.6195
0.9276 0.1331 0.6195
1.0000 0.1331 0.6195
0.0000 0.3053 0.5441
0.0000 0.3038 0.5548
0.0715 0.2981 0.5801
0.2364 0.2865 0.6137
0.4411 0.2779 0.6195
0.6083 0.2779 0.6195
0.7878 0.2779 0.6195
0.9275 0.2779 0.6199
0.9991 0.2779 0.6246
0.0000 0.4794 0.5159
0.0113 0.4782 0.5252
0.0907 0.4763 0.5409
0.2303 0.4726 0.5698
0.4262 0.4627 0.6151
0.6083 0.4578 0.6195
0.7875 0.4578 0.6212
0.9268 0.4575 0.6306
0.9995 0.4572 0.6355
0.0000 0.6369 0.5113
0.0370 0.6357 0.5197
0.1167 0.6339 0.5333
0.2566 0.6307 0.5573
0.4379 0.6265 0.5885
0.6084 0.6225 0.6179
0.7901 0.6210 0.6312
0.9318 0.6199 0.6409
1.0000 0.6194 0.6459
0.0044 0.8073 0.5300
0.0527 0.8062 0.5390
0.1313 0.8046 0.5539
0.2683 0.8020 0.5804
0.4419 0.7996 0.6164
0.6083 0.7995 0.6195
0.7940 0.7961 0.6188
0.9470 0.7821 0.6382
1.0000 0.7783 0.6412
0.0087 0.9351 0.5511
0.0562 0.9343 0.5608
0.1332 0.9330 0.5765
0.2666 0.9313 0.6044
0.4411 0.9308 0.6195
0.6083 0.9308 0.6195
0.7878 0.9308 0.6195
0.9409 0.9235 0.6192
1.0000 0.9165 0.6265
0.0090 1.0000 0.5637
0.0559 1.0000 0.5734
0.1321 1.0000 0.5894
0.2639 1.0000 0.6169
0.4411 1.0000 0.6195
0.6083 1.0000 0.6195
0.7878 1.0000 0.6195
0.9337 0.9969 0.6177
1.0000 0.9908 0.6195
0.0000 0.0168 0.7778
0.0057 0.0129 0.7831
0.1029 0.0068 0.7878
0.2632 0.0000 0.7864
0.4411 0.0000 0.7864
0.6083 0.0000 0.7864
0.7878 0.0000 0.7864
0.9276 0.0000 0.7864
1.0000 0.0000 0.7864
0.0000 0.0700 0.7709
0.0000 0.0659 0.7781
0.0941 0.0595 0.7858
0.2632 0.0500 0.7864
0.4411 0.0500 0.7864
0.6083 0.0500 0.7864
0.7878 0.0500 0.7864
0.9276 0.0500 0.7864
1.0000 0.0500 0.7864
0.0000 0.1584 0.7548
0.0000 0.1543 0.7652
0.0798 0.1476 0.7783
0.2503 0.1368 0.7879
0.4411 0.1331 0.7864
0.6083 0.1331 0.7864
0.7878 0.1331 0.7864
0.9276 0.1331 0.7864
1.0000 0.1331 0.7864
0.0000 0.3122 0.7106
0.0000 0.3083 0.7264
0.0582 0.3018 0.7495
0.2250 0.2900 0.7788
0.4411 0.2779 0.7864
0.6083 0.2779 0.7864
0.7878 0.2779 0.7864
0.9276 0.2779 0.7864
1.0000 0.2779 0.7864
0.0000 0.4896 0.6717
0.0000 0.4883 0.6821
0.0606 0.4861 0.6994
0.2031 0.4812 0.7322
0.4147 0.4663 0.7804
0.6083 0.4578 0.7864
0.7878 0.4578 0.7864
0.9276 0.4578 0.7864
1.0000 0.4578 0.7864
0.0000 0.6481 0.6512
0.0082 0.6469 0.6602
0.0877 0.6450 0.6751
0.2270 0.6417 0.7020
0.4080 0.6370 0.7395
0.5938 0.6271 0.7825
0.7878 0.6224 0.7864
0.9276 0.6224 0.7864
0.9994 0.6224 0.7909
0.0000 0.8175 0.6495
0.0350 0.8163 0.6579
0.1147 0.8145 0.6716
0.2546 0.8113 0.6956
0.4359 0.8071 0.7267
0.6064 0.8032 0.7561
0.7878 0.7995 0.7864
0.9295 0.7973 0.7961
1.0000 0.7968 0.8011
0.0000 0.9435 0.6612
0.0484 0.9424 0.6702
0.1277 0.9406 0.6844
0.2665 0.9376 0.7096
0.4453 0.9338 0.7435
0.6103 0.9311 0.7768
0.7878 0.9308 0.7864
0.9335 0.9275 0.7861
1.0000 0.9201 0.7954
0.0047 1.0000 0.6704
0.0531 1.0000 0.6796
0.1319 1.0000 0.6941
0.2695 1.0000 0.7205
0.4461 1.0000 0.7556
0.6083 1.0000 0.7864
0.7878 1.0000 0.7864
0.9276 1.0000 0.7864
1.0000 0.9947 0.7863
0.0000 0.0196 0.9072
0.0000 0.0156 0.9127
0.0941 0.0094 0.9182
0.2632 0.0000 0.9172
0.4411 0.0000 0.9172
0.6083 0.0000 0.9172
0.7878 0.0000 0.9172
0.9276 0.0000 0.9172
1.0000 0.0000 0.9172
0.0000 0.0727 0.9005
0.0000 0.0687 0.9075
0.0853 0.0623 0.9156
0.2558 0.0521 0.9186
0.4411 0.0500 0.9172
0.6083 0.0500 0.9172
0.7878 0.0500 0.9172
0.9276 0.0500 0.9172
1.0000 0.0500 0.9172
0.0000 0.1612 0.8852
0.0000 0.1570 0.8951
0.0708 0.1504 0.9077
0.2412 0.1394 0.9188
0.4411 0.1331 0.9172
0.6083 0.1331 0.9172
0.7878 0.1331 0.9172
0.9276 0.1331 0.9172
1.0000 0.1331 0.9172
0.0000 0.3152 0.8453
0.0000 0.3113 0.8598
0.0485 0.3046 0.8810
0.2161 0.2928 0.9082
0.4371 0.2790 0.9180
0.6083 0.2779 0.9172
0.7878 0.2779 0.9172
0.9276 0.2779 0.9172
1.0000 0.2779 0.9172
0.0000 0.4971 0.7969
0.0000 0.4957 0.8076
0.0378 0.4934 0.8251
0.1914 0.4842 0.8671
0.4058 0.4690 0.9099
0.6083 0.4578 0.9172
0.7878 0.4578 0.9172
0.9276 0.4578 0.9172
1.0000 0.4578 0.9172
0.0000 0.6565 0.7702
0.0000 0.6553 0.7800
0.0634 0.6532 0.7962
0.2031 0.6495 0.8255
0.3861 0.6439 0.8663
0.5848 0.6299 0.9120
0.7878 0.6224 0.9172
0.9276 0.6224 0.9172
1.0000 0.6224 0.9172
0.0000 0.8263 0.7556
0.0135 0.8252 0.7642
0.0932 0.8233 0.7784
0.2327 0.8201 0.8035
0.4135 0.8158 0.8369
0.5834 0.8117 0.8703
0.7770 0.8031 0.9141
0.9276 0.7995 0.9172
1.0000 0.7995 0.9172
0.0000 0.9518 0.7574
0.0325 0.9507 0.7658
0.1122 0.9488 0.7795
0.2520 0.9456 0.8035
0.4334 0.9414 0.8347
0.6039 0.9375 0.8640
0.7868 0.9333 0.8956
0.9277 0.9307 0.9172
1.0000 0.9289 0.9228
0.0000 1.0000 0.7626
0.0405 1.0000 0.7710
0.1201 1.0000 0.7848
0.2598 1.0000 0.8090
0.4406 1.0000 0.8410
0.6101 1.0000 0.8715
0.7896 1.0000 0.9061
0.9276 1.0000 0.9172
1.0000 0.9979 0.9172
0.0000 0.0211 0.9762
0.0000 0.0171 0.9817
0.0893 0.0109 0.9875
0.2597 0.0010 0.9877
0.4411 0.0000 0.9870
0.6083 0.0000 0.9870
0.7878 0.0000 0.9870
0.9276 0.0000 0.9870
1.0000 0.0000 0.9870
0.0000 0.0742 0.9695
0.0000 0.0702 0.9765
0.0805 0.0638 0.9847
0.2511 0.0534 0.9889
0.4411 0.0500 0.9870
0.6083 0.0500 0.9870
0.7878 0.0500 0.9870
0.9276 0.0500 0.9870
1.0000 0.0500 0.9870
0.0000 0.1627 0.9547
0.0000 0.1586 0.9642
0.0661 0.1519 0.9767
0.2366 0.1408 0.9883
0.4411 0.1331 0.9870
0.6083 0.1331 0.9870
0.7878 0.1331 0.9870
0.9276 0.1331 0.9870
1.0000 0.1331 0.9870
0.0000 0.3168 0.9166
0.0000 0.3128 0.9305
0.0436 0.3061 0.9508
0.2114 0.2943 0.9772
0.4323 0.2804 0.9884
0.6083 0.2779 0.9870
0.7878 0.2779 0.9870
0.9276 0.2779 0.9870
1.0000 0.2779 0.9870
0.0000 0.5010 0.8639
0.0000 0.4996 0.8747
0.0266 0.4968 0.8933
0.1857 0.4858 0.9382
0.4010 0.4705 0.9789
0.6083 0.4578 0.9870
0.7878 0.4578 0.9870
0.9276 0.4578 0.9870
1.0000 0.4578 0.9870
0.0000 0.6608 0.8354
0.0000 0.6595 0.8455
0.0507 0.6574 0.8622
0.1908 0.6535 0.8924
0.3796 0.6455 0.9386
0.5801 0.6314 0.9810
0.7878 0.6224 0.9870
0.9276 0.6224 0.9870
1.0000 0.6224 0.9870
0.0000 0.8310 0.8159
0.0010 0.8298 0.8249
0.0805 0.8280 0.8395
0.2199 0.8247 0.8658
0.4005 0.8203 0.9011
0.5709 0.8157 0.9369
0.7723 0.8045 0.9832
0.9276 0.7995 0.9870
1.0000 0.7995 0.9870
0.0000 0.9565 0.8123
0.0216 0.9554 0.8208
0.1013 0.9535 0.8349
0.2411 0.9503 0.8589
0.4223 0.9461 0.8904
0.5926 0.9422 0.9205
0.7751 0.9379 0.9541
0.9230 0.9322 0.9859
1.0000 0.9308 0.9870
0.0000 1.0000 0.8150
0.0310 1.0000 0.8233
0.1108 1.0000 0.8370
0.2506 1.0000 0.8610
0.4320 1.0000 0.8922
0.6025 1.0000 0.9214
0.7854 1.0000 0.9529
0.9277 1.0000 0.9778
1.0000 0.9997 0.9870
