assets/luts/LUTs/JD_CATALINA.CUBE
TITLE "ColorFinale Export"
# Created by Jeven Dovey on 2021-05-21 19:18:44 +0000
# Color Finale Plugin v.2.3.3 (521)
LUT_3D_SIZE 17
0.0752 0.0706 0.0768
0.1157 0.0706 0.0768
0.1554 0.0706 0.0768
0.1949 0.0706 0.0768
0.2339 0.0706 0.0768
0.2726 0.0706 0.0768
0.3138 0.0706 0.0768
0.3631 0.0706 0.0768
0.4263 0.0706 0.0768
0.5090 0.0706 0.0768
0.6113 0.0706 0.0768
0.7189 0.0706 0.0768
0.8155 0.0706 0.0768
0.8880 0.0706 0.0768
0.9390 0.0706 0.0768
0.9765 0.0706 0.0768
1.0000 0.0706 0.0768
0.0753 0.0971 0.0769
0.1157 0.0971 0.0768
0.1554 0.0971 0.0768
0.1949 0.0971 0.0768
0.2339 0.0971 0.0768
0.2726 0.0971 0.0768
0.3138 0.0971 0.0768
0.3631 0.0971 0.0768
0.4263 0.0971 0.0768
0.5090 0.0971 0.0768
0.6113 0.0971 0.0768
0.7189 0.0971 0.0768
0.8155 0.0971 0.0768
0.8880 0.0971 0.0768
0.9390 0.0971 0.0768
0.9765 0.0971 0.0768
1.0000 0.0971 0.0768
0.0755 0.1350 0.0770
0.1157 0.1352 0.0769
0.1554 0.1352 0.0768
0.1949 0.1352 0.0768
0.2339 0.1352 0.0768
0.2726 0.1352 0.0768
0.3138 0.1352 0.0768
0.3631 0.1352 0.0768
0.4263 0.1352 0.0768
0.5090 0.1352 0.0768
0.6113 0.1352 0.0768
0.7189 0.1352 0.0768
0.8155 0.1352 0.0768
0.8880 0.1352 0.0768
0.9390 0.1352 0.0768
0.9765 0.1352 0.0768
1.0000 0.1352 0.0768
0.0756 0.1728 0.0771
0.1157 0.1730 0.0770
0.1554 0.1731 0.0768
0.1949 0.1731 0.0768
0.2339 0.1731 0.0768
0.2726 0.1731 0.0768
0.3138 0.1731 0.0768
0.3631 0.1731 0.0768
0.4263 0.1731 0.0768
0.5090 0.1731 0.0768
0.6113 0.1731 0.0768
0.7189 0.1731 0.0768
0.8155 0.1731 0.0768
0.8880 0.1731 0.0768
0.9390 0.1731 0.0768
0.9765 0.1731 0.0768
1.0000 0.1731 0.0768
0.0758 0.2104 0.0772
0.1158 0.2107 0.0770
0.1554 0.2108 0.0768
0.1949 0.2108 0.0768
0.2339 0.2108 0.0768
0.2726 0.2108 0.0768
0.3138 0.2108 0.0768
0.3631 0.2108 0.0768
0.4263 0.2108 0.0768
0.5090 0.2108 0.0768
0.6113 0.2108 0.0768
0.7189 0.2108 0.0768
0.8155 0.2108 0.0768
0.8880 0.2108 0.0768
0.9390 0.2108 0.0768
0.9765 0.2108 0.0768
1.0000 0.2108 0.0768
0.0759 0.2478 0.0773
0.1158 0.2481 0.0770
0.1554 0.2482 0.0768
0.1949 0.2482 0.0768
0.2339 0.2482 0.0768
0.2726 0.2482 0.0768
0.3138 0.2482 0.0768
0.3631 0.2482 0.0768
0.4263 0.2482 0.0768
0.5090 0.2482 0.0768
0.6113 0.2482 0.0768
0.7189 0.2482 0.0768
0.8155 0.2482 0.0768
0.8880 0.2482 0.0768
0.9390 0.2482 0.0768
0.9765 0.2482 0.0768
1.0000 0.2482 0.0768
0.0760 0.2853 0.0774
0.1159 0.2856 0.0771
0.1554 0.2858 0.0768
0.1949 0.2858 0.0768
0.2339 0.2858 0.0768
0.2726 0.2858 0.0768
0.3138 0.2858 0.0768
0.3631 0.2858 0.0768
0.4263 0.2858 0.0768
0.5090 0.2858 0.0768
0.6113 0.2858 0.0768
0.7189 0.2858 0.0768
0.8155 0.2858 0.0768
0.8880 0.2858 0.0768
0.9390 0.2858 0.0768
0.9765 0.2858 0.0768
1.0000 0.2858 0.0768
0.0762 0.3267 0.0775
0.1159 0.3272 0.0771
0.1554 0.3274 0.0768
0.1949 0.3274 0.0768
0.2339 0.3274 0.0768
0.2726 0.3274 0.0768
0.3138 0.3274 0.0768
0.3631 0.3274 0.0768
0.4263 0.3274 0.0768
0.5090 0.3274 0.0768
0.6113 0.3274 0.0768
0.7189 0.3274 0.0768
0.8155 0.3274 0.0768
0.8880 0.3274 0.0768
0.9390 0.3274 0.0768
0.9765 0.3274 0.0768
1.0000 0.3274 0.0768
0.0763 0.3772 0.0776
0.1160 0.3779 0.0771
0.1554 0.3783 0.0768
0.1949 0.3783 0.0768
0.2339 0.3783 0.0768
0.2726 0.3783 0.0768
0.3138 0.3783 0.0768
0.3631 0.3783 0.0768
0.4263 0.3783 0.0768
0.5090 0.3783 0.0768
0.6113 0.3783 0.0768
0.7189 0.3783 0.0768
0.8155 0.3783 0.0768
0.8880 0.3783 0.0768
0.9390 0.3783 0.0768
0.9765 0.3783 0.0768
1.0000 0.3783 0.0768
0.0764 0.4421 0.0777
0.1160 0.4430 0.0772
0.1554 0.4436 0.0768
0.1949 0.4436 0.0768
0.2339 0.4436 0.0768
0.2726 0.4436 0.0768
0.3138 0.4436 0.0768
0.3631 0.4436 0.0768
0.4263 0.4436 0.0768
0.5090 0.4436 0.0768
0.6113 0.4436 0.0768
0.7189 0.4436 0.0768
0.8155 0.4436 0.0768
0.8880 0.4436 0.0768
0.9390 0.4436 0.0768
0.9765 0.4436 0.0768
1.0000 0.4436 0.0768
0.0765 0.5262 0.0778
0.1161 0.5276 0.0772
0.1554 0.5284 0.0768
0.1949 0.5284 0.0768
0.2339 0.5284 0.0768
0.2726 0.5284 0.0768
0.3138 0.5284 0.0768
0.3631 0.5284 0.0768
0.4263 0.5284 0.0768
0.5090 0.5284 0.0768
0.6113 0.5284 0.0768
0.7189 0.5284 0.0768
0.8155 0.5284 0.0768
0.8880 0.5284 0.0768
0.9390 0.5284 0.0768
0.9765 0.5284 0.0768
1.0000 0.5284 0.0768
0.0767 0.6271 0.0779
0.1161 0.6288 0.0773
0.1554 0.6297 0.0768
0.1949 0.6297 0.0768
0.2339 0.6297 0.0768
0.2726 0.6297 0.0768
0.3138 0.6297 0.0768
0.3631 0.6297 0.0768
0.4263 0.6297 0.0768
0.5090 0.6297 0.0768
0.6113 0.6297 0.0768
0.7189 0.6297 0.0768
0.8155 0.6297 0.0768
0.8880 0.6297 0.0768
0.9390 0.6297 0.0768
0.9765 0.6297 0.0768
1.0000 0.6297 0.0768
0.0768 0.7308 0.0780
0.1162 0.7326 0.0773
0.1554 0.7335 0.0768
0.1949 0.7335 0.0768
0.2339 0.7335 0.0768
0.2726 0.7335 0.0768
0.3138 0.7335 0.0768
0.3631 0.7335 0.0768
0.4263 0.7335 0.0768
0.5090 0.7335 0.0768
0.6113 0.7335 0.0768
0.7189 0.7335 0.0768
0.8155 0.7335 0.0768
0.8880 0.7335 0.0768
0.9390 0.7335 0.0768
0.9765 0.7335 0.0768
1.0000 0.7335 0.0768
0.0769 0.8225 0.0781
0.1162 0.8241 0.0773
0.1554 0.8249 0.0768
0.1949 0.8249 0.0768
0.2339 0.8249 0.0768
0.2726 0.8249 0.0768
0.3138 0.8249 0.0768
0.3631 0.8249 0.0768
0.4263 0.8249 0.0768
0.5090 0.8249 0.0768
0.6113 0.8249 0.0768
0.7189 0.8249 0.0768
0.8155 0.8249 0.0768
0.8880 0.8249 0.0768
0.9390 0.8249 0.0768
0.9765 0.8249 0.0768
1.0000 0.8249 0.0768
0.0771 0.8912 0.0782
0.1163 0.8923 0.0774
0.1554 0.8930 0.0768
0.1949 0.8930 0.0768
0.2339 0.8930 0.0768
0.2726 0.8930 0.0768
0.3138 0.8930 0.0768
0.3631 0.8930 0.0768
0.4263 0.8930 0.0768
0.5090 0.8930 0.0768
0.6113 0.8930 0.0768
0.7189 0.8930 0.0768
0.8155 0.8930 0.0768
0.8880 0.8930 0.0768
0.9390 0.8930 0.0768
0.9765 0.8930 0.0768
1.0000 0.8930 0.0768
0.0772 0.9400 0.0783
0.1163 0.9409 0.0774
0.1554 0.9414 0.0768
0.1949 0.9414 0.0768
0.2339 0.9414 0.0768
0.2726 0.9414 0.0768
0.3138 0.9414 0.0768
0.3631 0.9414 0.0768
0.4263 0.9414 0.0768
0.5090 0.9414 0.0768
0.6113 0.9414 0.0768
0.7189 0.9414 0.0768
0.8155 0.9414 0.0768
0.8880 0.9414 0.0768
0.9390 0.9414 0.0768
0.9765 0.9414 0.0768
1.0000 0.9414 0.0768
0.0773 0.9763 0.0784
0.1164 0.9770 0.0774
0.1554 0.9774 0.0768
0.1949 0.9774 0.0768
0.2339 0.9774 0.0768
0.2726 0.9774 0.0768
0.3138 0.9774 0.0768
0.3631 0.9774 0.0768
0.4263 0.9774 0.0768
0.5090 0.9774 0.0768
0.6113 0.9774 0.0768
0.7189 0.9774 0.0768
0.8155 0.9774 0.0768
0.8880 0.9774 0.0768
0.9390 0.9774 0.0768
0.9765 0.9774 0.0768
1.0000 0.9774 0.0768
0.0752 0.0706 0.1095
0.1158 0.0706 0.1092
0.1556 0.0706 0.1091
0.1949 0.0706 0.1091
0.2339 0.0706 0.1091
0.2726 0.0706 0.1091
0.3138 0.0706 0.1091
0.3631 0.0706 0.1091
0.4263 0.0706 0.1091
0.5090 0.0706 0.1091
0.6113 0.0706 0.1091
0.7189 0.0706 0.1091
0.8155 0.0706 0.1091
0.8880 0.0706 0.1091
0.9390 0.0706 0.1091
0.9765 0.0706 0.1091
1.0000 0.0706 0.1091
0.0752 0.0928 0.1048
0.1157 0.0971 0.1091
0.1555 0.0971 0.1091
0.1949 0.0971 0.1091
0.2339 0.0971 0.1091
0.2726 0.0971 0.1091
0.3138 0.0971 0.1091
0.3631 0.0971 0.1091
0.4263 0.0971 0.1091
0.5090 0.0971 0.1091
0.6113 0.0971 0.1091
0.7189 0.0971 0.1091
0.8155 0.0971 0.1091
0.8880 0.0971 0.1091
0.9390 0.0971 0.1091
0.9765 0.0971 0.1091
1.0000 0.0971 0.1091
0.0752 0.1308 0.1049
0.1157 0.1352 0.1092
0.1554 0.1352 0.1091
0.1949 0.1352 0.1091
0.2339 0.1352 0.1091
0.2726 0.1352 0.1091
0.3138 0.1352 0.1091
0.3631 0.1352 0.1091
0.4263 0.1352 0.1091
0.5090 0.1352 0.1091
0.6113 0.1352 0.1091
0.7189 0.1352 0.1091
0.8155 0.1352 0.1091
0.8880 0.1352 0.1091
0.9390 0.1352 0.1091
0.9765 0.1352 0.1091
1.0000 0.1352 0.1091
0.0752 0.1685 0.1051
0.1159 0.1729 0.1093
0.1555 0.1731 0.1092
0.1949 0.1731 0.1091
0.2339 0.1731 0.1091
0.2726 0.1731 0.1091
0.3138 0.1731 0.1091
0.3631 0.1731 0.1091
0.4263 0.1731 0.1091
0.5090 0.1731 0.1091
0.6113 0.1731 0.1091
0.7189 0.1731 0.1091
0.8155 0.1731 0.1091
0.8880 0.1731 0.1091
0.9390 0.1731 0.1091
0.9765 0.1731 0.1091
1.0000 0.1731 0.1091
0.0752 0.2061 0.1053
0.1160 0.2105 0.1094
0.1555 0.2107 0.1093
0.1949 0.2108 0.1091
0.2339 0.2108 0.1091
0.2726 0.2108 0.1091
0.3138 0.2108 0.1091
0.3631 0.2108 0.1091
0.4263 0.2108 0.1091
0.5090 0.2108 0.1091
0.6113 0.2108 0.1091
0.7189 0.2108 0.1091
0.8155 0.2108 0.1091
0.8880 0.2108 0.1091
0.9390 0.2108 0.1091
0.9765 0.2108 0.1091
1.0000 0.2108 0.1091
0.0752 0.2434 0.1054
0.1162 0.2479 0.1095
0.1556 0.2481 0.1093
0.1949 0.2482 0.1091
0.2339 0.2482 0.1091
0.2726 0.2482 0.1091
0.3138 0.2482 0.1091
0.3631 0.2482 0.1091
0.4263 0.2482 0.1091
0.5090 0.2482 0.1091
0.6113 0.2482 0.1091
0.7189 0.2482 0.1091
0.8155 0.2482 0.1091
0.8880 0.2482 0.1091
0.9390 0.2482 0.1091
0.9765 0.2482 0.1091
1.0000 0.2482 0.1091
0.0752 0.2807 0.1056
0.1163 0.2854 0.1097
0.1556 0.2857 0.1093
0.1949 0.2858 0.1091
0.2339 0.2858 0.1091
0.2726 0.2858 0.1091
0.3138 0.2858 0.1091
0.3631 0.2858 0.1091
0.4263 0.2858 0.1091
0.5090 0.2858 0.1091
0.6113 0.2858 0.1091
0.7189 0.2858 0.1091
0.8155 0.2858 0.1091
0.8880 0.2858 0.1091
0.9390 0.2858 0.1091
0.9765 0.2858 0.1091
1.0000 0.2858 0.1091
0.0752 0.3213 0.1058
0.1164 0.3268 0.1098
0.1557 0.3272 0.1094
0.1949 0.3274 0.1091
0.2339 0.3274 0.1091
0.2726 0.3274 0.1091
0.3138 0.3274 0.1091
0.3631 0.3274 0.1091
0.4263 0.3274 0.1091
0.5090 0.3274 0.1091
0.6113 0.3274 0.1091
0.7189 0.3274 0.1091
0.8155 0.3274 0.1091
0.8880 0.3274 0.1091
0.9390 0.3274 0.1091
0.9765 0.3274 0.1091
1.0000 0.3274 0.1091
0.0752 0.3704 0.1060
0.1165 0.3773 0.1099
0.1557 0.3780 0.1094
0.1949 0.3783 0.1091
0.2339 0.3783 0.1091
0.2726 0.3783 0.1091
0.3138 0.3783 0.1091
0.3631 0.3783 0.1091
0.4263 0.3783 0.1091
0.5090 0.3783 0.1091
0.6113 0.3783 0.1091
0.7189 0.3783 0.1091
0.8155 0.3783 0.1091
0.8880 0.3783 0.1091
0.9390 0.3783 0.1091
0.9765 0.3783 0.1091
1.0000 0.3783 0.1091
0.0752 0.4331 0.1061
0.1167 0.4422 0.1100
0.1558 0.4431 0.1095
0.1949 0.4436 0.1091
0.2339 0.4436 0.1091
0.2726 0.4436 0.1091
0.3138 0.4436 0.1091
0.3631 0.4436 0.1091
0.4263 0.4436 0.1091
0.5090 0.4436 0.1091
0.6113 0.4436 0.1091
0.7189 0.4436 0.1091
0.8155 0.4436 0.1091
0.8880 0.4436 0.1091
0.9390 0.4436 0.1091
0.9765 0.4436 0.1091
1.0000 0.4436 0.1091
0.0752 0.5146 0.1063
0.1168 0.5264 0.1101
0.1558 0.5277 0.1095
0.1949 0.5284 0.1091
0.2339 0.5284 0.1091
0.2726 0.5284 0.1091
0.3138 0.5284 0.1091
0.3631 0.5284 0.1091
0.4263 0.5284 0.1091
0.5090 0.5284 0.1091
0.6113 0.5284 0.1091
0.7189 0.5284 0.1091
0.8155 0.5284 0.1091
0.8880 0.5284 0.1091
0.9390 0.5284 0.1091
0.9765 0.5284 0.1091
1.0000 0.5284 0.1091
0.0752 0.6139 0.1065
0.1169 0.6273 0.1102
0.1559 0.6289 0.1095
0.1949 0.6297 0.1091
0.2339 0.6297 0.1091
0.2726 0.6297 0.1091
0.3138 0.6297 0.1091
0.3631 0.6297 0.1091
0.4263 0.6297 0.1091
0.5090 0.6297 0.1091
0.6113 0.6297 0.1091
0.7189 0.6297 0.1091
0.8155 0.6297 0.1091
0.8880 0.6297 0.1091
0.9390 0.6297 0.1091
0.9765 0.6297 0.1091
1.0000 0.6297 0.1091
0.0752 0.7179 0.1067
0.1171 0.7310 0.1103
0.1559 0.7326 0.1096
0.1949 0.7335 0.1091
0.2339 0.7335 0.1091
0.2726 0.7335 0.1091
0.3138 0.7335 0.1091
0.3631 0.7335 0.1091
0.4263 0.7335 0.1091
0.5090 0.7335 0.1091
0.6113 0.7335 0.1091
0.7189 0.7335 0.1091
0.8155 0.7335 0.1091
0.8880 0.7335 0.1091
0.9390 0.7335 0.1091
0.9765 0.7335 0.1091
1.0000 0.7335 0.1091
0.0752 0.8119 0.1068
0.1172 0.8227 0.1104
0.1560 0.8242 0.1096
0.1949 0.8249 0.1091
0.2339 0.8249 0.1091
0.2726 0.8249 0.1091
0.3138 0.8249 0.1091
0.3631 0.8249 0.1091
0.4263 0.8249 0.1091
0.5090 0.8249 0.1091
0.6113 0.8249 0.1091
0.7189 0.8249 0.1091
0.8155 0.8249 0.1091
0.8880 0.8249 0.1091
0.9390 0.8249 0.1091
0.9765 0.8249 0.1091
1.0000 0.8249 0.1091
0.0752 0.8835 0.1070
0.1173 0.8913 0.1105
0.1560 0.8924 0.1097
0.1949 0.8930 0.1091
0.2339 0.8930 0.1091
0.2726 0.8930 0.1091
0.3138 0.8930 0.1091
0.3631 0.8930 0.1091
0.4263 0.8930 0.1091
0.5090 0.8930 0.1091
0.6113 0.8930 0.1091
0.7189 0.8930 0.1091
0.8155 0.8930 0.1091
0.8880 0.8930 0.1091
0.9390 0.8930 0.1091
0.9765 0.8930 0.1091
1.0000 0.8930 0.1091
0.0752 0.9345 0.1072
0.1174 0.9401 0.1106
0.1561 0.9410 0.1097
0.1949 0.9414 0.1091
0.2339 0.9414 0.1091
0.2726 0.9414 0.1091
0.3138 0.9414 0.1091
0.3631 0.9414 0.1091
0.4263 0.9414 0.1091
0.5090 0.9414 0.1091
0.6113 0.9414 0.1091
0.7189 0.9414 0.1091
0.8155 0.9414 0.1091
0.8880 0.9414 0.1091
0.9390 0.9414 0.1091
0.9765 0.9414 0.1091
1.0000 0.9414 0.1091
0.0752 0.9719 0.1073
0.1176 0.9763 0.1107
0.1561 0.9770 0.1097
0.1949 0.9774 0.1091
0.2339 0.9774 0.1091
0.2726 0.9774 0.1091
0.3138 0.9774 0.1091
0.3631 0.9774 0.1091
0.4263 0.9774 0.1091
0.5090 0.9774 0.1091
0.6113 0.9774 0.1091
0.7189 0.9774 0.1091
0.8155 0.9774 0.1091
0.8880 0.9774 0.1091
0.9390 0.9774 0.1091
0.9765 0.9774 0.1091
1.0000 0.9774 0.1091
0.0752 0.0772 0.1435
0.1068 0.0706 0.1431
0.1558 0.0706 0.1427
0.1950 0.0706 0.1425
0.2339 0.0706 0.1424
0.2726 0.0706 0.1424
0.3138 0.0706 0.1424
0.3631 0.0706 0.1424
0.4263 0.0706 0.1424
0.5090 0.0706 0.1424
0.6113 0.0706 0.1424
0.7189 0.0706 0.1424
0.8155 0.0706 0.1424
0.8880 0.0706 0.1424
0.9390 0.0706 0.1424
0.9765 0.0706 0.1424
1.0000 0.0706 0.1424
0.0752 0.1020 0.1384
0.1066 0.1062 0.1428
0.1556 0.0970 0.1425
0.1950 0.0970 0.1424
0.2339 0.0971 0.1424
0.2726 0.0971 0.1424
0.3138 0.0971 0.1424
0.3631 0.0971 0.1424
0.4263 0.0971 0.1424
0.5090 0.0971 0.1424
0.6113 0.0971 0.1424
0.7189 0.0971 0.1424
0.8155 0.0971 0.1424
0.8880 0.0971 0.1424
0.9390 0.0971 0.1424
0.9765 0.0971 0.1424
1.0000 0.0971 0.1424
0.0752 0.1266 0.1336
0.1109 0.1309 0.1380
0.1554 0.1352 0.1424
0.1949 0.1352 0.1424
0.2339 0.1352 0.1424
0.2726 0.1352 0.1424
0.3138 0.1352 0.1424
0.3631 0.1352 0.1424
0.4263 0.1352 0.1424
0.5090 0.1352 0.1424
0.6113 0.1352 0.1424
0.7189 0.1352 0.1424
0.8155 0.1352 0.1424
0.8880 0.1352 0.1424
0.9390 0.1352 0.1424
0.9765 0.1352 0.1424
1.0000 0.1352 0.1424
0.0752 0.1643 0.1337
0.1111 0.1687 0.1381
0.1555 0.1731 0.1425
0.1949 0.1731 0.1424
0.2339 0.1731 0.1424
0.2726 0.1731 0.1424
0.3138 0.1731 0.1424
0.3631 0.1731 0.1424
0.4263 0.1731 0.1424
0.5090 0.1731 0.1424
0.6113 0.1731 0.1424
0.7189 0.1731 0.1424
0.8155 0.1731 0.1424
0.8880 0.1731 0.1424
0.9390 0.1731 0.1424
0.9765 0.1731 0.1424
1.0000 0.1731 0.1424
0.0752 0.2017 0.1340
0.1115 0.2062 0.1383
0.1557 0.2106 0.1426
0.1949 0.2107 0.1425
0.2339 0.2108 0.1424
0.2726 0.2108 0.1424
0.3138 0.2108 0.1424
0.3631 0.2108 0.1424
0.4263 0.2108 0.1424
0.5090 0.2108 0.1424
0.6113 0.2108 0.1424
0.7189 0.2108 0.1424
0.8155 0.2108 0.1424
0.8880 0.2108 0.1424
0.9390 0.2108 0.1424
0.9765 0.2108 0.1424
1.0000 0.2108 0.1424
0.0752 0.2390 0.1342
0.1117 0.2435 0.1385
0.1558 0.2480 0.1427
0.1949 0.2481 0.1425
0.2339 0.2482 0.1424
0.2726 0.2482 0.1424
0.3138 0.2482 0.1424
0.3631 0.2482 0.1424
0.4263 0.2482 0.1424
0.5090 0.2482 0.1424
0.6113 0.2482 0.1424
0.7189 0.2482 0.1424
0.8155 0.2482 0.1424
0.8880 0.2482 0.1424
0.9390 0.2482 0.1424
0.9765 0.2482 0.1424
1.0000 0.2482 0.1424
0.0752 0.2762 0.1344
0.1119 0.2809 0.1387
0.1560 0.2855 0.1428
0.1950 0.2857 0.1426
0.2339 0.2858 0.1424
0.2726 0.2858 0.1424
0.3138 0.2858 0.1424
0.3631 0.2858 0.1424
0.4263 0.2858 0.1424
0.5090 0.2858 0.1424
0.6113 0.2858 0.1424
0.7189 0.2858 0.1424
0.8155 0.2858 0.1424
0.8880 0.2858 0.1424
0.9390 0.2858 0.1424
0.9765 0.2858 0.1424
1.0000 0.2858 0.1424
0.0752 0.3161 0.1347
0.1121 0.3215 0.1388
0.1561 0.3269 0.1429
0.1950 0.3272 0.1426
0.2339 0.3274 0.1424
0.2726 0.3274 0.1424
0.3138 0.3274 0.1424
0.3631 0.3274 0.1424
0.4263 0.3274 0.1424
0.5090 0.3274 0.1424
0.6113 0.3274 0.1424
0.7189 0.3274 0.1424
0.8155 0.3274 0.1424
0.8880 0.3274 0.1424
0.9390 0.3274 0.1424
0.9765 0.3274 0.1424
1.0000 0.3274 0.1424
0.0752 0.3638 0.1349
0.1123 0.3706 0.1390
0.1562 0.3775 0.1431
0.1951 0.3780 0.1427
0.2339 0.3783 0.1424
0.2726 0.3783 0.1424
0.3138 0.3783 0.1424
0.3631 0.3783 0.1424
0.4263 0.3783 0.1424
0.5090 0.3783 0.1424
0.6113 0.3783 0.1424
0.7189 0.3783 0.1424
0.8155 0.3783 0.1424
0.8880 0.3783 0.1424
0.9390 0.3783 0.1424
0.9765 0.3783 0.1424
1.0000 0.3783 0.1424
0.0752 0.4245 0.1352
0.1125 0.4334 0.1392
0.1563 0.4424 0.1432
0.1951 0.4432 0.1427
0.2339 0.4436 0.1424
0.2726 0.4436 0.1424
0.3138 0.4436 0.1424
0.3631 0.4436 0.1424
0.4263 0.4436 0.1424
0.5090 0.4436 0.1424
0.6113 0.4436 0.1424
0.7189 0.4436 0.1424
0.8155 0.4436 0.1424
0.8880 0.4436 0.1424
0.9390 0.4436 0.1424
0.9765 0.4436 0.1424
1.0000 0.4436 0.1424
0.0752 0.5033 0.1354
0.1127 0.5149 0.1394
0.1565 0.5266 0.1433
0.1952 0.5278 0.1427
0.2339 0.5284 0.1424
0.2726 0.5284 0.1424
0.3138 0.5284 0.1424
0.3631 0.5284 0.1424
0.4263 0.5284 0.1424
0.5090 0.5284 0.1424
0.6113 0.5284 0.1424
0.7189 0.5284 0.1424
0.8155 0.5284 0.1424
0.8880 0.5284 0.1424
0.9390 0.5284 0.1424
0.9765 0.5284 0.1424
1.0000 0.5284 0.1424
0.0752 0.6008 0.1356
0.1129 0.6143 0.1395
0.1566 0.6276 0.1434
0.1952 0.6290 0.1428
0.2339 0.6297 0.1424
0.2726 0.6297 0.1424
0.3138 0.6297 0.1424
0.3631 0.6297 0.1424
0.4263 0.6297 0.1424
0.5090 0.6297 0.1424
0.6113 0.6297 0.1424
0.7189 0.6297 0.1424
0.8155 0.6297 0.1424
0.8880 0.6297 0.1424
0.9390 0.6297 0.1424
0.9765 0.6297 0.1424
1.0000 0.6297 0.1424
0.0752 0.7049 0.1359
0.1132 0.7183 0.1397
0.1567 0.7312 0.1435
0.1953 0.7327 0.1428
0.2339 0.7335 0.1424
0.2726 0.7335 0.1424
0.3138 0.7335 0.1424
0.3631 0.7335 0.1424
0.4263 0.7335 0.1424
0.5090 0.7335 0.1424
0.6113 0.7335 0.1424
0.7189 0.7335 0.1424
0.8155 0.7335 0.1424
0.8880 0.7335 0.1424
0.9390 0.7335 0.1424
0.9765 0.7335 0.1424
1.0000 0.7335 0.1424
0.0752 0.8009 0.1361
0.1134 0.8122 0.1399
0.1568 0.8229 0.1436
0.1953 0.8242 0.1429
0.2339 0.8249 0.1424
0.2726 0.8249 0.1424
0.3138 0.8249 0.1424
0.3631 0.8249 0.1424
0.4263 0.8249 0.1424
0.5090 0.8249 0.1424
0.6113 0.8249 0.1424
0.7189 0.8249 0.1424
0.8155 0.8249 0.1424
0.8880 0.8249 0.1424
0.9390 0.8249 0.1424
0.9765 0.8249 0.1424
1.0000 0.8249 0.1424
0.0752 0.8755 0.1364
0.1136 0.8837 0.1401
0.1570 0.8914 0.1437
0.1954 0.8924 0.1429
0.2339 0.8930 0.1424
0.2726 0.8930 0.1424
0.3138 0.8930 0.1424
0.3631 0.8930 0.1424
0.4263 0.8930 0.1424
0.5090 0.8930 0.1424
0.6113 0.8930 0.1424
0.7189 0.8930 0.1424
0.8155 0.8930 0.1424
0.8880 0.8930 0.1424
0.9390 0.8930 0.1424
0.9765 0.8930 0.1424
1.0000 0.8930 0.1424
0.0752 0.9287 0.1366
0.1138 0.9346 0.1402
0.1571 0.9402 0.1438
0.1954 0.9410 0.1430
0.2339 0.9414 0.1424
0.2726 0.9414 0.1424
0.3138 0.9414 0.1424
0.3631 0.9414 0.1424
0.4263 0.9414 0.1424
0.5090 0.9414 0.1424
0.6113 0.9414 0.1424
0.7189 0.9414 0.1424
0.8155 0.9414 0.1424
0.8880 0.9414 0.1424
0.9390 0.9414 0.1424
0.9765 0.9414 0.1424
1.0000 0.9414 0.1424
0.0752 0.9674 0.1369
0.1140 0.9720 0.1404
0.1572 0.9764 0.1439
0.1955 0.9771 0.1430
0.2339 0.9774 0.1424
0.2726 0.9774 0.1424
0.3138 0.9774 0.1424
0.3631 0.9774 0.1424
0.4263 0.9774 0.1424
0.5090 0.9774 0.1424
0.6113 0.9774 0.1424
0.7189 0.9774 0.1424
0.8155 0.9774 0.1424
0.8880 0.9774 0.1424
0.9390 0.9774 0.1424
0.9765 0.9774 0.1424
1.0000 0.9774 0.1424
0.0752 0.0864 0.1781
0.0976 0.0770 0.1777
0.1469 0.0706 0.1771
0.1953 0.0706 0.1765
0.2341 0.0706 0.1763
0.2726 0.0706 0.1761
0.3138 0.0706 0.1761
0.3631 0.0706 0.1761
0.4263 0.0706 0.1761
0.5090 0.0706 0.1761
0.6113 0.0706 0.1761
0.7189 0.0706 0.1761
0.8155 0.0706 0.1761
0.8880 0.0706 0.1761
0.9390 0.0706 0.1761
0.9765 0.0706 0.1761
1.0000 0.0706 0.1761
0.0752 0.1112 0.1727
0.0974 0.1154 0.1772
0.1466 0.1061 0.1768
0.1952 0.0969 0.1764
0.2341 0.0970 0.1762
0.2726 0.0971 0.1761
0.3138 0.0971 0.1761
0.3631 0.0971 0.1761
0.4263 0.0971 0.1761
0.5090 0.0971 0.1761
0.6113 0.0971 0.1761
0.7189 0.0971 0.1761
0.8155 0.0971 0.1761
0.8880 0.0971 0.1761
0.9390 0.0971 0.1761
0.9765 0.0971 0.1761
