assets/luts/LUTs/JD_CATALINA.CUBE
TITLE "ColorFinale Export"
# Created by Jeven Dovey on 2021-05-21 19:18:44 +0000
# Color Finale Plugin v.2.3.3 (521)
LUT_3D_SIZE 9
0.0752 0.0706 0.0768
0.1554 0.0706 0.0768
0.2339 0.0706 0.0768
0.3138 0.0706 0.0768
0.4263 0.0706 0.0768
0.6113 0.0706 0.0768
0.8155 0.0706 0.0768
0.9390 0.0706 0.0768
1.0000 0.0706 0.0768
0.0755 0.1350 0.0770
0.1554 0.1352 0.0768
0.2339 0.1352 0.0768
0.3138 0.1352 0.0768
0.4263 0.1352 0.0768
0.6113 0.1352 0.0768
0.8155 0.1352 0.0768
0.9390 0.1352 0.0768
1.0000 0.1352 0.0768
0.0758 0.2104 0.0772
0.1554 0.2108 0.0768
0.2339 0.2108 0.0768
0.3138 0.2108 0.0768
0.4263 0.2108 0.0768
0.6113 0.2108 0.0768
0.8155 0.2108 0.0768
0.9390 0.2108 0.0768
1.0000 0.2108 0.0768
0.0760 0.2853 0.0774
0.1554 0.2858 0.0768
0.2339 0.2858 0.0768
0.3138 0.2858 0.0768
0.4263 0.2858 0.0768
0.6113 0.2858 0.0768
0.8155 0.2858 0.0768
0.9390 0.2858 0.0768
1.0000 0.2858 0.0768
0.0763 0.3772 0.0776
0.1554 0.3783 0.0768
0.2339 0.3783 0.0768
0.3138 0.3783 0.0768
0.4263 0.3783 0.0768
0.6113 0.3783 0.0768
0.8155 0.3783 0.0768
0.9390 0.3783 0.0768
1.0000 0.3783 0.0768
0.0765 0.5262 0.0778
0.1554 0.5284 0.0768
0.2339 0.5284 0.0768
0.3138 0.5284 0.0768
0.4263 0.5284 0.0768
0.6113 0.5284 0.0768
0.8155 0.5284 0.0768
0.9390 0.5284 0.0768
1.0000 0.5284 0.0768
0.0768 0.7308 0.0780
0.1554 0.7335 0.0768
0.2339 0.7335 0.0768
0.3138 0.7335 0.0768
0.4263 0.7335 0.0768
0.6113 0.7335 0.0768
0.8155 0.7335 0.0768
0.9390 0.7335 0.0768
1.0000 0.7335 0.0768
0.0771 0.8912 0.0782
0.1554 0.8930 0.0768
0.2339 0.8930 0.0768
0.3138 0.8930 0.0768
0.4263 0.8930 0.0768
0.6113 0.8930 0.0768
0.8155 0.8930 0.0768
0.9390 0.8930 0.0768
1.0000 0.8930 0.0768
0.0773 0.9763 0.0784
0.1554 0.9774 0.0768
0.2339 0.9774 0.0768
0.3138 0.9774 0.0768
0.4263 0.9774 0.0768
0.6113 0.9774 0.0768
0.8155 0.9774 0.0768
0.9390 0.9774 0.0768
1.0000 0.9774 0.0768
0.0752 0.0772 0.1435
0.1558 0.0706 0.1427
0.2339 0.0706 0.1424
0.3138 0.0706 0.1424
0.4263 0.0706 0.1424
0.6113 0.0706 0.1424
0.8155 0.0706 0.1424
0.9390 0.0706 0.1424
1.0000 0.0706 0.1424
0.0752 0.1266 0.1336
0.1554 0.1352 0.1424
0.2339 0.1352 0.1424
0.3138 0.1352 0.1424
0.4263 0.1352 0.1424
0.6113 0.1352 0.1424
0.8155 0.1352 0.1424
0.9390 0.1352 0.1424
1.0000 0.1352 0.1424
0.0752 0.2017 0.1340
0.1557 0.2106 0.1426
0.2339 0.2108 0.1424
0.3138 0.2108 0.1424
0.4263 0.2108 0.1424
0.6113 0.2108 0.1424
0.8155 0.2108 0.1424
0.9390 0.2108 0.1424
1.0000 0.2108 0.1424
0.0752 0.2762 0.1344
0.1560 0.2855 0.1428
0.2339 0.2858 0.1424
0.3138 0.2858 0.1424
0.4263 0.2858 0.1424
0.6113 0.2858 0.1424
0.8155 0.2858 0.1424
0.9390 0.2858 0.1424
1.0000 0.2858 0.1424
0.0752 0.3638 0.1349
0.1562 0.3775 0.1431
0.2339 0.3783 0.1424
0.3138 0.3783 0.1424
0.4263 0.3783 0.1424
0.6113 0.3783 0.1424
0.8155 0.3783 0.1424
0.9390 0.3783 0.1424
1.0000 0.3783 0.1424
0.0752 0.5033 0.1354
0.1565 0.5266 0.1433
0.2339 0.5284 0.1424
0.3138 0.5284 0.1424
0.4263 0.5284 0.1424
0.6113 0.5284 0.1424
0.8155 0.5284 0.1424
0.9390 0.5284 0.1424
1.0000 0.5284 0.1424
0.0752 0.7049 0.1359
0.1567 0.7312 0.1435
0.2339 0.7335 0.1424
0.3138 0.7335 0.1424
0.4263 0.7335 0.1424
0.6113 0.7335 0.1424
0.8155 0.7335 0.1424
0.9390 0.7335 0.1424
1.0000 0.7335 0.1424
0.0752 0.8755 0.1364
0.1570 0.8914 0.1437
0.2339 0.8930 0.1424
0.3138 0.8930 0.1424
0.4263 0.8930 0.1424
0.6113 0.8930 0.1424
0.8155 0.8930 0.1424
0.9390 0.8930 0.1424
1.0000 0.8930 0.1424
0.0752 0.9674 0.1369
0.1572 0.9764 0.1439
0.2339 0.9774 0.1424
0.3138 0.9774 0.1424
0.4263 0.9774 0.1424
0.6113 0.9774 0.1424
0.8155 0.9774 0.1424
0.9390 0.9774 0.1424
1.0000 0.9774 0.1424
0.0752 0.0956 0.2132
0.1379 0.0767 0.2121
0.2345 0.0706 0.2106
0.3138 0.0706 0.2101
0.4263 0.0706 0.2101
0.6113 0.0706 0.2101
0.8155 0.0706 0.2101
0.9390 0.0706 0.2101
1.0000 0.0706 0.2101
0.0752 0.1450 0.2020
0.1374 0.1534 0.2111
0.2342 0.1350 0.2103
0.3138 0.1352 0.2101
0.4263 0.1352 0.2101
0.6113 0.1352 0.2101
0.8155 0.1352 0.2101
0.9390 0.1352 0.2101
1.0000 0.1352 0.2101
0.0752 0.1934 0.1919
0.1462 0.2023 0.2011
0.2339 0.2108 0.2101
0.3138 0.2108 0.2101
0.4263 0.2108 0.2101
0.6113 0.2108 0.2101
0.8155 0.2108 0.2101
0.9390 0.2108 0.2101
1.0000 0.2108 0.2101
0.0752 0.2674 0.1924
0.1471 0.2766 0.2015
0.2341 0.2856 0.2103
0.3138 0.2858 0.2101
0.4263 0.2858 0.2101
0.6113 0.2858 0.2101
0.8155 0.2858 0.2101
0.9390 0.2858 0.2101
1.0000 0.2858 0.2101
0.0752 0.3513 0.1932
0.1477 0.3643 0.2020
0.2344 0.3777 0.2105
0.3138 0.3783 0.2101
0.4263 0.3783 0.2101
0.6113 0.3783 0.2101
0.8155 0.3783 0.2101
0.9390 0.3783 0.2101
1.0000 0.3783 0.2101
0.0752 0.4819 0.1939
0.1483 0.5042 0.2025
0.2347 0.5271 0.2107
0.3138 0.5284 0.2101
0.4263 0.5284 0.2101
0.6113 0.5284 0.2101
0.8155 0.5284 0.2101
0.9390 0.5284 0.2101
1.0000 0.5284 0.2101
0.0752 0.6788 0.1947
0.1489 0.7060 0.2030
0.2349 0.7317 0.2109
0.3138 0.7335 0.2101
0.4263 0.7335 0.2101
0.6113 0.7335 0.2101
0.8155 0.7335 0.2101
0.9390 0.7335 0.2101
1.0000 0.7335 0.2101
0.0752 0.8586 0.1955
0.1494 0.8761 0.2034
0.2352 0.8917 0.2112
0.3138 0.8930 0.2101
0.4263 0.8930 0.2101
0.6113 0.8930 0.2101
0.8155 0.8930 0.2101
0.9390 0.8930 0.2101
1.0000 0.8930 0.2101
0.0752 0.9582 0.1962
0.1500 0.9678 0.2039
0.2354 0.9765 0.2114
0.3138 0.9774 0.2101
0.4263 0.9774 0.2101
0.6113 0.9774 0.2101
0.8155 0.9774 0.2101
0.9390 0.9774 0.2101
1.0000 0.9774 0.2101
0.0752 0.1140 0.2846
0.1194 0.0949 0.2832
0.2174 0.0762 0.2810
0.3149 0.0706 0.2792
0.4263 0.0706 0.2783
0.6113 0.0706 0.2783
0.8155 0.0706 0.2783
0.9390 0.0706 0.2783
1.0000 0.0706 0.2783
0.0752 0.1634 0.2719
0.1187 0.1716 0.2815
0.2167 0.1529 0.2804
0.3145 0.1348 0.2789
0.4263 0.1352 0.2783
0.6113 0.1352 0.2783
0.8155 0.1352 0.2783
0.9390 0.1352 0.2783
1.0000 0.1352 0.2783
0.0752 0.2118 0.2606
0.1278 0.2204 0.2701
0.2162 0.2287 0.2794
0.3142 0.2106 0.2786
0.4263 0.2108 0.2783
0.6113 0.2108 0.2783
0.8155 0.2108 0.2783
0.9390 0.2108 0.2783
1.0000 0.2108 0.2783
0.0752 0.2592 0.2505
0.1377 0.2683 0.2600
0.2248 0.2771 0.2692
0.3138 0.2858 0.2783
0.4263 0.2858 0.2783
0.6113 0.2858 0.2783
0.8155 0.2858 0.2783
0.9390 0.2858 0.2783
1.0000 0.2858 0.2783
0.0752 0.3397 0.2511
0.1393 0.3521 0.2605
0.2258 0.3649 0.2696
0.3141 0.3780 0.2785
0.4263 0.3783 0.2783
0.6113 0.3783 0.2783
0.8155 0.3783 0.2783
0.9390 0.3783 0.2783
1.0000 0.3783 0.2783
0.0752 0.4620 0.2522
0.1402 0.4832 0.2612
0.2263 0.5051 0.2701
0.3144 0.5275 0.2788
0.4263 0.5284 0.2783
0.6113 0.5284 0.2783
0.8155 0.5284 0.2783
0.9390 0.5284 0.2783
1.0000 0.5284 0.2783
0.0752 0.6528 0.2532
0.1411 0.6805 0.2620
0.2269 0.7070 0.2706
0.3147 0.7321 0.2790
0.4263 0.7335 0.2783
0.6113 0.7335 0.2783
0.8155 0.7335 0.2783
0.9390 0.7335 0.2783
1.0000 0.7335 0.2783
0.0752 0.8403 0.2542
0.1420 0.8596 0.2628
0.2274 0.8768 0.2711
0.3150 0.8919 0.2792
0.4263 0.8930 0.2783
0.6113 0.8930 0.2783
0.8155 0.8930 0.2783
0.9390 0.8930 0.2783
1.0000 0.8930 0.2783
0.0752 0.9485 0.2553
0.1429 0.9588 0.2635
0.2280 0.9681 0.2716
0.3152 0.9767 0.2794
0.4263 0.9774 0.2783
0.6113 0.9774 0.2783
0.8155 0.9774 0.2783
0.9390 0.9774 0.2783
1.0000 0.9774 0.2783
0.0752 0.1324 0.3739
0.1003 0.1130 0.3714
0.1997 0.0941 0.3674
0.2965 0.0757 0.3638
0.4286 0.0706 0.3607
0.6113 0.0706 0.3591
0.8155 0.0706 0.3591
0.9390 0.0706 0.3591
1.0000 0.0706 0.3591
0.0752 0.1818 0.3541
0.0993 0.1898 0.3680
0.1986 0.1709 0.3660
0.2957 0.1524 0.3629
0.4280 0.1346 0.3603
0.6113 0.1352 0.3591
0.8155 0.1352 0.3591
0.9390 0.1352 0.3591
1.0000 0.1352 0.3591
0.0752 0.2301 0.3374
0.1088 0.2386 0.3503
0.1978 0.2467 0.3636
0.2950 0.2283 0.3620
0.4274 0.2104 0.3599
0.6113 0.2108 0.3591
0.8155 0.2108 0.3591
0.9390 0.2108 0.3591
1.0000 0.2108 0.3591
0.0752 0.2777 0.3234
0.1190 0.2869 0.3354
0.2068 0.2959 0.3479
0.2944 0.3049 0.3607
0.4269 0.2856 0.3595
0.6113 0.2858 0.3591
0.8155 0.2858 0.3591
0.9390 0.2858 0.3591
1.0000 0.2858 0.3591
0.0752 0.3294 0.3114
0.1299 0.3413 0.3229
0.2165 0.3533 0.3346
0.3037 0.3657 0.3467
0.4263 0.3783 0.3591
0.6113 0.3783 0.3591
0.8155 0.3783 0.3591
0.9390 0.3783 0.3591
1.0000 0.3783 0.3591
0.0752 0.4437 0.3123
0.1323 0.4637 0.3237
0.2181 0.4846 0.3353
0.3047 0.5060 0.3472
0.4268 0.5279 0.3595
0.6113 0.5284 0.3591
0.8155 0.5284 0.3591
0.9390 0.5284 0.3591
1.0000 0.5284 0.3591
0.0752 0.6270 0.3138
0.1335 0.6551 0.3249
0.2190 0.6821 0.3363
0.3053 0.7081 0.3479
0.4272 0.7326 0.3598
0.6113 0.7335 0.3591
0.8155 0.7335 0.3591
0.9390 0.7335 0.3591
1.0000 0.7335 0.3591
0.0752 0.8206 0.3154
0.1347 0.8419 0.3262
0.2198 0.8607 0.3372
0.3060 0.8774 0.3485
0.4277 0.8922 0.3601
0.6113 0.8930 0.3591
0.8155 0.8930 0.3591
0.9390 0.8930 0.3591
1.0000 0.8930 0.3591
0.0752 0.9381 0.3169
0.1359 0.9493 0.3275
0.2207 0.9594 0.3382
0.3066 0.9685 0.3492
0.4281 0.9768 0.3604
0.6113 0.9774 0.3591
0.8155 0.9774 0.3591
0.9390 0.9774 0.3591
1.0000 0.9774 0.3591
0.0752 0.1509 0.5212
0.0803 0.1312 0.5161
0.1813 0.1120 0.5078
0.2786 0.0933 0.5003
0.3998 0.0752 0.4936
0.6156 0.0706 0.4877
0.8155 0.0706 0.4845
0.9390 0.0706 0.4845
1.0000 0.0706 0.4845
0.0752 0.2002 0.4848
0.0791 0.2080 0.5087
0.1798 0.1889 0.5045
0.2775 0.1701 0.4980
0.3986 0.1520 0.4921
0.6147 0.1343 0.4871
0.8155 0.1352 0.4845
0.9390 0.1352 0.4845
1.0000 0.1352 0.4845
0.0752 0.2485 0.4545
0.0891 0.2567 0.4763
0.1788 0.2647 0.4990
0.2764 0.2460 0.4956
0.3975 0.2278 0.4907
0.6139 0.2101 0.4864
0.8155 0.2108 0.4845
0.9390 0.2108 0.4845
1.0000 0.2108 0.4845
0.0752 0.2969 0.4293
0.0997 0.3065 0.4492
0.1882 0.3160 0.4701
0.2756 0.3256 0.4918
0.3963 0.3044 0.4892
0.6130 0.2854 0.4858
0.8155 0.2858 0.4845
0.9390 0.2858 0.4845
1.0000 0.2858 0.4845
0.0752 0.3534 0.4083
0.1110 0.3665 0.4268
0.1982 0.3798 0.4460
0.2847 0.3935 0.4661
0.3954 0.4074 0.4870
0.6121 0.3779 0.4851
0.8155 0.3783 0.4845
0.9390 0.3783 0.4845
1.0000 0.3783 0.4845
0.0752 0.4280 0.3909
0.1229 0.4469 0.4080
0.2089 0.4664 0.4260
0.2947 0.4866 0.4447
0.4100 0.5073 0.4642
0.6113 0.5284 0.4845
0.8155 0.5284 0.4845
0.9390 0.5284 0.4845
1.0000 0.5284 0.4845
0.0752 0.6017 0.3924
0.1260 0.6299 0.4095
0.2112 0.6573 0.4272
0.2965 0.6838 0.4458
0.4116 0.7091 0.4650
0.6120 0.7331 0.4850
0.8155 0.7335 0.4845
0.9390 0.7335 0.4845
1.0000 0.7335 0.4845
0.0752 0.7996 0.3951
0.1275 0.8228 0.4118
0.2124 0.8435 0.4292
0.2974 0.8618 0.4473
0.4126 0.8780 0.4661
0.6127 0.8925 0.4855
0.8155 0.8930 0.4845
0.9390 0.8930 0.4845
1.0000 0.8930 0.4845
0.0752 0.9270 0.3978
0.1291 0.9392 0.4142
0.2135 0.9501 0.4312
0.2983 0.9599 0.4489
0.4136 0.9688 0.4672
0.6133 0.9770 0.4860
0.8155 0.9774 0.4845
0.9390 0.9774 0.4845
1.0000 0.9774 0.4845
0.0752 0.1693 0.7299
0.0752 0.1494 0.7237
0.1623 0.1299 0.7126
0.2607 0.1110 0.7023
0.3732 0.0926 0.6927
0.5720 0.0747 0.6838
0.8196 0.0706 0.6756
0.9390 0.0706 0.6708
1.0000 0.0706 0.6708
0.0752 0.2186 0.6846
0.0752 0.2263 0.7136
0.1604 0.2068 0.7080
0.2593 0.1878 0.6986
0.3716 0.1694 0.6899
0.5701 0.1515 0.6820
0.8189 0.1341 0.6748
0.9390 0.1352 0.6708
1.0000 0.1352 0.6708
0.0752 0.2669 0.6417
0.0752 0.2750 0.6712
0.1592 0.2830 0.6997
0.2578 0.2637 0.6949
0.3700 0.2453 0.6872
0.5682 0.2273 0.6802
0.8182 0.2099 0.6740
0.9390 0.2108 0.6708
1.0000 0.2108 0.6708
0.0752 0.3175 0.6022
0.0797 0.3278 0.6317
0.1689 0.3381 0.6605
0.2568 0.3484 0.6884
0.3684 0.3248 0.6844
0.5664 0.3039 0.6784
0.8175 0.2852 0.6732
0.9390 0.2858 0.6708
1.0000 0.2858 0.6708
0.0752 0.3805 0.5670
0.0914 0.3950 0.5958
0.1793 0.4098 0.6244
0.2660 0.4251 0.6525
0.3673 0.4406 0.6798
0.5645 0.4066 0.6767
0.8169 0.3776 0.6724
0.9390 0.3783 0.6708
1.0000 0.3783 0.6708
0.0752 0.4656 0.5361
0.1038 0.4868 0.5639
0.1903 0.5086 0.5920
0.2760 0.5309 0.6199
0.3807 0.5534 0.6473
0.5631 0.5757 0.6740
0.8162 0.5278 0.6716
0.9390 0.5284 0.6708
1.0000 0.5284 0.6708
0.0752 0.5795 0.5096
0.1167 0.6072 0.5363
0.2020 0.6344 0.5635
0.2868 0.6608 0.5909
0.3959 0.6863 0.6181
0.5863 0.7106 0.6448
0.8155 0.7335 0.6708
0.9390 0.7335 0.6708
1.0000 0.7335 0.6708
0.0752 0.7775 0.5124
0.1204 0.8025 0.5388
0.2050 0.8250 0.5657
0.2892 0.8451 0.5927
0.3986 0.8629 0.6195
0.5889 0.8787 0.6459
0.8160 0.8927 0.6715
0.9390 0.8930 0.6708
1.0000 0.8930 0.6708
0.0752 0.9151 0.5171
0.1223 0.9285 0.5430
0.2065 0.9404 0.5693
0.2904 0.9510 0.5957
0.4000 0.9605 0.6218
0.5904 0.9692 0.6473
0.8166 0.9771 0.6721
0.9390 0.9774 0.6708
1.0000 0.9774 0.6708
0.0752 0.1878 0.8955
0.0752 0.1676 0.8915
0.1426 0.1479 0.8841
0.2425 0.1286 0.8769
0.3487 0.1100 0.8698
0.5289 0.0918 0.8630
0.7838 0.0742 0.8564
0.9414 0.0706 0.8502
1.0000 0.0706 0.8463
0.0752 0.2370 0.8663
0.0752 0.2445 0.8845
0.1403 0.2248 0.8808
0.2406 0.2056 0.8740
0.3468 0.1868 0.8674
0.5262 0.1686 0.8612
0.7821 0.1510 0.8552
0.9411 0.1339 0.8497
1.0000 0.1352 0.8463
0.0752 0.2856 0.8345
0.0752 0.2940 0.8558
0.1389 0.3022 0.8746
0.2387 0.2818 0.8711
0.3448 0.2627 0.8650
0.5234 0.2445 0.8593
0.7804 0.2269 0.8540
0.9408 0.2097 0.8491
1.0000 0.2108 0.8463
0.0752 0.3402 0.8006
0.0752 0.3514 0.8249
0.1490 0.3627 0.8466
0.2376 0.3741 0.8657
0.3429 0.3472 0.8626
0.5207 0.3239 0.8575
0.7787 0.3034 0.8528
0.9404 0.2849 0.8486
1.0000 0.2858 0.8463
0.0752 0.4113 0.7659
0.0752 0.4275 0.7927
0.1597 0.4441 0.8172
0.2471 0.4611 0.8390
0.3417 0.4784 0.8583
0.5180 0.4392 0.8557
0.7769 0.4058 0.8516
0.9401 0.3773 0.8480
1.0000 0.3783 0.8463
0.0752 0.5086 0.7320
0.0838 0.5321 0.7606
0.1712 0.5558 0.7871
0.2573 0.5795 0.8114
0.3539 0.6028 0.8331
0.5162 0.6255 0.8526
0.7752 0.5744 0.8504
0.9397 0.5273 0.8474
1.0000 0.5284 0.8463
0.0752 0.6320 0.6999
0.0973 0.6597 0.7296
0.1832 0.6865 0.7576
0.2681 0.7121 0.7837
0.3679 0.7362 0.8077
0.5387 0.7588 0.8293
0.7739 0.7798 0.8485
0.9394 0.7329 0.8469
1.0000 0.7335 0.8463
0.0752 0.7572 0.6703
0.1113 0.7832 0.7007
0.1959 0.8071 0.7298
0.2798 0.8285 0.7572
0.3838 0.8475 0.7827
0.5639 0.8645 0.8062
0.7948 0.8796 0.8274
0.9390 0.8930 0.8463
1.0000 0.8930 0.8463
0.0752 0.9023 0.6739
0.1157 0.9170 0.7038
0.1996 0.9300 0.7324
0.2828 0.9415 0.7593
0.3874 0.9518 0.7844
0.5682 0.9611 0.8074
0.7970 0.9695 0.8282
0.9393 0.9773 0.8468
1.0000 0.9774 0.8463
0.0752 0.2061 0.9485
0.0752 0.1859 0.9485
0.1223 0.1658 0.9485
0.2236 0.1463 0.9485
0.3261 0.1273 0.9485
0.4879 0.1089 0.9485
0.7431 0.0911 0.9485
0.9239 0.0738 0.9485
1.0000 0.0706 0.9485
0.0752 0.2554 0.9485
0.0752 0.2627 0.9485
0.1196 0.2428 0.9485
0.2213 0.2233 0.9485
0.3238 0.2043 0.9485
0.4845 0.1858 0.9485
0.7403 0.1679 0.9485
0.9231 0.1505 0.9485
1.0000 0.1337 0.9485
0.0752 0.3054 0.9481
0.0752 0.3142 0.9485
0.1180 0.3229 0.9485
0.2190 0.3006 0.9485
0.3216 0.2805 0.9485
0.4812 0.2617 0.9485
0.7374 0.2438 0.9485
0.9222 0.2264 0.9485
1.0000 0.2095 0.9485
0.0752 0.3657 0.9295
0.0752 0.3780 0.9422
0.1284 0.3905 0.9485
0.2177 0.4031 0.9485
0.3194 0.3723 0.9485
0.4779 0.3459 0.9485
0.7345 0.3230 0.9485
0.9213 0.3028 0.9485
1.0000 0.2847 0.9485
0.0752 0.4466 0.9096
0.0752 0.4647 0.9242
0.1396 0.4833 0.9371
0.2276 0.5023 0.9485
0.3181 0.5214 0.9485
0.4746 0.4763 0.9485
0.7316 0.4378 0.9485
0.9204 0.4050 0.9485
1.0000 0.3770 0.9485
0.0752 0.5568 0.8887
0.0752 0.5818 0.9053
0.1513 0.6064 0.9200
0.2381 0.6305 0.9330
0.3294 0.6538 0.9446
0.4726 0.6762 0.9485
0.7287 0.6235 0.9485
0.9195 0.5731 0.9485
1.0000 0.5268 0.9485
0.0752 0.6851 0.8670
0.0770 0.7120 0.8858
0.1638 0.7374 0.9023
0.2493 0.7612 0.9170
0.3422 0.7832 0.9299
0.4933 0.8034 0.9415
0.7267 0.8217 0.9485
0.9186 0.7786 0.9485
1.0000 0.7324 0.9485
0.0752 0.8039 0.8448
0.0915 0.8266 0.8658
0.1769 0.8468 0.8843
0.2611 0.8646 0.9007
0.3568 0.8805 0.9151
0.5171 0.8945 0.9280
0.7502 0.9070 0.9394
0.9180 0.9182 0.9485
1.0000 0.8927 0.9485
0.0752 0.8920 0.8247
0.1066 0.9061 0.8459
0.1906 0.9200 0.8664
0.2737 0.9323 0.8844
0.3734 0.9432 0.9004
0.5440 0.9531 0.9146
0.7746 0.9619 0.9272
0.9286 0.9700 0.9384
1.0000 0.9774 0.9485
