assets/luts/LUTs/JD_COSTA RICA.CUBE
TITLE "ColorFinale Export"
# Created by Jeven Dovey on 2022-12-23 20:38:57 +0000
# Color Finale Plugin v.2.6.0 (537)
LUT_3D_SIZE 17
0.0000 0.0000 0.0000
0.0440 0.0000 0.0010
0.0841 0.0000 0.0019
0.1231 0.0000 0.0028
0.1602 0.0000 0.0037
0.1952 0.0000 0.0045
0.2283 0.0000 0.0053
0.2594 0.0000 0.0060
0.2884 0.0000 0.0067
0.3155 0.0000 0.0073
0.3406 0.0000 0.0079
0.3637 0.0000 0.0084
0.3848 0.0000 0.0089
0.4040 0.0000 0.0093
0.4211 0.0000 0.0097
0.4452 0.0000 0.0103
0.4749 0.0000 0.0110
0.0000 0.0619 0.0125
0.0364 0.0615 0.0013
0.0884 0.0361 0.0075
0.1238 0.0172 0.0044
0.1613 0.0000 0.0037
0.1976 0.0000 0.0046
0.2319 0.0000 0.0054
0.2643 0.0000 0.0061
0.2946 0.0000 0.0068
0.3229 0.0000 0.0075
0.3492 0.0000 0.0081
0.3735 0.0000 0.0086
0.3959 0.0000 0.0092
0.4162 0.0000 0.0096
0.4345 0.0000 0.0100
0.4508 0.0000 0.0104
0.4741 0.0000 0.0110
0.0000 0.1250 0.0252
0.0195 0.1244 0.0154
0.0732 0.1225 0.0024
0.1320 0.0950 0.0043
0.1733 0.0727 0.0147
0.2060 0.0547 0.0130
0.2388 0.0371 0.0091
0.2713 0.0198 0.0071
0.3028 0.0029 0.0070
0.3327 0.0000 0.0077
0.3606 0.0000 0.0083
0.3866 0.0000 0.0089
0.4105 0.0000 0.0095
0.4325 0.0000 0.0100
0.4524 0.0000 0.0105
0.4703 0.0000 0.0109
0.4862 0.0000 0.0112
0.0000 0.1897 0.0382
0.0023 0.1886 0.0314
0.0538 0.1872 0.0161
0.1097 0.1840 0.0037
0.1706 0.1557 0.0014
0.2200 0.1303 0.0126
0.2578 0.1093 0.0219
0.2888 0.0917 0.0216
0.3187 0.0750 0.0178
0.3481 0.0588 0.0142
0.3766 0.0429 0.0117
0.4039 0.0277 0.0104
0.4295 0.0131 0.0101
0.4534 0.0000 0.0105
0.4756 0.0000 0.0110
0.4957 0.0000 0.0115
0.5138 0.0000 0.0119
0.0000 0.2557 0.0515
0.0000 0.2534 0.0475
0.0345 0.2525 0.0328
0.0889 0.2498 0.0170
0.1461 0.2456 0.0050
0.2079 0.2166 0.0002
0.2617 0.1897 0.0082
0.3057 0.1663 0.0205
0.3409 0.1462 0.0289
0.3705 0.1289 0.0297
0.3981 0.1128 0.0268
0.4248 0.0973 0.0231
0.4507 0.0824 0.0197
0.4753 0.0681 0.0171
0.4985 0.0544 0.0152
0.5200 0.0415 0.0139
0.5398 0.0293 0.0133
0.0000 0.3232 0.0651
0.0000 0.3195 0.0641
0.0152 0.3180 0.0497
0.0677 0.3162 0.0338
0.1241 0.3124 0.0181
0.1824 0.3072 0.0063
0.2449 0.2775 0.0000
0.3011 0.2497 0.0049
0.3495 0.2248 0.0163
0.3893 0.2027 0.0279
0.4225 0.1833 0.0357
0.4507 0.1663 0.0373
0.4765 0.1506 0.0354
0.5010 0.1358 0.0323
0.5244 0.1216 0.0289
0.5465 0.1081 0.0257
0.5672 0.0953 0.0230
0.0000 0.3921 0.0790
0.0000 0.3875 0.0780
0.0000 0.3848 0.0671
0.0471 0.3825 0.0512
0.1015 0.3799 0.0349
0.1594 0.3751 0.0193
0.2186 0.3690 0.0076
0.2818 0.3386 0.0002
0.3395 0.3101 0.0027
0.3908 0.2842 0.0121
0.4345 0.2606 0.0241
0.4713 0.2395 0.0349
0.5027 0.2207 0.0423
0.5295 0.2040 0.0446
0.5537 0.1887 0.0437
0.5762 0.1744 0.0413
0.5974 0.1608 0.0382
0.0000 0.4624 0.0931
0.0000 0.4569 0.0920
0.0000 0.4528 0.0849
0.0252 0.4499 0.0692
0.0795 0.4469 0.0525
0.1355 0.4436 0.0361
0.1948 0.4379 0.0207
0.2548 0.4310 0.0089
0.3185 0.3997 0.0007
0.3773 0.3706 0.0013
0.4307 0.3440 0.0087
0.4773 0.3193 0.0198
0.5173 0.2969 0.0315
0.5516 0.2766 0.0415
0.5813 0.2583 0.0486
0.6067 0.2419 0.0515
0.6294 0.2270 0.0515
0.0000 0.5342 0.1076
0.0000 0.5278 0.1063
0.0000 0.5221 0.1032
0.0017 0.5186 0.0878
0.0565 0.5151 0.0710
0.1124 0.5114 0.0538
0.1697 0.5073 0.0373
0.2299 0.5008 0.0222
0.2909 0.4930 0.0103
0.3554 0.4609 0.0014
0.4148 0.4313 0.0004
0.4696 0.4041 0.0060
0.5186 0.3786 0.0158
0.5614 0.3550 0.0274
0.5983 0.3335 0.0385
0.6303 0.3139 0.0479
0.6583 0.2961 0.0547
0.0000 0.6073 0.1223
0.0000 0.6001 0.1208
0.0000 0.5933 0.1195
0.0000 0.5885 0.1067
0.0321 0.5844 0.0900
0.0883 0.5802 0.0727
0.1456 0.5758 0.0552
0.2040 0.5711 0.0387
0.2652 0.5638 0.0236
0.3269 0.5551 0.0117
0.3920 0.5223 0.0022
0.4522 0.4920 0.0000
0.5081 0.4644 0.0040
0.5588 0.4381 0.0124
0.6039 0.4136 0.0233
0.6432 0.3911 0.0346
0.6775 0.3704 0.0451
0.0000 0.6786 0.1366
0.0000 0.6738 0.1357
0.0000 0.6661 0.1341
0.0000 0.6598 0.1263
0.0059 0.6550 0.1097
0.0628 0.6502 0.0922
0.1204 0.6454 0.0742
0.1789 0.6403 0.0565
0.2382 0.6350 0.0402
0.3004 0.6269 0.0252
0.3628 0.6174 0.0131
0.4286 0.5837 0.0031
0.4894 0.5529 0.0000
0.5463 0.5247 0.0025
0.5983 0.4979 0.0095
0.6451 0.4727 0.0194
0.6866 0.4492 0.0305
0.0000 0.7465 0.1503
0.0000 0.7454 0.1501
0.0000 0.7403 0.1491
0.0000 0.7324 0.1463
0.0000 0.7268 0.1298
0.0359 0.7214 0.1123
0.0940 0.7160 0.0941
0.1528 0.7106 0.0757
0.2122 0.7049 0.0582
0.2725 0.6989 0.0418
0.3355 0.6901 0.0267
0.3987 0.6798 0.0146
0.4651 0.6453 0.0041
0.5267 0.6137 0.0000
0.5840 0.5853 0.0014
0.6374 0.5579 0.0072
0.6857 0.5320 0.0160
0.0000 0.8143 0.1640
0.0000 0.8134 0.1638
0.0000 0.8123 0.1636
0.0000 0.8070 0.1625
0.0000 0.8000 0.1505
0.0071 0.7939 0.1330
0.0660 0.7879 0.1147
0.1253 0.7819 0.0960
0.1852 0.7758 0.0775
0.2457 0.7695 0.0597
0.3068 0.7630 0.0434
0.3706 0.7534 0.0283
0.4344 0.7423 0.0161
0.5015 0.7070 0.0051
0.5637 0.6748 0.0003
0.6216 0.6459 0.0007
0.6759 0.6180 0.0053
0.0000 0.8822 0.1776
0.0000 0.8814 0.1775
0.0000 0.8804 0.1773
0.0000 0.8793 0.1771
0.0000 0.8745 0.1716
0.0000 0.8677 0.1541
0.0365 0.8610 0.1358
0.0965 0.8544 0.1169
0.1569 0.8479 0.0979
0.2178 0.8412 0.0791
0.2792 0.8343 0.0613
0.3410 0.8272 0.0451
0.4056 0.8168 0.0300
0.4701 0.8049 0.0176
0.5378 0.7687 0.0062
0.6006 0.7359 0.0007
0.6594 0.7066 0.0002
0.0000 0.9501 0.1913
0.0000 0.9493 0.1912
0.0000 0.9485 0.1910
0.0000 0.9476 0.1908
0.0000 0.9465 0.1906
0.0000 0.9428 0.1759
0.0052 0.9354 0.1576
0.0661 0.9282 0.1387
0.1272 0.9210 0.1191
0.1886 0.9139 0.0997
0.2505 0.9066 0.0808
0.3127 0.8991 0.0630
0.3752 0.8915 0.0468
0.4405 0.8804 0.0317
0.5057 0.8676 0.0191
0.5745 0.8305 0.0073
0.6375 0.7971 0.0013
0.0000 1.0000 0.2042
0.0000 1.0000 0.2042
0.0000 1.0000 0.2042
0.0000 1.0000 0.2042
0.0000 1.0000 0.2042
0.0000 1.0000 0.1960
0.0000 1.0000 0.1798
0.0341 1.0000 0.1608
0.0959 0.9955 0.1412
0.1579 0.9877 0.1214
0.2203 0.9800 0.1018
0.2832 0.9721 0.0826
0.3462 0.9640 0.0648
0.4094 0.9559 0.0486
0.4753 0.9441 0.0334
0.5416 0.9299 0.0205
0.6109 0.8920 0.0084
0.0000 1.0000 0.2042
0.0000 1.0000 0.2042
0.0000 1.0000 0.2042
0.0000 1.0000 0.2042
0.0000 1.0000 0.2042
0.0000 1.0000 0.1999
0.0000 1.0000 0.1867
0.0074 1.0000 0.1711
0.0691 1.0000 0.1534
0.1312 1.0000 0.1350
0.1932 1.0000 0.1168
0.2555 1.0000 0.0988
0.3180 1.0000 0.0816
0.3808 1.0000 0.0653
0.4435 1.0000 0.0504
0.5106 1.0000 0.0350
0.5777 0.9919 0.0219
0.0012 0.0154 0.0541
0.0666 0.0000 0.0592
0.1076 0.0004 0.0402
0.1471 0.0001 0.0289
0.1865 0.0000 0.0177
0.2239 0.0000 0.0052
0.2591 0.0000 0.0060
0.2922 0.0000 0.0068
0.3233 0.0000 0.0075
0.3525 0.0000 0.0081
0.3796 0.0000 0.0088
0.4048 0.0000 0.0094
0.4280 0.0000 0.0099
0.4492 0.0000 0.0104
0.4684 0.0000 0.0108
0.4857 0.0000 0.0112
0.5104 0.0000 0.0118
0.0024 0.0619 0.0727
0.0625 0.0625 0.0625
0.1064 0.0405 0.0474
0.1464 0.0202 0.0334
0.1854 0.0004 0.0198
0.2229 0.0000 0.0079
0.2580 0.0000 0.0060
0.2911 0.0000 0.0067
0.3221 0.0000 0.0074
0.3512 0.0000 0.0081
0.3783 0.0000 0.0087
0.4034 0.0000 0.0093
0.4265 0.0000 0.0099
0.4476 0.0000 0.0103
0.4667 0.0000 0.0108
0.4839 0.0000 0.0112
0.5080 0.0000 0.0117
0.0000 0.1238 0.0816
0.0481 0.1245 0.0698
0.0994 0.1239 0.0488
0.1546 0.0974 0.0439
0.1920 0.0772 0.0356
0.2278 0.0584 0.0213
0.2625 0.0403 0.0099
0.2954 0.0230 0.0079
0.3272 0.0063 0.0076
0.3573 0.0000 0.0083
0.3857 0.0000 0.0089
0.4120 0.0000 0.0095
0.4363 0.0000 0.0101
0.4586 0.0000 0.0106
0.4790 0.0000 0.0111
0.4973 0.0000 0.0115
0.5136 0.0000 0.0119
0.0000 0.1875 0.0879
0.0318 0.1877 0.0760
0.0808 0.1875 0.0534
0.1366 0.1849 0.0368
0.1963 0.1570 0.0294
0.2420 0.1332 0.0314
0.2790 0.1130 0.0269
0.3103 0.0956 0.0226
0.3400 0.0793 0.0188
0.3692 0.0634 0.0153
0.3975 0.0479 0.0128
0.4245 0.0331 0.0113
0.4498 0.0189 0.0108
0.4734 0.0055 0.0109
0.4952 0.0000 0.0114
0.5152 0.0000 0.0119
0.5331 0.0000 0.0123
0.0000 0.2530 0.0919
0.0128 0.2525 0.0808
0.0613 0.2524 0.0573
0.1157 0.2502 0.0360
0.1736 0.2462 0.0233
0.2350 0.2176 0.0155
0.2864 0.1917 0.0178
0.3286 0.1692 0.0239
0.3626 0.1499 0.0309
0.3917 0.1330 0.0308
0.4193 0.1173 0.0278
0.4459 0.1022 0.0242
0.4715 0.0876 0.0209
0.4958 0.0737 0.0183
0.5187 0.0604 0.0163
0.5400 0.0479 0.0150
0.5595 0.0361 0.0142
0.0000 0.3201 0.0939
0.0000 0.3188 0.0843
0.0411 0.3179 0.0609
0.0939 0.3164 0.0368
0.1514 0.3127 0.0186
0.2105 0.3077 0.0094
0.2727 0.2783 0.0025
0.3272 0.2513 0.0080
0.3735 0.2273 0.0201
0.4119 0.2060 0.0311
0.4441 0.1873 0.0377
0.4718 0.1707 0.0386
0.4975 0.1554 0.0366
0.5219 0.1409 0.0335
0.5451 0.1271 0.0302
0.5670 0.1139 0.0271
0.5875 0.1015 0.0244
0.0000 0.3887 0.0939
0.0000 0.3864 0.0866
0.0188 0.3848 0.0631
0.0722 0.3827 0.0438
0.1280 0.3800 0.0277
0.1872 0.3752 0.0136
0.2470 0.3693 0.0041
0.3099 0.3393 0.0000
0.3662 0.3115 0.0051
0.4158 0.2863 0.0158
0.4578 0.2635 0.0277
0.4935 0.2431 0.0379
0.5241 0.2249 0.0444
0.5505 0.2087 0.0461
0.5745 0.1938 0.0450
0.5970 0.1798 0.0426
0.6180 0.1665 0.0396
0.0000 0.4587 0.0924
0.0000 0.4555 0.0917
0.0000 0.4526 0.0782
0.0499 0.4499 0.0618
0.1053 0.4469 0.0450
0.1625 0.4434 0.0290
0.2227 0.4378 0.0151
0.2832 0.4312 0.0053
0.3468 0.4003 0.0000
0.4044 0.3719 0.0030
0.4563 0.3458 0.0119
0.5015 0.3219 0.0235
0.5402 0.3001 0.0350
0.5736 0.2804 0.0444
0.6025 0.2627 0.0508
0.6276 0.2469 0.0531
0.6501 0.2323 0.0529
0.0000 0.5294 0.1066
0.0000 0.5258 0.1059
0.0000 0.5215 0.0967
0.0263 0.5181 0.0805
0.0818 0.5147 0.0634
0.1388 0.5110 0.0463
0.1970 0.5069 0.0305
0.2582 0.5005 0.0165
0.3193 0.4931 0.0066
0.3836 0.4615 0.0002
0.4423 0.4324 0.0016
0.4959 0.4057 0.0088
0.5434 0.3808 0.0194
0.5848 0.3579 0.0310
0.6208 0.3371 0.0418
0.6521 0.3181 0.0506
0.6794 0.3008 0.0569
0.0000 0.6015 0.1211
0.0000 0.5976 0.1203
0.0000 0.5917 0.1157
0.0010 0.5876 0.0997
0.0572 0.5837 0.0825
0.1142 0.5796 0.0648
0.1723 0.5753 0.0477
0.2316 0.5705 0.0319
0.2936 0.5633 0.0181
0.3554 0.5551 0.0080
0.4203 0.5228 0.0007
0.4798 0.4930 0.0007
0.5347 0.4658 0.0063
0.5842 0.4402 0.0156
0.6279 0.4163 0.0268
0.6662 0.3944 0.0381
0.6996 0.3744 0.0482
0.0000 0.6750 0.1359
0.0000 0.6707 0.1351
0.0000 0.6634 0.1336
0.0000 0.6584 0.1193
0.0310 0.6538 0.1022
0.0885 0.6493 0.0843
0.1467 0.6446 0.0664
0.2060 0.6395 0.0491
0.2662 0.6342 0.0335
0.3289 0.6263 0.0197
0.3913 0.6173 0.0093
0.4569 0.5842 0.0014
0.5173 0.5537 0.0002
0.5730 0.5261 0.0043
0.6241 0.4998 0.0124
0.6697 0.4752 0.0228
0.7101 0.4523 0.0340
0.0000 0.7464 0.1503
0.0000 0.7420 0.1494
0.0000 0.7371 0.1484
0.0000 0.7305 0.1395
0.0032 0.7253 0.1225
0.0613 0.7201 0.1046
0.1200 0.7149 0.0862
0.1795 0.7095 0.0680
0.2398 0.7039 0.0507
0.3008 0.6980 0.0351
0.3641 0.6894 0.0213
0.4272 0.6796 0.0107
0.4937 0.6456 0.0021
0.5544 0.6146 0.0000
0.6113 0.5865 0.0028
0.6634 0.5596 0.0097
0.7107 0.5343 0.0192
0.0000 0.8142 0.1639
0.0000 0.8098 0.1631
0.0000 0.8088 0.1628
0.0000 0.8040 0.1601
0.0000 0.7980 0.1431
0.0327 0.7921 0.1252
0.0920 0.7864 0.1067
0.1519 0.7805 0.0879
0.2124 0.7745 0.0695
0.2735 0.7683 0.0523
0.3352 0.7619 0.0367
0.3992 0.7526 0.0230
0.4630 0.7420 0.0121
0.5301 0.7072 0.0030
0.5915 0.6755 0.0000
0.6490 0.6470 0.0017
0.7024 0.6196 0.0075
0.0000 0.8819 0.1776
0.0000 0.8777 0.1767
0.0000 0.8767 0.1765
0.0000 0.8757 0.1763
0.0000 0.8720 0.1644
0.0023 0.8654 0.1466
0.0624 0.8591 0.1280
0.1229 0.8527 0.1088
0.1838 0.8462 0.0896
0.2453 0.8397 0.0712
0.3073 0.8329 0.0539
0.3696 0.8259 0.0385
0.4342 0.8159 0.0247
0.4987 0.8045 0.0136
0.5665 0.7688 0.0039
0.6288 0.7365 0.0001
0.6866 0.7076 0.0009
0.0000 0.9496 0.1912
0.0000 0.9456 0.1904
0.0000 0.9447 0.1902
0.0000 0.9438 0.1900
0.0000 0.9436 0.1841
0.0000 0.9400 0.1683
0.0313 0.9330 0.1497
0.0924 0.9260 0.1304
0.1539 0.9191 0.1109
0.2157 0.9121 0.0917
0.2780 0.9049 0.0731
0.3408 0.8976 0.0559
0.4038 0.8901 0.0404
0.4692 0.8794 0.0264
0.5344 0.8671 0.0150
0.6029 0.8306 0.0049
0.6657 0.7976 0.0004
0.0000 1.0000 0.2042
0.0000 1.0000 0.2041
0.0000 1.0000 0.2039
0.0000 1.0000 0.2038
0.0000 1.0000 0.2016
0.0000 1.0000 0.1885
0.0000 1.0000 0.1720
0.0604 1.0000 0.1525
0.1226 0.9931 0.1328
0.1850 0.9856 0.1130
0.2478 0.9780 0.0935
0.3110 0.9702 0.0749
0.3745 0.9624 0.0577
0.4380 0.9544 0.0423
0.5041 0.9429 0.0281
0.5702 0.9298 0.0165
0.6391 0.8925 0.0060
0.0000 1.0000 0.2042
0.0000 1.0000 0.2042
0.0000 1.0000 0.2042
0.0000 1.0000 0.2042
0.0000 1.0000 0.2042
0.0000 1.0000 0.1933
0.0000 1.0000 0.1797
0.0335 1.0000 0.1637
0.0955 1.0000 0.1456
0.1577 1.0000 0.1273
0.2204 1.0000 0.1088
0.2832 1.0000 0.0910
0.3462 1.0000 0.0741
0.4092 1.0000 0.0584
0.4722 1.0000 0.0441
0.5389 1.0000 0.0299
0.6062 0.9921 0.0178
0.0024 0.0306 0.1072
0.0277 0.0122 0.1128
0.1317 0.0000 0.1171
0.1729 0.0000 0.0979
0.2141 0.0007 0.0801
0.2516 0.0007 0.0675
0.2881 0.0003 0.0573
0.3234 0.0000 0.0468
0.3570 0.0000 0.0356
0.3887 0.0000 0.0237
0.4183 0.0000 0.0114
0.4457 0.0000 0.0103
0.4710 0.0000 0.0109
0.4943 0.0000 0.0114
0.5156 0.0000 0.0119
0.5350 0.0000 0.0124
0.5524 0.0000 0.0128
0.0055 0.0788 0.1265
0.0268 0.0783 0.1224
0.1291 0.0613 0.1216
0.1711 0.0407 0.1008
0.2107 0.0209 0.0829
0.2490 0.0016 0.0683
0.2854 0.0003 0.0587
0.3206 0.0000 0.0491
0.3540 0.0000 0.0391
0.3855 0.0000 0.0285
0.4150 0.0000 0.0176
0.4424 0.0000 0.0102
0.4676 0.0000 0.0108
0.4908 0.0000 0.0113
0.5120 0.0000 0.0118
0.5312 0.0000 0.0123
0.5485 0.0000 0.0127
0.0049 0.1238 0.1454
0.0625 0.1244 0.1356
0.1250 0.1250 0.1250
0.1689 0.1030 0.1099
0.2089 0.0827 0.0959
0.2479 0.0629 0.0823
0.2849 0.0440 0.0692
0.3199 0.0260 0.0568
0.3530 0.0089 0.0449
0.3842 0.0000 0.0343
0.4136 0.0000 0.0248
0.4410 0.0000 0.0152
0.4662 0.0000 0.0108
0.4893 0.0000 0.0113
0.5104 0.0000 0.0118
0.5295 0.0000 0.0122
0.5466 0.0000 0.0126
0.0000 0.1856 0.1551
0.0490 0.1860 0.1456
0.1106 0.1870 0.1323
0.1619 0.1864 0.1113
0.2171 0.1599 0.1064
0.2545 0.1397 0.0981
0.2903 0.1209 0.0838
0.3253 0.1027 0.0703
0.3589 0.0851 0.0580
0.3907 0.0682 0.0468
0.4208 0.0522 0.0366
0.4489 0.0371 0.0271
0.4751 0.0227 0.0185
0.4993 0.0093 0.0116
0.5214 0.0000 0.0121
0.5417 0.0000 0.0125
0.5601 0.0000 0.0129
0.0000 0.2494 0.1629
0.0320 0.2493 0.1536
0.0943 0.2502 0.1385
0.1433 0.2500 0.1159
0.1991 0.2474 0.0993
0.2588 0.2195 0.0919
0.3045 0.1957 0.0939
0.3415 0.1755 0.0894
0.3741 0.1575 0.0791
0.4052 0.1406 0.0675
0.4351 0.1243 0.0562
0.4635 0.1087 0.0457
0.4904 0.0939 0.0362
0.5155 0.0798 0.0276
0.5388 0.0666 0.0199
0.5600 0.0543 0.0161
0.5793 0.0429 0.0152
0.0000 0.3152 0.1685
0.0121 0.3144 0.1599
0.0753 0.3150 0.1433
0.1238 0.3149 0.1198
0.1782 0.3127 0.0985
0.2361 0.3087 0.0858
0.2975 0.2801 0.0780
0.3489 0.2542 0.0803
0.3916 0.2315 0.0819
0.4274 0.2116 0.0804
0.4585 0.1939 0.0739
0.4873 0.1775 0.0653
0.5145 0.1620 0.0560
0.5402 0.1472 0.0471
0.5644 0.1333 0.0388
0.5870 0.1200 0.0313
0.6077 0.1077 0.0259
0.0000 0.3826 0.1719
0.0000 0.3809 0.1648
0.0540 0.3813 0.1468
0.1036 0.3804 0.1234
0.1564 0.3789 0.0993
0.2139 0.3752 0.0811
0.2730 0.3702 0.0719
0.3352 0.3408 0.0650
0.3899 0.3138 0.0667
0.4369 0.2895 0.0695
0.4767 0.2677 0.0724
0.5111 0.2482 0.0731
0.5409 0.2308 0.0699
0.5678 0.2148 0.0642
0.5928 0.1999 0.0576
0.6161 0.1859 0.0507
0.6378 0.1727 0.0442
0.0000 0.4516 0.1733
0.0000 0.4489 0.1682
0.0303 0.4489 0.1491
0.0813 0.4473 0.1256
0.1344 0.4454 0.1014
0.1903 0.4426 0.0787
0.2499 0.4377 0.0636
0.3099 0.4318 0.0575
0.3728 0.4016 0.0523
0.4292 0.3738 0.0537
0.4794 0.3484 0.0564
0.5227 0.3253 0.0611
0.5600 0.3043 0.0654
0.5927 0.2853 0.0679
0.6211 0.2682 0.0675
0.6464 0.2526 0.0647
0.6694 0.2383 0.0607
0.0000 0.5221 0.1728
0.0000 0.5189 0.1677
0.0042 0.5181 0.1500
0.0567 0.5157 0.1264
0.1106 0.5131 0.1022
0.1667 0.5100 0.0787
0.2248 0.5062 0.0579
0.2858 0.5003 0.0458
0.3467 0.4934 0.0427
0.4102 0.4626 0.0395
0.4679 0.4341 0.0412
0.5202 0.4079 0.0434
0.5663 0.3837 0.0489
0.6064 0.3615 0.0552
0.6414 0.3413 0.0609
0.6722 0.3229 0.0651
0.6992 0.3061 0.0672
0.0000 0.5941 0.1704
0.0000 0.5905 0.1646
0.0000 0.5887 0.1496
0.0297 0.5854 0.1259
0.0849 0.5821 0.1015
0.1416 0.5785 0.0777
0.1999 0.5744 0.0558
0.2598 0.5698 0.0368
0.3218 0.5629 0.0276
0.3834 0.5553 0.0275
0.4476 0.5236 0.0265
0.5062 0.4944 0.0290
0.5600 0.4677 0.0308
0.6082 0.4427 0.0365
0.6508 0.4194 0.0441
0.6881 0.3982 0.0518
0.7208 0.3787 0.0589
0.0000 0.6676 0.1660
0.0000 0.6636 0.1594
0.0000 0.6607 0.1479
0.0004 0.6566 0.1240
0.0569 0.6526 0.0996
0.1145 0.6483 0.0765
0.1736 0.6437 0.0586
0.2337 0.6387 0.0418
0.2945 0.6334 0.0273
0.3576 0.6257 0.0148
0.4200 0.6172 0.0118
0.4849 0.5847 0.0133
0.5441 0.5550 0.0168
0.5993 0.5277 0.0185
0.6491 0.5019 0.0243
0.6937 0.4779 0.0325
0.7330 0.4557 0.0417
0.0000 0.7426 0.1595
0.0000 0.7383 0.1522
0.0000 0.7341 0.1478
0.0000 0.7288 0.1323
0.0286 0.7238 0.1148
0.0872 0.7188 0.0966
0.1466 0.7137 0.0781
0.2067 0.7084 0.0601
0.2675 0.7029 0.0436
0.3292 0.6970 0.0289
0.3930 0.6887 0.0164
0.4562 0.6793 0.0073
0.5220 0.6460 0.0008
0.5821 0.6155 0.0046
0.6379 0.5879 0.0062
0.6893 0.5615 0.0125
0.7353 0.5368 0.0224
0.0000 0.8147 0.1640
0.0000 0.8098 0.1631
0.0000 0.8054 0.1622
0.0000 0.8017 0.1531
0.0000 0.7960 0.1357
0.0584 0.7904 0.1174
0.1182 0.7849 0.0987
0.1786 0.7792 0.0799
0.2398 0.7733 0.0619
0.3016 0.7671 0.0453
0.3638 0.7607 0.0307
0.4282 0.7517 0.0181
0.4920 0.7416 0.0086
0.5585 0.7075 0.0014
0.6195 0.6763 0.0000
0.6762 0.6482 0.0032
0.7284 0.6214 0.0099
0.0000 0.8823 0.1777
0.0000 0.8776 0.1767
0.0000 0.8732 0.1758
0.0000 0.8726 0.1724
0.0000 0.8695 0.1569
0.0281 0.8633 0.1387
0.0886 0.8571 0.1198
0.1495 0.8510 0.1006
0.2109 0.8447 0.0817
0.2730 0.8382 0.0636
0.3355 0.8315 0.0470
0.3984 0.8246 0.0324
0.4634 0.8149 0.0197
0.5278 0.8040 0.0100
0.5952 0.7690 0.0021
0.6566 0.7373 0.0000
0.7140 0.7087 0.0020
0.0000 0.9500 0.1913
0.0000 0.9453 0.1903
0.0000 0.9411 0.1895
0.0000 0.9401 0.1893
0.0000 0.9408 0.1768
0.0000 0.9374 0.1606
0.0575 0.9306 0.1415
0.1190 0.9239 0.1220
0.1809 0.9171 0.1025
0.2433 0.9103 0.0835
0.3062 0.9032 0.0654
0.3695 0.8960 0.0488
0.4328 0.8886 0.0343
0.4985 0.8782 0.0214
0.5635 0.8665 0.0114
0.6316 0.8307 0.0029
0.6936 0.7983 0.0000
0.0000 1.0000 0.2042
0.0000 1.0000 0.2040
0.0000 1.0000 0.2032
0.0000 1.0000 0.2030
0.0000 1.0000 0.1944
0.0000 1.0000 0.1808
0.0246 1.0000 0.1639
0.0869 0.9981 0.1444
0.1494 0.9908 0.1245
0.2125 0.9834 0.1045
0.2757 0.9759 0.0853
0.3394 0.9684 0.0672
0.4033 0.9606 0.0507
0.4672 0.9527 0.0361
0.5335 0.9417 0.0231
0.5991 0.9292 0.0128
0.6679 0.8925 0.0038
0.0000 1.0000 0.2042
0.0000 1.0000 0.2042
0.0000 1.0000 0.2042
0.0000 1.0000 0.2042
0.0000 1.0000 0.1996
0.0000 1.0000 0.1865
0.0024 1.0000 0.1726
0.0597 1.0000 0.1560
0.1221 1.0000 0.1377
0.1848 1.0000 0.1193
0.2477 1.0000 0.1011
0.3109 1.0000 0.0835
0.3746 1.0000 0.0668
0.4380 1.0000 0.0516
0.5016 1.0000 0.0380
0.5684 1.0000 0.0248
0.6347 0.9919 0.0142
0.0037 0.0462 0.1619
0.0033 0.0247 0.1669
0.0968 0.0145 0.1744
0.1976 0.0000 0.1756
0.2384 0.0000 0.1561
0.2794 0.0004 0.1374
0.3212 0.0011 0.1201
0.3566 0.0012 0.1065
0.3909 0.0009 0.0955
0.4239 0.0004 0.0852
0.4553 0.0000 0.0749
0.4850 0.0000 0.0643
0.5129 0.0000 0.0535
0.5388 0.0000 0.0425
0.5626 0.0000 0.0313
0.5845 0.0000 0.0202
0.6042 0.0000 0.0140
0.0069 0.0943 0.1794
0.0069 0.0938 0.1788
0.0902 0.0747 0.1753
0.1942 0.0610 0.1795
0.2364 0.0403 0.1588
0.2786 0.0195 0.1388
0.3166 0.0010 0.1196
0.3520 0.0012 0.1067
0.3860 0.0010 0.0964
0.4188 0.0005 0.0869
0.4499 0.0000 0.0776
0.4794 0.0000 0.0681
0.5070 0.0000 0.0584
0.5327 0.0000 0.0486
0.5563 0.0000 0.0388
0.5780 0.0000 0.0291
