assets/luts/LUTs/JD_CATALINA.CUBE
TITLE "ColorFinale Export"
# Created by Jeven Dovey on 2021-05-21 19:18:44 +0000
# Color Finale Plugin v.2.3.3 (521)
LUT_3D_SIZE 5
0.0752 0.0706 0.0768
0.2339 0.0706 0.0768
0.4263 0.0706 0.0768
0.8155 0.0706 0.0768
1.0000 0.0706 0.0768
0.0758 0.2104 0.0772
0.2339 0.2108 0.0768
0.4263 0.2108 0.0768
0.8155 0.2108 0.0768
1.0000 0.2108 0.0768
0.0763 0.3772 0.0776
0.2339 0.3783 0.0768
0.4263 0.3783 0.0768
0.8155 0.3783 0.0768
1.0000 0.3783 0.0768
0.0768 0.7308 0.0780
0.2339 0.7335 0.0768
0.4263 0.7335 0.0768
0.8155 0.7335 0.0768
1.0000 0.7335 0.0768
0.0773 0.9763 0.0784
0.2339 0.9774 0.0768
0.4263 0.9774 0.0768
0.8155 0.9774 0.0768
1.0000 0.9774 0.0768
0.0752 0.0956 0.2132
0.2345 0.0706 0.2106
0.4263 0.0706 0.2101
0.8155 0.0706 0.2101
1.0000 0.0706 0.2101
0.0752 0.1934 0.1919
0.2339 0.2108 0.2101
0.4263 0.2108 0.2101
0.8155 0.2108 0.2101
1.0000 0.2108 0.2101
0.0752 0.3513 0.1932
0.2344 0.3777 0.2105
0.4263 0.3783 0.2101
0.8155 0.3783 0.2101
1.0000 0.3783 0.2101
0.0752 0.6788 0.1947
0.2349 0.7317 0.2109
0.4263 0.7335 0.2101
0.8155 0.7335 0.2101
1.0000 0.7335 0.2101
0.0752 0.9582 0.1962
0.2354 0.9765 0.2114
0.4263 0.9774 0.2101
0.8155 0.9774 0.2101
1.0000 0.9774 0.2101
0.0752 0.1324 0.3739
0.1997 0.0941 0.3674
0.4286 0.0706 0.3607
0.8155 0.0706 0.3591
1.0000 0.0706 0.3591
0.0752 0.2301 0.3374
0.1978 0.2467 0.3636
0.4274 0.2104 0.3599
0.8155 0.2108 0.3591
1.0000 0.2108 0.3591
0.0752 0.3294 0.3114
0.2165 0.3533 0.3346
0.4263 0.3783 0.3591
0.8155 0.3783 0.3591
1.0000 0.3783 0.3591
0.0752 0.6270 0.3138
0.2190 0.6821 0.3363
0.4272 0.7326 0.3598
0.8155 0.7335 0.3591
1.0000 0.7335 0.3591
0.0752 0.9381 0.3169
0.2207 0.9594 0.3382
0.4281 0.9768 0.3604
0.8155 0.9774 0.3591
1.0000 0.9774 0.3591
0.0752 0.1693 0.7299
0.1623 0.1299 0.7126
0.3732 0.0926 0.6927
0.8196 0.0706 0.6756
1.0000 0.0706 0.6708
0.0752 0.2669 0.6417
0.1592 0.2830 0.6997
0.3700 0.2453 0.6872
0.8182 0.2099 0.6740
1.0000 0.2108 0.6708
0.0752 0.3805 0.5670
0.1793 0.4098 0.6244
0.3673 0.4406 0.6798
0.8169 0.3776 0.6724
1.0000 0.3783 0.6708
0.0752 0.5795 0.5096
0.2020 0.6344 0.5635
0.3959 0.6863 0.6181
0.8155 0.7335 0.6708
1.0000 0.7335 0.6708
0.0752 0.9151 0.5171
0.2065 0.9404 0.5693
0.4000 0.9605 0.6218
0.8166 0.9771 0.6721
1.0000 0.9774 0.6708
0.0752 0.2061 0.9485
0.1223 0.1658 0.9485
0.3261 0.1273 0.9485
0.7431 0.0911 0.9485
1.0000 0.0706 0.9485
0.0752 0.3054 0.9481
0.1180 0.3229 0.9485
0.3216 0.2805 0.9485
0.7374 0.2438 0.9485
1.0000 0.2095 0.9485
0.0752 0.4466 0.9096
0.1396 0.4833 0.9371
0.3181 0.5214 0.9485
0.7316 0.4378 0.9485
1.0000 0.3770 0.9485
0.0752 0.6851 0.8670
0.1638 0.7374 0.9023
0.3422 0.7832 0.9299
0.7267 0.8217 0.9485
1.0000 0.7324 0.9485
0.0752 0.8920 0.8247
0.1906 0.9200 0.8664
0.3734 0.9432 0.9004
0.7746 0.9619 0.9272
1.0000 0.9774 0.9485
