assets/luts/LUTs/JD_Chaing_Mai.CUBE
TITLE "ColorFinale Export"
# Created by Jeven Dovey on 2021-07-15 17:39:56 +0000
# Color Finale Plugin v.2.3.2 (520)
LUT_3D_SIZE 5
0.0000 0.0000 0.0000
0.1278 0.0000 0.0088
0.4470 0.0000 0.0305
0.7979 0.0000 0.0540
1.0000 0.0000 0.0682
0.0000 0.1331 0.0000
0.1309 0.1304 0.0000
0.4506 0.1169 0.0286
0.8015 0.1164 0.0546
1.0000 0.1156 0.0699
0.0000 0.4578 0.0000
0.1261 0.4578 0.0000
0.4592 0.4483 0.0000
0.8405 0.4169 0.0515
1.0000 0.4101 0.0640
0.0000 0.7995 0.0000
0.1261 0.7995 0.0000
0.4411 0.7995 0.0000
0.8231 0.7827 0.0006
1.0000 0.7647 0.0249
0.0000 1.0000 0.0000
0.1261 1.0000 0.0000
0.4411 1.0000 0.0000
0.8014 0.9943 0.0000
1.0000 0.9785 0.0026
0.0000 0.0029 0.1349
0.1261 0.0000 0.1364
0.4406 0.0000 0.1488
0.7899 0.0000 0.1725
1.0000 0.0000 0.1869
0.0000 0.1364 0.1124
0.1254 0.1334 0.1347
0.4451 0.1310 0.1574
0.7962 0.1282 0.1811
1.0000 0.1263 0.1954
0.0000 0.4578 0.1364
0.1261 0.4578 0.1364
0.4529 0.4515 0.1354
0.8168 0.4235 0.1762
1.0000 0.4231 0.1936
0.0000 0.7995 0.1364
0.1261 0.7995 0.1364
0.4411 0.7995 0.1364
0.8164 0.7853 0.1364
1.0000 0.7667 0.1616
0.0000 1.0000 0.1364
0.1261 1.0000 0.1364
0.4411 1.0000 0.1364
0.7949 0.9969 0.1341
1.0000 0.9810 0.1382
0.0000 0.0099 0.4558
0.1252 0.0002 0.4611
0.4411 0.0000 0.4609
0.7878 0.0000 0.4609
0.9985 0.0000 0.4694
0.0000 0.1514 0.4269
0.1021 0.1407 0.4563
0.4411 0.1331 0.4609
0.7873 0.1331 0.4632
0.9983 0.1326 0.4773
0.0000 0.4688 0.3801
0.1191 0.4658 0.4022
0.4402 0.4584 0.4574
0.7921 0.4556 0.4834
1.0000 0.4539 0.4979
0.0060 0.8009 0.4296
0.1275 0.7997 0.4551
0.4411 0.7995 0.4609
0.8011 0.7923 0.4601
1.0000 0.7716 0.4905
0.0000 1.0000 0.4609
0.1261 1.0000 0.4609
0.4411 1.0000 0.4609
0.7878 1.0000 0.4609
1.0000 0.9873 0.4612
0.0000 0.0168 0.7778
0.1029 0.0068 0.7878
0.4411 0.0000 0.7864
0.7878 0.0000 0.7864
1.0000 0.0000 0.7864
0.0000 0.1584 0.7548
0.0798 0.1476 0.7783
0.4411 0.1331 0.7864
0.7878 0.1331 0.7864
1.0000 0.1331 0.7864
0.0000 0.4896 0.6717
0.0606 0.4861 0.6994
0.4147 0.4663 0.7804
0.7878 0.4578 0.7864
1.0000 0.4578 0.7864
0.0000 0.8175 0.6495
0.1147 0.8145 0.6716
0.4359 0.8071 0.7267
0.7878 0.7995 0.7864
1.0000 0.7968 0.8011
0.0047 1.0000 0.6704
0.1319 1.0000 0.6941
0.4461 1.0000 0.7556
0.7878 1.0000 0.7864
1.0000 0.9947 0.7863
0.0000 0.0211 0.9762
0.0893 0.0109 0.9875
0.4411 0.0000 0.9870
0.7878 0.0000 0.9870
1.0000 0.0000 0.9870
0.0000 0.1627 0.9547
0.0661 0.1519 0.9767
0.4411 0.1331 0.9870
0.7878 0.1331 0.9870
1.0000 0.1331 0.9870
0.0000 0.5010 0.8639
0.0266 0.4968 0.8933
0.4010 0.4705 0.9789
0.7878 0.4578 0.9870
1.0000 0.4578 0.9870
0.0000 0.8310 0.8159
0.0805 0.8280 0.8395
0.4005 0.8203 0.9011
0.7723 0.8045 0.9832
1.0000 0.7995 0.9870
0.0000 1.0000 0.8150
0.1108 1.0000 0.8370
0.4320 1.0000 0.8922
0.7854 1.0000 0.9529
1.0000 0.9997 0.9870
