assets/luts/LUTs/JD_COSTA RICA.CUBE
TITLE "ColorFinale Export"
# Created by Jeven Dovey on 2022-12-23 20:38:57 +0000
# Color Finale Plugin v.2.6.0 (537)
LUT_3D_SIZE 5
0.0000 0.0000 0.0000
0.1602 0.0000 0.0037
0.2884 0.0000 0.0067
0.3848 0.0000 0.0089
0.4749 0.0000 0.0110
0.0000 0.2557 0.0515
0.1461 0.2456 0.0050
0.3409 0.1462 0.0289
0.4507 0.0824 0.0197
0.5398 0.0293 0.0133
0.0000 0.5342 0.1076
0.0565 0.5151 0.0710
0.2909 0.4930 0.0103
0.5186 0.3786 0.0158
0.6583 0.2961 0.0547
0.0000 0.8143 0.1640
0.0000 0.8000 0.1505
0.1852 0.7758 0.0775
0.4344 0.7423 0.0161
0.6759 0.6180 0.0053
0.0000 1.0000 0.2042
0.0000 1.0000 0.2042
0.0691 1.0000 0.1534
0.3180 1.0000 0.0816
0.5777 0.9919 0.0219
0.0050 0.0620 0.2174
0.2634 0.0000 0.2341
0.4282 0.0014 0.1601
0.5541 0.0006 0.1126
0.6536 0.0000 0.0714
0.0098 0.2476 0.2908
0.2500 0.2500 0.2500
0.4099 0.1690 0.1942
0.5380 0.1024 0.1480
0.6343 0.0500 0.1111
0.0000 0.5086 0.3244
0.1790 0.5063 0.2718
0.3980 0.4952 0.1969
0.6017 0.3927 0.1974
0.7178 0.3249 0.1826
0.0000 0.7971 0.3272
0.0698 0.7857 0.2729
0.2984 0.7688 0.1778
0.5450 0.7422 0.1368
0.7741 0.6269 0.1493
0.0000 1.0000 0.3035
0.0000 1.0000 0.2616
0.1776 1.0000 0.1461
0.4319 1.0000 0.0731
0.6910 0.9910 0.0698
0.0116 0.1276 0.4472
0.1121 0.0486 0.4601
0.5269 0.0000 0.4683
0.6895 0.0000 0.3907
0.8564 0.0028 0.3202
0.0221 0.3160 0.5076
0.1067 0.3135 0.4907
0.5135 0.2471 0.4841
0.6821 0.1640 0.4027
0.8082 0.1015 0.3320
0.0195 0.4951 0.5815
0.2504 0.4973 0.5422
0.5000 0.5000 0.5000
0.6599 0.4190 0.4442
0.7880 0.3524 0.3980
0.0000 0.7617 0.6249
0.1712 0.7565 0.5841
0.4290 0.7563 0.5218
0.6480 0.7452 0.4469
0.8517 0.6427 0.4474
0.0000 0.9921 0.6285
0.0517 0.9965 0.5939
0.3230 1.0000 0.5175
0.5491 1.0000 0.4268
0.7950 0.9922 0.3868
0.0206 0.1979 0.6903
0.0209 0.1043 0.6973
0.3913 0.0548 0.7083
0.7903 0.0000 0.7024
0.9509 0.0000 0.6228
0.0300 0.3858 0.7395
0.0296 0.3805 0.7334
0.3621 0.2986 0.7101
0.7770 0.2441 0.7181
0.9435 0.1624 0.6344
0.0340 0.5638 0.7971
0.1134 0.5629 0.7818
0.3567 0.5635 0.7407
0.7635 0.4971 0.7341
0.9321 0.4140 0.6527
0.0293 0.7427 0.8723
0.2508 0.7446 0.8343
0.5004 0.7473 0.7922
0.7500 0.7500 0.7500
0.9099 0.6690 0.6942
0.0099 0.9801 0.9156
0.1620 0.9850 0.8822
0.4227 0.9936 0.8312
0.6793 1.0000 0.7714
0.8980 0.9952 0.6969
0.0318 0.2707 0.9378
0.0326 0.1736 0.9466
0.2304 0.0998 0.9463
0.6609 0.0506 0.9474
1.0000 0.0000 0.9301
0.0391 0.4585 0.9844
0.0386 0.4509 0.9757
0.2044 0.3530 0.9541
0.6413 0.3048 0.9583
1.0000 0.2412 0.9473
0.0455 0.6398 1.0000
0.0452 0.6345 1.0000
0.2053 0.6306 0.9951
0.6121 0.5486 0.9601
1.0000 0.4942 0.9649
0.0442 0.8103 1.0000
0.1168 0.8092 1.0000
0.3634 0.8129 1.0000
0.6067 0.8135 0.9907
1.0000 0.7471 0.9824
0.0384 0.9740 1.0000
0.2508 0.9798 1.0000
0.5005 0.9865 1.0000
0.7503 0.9933 1.0000
1.0000 1.0000 1.0000
