assets/luts/LUTs/JD_D-LOG_Conversion_5.CUBE
TITLE "ColorFinale Export"
# Created by Jeven Dovey on 2021-07-14 17:54:03 +0000
# Color Finale Plugin v.2.3.2 (520)
LUT_3D_SIZE 9
0.0000 0.0000 0.0000
0.0728 0.0000 0.0000
0.1845 0.0000 0.0000
0.3711 0.0000 0.0000
0.6402 0.0000 0.0000
0.8733 0.0000 0.0000
0.9877 0.0000 0.0000
1.0000 0.0000 0.0000
1.0000 0.0000 0.0000
0.0000 0.0649 0.0000
0.0570 0.0570 0.0000
0.1583 0.0494 0.0000
0.3285 0.0420 0.0000
0.5862 0.0349 0.0000
0.8396 0.0279 0.0000
0.9711 0.0210 0.0000
1.0000 0.0143 0.0000
1.0000 0.0076 0.0000
0.0000 0.1587 0.0000
0.0423 0.1464 0.0000
0.1346 0.1346 0.0000
0.2892 0.1234 0.0000
0.5320 0.1128 0.0000
0.8001 0.1026 0.0000
0.9530 0.0930 0.0000
1.0000 0.0837 0.0000
1.0000 0.0748 0.0000
0.0000 0.3094 0.0000
0.0284 0.2899 0.0000
0.1132 0.2711 0.0000
0.2531 0.2531 0.0000
0.4789 0.2359 0.0000
0.7550 0.2195 0.0000
0.9327 0.2038 0.0000
1.0000 0.1888 0.0000
1.0000 0.1746 0.0000
0.0000 0.5336 0.0000
0.0151 0.5066 0.0000
0.0937 0.4799 0.0000
0.2201 0.4537 0.0000
0.4282 0.4282 0.0000
0.7056 0.4036 0.0000
0.9092 0.3798 0.0000
1.0000 0.3568 0.0000
1.0000 0.3346 0.0000
0.0000 0.7799 0.0000
0.0020 0.7567 0.0000
0.0759 0.7321 0.0000
0.1900 0.7065 0.0000
0.3807 0.6801 0.0000
0.6529 0.6529 0.0000
0.8815 0.6250 0.0000
0.9927 0.5967 0.0000
1.0000 0.5680 0.0000
0.0000 0.9337 0.0000
0.0000 0.9224 0.0000
0.0593 0.9101 0.0000
0.1625 0.8967 0.0000
0.3362 0.8820 0.0000
0.5978 0.8661 0.0000
0.8486 0.8486 0.0000
0.9761 0.8293 0.0000
1.0000 0.8082 0.0000
0.0000 1.0000 0.0000
0.0000 1.0000 0.0000
0.0438 1.0000 0.0000
0.1374 0.9932 0.0000
0.2946 0.9850 0.0000
0.5413 0.9765 0.0000
0.8090 0.9675 0.0000
0.9580 0.9580 0.0000
1.0000 0.9478 0.0000
0.0000 1.0000 0.0000
0.0000 1.0000 0.0000
0.0289 1.0000 0.0000
0.1143 1.0000 0.0000
0.2558 1.0000 0.0000
0.4846 1.0000 0.0000
0.7623 1.0000 0.0000
0.9372 1.0000 0.0000
1.0000 1.0000 0.0000
0.0000 0.0000 0.0781
0.0696 0.0000 0.0696
0.1792 0.0000 0.0615
0.3626 0.0000 0.0537
0.6297 0.0000 0.0462
0.8672 0.0000 0.0389
0.9846 0.0000 0.0318
1.0000 0.0000 0.0248
1.0000 0.0000 0.0180
0.0000 0.0619 0.0619
0.0541 0.0541 0.0541
0.1535 0.0466 0.0466
0.3207 0.0393 0.0393
0.5757 0.0322 0.0322
0.8325 0.0253 0.0253
0.9678 0.0185 0.0185
1.0000 0.0117 0.0117
1.0000 0.0051 0.0051
0.0000 0.1539 0.0468
0.0396 0.1419 0.0396
0.1303 0.1303 0.0325
0.2820 0.1194 0.0256
0.5216 0.1089 0.0188
0.7918 0.0990 0.0121
0.9493 0.0894 0.0054
1.0000 0.0803 0.0000
1.0000 0.0716 0.0000
0.0000 0.3018 0.0327
0.0258 0.2827 0.0258
0.1093 0.2642 0.0190
0.2465 0.2465 0.0123
0.4690 0.2296 0.0057
0.7459 0.2135 0.0000
0.9284 0.1981 0.0000
1.0000 0.1834 0.0000
1.0000 0.1694 0.0000
0.0000 0.5233 0.0192
0.0126 0.4964 0.0126
0.0902 0.4699 0.0059
0.2141 0.4440 0.0000
0.4188 0.4188 0.0000
0.6957 0.3945 0.0000
0.9042 0.3711 0.0000
1.0000 0.3483 0.0000
1.0000 0.3264 0.0000
0.0000 0.7712 0.0060
0.0000 0.7475 0.0000
0.0726 0.7226 0.0000
0.1845 0.6966 0.0000
0.3719 0.6699 0.0000
0.6424 0.6424 0.0000
0.8756 0.6144 0.0000
0.9896 0.5859 0.0000
1.0000 0.5572 0.0000
0.0000 0.9295 0.0000
0.0000 0.9178 0.0000
0.0563 0.9051 0.0000
0.1575 0.8913 0.0000
0.3280 0.8762 0.0000
0.5870 0.8597 0.0000
0.8415 0.8415 0.0000
0.9728 0.8216 0.0000
1.0000 0.7998 0.0000
0.0000 1.0000 0.0000
0.0000 1.0000 0.0000
0.0409 0.9983 0.0000
0.1328 0.9902 0.0000
0.2870 0.9818 0.0000
0.5304 0.9731 0.0000
0.8006 0.9640 0.0000
0.9543 0.9543 0.0000
1.0000 0.9438 0.0000
0.0000 1.0000 0.0000
0.0000 1.0000 0.0000
0.0260 1.0000 0.0000
0.1100 1.0000 0.0000
0.2486 1.0000 0.0000
0.4739 1.0000 0.0000
0.7525 1.0000 0.0000
0.9328 1.0000 0.0000
1.0000 1.0000 0.0000
0.0000 0.0000 0.2025
0.0665 0.0000 0.1879
0.1740 0.0000 0.1740
0.3541 0.0000 0.1607
0.6192 0.0000 0.1482
0.8608 0.0000 0.1363
0.9814 0.0000 0.1250
1.0000 0.0000 0.1142
1.0000 0.0000 0.1040
0.0000 0.0588 0.1745
0.0512 0.0512 0.1614
0.1489 0.0438 0.1489
0.3129 0.0366 0.1369
0.5651 0.0296 0.1256
0.8250 0.0227 0.1148
0.9643 0.0159 0.1046
1.0000 0.0092 0.0948
1.0000 0.0025 0.0855
0.0000 0.1492 0.1492
0.0369 0.1374 0.1374
0.1261 0.1261 0.1261
0.2749 0.1153 0.1153
0.5113 0.1051 0.1051
0.7833 0.0953 0.0953
0.9455 0.0859 0.0859
1.0000 0.0770 0.0770
1.0000 0.0684 0.0684
0.0000 0.2944 0.1264
0.0232 0.2755 0.1157
0.1055 0.2574 0.1055
0.2400 0.2400 0.0957
0.4590 0.2234 0.0863
0.7364 0.2076 0.0774
0.9240 0.1925 0.0687
1.0000 0.1780 0.0604
1.0000 0.1642 0.0524
0.0000 0.5129 0.1057
0.0100 0.4862 0.0960
0.0867 0.4600 0.0867
0.2082 0.4343 0.0777
0.4095 0.4095 0.0691
0.6856 0.3856 0.0608
0.8990 0.3624 0.0527
1.0000 0.3399 0.0449
1.0000 0.3183 0.0372
0.0000 0.7622 0.0868
0.0000 0.7381 0.0780
0.0694 0.7128 0.0694
0.1791 0.6866 0.0611
0.3632 0.6596 0.0530
0.6319 0.6319 0.0452
0.8695 0.6037 0.0375
0.9864 0.5751 0.0299
1.0000 0.5462 0.0225
0.0000 0.9251 0.0695
0.0000 0.9131 0.0613
0.0532 0.9000 0.0532
0.1526 0.8857 0.0454
0.3199 0.8701 0.0378
0.5762 0.8530 0.0302
0.8342 0.8342 0.0228
0.9694 0.8136 0.0153
1.0000 0.7910 0.0078
0.0000 1.0000 0.0534
0.0000 1.0000 0.0456
0.0380 0.9952 0.0380
0.1283 0.9870 0.0305
0.2794 0.9786 0.0230
0.5195 0.9697 0.0156
0.7919 0.9604 0.0081
0.9504 0.9504 0.0005
1.0000 0.9396 0.0000
0.0000 1.0000 0.0381
0.0000 1.0000 0.0306
0.0232 1.0000 0.0232
0.1058 1.0000 0.0158
0.2415 1.0000 0.0084
0.4631 1.0000 0.0008
0.7425 1.0000 0.0000
0.9282 1.0000 0.0000
1.0000 1.0000 0.0000
0.0000 0.0000 0.4150
0.0634 0.0000 0.3910
0.1688 0.0000 0.3679
0.3457 0.0000 0.3457
0.6086 0.0000 0.3245
0.8542 0.0000 0.3041
0.9781 0.0000 0.2846
1.0000 0.0000 0.2659
1.0000 0.0000 0.2481
0.0000 0.0559 0.3689
0.0483 0.0483 0.3469
0.1442 0.0410 0.3256
0.3052 0.0339 0.3052
0.5545 0.0269 0.2857
0.8173 0.0201 0.2670
0.9608 0.0134 0.2492
1.0000 0.0067 0.2321
1.0000 0.0000 0.2158
0.0000 0.1446 0.3263
0.0342 0.1330 0.3060
0.1219 0.1219 0.2865
0.2679 0.1114 0.2679
0.5009 0.1013 0.2500
0.7745 0.0917 0.2329
0.9416 0.0825 0.2166
1.0000 0.0737 0.2011
1.0000 0.0652 0.1862
0.0000 0.2870 0.2870
0.0206 0.2685 0.2685
0.1017 0.2507 0.2507
0.2336 0.2336 0.2336
0.4492 0.2173 0.2173
0.7269 0.2018 0.2018
0.9195 0.1869 0.1869
1.0000 0.1727 0.1727
1.0000 0.1592 0.1592
0.0000 0.5026 0.2511
0.0075 0.4761 0.2341
0.0832 0.4501 0.2179
0.2023 0.4248 0.2023
0.4003 0.4003 0.1875
0.6754 0.3766 0.1733
0.8937 0.3538 0.1597
0.9994 0.3317 0.1468
1.0000 0.3103 0.1344
0.0000 0.7531 0.2182
0.0000 0.7286 0.2028
0.0662 0.7029 0.1880
0.1738 0.6764 0.1738
0.3546 0.6491 0.1603
0.6212 0.6212 0.1473
0.8632 0.5929 0.1349
0.9832 0.5642 0.1230
1.0000 0.5353 0.1115
0.0000 0.9206 0.1882
0.0000 0.9082 0.1742
0.0502 0.8947 0.1607
0.1477 0.8799 0.1477
0.3119 0.8638 0.1353
0.5653 0.8460 0.1234
0.8266 0.8266 0.1120
0.9659 0.8052 0.1010
1.0000 0.7820 0.0904
0.0000 1.0000 0.1609
0.0000 1.0000 0.1480
0.0351 0.9921 0.1357
0.1238 0.9838 0.1238
0.2719 0.9753 0.1124
0.5085 0.9663 0.1014
0.7829 0.9567 0.0908
0.9464 0.9464 0.0805
1.0000 0.9352 0.0706
0.0000 1.0000 0.1359
0.0000 1.0000 0.1241
0.0204 1.0000 0.1127
0.1017 1.0000 0.1017
0.2345 1.0000 0.0911
0.4523 1.0000 0.0809
0.7322 1.0000 0.0709
0.9234 1.0000 0.0613
1.0000 1.0000 0.0518
0.0000 0.0000 0.7070
0.0604 0.0000 0.6806
0.1638 0.0000 0.6534
0.3375 0.0000 0.6258
0.5980 0.0000 0.5980
0.8474 0.0000 0.5701
0.9748 0.0000 0.5423
1.0000 0.0000 0.5148
1.0000 0.0000 0.4877
0.0000 0.0529 0.6546
0.0455 0.0455 0.6272
0.1397 0.0383 0.5995
0.2977 0.0312 0.5717
0.5440 0.0243 0.5440
0.8094 0.0175 0.5165
0.9572 0.0108 0.4894
1.0000 0.0041 0.4629
1.0000 0.0000 0.4370
0.0000 0.1401 0.6004
0.0315 0.1287 0.5728
0.1178 0.1178 0.5452
0.2610 0.1075 0.5177
0.4907 0.0976 0.4907
0.7656 0.0881 0.4642
0.9375 0.0791 0.4383
1.0000 0.0704 0.4133
1.0000 0.0620 0.3892
0.0000 0.2798 0.5459
0.0181 0.2616 0.5187
0.0980 0.2441 0.4917
0.2273 0.2273 0.4653
0.4394 0.2113 0.4394
0.7171 0.1960 0.4144
0.9148 0.1814 0.3903
1.0000 0.1675 0.3669
1.0000 0.1542 0.3443
0.0000 0.4923 0.4923
0.0049 0.4661 0.4661
0.0798 0.4403 0.4403
0.1966 0.4154 0.4154
0.3912 0.3912 0.3912
0.6651 0.3679 0.3679
0.8882 0.3453 0.3453
0.9963 0.3234 0.3234
1.0000 0.3023 0.3023
0.0000 0.7438 0.4408
0.0000 0.7188 0.4161
0.0630 0.6929 0.3920
0.1686 0.6660 0.3687
0.3461 0.6385 0.3461
0.6105 0.6105 0.3243
0.8566 0.5820 0.3032
0.9800 0.5532 0.2827
1.0000 0.5243 0.2630
0.0000 0.9159 0.3924
0.0000 0.9032 0.3693
0.0473 0.8892 0.3468
0.1429 0.8739 0.3250
0.3039 0.8572 0.3039
0.5543 0.8389 0.2835
0.8187 0.8187 0.2638
0.9624 0.7966 0.2447
1.0000 0.7727 0.2263
0.0000 1.0000 0.3472
0.0000 0.9971 0.3256
0.0322 0.9890 0.3045
0.1194 0.9806 0.2841
0.2644 0.9719 0.2644
0.4976 0.9627 0.2454
0.7736 0.9529 0.2270
0.9423 0.9423 0.2092
1.0000 0.9307 0.1921
0.0000 1.0000 0.3048
0.0000 1.0000 0.2846
0.0176 1.0000 0.2650
0.0976 1.0000 0.2460
0.2276 1.0000 0.2276
0.4416 1.0000 0.2098
0.7217 1.0000 0.1927
0.9185 1.0000 0.1763
1.0000 1.0000 0.1604
0.0000 0.0000 0.9172
0.0574 0.0000 0.9043
0.1589 0.0000 0.8902
0.3294 0.0000 0.8749
0.5874 0.0000 0.8584
0.8404 0.0000 0.8404
0.9715 0.0000 0.8210
1.0000 0.0000 0.7999
1.0000 0.0000 0.7775
0.0000 0.0500 0.8908
0.0427 0.0427 0.8758
0.1353 0.0355 0.8593
0.2903 0.0286 0.8415
0.5335 0.0217 0.8222
0.8013 0.0150 0.8013
0.9536 0.0083 0.7789
1.0000 0.0016 0.7553
1.0000 0.0000 0.7305
0.0000 0.1356 0.8599
0.0288 0.1245 0.8423
0.1138 0.1138 0.8230
0.2542 0.1036 0.8023
0.4805 0.0939 0.7800
0.7565 0.0847 0.7565
0.9333 0.0757 0.7318
1.0000 0.0672 0.7061
1.0000 0.0589 0.6795
0.0000 0.2727 0.8236
0.0155 0.2548 0.8030
0.0943 0.2376 0.7809
0.2211 0.2211 0.7575
0.4298 0.2054 0.7329
0.7073 0.1904 0.7073
0.9100 0.1761 0.6807
1.0000 0.1624 0.6535
1.0000 0.1493 0.6256
0.0000 0.4821 0.7814
0.0024 0.4561 0.7582
0.0764 0.4307 0.7338
0.1909 0.4061 0.7082
0.3822 0.3822 0.6818
0.6546 0.3592 0.6546
0.8825 0.3369 0.6268
0.9932 0.3153 0.5985
1.0000 0.2945 0.5699
0.0000 0.7343 0.7343
0.0000 0.7090 0.7090
0.0599 0.6827 0.6827
0.1634 0.6556 0.6556
0.3377 0.6279 0.6279
0.5997 0.5997 0.5997
0.8498 0.5710 0.5710
0.9767 0.5422 0.5422
1.0000 0.5133 0.5133
0.0000 0.9112 0.6832
0.0000 0.8980 0.6564
0.0443 0.8835 0.6288
0.1382 0.8677 0.6006
0.2960 0.8504 0.5721
0.5433 0.8314 0.5433
0.8105 0.8105 0.5144
0.9587 0.7877 0.4856
1.0000 0.7631 0.4570
0.0000 1.0000 0.6292
0.0000 0.9940 0.6013
0.0294 0.9858 0.5729
0.1150 0.9773 0.5442
0.2571 0.9685 0.5154
0.4866 0.9590 0.4866
0.7640 0.9489 0.4581
0.9380 0.9380 0.4300
1.0000 0.9260 0.4025
0.0000 1.0000 0.5734
0.0000 1.0000 0.5449
0.0147 1.0000 0.5162
0.0936 1.0000 0.4875
0.2207 1.0000 0.4590
0.4310 1.0000 0.4310
0.7109 1.0000 0.4035
0.9133 1.0000 0.3766
1.0000 1.0000 0.3504
0.0000 0.0000 1.0000
0.0544 0.0000 1.0000
0.1540 0.0000 1.0000
0.3214 0.0000 0.9937
0.5767 0.0000 0.9854
0.8332 0.0000 0.9769
0.9681 0.0000 0.9681
1.0000 0.0000 0.9589
1.0000 0.0000 0.9492
0.0000 0.0472 1.0000
0.0399 0.0399 0.9941
0.1309 0.0329 0.9859
0.2829 0.0259 0.9774
0.5230 0.0191 0.9686
0.7929 0.0124 0.9595
0.9498 0.0057 0.9498
1.0000 0.0000 0.9395
1.0000 0.0000 0.9285
0.0000 0.1312 0.9861
0.0262 0.1203 0.9777
0.1099 0.1099 0.9690
0.2475 0.0999 0.9599
0.4704 0.0903 0.9503
0.7472 0.0812 0.9401
0.9291 0.0724 0.9291
1.0000 0.0640 0.9172
1.0000 0.0558 0.9044
0.0000 0.2657 0.9693
0.0129 0.2481 0.9602
0.0907 0.2312 0.9507
0.2150 0.2150 0.9405
0.4203 0.1996 0.9296
0.6972 0.1848 0.9178
0.9050 0.1708 0.9050
1.0000 0.1573 0.8911
1.0000 0.1445 0.8759
0.0000 0.4720 0.9509
0.0000 0.4463 0.9408
0.0731 0.4212 0.9299
0.1854 0.3968 0.9182
0.3733 0.3733 0.9055
0.6441 0.3506 0.8917
0.8766 0.3286 0.8766
0.9901 0.3073 0.8601
1.0000 0.2867 0.8419
0.0000 0.7246 0.9302
0.0000 0.6990 0.9186
0.0568 0.6724 0.9059
0.1583 0.6451 0.8922
0.3294 0.6172 0.8772
0.5888 0.5888 0.8607
0.8427 0.5601 0.8427
0.9734 0.5312 0.8229
1.0000 0.5023 0.8012
0.0000 0.9062 0.9062
0.0000 0.8926 0.8926
0.0414 0.8776 0.8776
0.1336 0.8613 0.8613
0.2883 0.8434 0.8434
0.5323 0.8237 0.8237
0.8021 0.8021 0.8021
0.9549 0.7785 0.7785
1.0000 0.7532 0.7532
0.0000 0.9990 0.8779
0.0000 0.9909 0.8617
0.0265 0.9826 0.8439
0.1107 0.9740 0.8243
0.2498 0.9649 0.8028
0.4757 0.9553 0.7794
0.7542 0.9449 0.7542
0.9336 0.9336 0.7273
1.0000 0.9211 0.6988
0.0000 1.0000 0.8442
0.0000 1.0000 0.8248
0.0119 1.0000 0.8035
0.0896 1.0000 0.7802
0.2140 1.0000 0.7551
0.4204 1.0000 0.7283
0.6999 1.0000 0.6999
0.9079 1.0000 0.6700
1.0000 1.0000 0.6387
0.0000 0.0000 1.0000
0.0515 0.0000 1.0000
0.1493 0.0000 1.0000
0.3136 0.0000 1.0000
0.5661 0.0000 1.0000
0.8257 0.0000 1.0000
0.9646 0.0000 1.0000
1.0000 0.0000 1.0000
1.0000 0.0000 1.0000
0.0000 0.0443 1.0000
0.0372 0.0372 1.0000
0.1266 0.0302 1.0000
0.2758 0.0233 1.0000
0.5126 0.0166 1.0000
0.7843 0.0098 1.0000
0.9460 0.0032 1.0000
1.0000 0.0000 1.0000
1.0000 0.0000 1.0000
0.0000 0.1269 1.0000
0.0236 0.1162 1.0000
0.1060 0.1060 1.0000
0.2409 0.0962 1.0000
0.4604 0.0868 1.0000
0.7377 0.0778 1.0000
0.9247 0.0692 1.0000
1.0000 0.0608 1.0000
1.0000 0.0528 1.0000
0.0000 0.2588 1.0000
0.0104 0.2415 1.0000
0.0872 0.2249 1.0000
0.2090 0.2090 1.0000
0.4109 0.1939 1.0000
0.6871 0.1794 1.0000
0.8998 0.1656 1.0000
1.0000 0.1523 1.0000
1.0000 0.1397 0.9948
0.0000 0.4620 1.0000
0.0000 0.4365 1.0000
0.0698 0.4117 1.0000
0.1799 0.3877 1.0000
0.3645 0.3645 1.0000
0.6335 0.3421 1.0000
0.8704 0.3204 0.9952
0.9869 0.2994 0.9869
1.0000 0.2791 0.9784
0.0000 0.7148 1.0000
0.0000 0.6889 1.0000
0.0537 0.6620 1.0000
0.1533 0.6345 1.0000
0.3212 0.6064 0.9955
0.5779 0.5779 0.9872
0.8354 0.5491 0.9788
0.9699 0.5202 0.9699
1.0000 0.4913 0.9606
0.0000 0.9011 1.0000
0.0000 0.8870 1.0000
0.0385 0.8716 0.9957
0.1290 0.8546 0.9875
0.2806 0.8361 0.9791
0.5212 0.8156 0.9703
0.7933 0.7933 0.9610
0.9510 0.7691 0.9510
1.0000 0.7432 0.9403
0.0000 0.9959 0.9959
0.0000 0.9877 0.9877
0.0237 0.9793 0.9793
0.1065 0.9706 0.9706
0.2427 0.9613 0.9613
0.4648 0.9514 0.9514
0.7442 0.9407 0.9407
0.9290 0.9290 0.9290
1.0000 0.9161 0.9161
0.0000 1.0000 0.9795
0.0000 1.0000 0.9708
0.0090 1.0000 0.9616
0.0857 1.0000 0.9517
0.2073 1.0000 0.9411
0.4100 1.0000 0.9294
0.6887 1.0000 0.9165
0.9023 1.0000 0.9023
1.0000 1.0000 0.8863
0.0000 0.0000 1.0000
0.0486 0.0000 1.0000
0.1446 0.0000 1.0000
0.3059 0.0000 1.0000
0.5555 0.0000 1.0000
0.8180 0.0000 1.0000
0.9611 0.0000 1.0000
1.0000 0.0000 1.0000
1.0000 0.0000 1.0000
0.0000 0.0416 1.0000
0.0345 0.0345 1.0000
0.1224 0.0275 1.0000
0.2687 0.0207 1.0000
0.5022 0.0140 1.0000
0.7756 0.0073 1.0000
0.9420 0.0006 1.0000
1.0000 0.0000 1.0000
1.0000 0.0000 1.0000
0.0000 0.1228 1.0000
0.0210 0.1122 1.0000
0.1022 0.1022 1.0000
0.2344 0.0925 1.0000
0.4505 0.0833 1.0000
0.7281 0.0745 1.0000
0.9201 0.0660 1.0000
1.0000 0.0577 1.0000
1.0000 0.0498 1.0000
0.0000 0.2520 1.0000
0.0078 0.2350 1.0000
0.0837 0.2187 1.0000
0.2031 0.2031 1.0000
0.4016 0.1882 1.0000
0.6769 0.1740 1.0000
0.8945 0.1604 1.0000
0.9999 0.1475 1.0000
1.0000 0.1350 1.0000
0.0000 0.4520 1.0000
0.0000 0.4269 1.0000
0.0666 0.4025 1.0000
0.1746 0.3788 1.0000
0.3559 0.3559 1.0000
0.6228 0.3337 1.0000
0.8641 0.3123 1.0000
0.9837 0.2915 1.0000
1.0000 0.2715 1.0000
0.0000 0.7049 1.0000
0.0000 0.6787 1.0000
0.0507 0.6515 1.0000
0.1484 0.6238 1.0000
0.3131 0.5955 1.0000
0.5669 0.5669 1.0000
0.8278 0.5380 1.0000
0.9665 0.5092 1.0000
1.0000 0.4804 1.0000
0.0000 0.8958 1.0000
0.0000 0.8812 1.0000
0.0356 0.8653 1.0000
0.1245 0.8477 1.0000
0.2730 0.8285 1.0000
0.5102 0.8073 1.0000
0.7843 0.7843 1.0000
0.9470 0.7594 1.0000
1.0000 0.7328 1.0000
0.0000 0.9927 1.0000
0.0000 0.9845 1.0000
0.0208 0.9760 1.0000
0.1024 0.9671 1.0000
0.2356 0.9576 1.0000
0.4540 0.9474 1.0000
0.7339 0.9364 1.0000
0.9242 0.9242 1.0000
1.0000 0.9108 1.0000
0.0000 1.0000 1.0000
0.0000 1.0000 1.0000
0.0062 1.0000 1.0000
0.0818 1.0000 1.0000
0.2008 1.0000 1.0000
0.3996 1.0000 1.0000
0.6772 1.0000 1.0000
0.8964 1.0000 1.0000
1.0000 1.0000 1.0000
