assets/luts/LUTs/JD_D-LOG_Conversion_2.CUBE
TITLE "ColorFinale Export"
# Created by Jeven Dovey on 2021-12-03 18:55:52 +0000
# Color Finale Plugin v.2.4.5 (531)
LUT_3D_SIZE 9
0.0000 0.0000 0.0000
0.0690 0.0000 0.0000
0.1943 0.0000 0.0000
0.4304 0.0000 0.0000
0.7411 0.0000 0.0000
1.0000 0.0000 0.0000
1.0000 0.0000 0.0000
1.0000 0.0000 0.0000
1.0000 0.0000 0.0000
0.0000 0.0640 0.0000
0.0588 0.0588 0.0000
0.1838 0.0498 0.0000
0.4196 0.0335 0.0000
0.7305 0.0125 0.0000
1.0000 0.0000 0.0000
1.0000 0.0000 0.0000
1.0000 0.0000 0.0000
1.0000 0.0000 0.0000
0.0000 0.1802 0.0000
0.0412 0.1749 0.0000
0.1656 0.1656 0.0000
0.4009 0.1487 0.0000
0.7122 0.1265 0.0000
1.0000 0.1049 0.0000
1.0000 0.0958 0.0000
1.0000 0.0932 0.0000
1.0000 0.0915 0.0000
0.0000 0.3991 0.0000
0.0097 0.3936 0.0000
0.1324 0.3842 0.0000
0.3668 0.3668 0.0000
0.6783 0.3440 0.0000
0.9756 0.3217 0.0000
1.0000 0.3123 0.0000
1.0000 0.3096 0.0000
1.0000 0.3078 0.0000
0.0000 0.6886 0.0000
0.0000 0.6832 0.0000
0.0892 0.6738 0.0000
0.3221 0.6565 0.0000
0.6338 0.6338 0.0000
0.9333 0.6115 0.0000
1.0000 0.6021 0.0000
1.0000 0.5994 0.0000
1.0000 0.5976 0.0000
0.0000 0.9652 0.0000
0.0000 0.9600 0.0000
0.0474 0.9511 0.0000
0.2785 0.9345 0.0000
0.5900 0.9127 0.0000
0.8911 0.8911 0.0000
1.0000 0.8819 0.0000
1.0000 0.8793 0.0000
1.0000 0.8775 0.0000
0.0000 1.0000 0.0000
0.0000 1.0000 0.0000
0.0301 1.0000 0.0000
0.2601 1.0000 0.0000
0.5715 1.0000 0.0000
0.8731 1.0000 0.0000
0.9956 0.9956 0.0000
1.0000 0.9932 0.0000
1.0000 0.9915 0.0000
0.0000 1.0000 0.0000
0.0000 1.0000 0.0000
0.0252 1.0000 0.0000
0.2549 1.0000 0.0000
0.5662 1.0000 0.0000
0.8680 1.0000 0.0000
0.9908 1.0000 0.0000
1.0000 1.0000 0.0000
1.0000 1.0000 0.0000
0.0000 1.0000 0.0000
0.0000 1.0000 0.0000
0.0218 1.0000 0.0000
0.2513 1.0000 0.0000
0.5625 1.0000 0.0000
0.8645 1.0000 0.0000
0.9875 1.0000 0.0000
1.0000 1.0000 0.0000
1.0000 1.0000 0.0000
0.0000 0.0000 0.0722
0.0670 0.0000 0.0670
0.1923 0.0000 0.0580
0.4283 0.0000 0.0416
0.7391 0.0000 0.0204
1.0000 0.0000 0.0004
1.0000 0.0000 0.0000
1.0000 0.0000 0.0000
1.0000 0.0000 0.0000
0.0000 0.0620 0.0620
0.0568 0.0568 0.0568
0.1818 0.0479 0.0479
0.4175 0.0316 0.0316
0.7285 0.0106 0.0106
1.0000 0.0000 0.0000
1.0000 0.0000 0.0000
1.0000 0.0000 0.0000
1.0000 0.0000 0.0000
0.0000 0.1782 0.0444
0.0393 0.1728 0.0393
0.1636 0.1636 0.0304
0.3988 0.1466 0.0144
0.7101 0.1245 0.0000
1.0000 0.1029 0.0000
1.0000 0.0938 0.0000
1.0000 0.0912 0.0000
1.0000 0.0895 0.0000
0.0000 0.3970 0.0128
0.0079 0.3916 0.0079
0.1304 0.3821 0.0000
0.3647 0.3647 0.0000
0.6762 0.3419 0.0000
0.9737 0.3196 0.0000
1.0000 0.3102 0.0000
1.0000 0.3076 0.0000
1.0000 0.3057 0.0000
0.0000 0.6866 0.0000
0.0000 0.6811 0.0000
0.0872 0.6717 0.0000
0.3201 0.6544 0.0000
0.6318 0.6318 0.0000
0.9313 0.6095 0.0000
1.0000 0.6000 0.0000
1.0000 0.5973 0.0000
1.0000 0.5955 0.0000
0.0000 0.9632 0.0000
0.0000 0.9581 0.0000
0.0455 0.9491 0.0000
0.2764 0.9325 0.0000
0.5879 0.9107 0.0000
0.8891 0.8891 0.0000
1.0000 0.8799 0.0000
1.0000 0.8773 0.0000
1.0000 0.8755 0.0000
0.0000 1.0000 0.0000
0.0000 1.0000 0.0000
0.0281 1.0000 0.0000
0.2581 1.0000 0.0000
0.5694 1.0000 0.0000
0.8711 1.0000 0.0000
0.9937 0.9937 0.0000
1.0000 0.9913 0.0000
1.0000 0.9896 0.0000
0.0000 1.0000 0.0000
0.0000 1.0000 0.0000
0.0233 1.0000 0.0000
0.2528 1.0000 0.0000
0.5641 1.0000 0.0000
0.8660 1.0000 0.0000
0.9889 1.0000 0.0000
1.0000 1.0000 0.0000
1.0000 1.0000 0.0000
0.0000 1.0000 0.0000
0.0000 1.0000 0.0000
0.0199 1.0000 0.0000
0.2492 1.0000 0.0000
0.5604 1.0000 0.0000
0.8624 1.0000 0.0000
0.9856 1.0000 0.0000
1.0000 1.0000 0.0000
1.0000 1.0000 0.0000
0.0000 0.0000 0.2034
0.0636 0.0000 0.1981
0.1888 0.0000 0.1888
0.4246 0.0000 0.1717
0.7355 0.0000 0.1495
1.0000 0.0000 0.1278
1.0000 0.0000 0.1186
1.0000 0.0000 0.1160
1.0000 0.0000 0.1142
0.0000 0.0586 0.1929
0.0534 0.0534 0.1875
0.1782 0.0445 0.1782
0.4139 0.0282 0.1612
0.7249 0.0074 0.1391
1.0000 0.0000 0.1174
1.0000 0.0000 0.1083
1.0000 0.0000 0.1057
1.0000 0.0000 0.1039
0.0000 0.1747 0.1747
0.0359 0.1693 0.1693
0.1601 0.1601 0.1601
0.3952 0.1431 0.1431
0.7065 0.1210 0.1210
1.0000 0.0994 0.0994
1.0000 0.0903 0.0903
1.0000 0.0878 0.0878
1.0000 0.0860 0.0860
0.0000 0.3934 0.1414
0.0047 0.3879 0.1360
0.1269 0.3785 0.1269
0.3611 0.3611 0.1100
0.6727 0.3383 0.0881
0.9703 0.3160 0.0668
1.0000 0.3066 0.0578
1.0000 0.3040 0.0552
1.0000 0.3021 0.0535
0.0000 0.6830 0.0981
0.0000 0.6775 0.0928
0.0838 0.6681 0.0838
0.3165 0.6509 0.0672
0.6282 0.6282 0.0456
0.9279 0.6059 0.0247
1.0000 0.5964 0.0160
1.0000 0.5937 0.0136
1.0000 0.5919 0.0119
0.0000 0.9598 0.0562
0.0000 0.9547 0.0510
0.0421 0.9457 0.0421
0.2729 0.9291 0.0259
0.5843 0.9072 0.0052
0.8856 0.8856 0.0000
1.0000 0.8764 0.0000
1.0000 0.8738 0.0000
1.0000 0.8720 0.0000
0.0000 1.0000 0.0387
0.0000 1.0000 0.0336
0.0248 1.0000 0.0248
0.2545 1.0000 0.0089
0.5658 1.0000 0.0000
0.8676 0.9989 0.0000
0.9905 0.9905 0.0000
1.0000 0.9880 0.0000
1.0000 0.9863 0.0000
0.0000 1.0000 0.0338
0.0000 1.0000 0.0287
0.0199 1.0000 0.0199
0.2493 1.0000 0.0042
0.5605 1.0000 0.0000
0.8625 1.0000 0.0000
0.9856 1.0000 0.0000
1.0000 1.0000 0.0000
1.0000 1.0000 0.0000
0.0000 1.0000 0.0304
0.0000 1.0000 0.0253
0.0166 1.0000 0.0166
0.2457 1.0000 0.0011
0.5568 1.0000 0.0000
0.8589 1.0000 0.0000
0.9823 1.0000 0.0000
1.0000 1.0000 0.0000
1.0000 1.0000 0.0000
0.0000 0.0000 0.4505
0.0573 0.0000 0.4450
0.1823 0.0000 0.4354
0.4180 0.0000 0.4180
0.7290 0.0000 0.3951
1.0000 0.0000 0.3728
1.0000 0.0000 0.3633
1.0000 0.0000 0.3606
1.0000 0.0000 0.3588
0.0000 0.0523 0.4397
0.0471 0.0471 0.4342
0.1718 0.0382 0.4247
0.4072 0.0221 0.4072
0.7184 0.0016 0.3844
1.0000 0.0000 0.3620
1.0000 0.0000 0.3526
1.0000 0.0000 0.3499
1.0000 0.0000 0.3481
0.0000 0.1682 0.4210
0.0297 0.1628 0.4155
0.1536 0.1536 0.4060
0.3886 0.1367 0.3886
0.6999 0.1146 0.3658
0.9956 0.0931 0.3435
1.0000 0.0840 0.3340
1.0000 0.0814 0.3314
1.0000 0.0796 0.3295
0.0000 0.3868 0.3868
0.0000 0.3813 0.3813
0.1204 0.3718 0.3718
0.3544 0.3544 0.3544
0.6661 0.3317 0.3317
0.9641 0.3094 0.3094
1.0000 0.3001 0.3001
1.0000 0.2974 0.2974
1.0000 0.2955 0.2955
0.0000 0.6764 0.3421
0.0000 0.6710 0.3366
0.0774 0.6616 0.3272
0.3099 0.6443 0.3099
0.6216 0.6216 0.2872
0.9215 0.5992 0.2651
1.0000 0.5898 0.2557
1.0000 0.5871 0.2531
1.0000 0.5853 0.2512
0.0000 0.9535 0.2984
0.0000 0.9484 0.2929
0.0359 0.9393 0.2835
0.2663 0.9227 0.2663
0.5777 0.9008 0.2438
0.8792 0.8792 0.2217
1.0000 0.8700 0.2124
1.0000 0.8674 0.2097
1.0000 0.8656 0.2079
0.0000 1.0000 0.2799
0.0000 1.0000 0.2745
0.0187 1.0000 0.2651
0.2479 1.0000 0.2479
0.5591 1.0000 0.2255
0.8611 0.9930 0.2034
0.9844 0.9844 0.1942
1.0000 0.9819 0.1915
1.0000 0.9802 0.1897
0.0000 1.0000 0.2747
0.0000 1.0000 0.2693
0.0139 1.0000 0.2599
0.2427 1.0000 0.2427
0.5538 1.0000 0.2203
0.8560 1.0000 0.1983
0.9795 1.0000 0.1890
1.0000 1.0000 0.1863
1.0000 1.0000 0.1845
0.0000 1.0000 0.2711
0.0000 1.0000 0.2657
0.0106 1.0000 0.2563
0.2391 1.0000 0.2391
0.5502 1.0000 0.2167
0.8525 1.0000 0.1947
0.9761 1.0000 0.1854
1.0000 1.0000 0.1828
1.0000 1.0000 0.1810
0.0000 0.0000 0.7747
0.0491 0.0000 0.7694
0.1738 0.0000 0.7600
0.4093 0.0000 0.7429
0.7204 0.0000 0.7204
1.0000 0.0000 0.6982
1.0000 0.0000 0.6889
1.0000 0.0000 0.6862
1.0000 0.0000 0.6844
0.0000 0.0441 0.7642
0.0390 0.0390 0.7588
0.1633 0.0301 0.7495
0.3985 0.0141 0.7323
0.7098 0.0000 0.7098
1.0000 0.0000 0.6876
1.0000 0.0000 0.6782
1.0000 0.0000 0.6756
1.0000 0.0000 0.6737
0.0000 0.1597 0.7458
0.0217 0.1544 0.7405
0.1451 0.1451 0.7311
0.3799 0.1282 0.7139
0.6913 0.1062 0.6913
0.9877 0.0847 0.6691
1.0000 0.0757 0.6598
1.0000 0.0731 0.6571
1.0000 0.0714 0.6552
0.0000 0.3781 0.7121
0.0000 0.3726 0.7067
0.1120 0.3631 0.6973
0.3458 0.3458 0.6801
0.6574 0.3231 0.6574
0.9559 0.3008 0.6352
1.0000 0.2914 0.6258
1.0000 0.2888 0.6231
1.0000 0.2869 0.6212
0.0000 0.6678 0.6678
0.0000 0.6623 0.6623
0.0691 0.6529 0.6529
0.3012 0.6356 0.6356
0.6129 0.6129 0.6129
0.9132 0.5906 0.5906
1.0000 0.5811 0.5811
1.0000 0.5784 0.5784
1.0000 0.5766 0.5766
0.0000 0.9453 0.6241
0.0000 0.9401 0.6186
0.0278 0.9311 0.6092
0.2577 0.9144 0.5918
0.5690 0.8924 0.5690
0.8707 0.8707 0.5466
0.9934 0.8615 0.5371
1.0000 0.8589 0.5344
1.0000 0.8571 0.5325
0.0000 1.0000 0.6056
0.0000 1.0000 0.6001
0.0108 1.0000 0.5906
0.2394 1.0000 0.5732
0.5504 1.0000 0.5504
0.8527 0.9851 0.5279
0.9764 0.9764 0.5184
1.0000 0.9738 0.5157
1.0000 0.9721 0.5139
0.0000 1.0000 0.6003
0.0000 1.0000 0.5948
0.0061 1.0000 0.5854
0.2341 1.0000 0.5679
0.5451 1.0000 0.5451
0.8475 1.0000 0.5226
0.9714 1.0000 0.5131
1.0000 1.0000 0.5104
1.0000 1.0000 0.5085
0.0000 1.0000 0.5967
0.0000 1.0000 0.5912
0.0029 1.0000 0.5817
0.2306 1.0000 0.5643
0.5414 1.0000 0.5414
0.8440 1.0000 0.5190
0.9680 1.0000 0.5094
1.0000 1.0000 0.5067
1.0000 1.0000 0.5049
0.0000 0.0000 1.0000
0.0410 0.0000 1.0000
0.1654 0.0000 1.0000
0.4007 0.0000 1.0000
0.7119 0.0000 1.0000
1.0000 0.0000 1.0000
1.0000 0.0000 0.9979
1.0000 0.0000 0.9956
1.0000 0.0000 0.9939
0.0000 0.0361 1.0000
0.0310 0.0310 1.0000
0.1550 0.0222 1.0000
0.3900 0.0065 1.0000
0.7013 0.0000 1.0000
0.9968 0.0000 0.9968
1.0000 0.0000 0.9883
1.0000 0.0000 0.9859
1.0000 0.0000 0.9842
0.0000 0.1514 1.0000
0.0139 0.1461 1.0000
0.1368 0.1368 1.0000
0.3714 0.1200 1.0000
0.6829 0.0980 1.0000
0.9799 0.0766 0.9799
1.0000 0.0676 0.9711
1.0000 0.0650 0.9686
1.0000 0.0632 0.9668
0.0000 0.3695 1.0000
0.0000 0.3641 1.0000
0.1038 0.3546 1.0000
0.3373 0.3373 0.9900
0.6490 0.3146 0.9689
0.9478 0.2923 0.9478
1.0000 0.2830 0.9388
1.0000 0.2803 0.9362
1.0000 0.2785 0.9345
0.0000 0.6593 0.9786
0.0000 0.6539 0.9735
0.0610 0.6444 0.9646
0.2928 0.6271 0.9482
0.6044 0.6044 0.9265
0.9050 0.5820 0.9050
1.0000 0.5726 0.8959
1.0000 0.5699 0.8933
1.0000 0.5680 0.8915
0.0000 0.9372 0.9372
0.0000 0.9320 0.9320
0.0199 0.9229 0.9229
0.2493 0.9062 0.9062
0.5605 0.8842 0.8842
0.8624 0.8624 0.8624
0.9856 0.8532 0.8532
1.0000 0.8506 0.8506
1.0000 0.8488 0.8488
0.0000 1.0000 0.9194
0.0000 1.0000 0.9142
0.0032 1.0000 0.9050
0.2309 1.0000 0.8882
0.5418 0.9976 0.8662
0.8444 0.9772 0.8444
0.9684 0.9684 0.8352
1.0000 0.9659 0.8325
1.0000 0.9641 0.8307
0.0000 1.0000 0.9143
0.0000 1.0000 0.9091
0.0000 1.0000 0.9000
0.2257 1.0000 0.8831
0.5365 1.0000 0.8610
0.8392 1.0000 0.8392
0.9634 0.9996 0.8300
0.9973 0.9973 0.8274
1.0000 0.9956 0.8255
0.0000 1.0000 0.9108
0.0000 1.0000 0.9056
0.0000 1.0000 0.8964
0.2221 1.0000 0.8796
0.5329 1.0000 0.8575
0.8357 1.0000 0.8357
0.9600 1.0000 0.8264
0.9940 1.0000 0.8238
1.0000 1.0000 0.8220
0.0000 0.0000 1.0000
0.0377 0.0000 1.0000
0.1619 0.0000 1.0000
0.3971 0.0000 1.0000
0.7084 0.0000 1.0000
1.0000 0.0000 1.0000
1.0000 0.0000 1.0000
1.0000 0.0000 1.0000
1.0000 0.0000 1.0000
0.0000 0.0328 1.0000
0.0277 0.0277 1.0000
0.1514 0.0189 1.0000
0.3864 0.0033 1.0000
0.6978 0.0000 1.0000
0.9936 0.0000 1.0000
1.0000 0.0000 1.0000
1.0000 0.0000 1.0000
1.0000 0.0000 1.0000
0.0000 0.1479 1.0000
0.0106 0.1426 1.0000
0.1333 0.1333 1.0000
0.3678 0.1165 1.0000
0.6793 0.0945 1.0000
0.9765 0.0731 1.0000
1.0000 0.0641 1.0000
1.0000 0.0616 1.0000
1.0000 0.0598 1.0000
0.0000 0.3659 1.0000
0.0000 0.3605 1.0000
0.1003 0.3510 1.0000
0.3337 0.3337 1.0000
0.6454 0.3110 1.0000
0.9444 0.2888 1.0000
1.0000 0.2794 1.0000
1.0000 0.2767 1.0000
1.0000 0.2749 1.0000
0.0000 0.6557 1.0000
0.0000 0.6503 1.0000
0.0576 0.6408 1.0000
0.2892 0.6235 1.0000
0.6008 0.6008 1.0000
0.9015 0.5784 1.0000
1.0000 0.5690 1.0000
1.0000 0.5663 1.0000
1.0000 0.5644 1.0000
0.0000 0.9337 1.0000
0.0000 0.9285 1.0000
0.0166 0.9194 1.0000
0.2457 0.9027 1.0000
0.5568 0.8807 1.0000
0.8589 0.8589 0.9910
0.9823 0.8497 0.9823
1.0000 0.8471 0.9798
1.0000 0.8453 0.9781
0.0000 1.0000 1.0000
0.0000 1.0000 1.0000
0.0001 1.0000 1.0000
0.2274 1.0000 1.0000
0.5382 0.9944 0.9944
0.8409 0.9739 0.9739
0.9650 0.9650 0.9650
0.9987 0.9625 0.9625
1.0000 0.9607 0.9607
0.0000 1.0000 1.0000
0.0000 1.0000 1.0000
0.0000 1.0000 1.0000
0.2222 1.0000 1.0000
0.5329 1.0000 0.9896
0.8357 1.0000 0.9689
0.9600 0.9965 0.9600
0.9941 0.9941 0.9575
1.0000 0.9924 0.9557
0.0000 1.0000 1.0000
0.0000 1.0000 1.0000
0.0000 1.0000 1.0000
0.2186 1.0000 1.0000
0.5293 1.0000 0.9863
0.8321 1.0000 0.9655
0.9566 1.0000 0.9566
0.9908 1.0000 0.9540
1.0000 1.0000 0.9523
0.0000 0.0000 1.0000
0.0367 0.0000 1.0000
0.1609 0.0000 1.0000
0.3961 0.0000 1.0000
0.7074 0.0000 1.0000
1.0000 0.0000 1.0000
1.0000 0.0000 1.0000
1.0000 0.0000 1.0000
1.0000 0.0000 1.0000
0.0000 0.0318 1.0000
0.0267 0.0267 1.0000
0.1504 0.0180 1.0000
0.3853 0.0024 1.0000
0.6967 0.0000 1.0000
0.9927 0.0000 1.0000
1.0000 0.0000 1.0000
1.0000 0.0000 1.0000
1.0000 0.0000 1.0000
0.0000 0.1469 1.0000
0.0097 0.1416 1.0000
0.1324 0.1324 1.0000
0.3667 0.1155 1.0000
0.6783 0.0936 1.0000
0.9756 0.0722 1.0000
1.0000 0.0632 1.0000
1.0000 0.0606 1.0000
1.0000 0.0589 1.0000
0.0000 0.3649 1.0000
0.0000 0.3595 1.0000
0.0994 0.3500 1.0000
0.3327 0.3327 1.0000
0.6444 0.3100 1.0000
0.9434 0.2877 1.0000
1.0000 0.2784 1.0000
1.0000 0.2757 1.0000
1.0000 0.2739 1.0000
0.0000 0.6547 1.0000
0.0000 0.6493 1.0000
0.0566 0.6398 1.0000
0.2882 0.6225 1.0000
0.5998 0.5998 1.0000
0.9005 0.5774 1.0000
1.0000 0.5679 1.0000
1.0000 0.5652 1.0000
1.0000 0.5634 1.0000
0.0000 0.9328 1.0000
0.0000 0.9275 1.0000
0.0157 0.9184 1.0000
0.2447 0.9017 1.0000
0.5558 0.8797 1.0000
0.8579 0.8579 1.0000
0.9814 0.8487 1.0000
1.0000 0.8461 1.0000
1.0000 0.8443 1.0000
0.0000 1.0000 1.0000
0.0000 1.0000 1.0000
0.0000 1.0000 1.0000
0.2264 1.0000 1.0000
0.5372 0.9935 1.0000
0.8399 0.9729 1.0000
0.9640 0.9640 1.0000
0.9978 0.9615 0.9978
1.0000 0.9598 0.9962
0.0000 1.0000 1.0000
0.0000 1.0000 1.0000
0.0000 1.0000 1.0000
0.2212 1.0000 1.0000
0.5319 1.0000 1.0000
0.8347 1.0000 1.0000
0.9591 0.9955 0.9955
0.9931 0.9931 0.9931
1.0000 0.9915 0.9915
0.0000 1.0000 1.0000
0.0000 1.0000 1.0000
0.0000 1.0000 1.0000
0.2176 1.0000 1.0000
0.5282 1.0000 1.0000
0.8311 1.0000 1.0000
0.9556 1.0000 0.9923
0.9898 1.0000 0.9898
1.0000 1.0000 0.9882
0.0000 0.0000 1.0000
0.0361 0.0000 1.0000
0.1602 0.0000 1.0000
0.3954 0.0000 1.0000
0.7067 0.0000 1.0000
1.0000 0.0000 1.0000
1.0000 0.0000 1.0000
1.0000 0.0000 1.0000
1.0000 0.0000 1.0000
0.0000 0.0311 1.0000
0.0261 0.0261 1.0000
0.1498 0.0173 1.0000
0.3846 0.0018 1.0000
0.6960 0.0000 1.0000
0.9921 0.0000 1.0000
1.0000 0.0000 1.0000
1.0000 0.0000 1.0000
1.0000 0.0000 1.0000
0.0000 0.1462 1.0000
0.0091 0.1409 1.0000
0.1317 0.1317 1.0000
0.3660 0.1148 1.0000
0.6776 0.0929 1.0000
0.9749 0.0715 1.0000
1.0000 0.0625 1.0000
1.0000 0.0599 1.0000
1.0000 0.0582 1.0000
0.0000 0.3642 1.0000
0.0000 0.3588 1.0000
0.0987 0.3493 1.0000
0.3319 0.3319 1.0000
0.6437 0.3093 1.0000
0.9427 0.2870 1.0000
1.0000 0.2777 1.0000
1.0000 0.2750 1.0000
1.0000 0.2732 1.0000
0.0000 0.6540 1.0000
0.0000 0.6486 1.0000
0.0560 0.6391 1.0000
0.2875 0.6218 1.0000
0.5991 0.5991 1.0000
0.8998 0.5767 1.0000
1.0000 0.5672 1.0000
1.0000 0.5645 1.0000
1.0000 0.5627 1.0000
0.0000 0.9321 1.0000
0.0000 0.9269 1.0000
0.0150 0.9178 1.0000
0.2440 0.9010 1.0000
0.5551 0.8790 1.0000
0.8572 0.8572 1.0000
0.9807 0.8480 1.0000
1.0000 0.8454 1.0000
1.0000 0.8436 1.0000
0.0000 1.0000 1.0000
0.0000 1.0000 1.0000
0.0000 1.0000 1.0000
0.2257 1.0000 1.0000
0.5365 0.9928 1.0000
0.8392 0.9722 1.0000
0.9634 0.9634 1.0000
0.9972 0.9608 1.0000
1.0000 0.9591 1.0000
0.0000 1.0000 1.0000
0.0000 1.0000 1.0000
0.0000 1.0000 1.0000
0.2205 1.0000 1.0000
0.5312 1.0000 1.0000
0.8340 1.0000 1.0000
0.9584 0.9949 1.0000
0.9925 0.9925 1.0000
1.0000 0.9908 1.0000
0.0000 1.0000 1.0000
0.0000 1.0000 1.0000
0.0000 1.0000 1.0000
0.2169 1.0000 1.0000
0.5275 1.0000 1.0000
0.8305 1.0000 1.0000
0.9550 1.0000 1.0000
0.9892 1.0000 1.0000
1.0000 1.0000 1.0000
