assets/luts/LUTs/JD_D-LOG_Conversion_5.CUBE
TITLE "ColorFinale Export"
# Created by Jeven Dovey on 2021-07-14 17:54:03 +0000
# Color Finale Plugin v.2.3.2 (520)
LUT_3D_SIZE 17
0.0000 0.0000 0.0000
0.0339 0.0000 0.0000
0.0728 0.0000 0.0000
0.1214 0.0000 0.0000
0.1845 0.0000 0.0000
0.2668 0.0000 0.0000
0.3711 0.0000 0.0000
0.4989 0.0000 0.0000
0.6402 0.0000 0.0000
0.7724 0.0000 0.0000
0.8733 0.0000 0.0000
0.9403 0.0000 0.0000
0.9877 0.0000 0.0000
1.0000 0.0000 0.0000
1.0000 0.0000 0.0000
1.0000 0.0000 0.0000
1.0000 0.0000 0.0000
0.0000 0.0306 0.0000
0.0272 0.0272 0.0000
0.0648 0.0238 0.0000
0.1111 0.0204 0.0000
0.1711 0.0170 0.0000
0.2494 0.0137 0.0000
0.3494 0.0104 0.0000
0.4729 0.0071 0.0000
0.6133 0.0038 0.0000
0.7490 0.0005 0.0000
0.8572 0.0000 0.0000
0.9296 0.0000 0.0000
0.9796 0.0000 0.0000
1.0000 0.0000 0.0000
1.0000 0.0000 0.0000
1.0000 0.0000 0.0000
1.0000 0.0000 0.0000
0.0000 0.0649 0.0000
0.0205 0.0609 0.0000
0.0570 0.0570 0.0000
0.1013 0.0532 0.0000
0.1583 0.0494 0.0000
0.2328 0.0457 0.0000
0.3285 0.0420 0.0000
0.4475 0.0384 0.0000
0.5862 0.0349 0.0000
0.7246 0.0313 0.0000
0.8396 0.0279 0.0000
0.9180 0.0244 0.0000
0.9711 0.0210 0.0000
1.0000 0.0176 0.0000
1.0000 0.0143 0.0000
1.0000 0.0109 0.0000
1.0000 0.0076 0.0000
0.0000 0.1064 0.0000
0.0140 0.1015 0.0000
0.0495 0.0967 0.0000
0.0920 0.0920 0.0000
0.1462 0.0874 0.0000
0.2170 0.0829 0.0000
0.3085 0.0785 0.0000
0.4228 0.0742 0.0000
0.5590 0.0700 0.0000
0.6993 0.0659 0.0000
0.8206 0.0618 0.0000
0.9056 0.0578 0.0000
0.9623 0.0539 0.0000
1.0000 0.0501 0.0000
1.0000 0.0463 0.0000
1.0000 0.0426 0.0000
1.0000 0.0389 0.0000
0.0000 0.1587 0.0000
0.0075 0.1525 0.0000
0.0423 0.1464 0.0000
0.0831 0.1404 0.0000
0.1346 0.1346 0.0000
0.2019 0.1290 0.0000
0.2892 0.1234 0.0000
0.3991 0.1181 0.0000
0.5320 0.1128 0.0000
0.6733 0.1077 0.0000
0.8001 0.1026 0.0000
0.8921 0.0978 0.0000
0.9530 0.0930 0.0000
0.9981 0.0883 0.0000
1.0000 0.0837 0.0000
1.0000 0.0792 0.0000
1.0000 0.0748 0.0000
0.0000 0.2254 0.0000
0.0011 0.2175 0.0000
0.0353 0.2097 0.0000
0.0745 0.2021 0.0000
0.1236 0.1947 0.0000
0.1875 0.1875 0.0000
0.2708 0.1805 0.0000
0.3762 0.1736 0.0000
0.5052 0.1669 0.0000
0.6468 0.1604 0.0000
0.7782 0.1540 0.0000
0.8775 0.1478 0.0000
0.9432 0.1417 0.0000
0.9901 0.1358 0.0000
1.0000 0.1300 0.0000
1.0000 0.1244 0.0000
1.0000 0.1188 0.0000
0.0000 0.3094 0.0000
0.0000 0.2995 0.0000
0.0284 0.2899 0.0000
0.0663 0.2804 0.0000
0.1132 0.2711 0.0000
0.1738 0.2620 0.0000
0.2531 0.2531 0.0000
0.3542 0.2444 0.0000
0.4789 0.2359 0.0000
0.6198 0.2276 0.0000
0.7550 0.2195 0.0000
0.8616 0.2116 0.0000
0.9327 0.2038 0.0000
0.9820 0.1962 0.0000
1.0000 0.1888 0.0000
1.0000 0.1816 0.0000
1.0000 0.1746 0.0000
0.0000 0.4121 0.0000
0.0000 0.4003 0.0000
0.0217 0.3886 0.0000
0.0585 0.3770 0.0000
0.1032 0.3657 0.0000
0.1609 0.3546 0.0000
0.2362 0.3437 0.0000
0.3330 0.3330 0.0000
0.4532 0.3225 0.0000
0.5927 0.3122 0.0000
0.7308 0.3021 0.0000
0.8444 0.2923 0.0000
0.9214 0.2826 0.0000
0.9737 0.2731 0.0000
1.0000 0.2637 0.0000
1.0000 0.2546 0.0000
1.0000 0.2457 0.0000
0.0000 0.5336 0.0000
0.0000 0.5201 0.0000
0.0151 0.5066 0.0000
0.0509 0.4932 0.0000
0.0937 0.4799 0.0000
0.1485 0.4667 0.0000
0.2201 0.4537 0.0000
0.3126 0.4408 0.0000
0.4282 0.4282 0.0000
0.5653 0.4158 0.0000
0.7056 0.4036 0.0000
0.8258 0.3916 0.0000
0.9092 0.3798 0.0000
0.9650 0.3682 0.0000
1.0000 0.3568 0.0000
1.0000 0.3456 0.0000
1.0000 0.3346 0.0000
0.0000 0.6620 0.0000
0.0000 0.6486 0.0000
0.0085 0.6350 0.0000
0.0435 0.6213 0.0000
0.0846 0.6075 0.0000
0.1367 0.5936 0.0000
0.2047 0.5797 0.0000
0.2930 0.5658 0.0000
0.4041 0.5519 0.0000
0.5380 0.5380 0.0000
0.6796 0.5242 0.0000
0.8055 0.5104 0.0000
0.8959 0.4966 0.0000
0.9559 0.4830 0.0000
1.0000 0.4694 0.0000
1.0000 0.4560 0.0000
1.0000 0.4427 0.0000
0.0000 0.7799 0.0000
0.0000 0.7685 0.0000
0.0020 0.7567 0.0000
0.0363 0.7445 0.0000
0.0759 0.7321 0.0000
0.1255 0.7195 0.0000
0.1900 0.7065 0.0000
0.2741 0.6934 0.0000
0.3807 0.6801 0.0000
0.5109 0.6666 0.0000
0.6529 0.6529 0.0000
0.7837 0.6390 0.0000
0.8815 0.6250 0.0000
0.9461 0.6109 0.0000
0.9927 0.5967 0.0000
1.0000 0.5824 0.0000
1.0000 0.5680 0.0000
0.0000 0.8711 0.0000
0.0000 0.8630 0.0000
0.0000 0.8545 0.0000
0.0293 0.8457 0.0000
0.0675 0.8364 0.0000
0.1147 0.8268 0.0000
0.1759 0.8167 0.0000
0.2560 0.8063 0.0000
0.3581 0.7954 0.0000
0.4840 0.7841 0.0000
0.6256 0.7725 0.0000
0.7605 0.7605 0.0000
0.8658 0.7481 0.0000
0.9357 0.7355 0.0000
0.9845 0.7225 0.0000
1.0000 0.7092 0.0000
1.0000 0.6956 0.0000
0.0000 0.9337 0.0000
0.0000 0.9282 0.0000
0.0000 0.9224 0.0000
0.0224 0.9163 0.0000
0.0593 0.9101 0.0000
0.1044 0.9035 0.0000
0.1625 0.8967 0.0000
0.2386 0.8895 0.0000
0.3362 0.8820 0.0000
0.4575 0.8742 0.0000
0.5978 0.8661 0.0000
0.7359 0.8575 0.0000
0.8486 0.8486 0.0000
0.9244 0.8392 0.0000
0.9761 0.8293 0.0000
1.0000 0.8190 0.0000
1.0000 0.8082 0.0000
0.0000 0.9787 0.0000
0.0000 0.9745 0.0000
0.0000 0.9702 0.0000
0.0155 0.9658 0.0000
0.0514 0.9612 0.0000
0.0945 0.9565 0.0000
0.1497 0.9517 0.0000
0.2218 0.9467 0.0000
0.3151 0.9415 0.0000
0.4317 0.9361 0.0000
0.5696 0.9305 0.0000
0.7102 0.9246 0.0000
0.8297 0.9185 0.0000
0.9121 0.9121 0.0000
0.9673 0.9054 0.0000
1.0000 0.8984 0.0000
1.0000 0.8910 0.0000
0.0000 1.0000 0.0000
0.0000 1.0000 0.0000
0.0000 1.0000 0.0000
0.0087 1.0000 0.0000
0.0438 1.0000 0.0000
0.0850 0.9973 0.0000
0.1374 0.9932 0.0000
0.2058 0.9891 0.0000
0.2946 0.9850 0.0000
0.4065 0.9808 0.0000
0.5413 0.9765 0.0000
0.6834 0.9720 0.0000
0.8090 0.9675 0.0000
0.8986 0.9628 0.0000
0.9580 0.9580 0.0000
1.0000 0.9530 0.0000
1.0000 0.9478 0.0000
0.0000 1.0000 0.0000
0.0000 1.0000 0.0000
0.0000 1.0000 0.0000
0.0018 1.0000 0.0000
0.0363 1.0000 0.0000
0.0759 1.0000 0.0000
0.1256 1.0000 0.0000
0.1903 1.0000 0.0000
0.2749 1.0000 0.0000
0.3820 1.0000 0.0000
0.5129 1.0000 0.0000
0.6556 1.0000 0.0000
0.7865 1.0000 0.0000
0.8838 1.0000 0.0000
0.9480 0.9987 0.0000
0.9945 0.9945 0.0000
1.0000 0.9902 0.0000
0.0000 1.0000 0.0000
0.0000 1.0000 0.0000
0.0000 1.0000 0.0000
0.0000 1.0000 0.0000
0.0289 1.0000 0.0000
0.0670 1.0000 0.0000
0.1143 1.0000 0.0000
0.1755 1.0000 0.0000
0.2558 1.0000 0.0000
0.3582 1.0000 0.0000
0.4846 1.0000 0.0000
0.6269 1.0000 0.0000
0.7623 1.0000 0.0000
0.8675 1.0000 0.0000
0.9372 1.0000 0.0000
0.9860 1.0000 0.0000
1.0000 1.0000 0.0000
0.0000 0.0000 0.0361
0.0326 0.0000 0.0326
0.0712 0.0000 0.0291
0.1194 0.0000 0.0257
0.1818 0.0000 0.0223
0.2633 0.0000 0.0189
0.3668 0.0000 0.0156
0.4938 0.0000 0.0123
0.6350 0.0000 0.0089
0.7679 0.0000 0.0057
0.8703 0.0000 0.0024
0.9383 0.0000 0.0000
0.9861 0.0000 0.0000
1.0000 0.0000 0.0000
1.0000 0.0000 0.0000
1.0000 0.0000 0.0000
1.0000 0.0000 0.0000
0.0000 0.0293 0.0293
0.0259 0.0259 0.0259
0.0633 0.0225 0.0225
0.1092 0.0191 0.0191
0.1686 0.0158 0.0158
0.2462 0.0125 0.0125
0.3453 0.0092 0.0092
0.4680 0.0059 0.0059
0.6081 0.0026 0.0026
0.7444 0.0000 0.0000
0.8539 0.0000 0.0000
0.9274 0.0000 0.0000
0.9780 0.0000 0.0000
1.0000 0.0000 0.0000
1.0000 0.0000 0.0000
1.0000 0.0000 0.0000
1.0000 0.0000 0.0000
0.0000 0.0634 0.0226
0.0193 0.0594 0.0193
0.0556 0.0556 0.0159
0.0995 0.0517 0.0126
0.1559 0.0480 0.0093
0.2297 0.0443 0.0060
0.3246 0.0407 0.0027
0.4427 0.0371 0.0000
0.5809 0.0335 0.0000
0.7198 0.0300 0.0000
0.8361 0.0266 0.0000
0.9157 0.0231 0.0000
0.9695 0.0197 0.0000
1.0000 0.0164 0.0000
1.0000 0.0130 0.0000
1.0000 0.0097 0.0000
1.0000 0.0063 0.0000
0.0000 0.1045 0.0160
0.0127 0.0997 0.0127
0.0481 0.0949 0.0094
0.0902 0.0902 0.0062
0.1439 0.0857 0.0029
0.2140 0.0812 0.0000
0.3047 0.0769 0.0000
0.4182 0.0726 0.0000
0.5538 0.0684 0.0000
0.6944 0.0643 0.0000
0.8168 0.0603 0.0000
0.9031 0.0564 0.0000
0.9606 0.0525 0.0000
1.0000 0.0487 0.0000
1.0000 0.0449 0.0000
1.0000 0.0412 0.0000
1.0000 0.0376 0.0000
0.0000 0.1563 0.0095
0.0063 0.1502 0.0063
0.0409 0.1441 0.0030
0.0814 0.1382 0.0000
0.1325 0.1325 0.0000
0.1990 0.1269 0.0000
0.2856 0.1214 0.0000
0.3946 0.1161 0.0000
0.5268 0.1108 0.0000
0.6683 0.1058 0.0000
0.7960 0.1008 0.0000
0.8894 0.0959 0.0000
0.9512 0.0912 0.0000
0.9966 0.0866 0.0000
1.0000 0.0820 0.0000
1.0000 0.0776 0.0000
1.0000 0.0732 0.0000
0.0000 0.2224 0.0031
0.0000 0.2145 0.0000
0.0339 0.2068 0.0000
0.0729 0.1993 0.0000
0.1216 0.1920 0.0000
0.1848 0.1848 0.0000
0.2673 0.1779 0.0000
0.3719 0.1711 0.0000
0.5001 0.1644 0.0000
0.6417 0.1580 0.0000
0.7738 0.1516 0.0000
0.8745 0.1455 0.0000
0.9412 0.1395 0.0000
0.9886 0.1336 0.0000
1.0000 0.1279 0.0000
1.0000 0.1223 0.0000
1.0000 0.1168 0.0000
0.0000 0.3056 0.0000
0.0000 0.2959 0.0000
0.0271 0.2863 0.0000
0.0648 0.2769 0.0000
0.1112 0.2677 0.0000
0.1713 0.2586 0.0000
0.2498 0.2498 0.0000
0.3501 0.2412 0.0000
0.4739 0.2328 0.0000
0.6146 0.2246 0.0000
0.7505 0.2165 0.0000
0.8584 0.2086 0.0000
0.9306 0.2009 0.0000
0.9805 0.1934 0.0000
1.0000 0.1861 0.0000
1.0000 0.1790 0.0000
1.0000 0.1720 0.0000
0.0000 0.4076 0.0000
0.0000 0.3958 0.0000
0.0204 0.3842 0.0000
0.0570 0.3727 0.0000
0.1014 0.3615 0.0000
0.1584 0.3505 0.0000
0.2331 0.3397 0.0000
0.3290 0.3290 0.0000
0.4484 0.3186 0.0000
0.5874 0.3084 0.0000
0.7261 0.2984 0.0000
0.8410 0.2886 0.0000
0.9191 0.2790 0.0000
0.9721 0.2695 0.0000
1.0000 0.2603 0.0000
1.0000 0.2512 0.0000
1.0000 0.2424 0.0000
0.0000 0.5285 0.0000
0.0000 0.5150 0.0000
0.0138 0.5015 0.0000
0.0494 0.4881 0.0000
0.0919 0.4749 0.0000
0.1462 0.4618 0.0000
0.2171 0.4488 0.0000
0.3088 0.4361 0.0000
0.4235 0.4235 0.0000
0.5601 0.4112 0.0000
0.7007 0.3991 0.0000
0.8220 0.3872 0.0000
0.9067 0.3754 0.0000
0.9633 0.3639 0.0000
1.0000 0.3526 0.0000
1.0000 0.3414 0.0000
1.0000 0.3305 0.0000
0.0000 0.6569 0.0000
0.0000 0.6434 0.0000
0.0073 0.6298 0.0000
0.0421 0.6161 0.0000
0.0829 0.6023 0.0000
0.1345 0.5884 0.0000
0.2018 0.5745 0.0000
0.2893 0.5606 0.0000
0.3995 0.5467 0.0000
0.5328 0.5328 0.0000
0.6745 0.5190 0.0000
0.8014 0.5052 0.0000
0.8933 0.4915 0.0000
0.9541 0.4779 0.0000
0.9991 0.4644 0.0000
1.0000 0.4510 0.0000
1.0000 0.4378 0.0000
0.0000 0.7756 0.0000
0.0000 0.7640 0.0000
0.0007 0.7521 0.0000
0.0350 0.7399 0.0000
0.0742 0.7274 0.0000
0.1234 0.7146 0.0000
0.1872 0.7016 0.0000
0.2706 0.6884 0.0000
0.3763 0.6750 0.0000
0.5057 0.6614 0.0000
0.6477 0.6477 0.0000
0.7793 0.6338 0.0000
0.8786 0.6197 0.0000
0.9442 0.6056 0.0000
0.9911 0.5913 0.0000
1.0000 0.5770 0.0000
1.0000 0.5626 0.0000
0.0000 0.8680 0.0000
0.0000 0.8598 0.0000
0.0000 0.8512 0.0000
0.0280 0.8423 0.0000
0.0659 0.8329 0.0000
0.1127 0.8231 0.0000
0.1733 0.8129 0.0000
0.2526 0.8022 0.0000
0.3539 0.7912 0.0000
0.4789 0.7798 0.0000
0.6203 0.7680 0.0000
0.7559 0.7559 0.0000
0.8626 0.7434 0.0000
0.9336 0.7306 0.0000
0.9830 0.7175 0.0000
1.0000 0.7041 0.0000
1.0000 0.6905 0.0000
0.0000 0.9316 0.0000
0.0000 0.9260 0.0000
0.0000 0.9201 0.0000
0.0211 0.9140 0.0000
0.0578 0.9076 0.0000
0.1025 0.9010 0.0000
0.1600 0.8940 0.0000
0.2353 0.8867 0.0000
0.3321 0.8791 0.0000
0.4525 0.8712 0.0000
0.5924 0.8629 0.0000
0.7311 0.8542 0.0000
0.8451 0.8451 0.0000
0.9221 0.8355 0.0000
0.9745 0.8255 0.0000
1.0000 0.8150 0.0000
1.0000 0.8040 0.0000
0.0000 0.9771 0.0000
0.0000 0.9729 0.0000
0.0000 0.9686 0.0000
0.0142 0.9641 0.0000
0.0500 0.9595 0.0000
0.0927 0.9547 0.0000
0.1473 0.9498 0.0000
0.2187 0.9447 0.0000
0.3111 0.9395 0.0000
0.4268 0.9340 0.0000
0.5642 0.9283 0.0000
0.7052 0.9223 0.0000
0.8259 0.9161 0.0000
0.9096 0.9096 0.0000
0.9656 0.9028 0.0000
1.0000 0.8956 0.0000
1.0000 0.8881 0.0000
0.0000 1.0000 0.0000
0.0000 1.0000 0.0000
0.0000 1.0000 0.0000
0.0074 1.0000 0.0000
0.0423 0.9998 0.0000
0.0832 0.9958 0.0000
0.1351 0.9917 0.0000
0.2028 0.9876 0.0000
0.2908 0.9834 0.0000
0.4018 0.9791 0.0000
0.5359 0.9748 0.0000
0.6781 0.9704 0.0000
0.8049 0.9658 0.0000
0.8959 0.9611 0.0000
0.9562 0.9562 0.0000
1.0000 0.9511 0.0000
1.0000 0.9458 0.0000
0.0000 1.0000 0.0000
0.0000 1.0000 0.0000
0.0000 1.0000 0.0000
0.0005 1.0000 0.0000
0.0348 1.0000 0.0000
0.0742 1.0000 0.0000
0.1234 1.0000 0.0000
0.1875 1.0000 0.0000
0.2712 1.0000 0.0000
0.3774 1.0000 0.0000
0.5075 1.0000 0.0000
0.6502 1.0000 0.0000
0.7820 1.0000 0.0000
0.8808 1.0000 0.0000
0.9460 0.9972 0.0000
0.9929 0.9929 0.0000
1.0000 0.9886 0.0000
0.0000 1.0000 0.0000
0.0000 1.0000 0.0000
0.0000 1.0000 0.0000
0.0000 1.0000 0.0000
0.0275 1.0000 0.0000
0.0654 1.0000 0.0000
0.1121 1.0000 0.0000
0.1728 1.0000 0.0000
0.2522 1.0000 0.0000
0.3537 1.0000 0.0000
0.4793 1.0000 0.0000
0.6213 1.0000 0.0000
0.7575 1.0000 0.0000
0.8642 1.0000 0.0000
0.9350 1.0000 0.0000
0.9844 1.0000 0.0000
1.0000 1.0000 0.0000
0.0000 0.0000 0.0781
0.0313 0.0000 0.0738
0.0696 0.0000 0.0696
0.1173 0.0000 0.0655
0.1792 0.0000 0.0615
0.2599 0.0000 0.0576
0.3626 0.0000 0.0537
0.4887 0.0000 0.0499
0.6297 0.0000 0.0462
0.7634 0.0000 0.0425
0.8672 0.0000 0.0389
0.9362 0.0000 0.0353
0.9846 0.0000 0.0318
1.0000 0.0000 0.0283
1.0000 0.0000 0.0248
1.0000 0.0000 0.0214
1.0000 0.0000 0.0180
0.0000 0.0280 0.0698
0.0246 0.0246 0.0658
0.0617 0.0212 0.0617
0.1073 0.0179 0.0578
0.1661 0.0145 0.0539
0.2429 0.0112 0.0501
0.3412 0.0079 0.0464
0.4630 0.0046 0.0427
0.6028 0.0013 0.0391
0.7397 0.0000 0.0355
0.8506 0.0000 0.0320
0.9252 0.0000 0.0285
0.9763 0.0000 0.0251
1.0000 0.0000 0.0217
1.0000 0.0000 0.0183
1.0000 0.0000 0.0149
1.0000 0.0000 0.0115
0.0000 0.0619 0.0619
0.0180 0.0580 0.0580
0.0541 0.0541 0.0541
0.0977 0.0503 0.0503
0.1535 0.0466 0.0466
0.2266 0.0429 0.0429
0.3207 0.0393 0.0393
0.4379 0.0357 0.0357
0.5757 0.0322 0.0322
0.7149 0.0287 0.0287
0.8325 0.0253 0.0253
0.9133 0.0219 0.0219
0.9678 0.0185 0.0185
1.0000 0.0151 0.0151
1.0000 0.0117 0.0117
1.0000 0.0084 0.0084
1.0000 0.0051 0.0051
0.0000 0.1026 0.0542
0.0115 0.0978 0.0504
0.0467 0.0931 0.0467
0.0885 0.0885 0.0431
0.1416 0.0840 0.0394
0.2110 0.0796 0.0359
0.3009 0.0752 0.0324
0.4136 0.0710 0.0289
0.5485 0.0669 0.0254
0.6893 0.0628 0.0220
0.8129 0.0588 0.0186
0.9005 0.0549 0.0153
0.9588 0.0510 0.0119
1.0000 0.0473 0.0086
1.0000 0.0435 0.0052
1.0000 0.0398 0.0019
1.0000 0.0362 0.0000
0.0000 0.1539 0.0468
0.0050 0.1478 0.0432
0.0396 0.1419 0.0396
0.0797 0.1360 0.0360
0.1303 0.1303 0.0325
0.1962 0.1248 0.0290
0.2820 0.1194 0.0256
0.3902 0.1141 0.0222
0.5216 0.1089 0.0188
0.6632 0.1039 0.0154
0.7918 0.0990 0.0121
0.8866 0.0941 0.0087
0.9493 0.0894 0.0054
0.9950 0.0848 0.0020
1.0000 0.0803 0.0000
1.0000 0.0759 0.0000
1.0000 0.0716 0.0000
0.0000 0.2193 0.0396
0.0000 0.2116 0.0361
0.0326 0.2039 0.0326
0.0713 0.1965 0.0291
0.1196 0.1892 0.0257
0.1822 0.1822 0.0223
0.2639 0.1753 0.0189
0.3676 0.1685 0.0156
0.4950 0.1620 0.0122
0.6364 0.1556 0.0089
0.7694 0.1493 0.0055
0.8715 0.1432 0.0022
0.9392 0.1372 0.0000
0.9870 0.1314 0.0000
1.0000 0.1257 0.0000
1.0000 0.1202 0.0000
1.0000 0.1148 0.0000
0.0000 0.3018 0.0327
0.0000 0.2922 0.0292
0.0258 0.2827 0.0258
0.0633 0.2733 0.0224
0.1093 0.2642 0.0190
0.1688 0.2553 0.0157
0.2465 0.2465 0.0123
0.3460 0.2380 0.0090
0.4690 0.2296 0.0057
0.6094 0.2215 0.0023
0.7459 0.2135 0.0000
0.8552 0.2057 0.0000
0.9284 0.1981 0.0000
0.9789 0.1907 0.0000
1.0000 0.1834 0.0000
1.0000 0.1763 0.0000
1.0000 0.1694 0.0000
0.0000 0.4031 0.0259
0.0000 0.3914 0.0225
0.0192 0.3798 0.0192
0.0555 0.3685 0.0158
0.0995 0.3573 0.0125
0.1560 0.3463 0.0091
0.2299 0.3356 0.0058
0.3251 0.3251 0.0025
0.4435 0.3148 0.0000
0.5821 0.3046 0.0000
0.7212 0.2947 0.0000
0.8374 0.2849 0.0000
0.9168 0.2754 0.0000
0.9704 0.2660 0.0000
1.0000 0.2569 0.0000
1.0000 0.2479 0.0000
1.0000 0.2391 0.0000
0.0000 0.5233 0.0192
0.0000 0.5098 0.0159
0.0126 0.4964 0.0126
0.0480 0.4831 0.0092
0.0902 0.4699 0.0059
0.1439 0.4568 0.0026
0.2141 0.4440 0.0000
0.3050 0.4313 0.0000
0.4188 0.4188 0.0000
0.5548 0.4066 0.0000
0.6957 0.3945 0.0000
0.8182 0.3827 0.0000
0.9042 0.3711 0.0000
0.9616 0.3596 0.0000
1.0000 0.3483 0.0000
1.0000 0.3373 0.0000
1.0000 0.3264 0.0000
0.0000 0.6517 0.0126
0.0000 0.6382 0.0093
0.0060 0.6246 0.0060
0.0407 0.6108 0.0027
0.0812 0.5970 0.0000
0.1323 0.5831 0.0000
0.1990 0.5692 0.0000
0.2857 0.5553 0.0000
0.3950 0.5414 0.0000
0.5276 0.5276 0.0000
0.6694 0.5138 0.0000
0.7973 0.5000 0.0000
0.8905 0.4863 0.0000
0.9522 0.4728 0.0000
0.9976 0.4593 0.0000
1.0000 0.4460 0.0000
1.0000 0.4329 0.0000
0.0000 0.7712 0.0060
0.0000 0.7595 0.0028
0.0000 0.7475 0.0000
0.0336 0.7352 0.0000
0.0726 0.7226 0.0000
0.1213 0.7097 0.0000
0.1845 0.6966 0.0000
0.2671 0.6834 0.0000
0.3719 0.6699 0.0000
0.5005 0.6563 0.0000
0.6424 0.6424 0.0000
0.7749 0.6285 0.0000
0.8756 0.6144 0.0000
0.9422 0.6002 0.0000
0.9896 0.5859 0.0000
1.0000 0.5716 0.0000
1.0000 0.5572 0.0000
0.0000 0.8649 0.0000
0.0000 0.8566 0.0000
0.0000 0.8479 0.0000
0.0266 0.8387 0.0000
0.0643 0.8292 0.0000
0.1107 0.8192 0.0000
0.1707 0.8089 0.0000
0.2492 0.7981 0.0000
0.3496 0.7869 0.0000
0.4738 0.7754 0.0000
0.6149 0.7635 0.0000
0.7512 0.7512 0.0000
0.8593 0.7386 0.0000
0.9315 0.7257 0.0000
0.9813 0.7125 0.0000
1.0000 0.6990 0.0000
1.0000 0.6853 0.0000
0.0000 0.9295 0.0000
0.0000 0.9238 0.0000
0.0000 0.9178 0.0000
0.0198 0.9116 0.0000
0.0563 0.9051 0.0000
0.1006 0.8984 0.0000
0.1575 0.8913 0.0000
0.2321 0.8839 0.0000
0.3280 0.8762 0.0000
0.4475 0.8681 0.0000
0.5870 0.8597 0.0000
0.7262 0.8508 0.0000
0.8415 0.8415 0.0000
0.9198 0.8318 0.0000
0.9728 0.8216 0.0000
1.0000 0.8109 0.0000
1.0000 0.7998 0.0000
0.0000 0.9755 0.0000
0.0000 0.9713 0.0000
0.0000 0.9669 0.0000
0.0129 0.9623 0.0000
0.0485 0.9577 0.0000
0.0908 0.9529 0.0000
0.1449 0.9479 0.0000
0.2156 0.9428 0.0000
0.3072 0.9374 0.0000
0.4219 0.9319 0.0000
0.5588 0.9261 0.0000
0.7000 0.9200 0.0000
0.8220 0.9137 0.0000
0.9071 0.9071 0.0000
0.9638 0.9001 0.0000
1.0000 0.8928 0.0000
1.0000 0.8852 0.0000
0.0000 1.0000 0.0000
0.0000 1.0000 0.0000
0.0000 1.0000 0.0000
0.0061 1.0000 0.0000
0.0409 0.9983 0.0000
0.0815 0.9942 0.0000
0.1328 0.9902 0.0000
0.1998 0.9860 0.0000
0.2870 0.9818 0.0000
0.3970 0.9775 0.0000
0.5304 0.9731 0.0000
0.6728 0.9686 0.0000
0.8006 0.9640 0.0000
0.8931 0.9592 0.0000
0.9543 0.9543 0.0000
0.9996 0.9491 0.0000
1.0000 0.9438 0.0000
0.0000 1.0000 0.0000
0.0000 1.0000 0.0000
0.0000 1.0000 0.0000
0.0000 1.0000 0.0000
0.0334 1.0000 0.0000
0.0724 1.0000 0.0000
0.1212 1.0000 0.0000
0.1846 1.0000 0.0000
0.2675 1.0000 0.0000
0.3728 1.0000 0.0000
0.5021 1.0000 0.0000
0.6447 1.0000 0.0000
0.7774 1.0000 0.0000
0.8778 0.9998 0.0000
0.9440 0.9956 0.0000
0.9913 0.9913 0.0000
1.0000 0.9869 0.0000
0.0000 1.0000 0.0000
0.0000 1.0000 0.0000
0.0000 1.0000 0.0000
0.0000 1.0000 0.0000
0.0260 1.0000 0.0000
0.0637 1.0000 0.0000
0.1100 1.0000 0.0000
0.1700 1.0000 0.0000
0.2486 1.0000 0.0000
0.3492 1.0000 0.0000
0.4739 1.0000 0.0000
0.6157 1.0000 0.0000
0.7525 1.0000 0.0000
0.8608 1.0000 0.0000
0.9328 1.0000 0.0000
0.9827 1.0000 0.0000
1.0000 1.0000 0.0000
0.0000 0.0000 0.1316
0.0300 0.0000 0.1261
0.0681 0.0000 0.1206
0.1153 0.0000 0.1153
0.1766 0.0000 0.1101
0.2565 0.0000 0.1051
0.3583 0.0000 0.1002
0.4836 0.0000 0.0953
0.6245 0.0000 0.0906
0.7588 0.0000 0.0861
0.8640 0.0000 0.0816
0.9341 0.0000 0.0772
0.9830 0.0000 0.0729
1.0000 0.0000 0.0687
1.0000 0.0000 0.0646
1.0000 0.0000 0.0606
1.0000 0.0000 0.0566
0.0000 0.0267 0.1209
0.0233 0.0233 0.1156
0.0602 0.0199 0.1104
0.1054 0.0166 0.1054
0.1636 0.0133 0.1005
0.2397 0.0100 0.0956
0.3372 0.0067 0.0909
0.4580 0.0034 0.0864
0.5975 0.0001 0.0819
0.7349 0.0000 0.0775
0.8472 0.0000 0.0732
0.9230 0.0000 0.0690
0.9747 0.0000 0.0649
1.0000 0.0000 0.0609
1.0000 0.0000 0.0569
1.0000 0.0000 0.0530
