assets/luts/LUTs/JD_DLOG-M_CONVERSION 0.CUBE
TITLE "ColorFinale Export"
# Created by Jeven Dovey on 2023-04-18 19:49:29 +0000
# Color Finale Plugin v.2.6.0 (537)
LUT_3D_SIZE 17
0.0000 0.0000 0.0000
0.0051 0.0000 0.0000
0.0565 0.0000 0.0000
0.1226 0.0000 0.0000
0.1974 0.0000 0.0000
0.2785 0.0000 0.0000
0.3648 0.0000 0.0000
0.4556 0.0000 0.0000
0.5502 0.0000 0.0000
0.6483 0.0000 0.0000
0.7496 0.0000 0.0000
0.8537 0.0000 0.0000
0.9605 0.0000 0.0000
1.0000 0.0000 0.0000
1.0000 0.0000 0.0000
1.0000 0.0000 0.0000
1.0000 0.0000 0.0000
0.0000 0.0051 0.0000
0.0034 0.0034 0.0000
0.0554 0.0000 0.0000
0.1219 0.0000 0.0000
0.1968 0.0000 0.0000
0.2781 0.0000 0.0000
0.3645 0.0000 0.0000
0.4553 0.0000 0.0000
0.5500 0.0000 0.0000
0.6481 0.0000 0.0000
0.7494 0.0000 0.0000
0.8536 0.0000 0.0000
0.9604 0.0000 0.0000
1.0000 0.0000 0.0000
1.0000 0.0000 0.0000
1.0000 0.0000 0.0000
1.0000 0.0000 0.0000
0.0000 0.0565 0.0000
0.0000 0.0554 0.0000
0.0507 0.0507 0.0000
0.1188 0.0404 0.0000
0.1946 0.0216 0.0000
0.2763 0.0000 0.0000
0.3630 0.0000 0.0000
0.4541 0.0000 0.0000
0.5489 0.0000 0.0000
0.6472 0.0000 0.0000
0.7486 0.0000 0.0000
0.8528 0.0000 0.0000
0.9597 0.0000 0.0000
1.0000 0.0000 0.0000
1.0000 0.0000 0.0000
1.0000 0.0000 0.0000
1.0000 0.0000 0.0000
0.0000 0.1226 0.0000
0.0000 0.1219 0.0000
0.0404 0.1188 0.0000
0.1124 0.1124 0.0000
0.1899 0.1016 0.0000
0.2727 0.0850 0.0000
0.3601 0.0600 0.0000
0.4516 0.0188 0.0000
0.5468 0.0000 0.0000
0.6453 0.0000 0.0000
0.7469 0.0000 0.0000
0.8513 0.0000 0.0000
0.9583 0.0000 0.0000
1.0000 0.0000 0.0000
1.0000 0.0000 0.0000
1.0000 0.0000 0.0000
1.0000 0.0000 0.0000
0.0000 0.1974 0.0000
0.0000 0.1968 0.0000
0.0216 0.1946 0.0000
0.1016 0.1899 0.0000
0.1823 0.1823 0.0000
0.2668 0.1711 0.0000
0.3553 0.1554 0.0000
0.4476 0.1341 0.0000
0.5433 0.1047 0.0000
0.6423 0.0619 0.0000
0.7442 0.0000 0.0000
0.8489 0.0000 0.0000
0.9562 0.0000 0.0000
1.0000 0.0000 0.0000
1.0000 0.0000 0.0000
1.0000 0.0000 0.0000
1.0000 0.0000 0.0000
0.0000 0.2785 0.0000
0.0000 0.2781 0.0000
0.0000 0.2763 0.0000
0.0850 0.2727 0.0000
0.1711 0.2668 0.0000
0.2582 0.2582 0.0000
0.3484 0.2466 0.0000
0.4418 0.2314 0.0000
0.5384 0.2117 0.0000
0.6380 0.1865 0.0000
0.7404 0.1538 0.0000
0.8455 0.1095 0.0000
0.9531 0.0404 0.0000
1.0000 0.0000 0.0000
1.0000 0.0000 0.0000
1.0000 0.0000 0.0000
1.0000 0.0000 0.0000
0.0000 0.3648 0.0000
0.0000 0.3645 0.0000
0.0000 0.3630 0.0000
0.0600 0.3601 0.0000
0.1554 0.3553 0.0000
0.2466 0.3484 0.0000
0.3391 0.3391 0.0000
0.4341 0.3272 0.0000
0.5318 0.3121 0.0000
0.6322 0.2933 0.0000
0.7353 0.2703 0.0000
0.8409 0.2419 0.0000
0.9489 0.2064 0.0000
1.0000 0.1608 0.0000
1.0000 0.0969 0.0000
1.0000 0.0000 0.0000
1.0000 0.0000 0.0000
0.0000 0.4556 0.0000
0.0000 0.4553 0.0000
0.0000 0.4541 0.0000
0.0188 0.4516 0.0000
0.1341 0.4476 0.0000
0.2314 0.4418 0.0000
0.3272 0.4341 0.0000
0.4242 0.4242 0.0000
0.5234 0.4119 0.0000
0.6249 0.3968 0.0000
0.7288 0.3787 0.0000
0.8351 0.3569 0.0000
0.9437 0.3309 0.0000
1.0000 0.2997 0.0000
1.0000 0.2619 0.0000
1.0000 0.2150 0.0000
1.0000 0.1534 0.0000
0.0000 0.5502 0.0000
0.0000 0.5500 0.0000
0.0000 0.5489 0.0000
0.0000 0.5468 0.0000
0.1047 0.5433 0.0000
0.2117 0.5384 0.0000
0.3121 0.5318 0.0000
0.4119 0.5234 0.0000
0.5130 0.5130 0.0000
0.6159 0.5003 0.0000
0.7209 0.4852 0.0000
0.8280 0.4674 0.0000
0.9373 0.4465 0.0000
1.0000 0.4220 0.0000
1.0000 0.3934 0.0000
1.0000 0.3598 0.0000
1.0000 0.3199 0.0000
0.0000 0.6483 0.0000
0.0000 0.6481 0.0000
0.0000 0.6472 0.0000
0.0000 0.6453 0.0000
0.0619 0.6423 0.0000
0.1865 0.6380 0.0000
0.2933 0.6322 0.0000
0.3968 0.6249 0.0000
0.5003 0.6159 0.0000
0.6050 0.6050 0.0000
0.7113 0.5920 0.0000
0.8195 0.5769 0.0000
0.9296 0.5592 0.0000
1.0000 0.5389 0.0000
1.0000 0.5155 0.0000
1.0000 0.4886 0.0000
1.0000 0.4576 0.0000
0.0000 0.7496 0.0000
0.0000 0.7494 0.0000
0.0000 0.7486 0.0000
0.0000 0.7469 0.0000
0.0000 0.7442 0.0000
0.1538 0.7404 0.0000
0.2703 0.7353 0.0000
0.3787 0.7288 0.0000
0.4852 0.7209 0.0000
0.5920 0.7113 0.0000
0.7000 0.7000 0.0000
0.8094 0.6867 0.0000
0.9205 0.6715 0.0000
1.0000 0.6539 0.0000
1.0000 0.6340 0.0000
1.0000 0.6113 0.0000
1.0000 0.5856 0.0000
0.0000 0.8537 0.0000
0.0000 0.8536 0.0000
0.0000 0.8528 0.0000
0.0000 0.8513 0.0000
0.0000 0.8489 0.0000
0.1095 0.8455 0.0000
0.2419 0.8409 0.0000
0.3569 0.8351 0.0000
0.4674 0.8280 0.0000
0.5769 0.8195 0.0000
0.6867 0.8094 0.0000
0.7977 0.7977 0.0000
0.9099 0.7842 0.0000
1.0000 0.7688 0.0000
1.0000 0.7513 0.0000
1.0000 0.7317 0.0000
1.0000 0.7095 0.0000
0.0000 0.9605 0.0000
0.0000 0.9604 0.0000
0.0000 0.9597 0.0000
0.0000 0.9583 0.0000
0.0000 0.9562 0.0000
0.0404 0.9531 0.0000
0.2064 0.9489 0.0000
0.3309 0.9437 0.0000
0.4465 0.9373 0.0000
0.5592 0.9296 0.0000
0.6715 0.9205 0.0000
0.7842 0.9099 0.0000
0.8979 0.8979 0.0000
1.0000 0.8841 0.0000
1.0000 0.8686 0.0000
1.0000 0.8512 0.0000
1.0000 0.8317 0.0000
0.0000 1.0000 0.0000
0.0000 1.0000 0.0000
0.0000 1.0000 0.0000
0.0000 1.0000 0.0000
0.0000 1.0000 0.0000
0.0000 1.0000 0.0000
0.1608 1.0000 0.0000
0.2997 1.0000 0.0000
0.4220 1.0000 0.0000
0.5389 1.0000 0.0000
0.6539 1.0000 0.0000
0.7688 1.0000 0.0000
0.8841 1.0000 0.0000
1.0000 1.0000 0.0000
1.0000 0.9864 0.0000
1.0000 0.9708 0.0000
1.0000 0.9534 0.0000
0.0000 1.0000 0.0000
0.0000 1.0000 0.0000
0.0000 1.0000 0.0000
0.0000 1.0000 0.0000
0.0000 1.0000 0.0000
0.0000 1.0000 0.0000
0.0969 1.0000 0.0000
0.2619 1.0000 0.0000
0.3934 1.0000 0.0000
0.5155 1.0000 0.0000
0.6340 1.0000 0.0000
0.7513 1.0000 0.0000
0.8686 1.0000 0.0000
0.9864 1.0000 0.0000
1.0000 1.0000 0.0000
1.0000 1.0000 0.0000
1.0000 1.0000 0.0000
0.0000 1.0000 0.0000
0.0000 1.0000 0.0000
0.0000 1.0000 0.0000
0.0000 1.0000 0.0000
0.0000 1.0000 0.0000
0.0000 1.0000 0.0000
0.0000 1.0000 0.0000
0.2150 1.0000 0.0000
0.3598 1.0000 0.0000
0.4886 1.0000 0.0000
0.6113 1.0000 0.0000
0.7317 1.0000 0.0000
0.8512 1.0000 0.0000
0.9708 1.0000 0.0000
1.0000 1.0000 0.0000
1.0000 1.0000 0.0000
1.0000 1.0000 0.0000
0.0000 1.0000 0.0000
0.0000 1.0000 0.0000
0.0000 1.0000 0.0000
0.0000 1.0000 0.0000
0.0000 1.0000 0.0000
0.0000 1.0000 0.0000
0.0000 1.0000 0.0000
0.1534 1.0000 0.0000
0.3199 1.0000 0.0000
0.4576 1.0000 0.0000
0.5856 1.0000 0.0000
0.7095 1.0000 0.0000
0.8317 1.0000 0.0000
0.9534 1.0000 0.0000
1.0000 1.0000 0.0000
1.0000 1.0000 0.0000
1.0000 1.0000 0.0000
0.0000 0.0000 0.0051
0.0034 0.0000 0.0034
0.0554 0.0000 0.0000
0.1219 0.0000 0.0000
0.1968 0.0000 0.0000
0.2781 0.0000 0.0000
0.3645 0.0000 0.0000
0.4553 0.0000 0.0000
0.5500 0.0000 0.0000
0.6481 0.0000 0.0000
0.7494 0.0000 0.0000
0.8536 0.0000 0.0000
0.9604 0.0000 0.0000
1.0000 0.0000 0.0000
1.0000 0.0000 0.0000
1.0000 0.0000 0.0000
1.0000 0.0000 0.0000
0.0000 0.0034 0.0034
0.0017 0.0017 0.0017
0.0543 0.0000 0.0000
0.1212 0.0000 0.0000
0.1963 0.0000 0.0000
0.2777 0.0000 0.0000
0.3642 0.0000 0.0000
0.4550 0.0000 0.0000
0.5497 0.0000 0.0000
0.6479 0.0000 0.0000
0.7492 0.0000 0.0000
0.8534 0.0000 0.0000
0.9602 0.0000 0.0000
1.0000 0.0000 0.0000
1.0000 0.0000 0.0000
1.0000 0.0000 0.0000
1.0000 0.0000 0.0000
0.0000 0.0554 0.0000
0.0000 0.0543 0.0000
0.0496 0.0496 0.0000
0.1181 0.0392 0.0000
0.1940 0.0201 0.0000
0.2759 0.0000 0.0000
0.3627 0.0000 0.0000
0.4538 0.0000 0.0000
0.5487 0.0000 0.0000
0.6470 0.0000 0.0000
0.7484 0.0000 0.0000
0.8526 0.0000 0.0000
0.9596 0.0000 0.0000
1.0000 0.0000 0.0000
1.0000 0.0000 0.0000
1.0000 0.0000 0.0000
1.0000 0.0000 0.0000
0.0000 0.1219 0.0000
0.0000 0.1212 0.0000
0.0392 0.1181 0.0000
0.1116 0.1116 0.0000
0.1894 0.1008 0.0000
0.2722 0.0842 0.0000
0.3597 0.0590 0.0000
0.4513 0.0172 0.0000
0.5465 0.0000 0.0000
0.6451 0.0000 0.0000
0.7467 0.0000 0.0000
0.8511 0.0000 0.0000
0.9582 0.0000 0.0000
1.0000 0.0000 0.0000
1.0000 0.0000 0.0000
1.0000 0.0000 0.0000
1.0000 0.0000 0.0000
0.0000 0.1968 0.0000
0.0000 0.1963 0.0000
0.0201 0.1940 0.0000
0.1008 0.1894 0.0000
0.1817 0.1817 0.0000
0.2663 0.1705 0.0000
0.3549 0.1548 0.0000
0.4473 0.1334 0.0000
0.5431 0.1039 0.0000
0.6421 0.0608 0.0000
0.7440 0.0000 0.0000
0.8487 0.0000 0.0000
0.9560 0.0000 0.0000
1.0000 0.0000 0.0000
1.0000 0.0000 0.0000
1.0000 0.0000 0.0000
1.0000 0.0000 0.0000
0.0000 0.2781 0.0000
0.0000 0.2777 0.0000
0.0000 0.2759 0.0000
0.0842 0.2722 0.0000
0.1705 0.2663 0.0000
0.2578 0.2578 0.0000
0.3481 0.2462 0.0000
0.4415 0.2309 0.0000
0.5381 0.2112 0.0000
0.6378 0.1860 0.0000
0.7402 0.1532 0.0000
0.8453 0.1088 0.0000
0.9529 0.0391 0.0000
1.0000 0.0000 0.0000
1.0000 0.0000 0.0000
1.0000 0.0000 0.0000
1.0000 0.0000 0.0000
0.0000 0.3645 0.0000
0.0000 0.3642 0.0000
0.0000 0.3627 0.0000
0.0590 0.3597 0.0000
0.1548 0.3549 0.0000
0.2462 0.3481 0.0000
0.3388 0.3388 0.0000
0.4338 0.3268 0.0000
0.5316 0.3117 0.0000
0.6320 0.2929 0.0000
0.7351 0.2699 0.0000
0.8407 0.2414 0.0000
0.9488 0.2059 0.0000
1.0000 0.1601 0.0000
1.0000 0.0961 0.0000
1.0000 0.0000 0.0000
1.0000 0.0000 0.0000
0.0000 0.4553 0.0000
0.0000 0.4550 0.0000
0.0000 0.4538 0.0000
0.0172 0.4513 0.0000
0.1334 0.4473 0.0000
0.2309 0.4415 0.0000
0.3268 0.4338 0.0000
0.4239 0.4239 0.0000
0.5231 0.4116 0.0000
0.6247 0.3965 0.0000
0.7286 0.3783 0.0000
0.8349 0.3565 0.0000
0.9435 0.3305 0.0000
1.0000 0.2993 0.0000
1.0000 0.2615 0.0000
1.0000 0.2145 0.0000
1.0000 0.1527 0.0000
0.0000 0.5500 0.0000
0.0000 0.5497 0.0000
0.0000 0.5487 0.0000
0.0000 0.5465 0.0000
0.1039 0.5431 0.0000
0.2112 0.5381 0.0000
0.3117 0.5316 0.0000
0.4116 0.5231 0.0000
0.5127 0.5127 0.0000
0.6157 0.5001 0.0000
0.7207 0.4849 0.0000
0.8278 0.4671 0.0000
0.9371 0.4462 0.0000
1.0000 0.4217 0.0000
1.0000 0.3931 0.0000
1.0000 0.3594 0.0000
1.0000 0.3196 0.0000
0.0000 0.6481 0.0000
0.0000 0.6479 0.0000
0.0000 0.6470 0.0000
0.0000 0.6451 0.0000
0.0608 0.6421 0.0000
0.1860 0.6378 0.0000
0.2929 0.6320 0.0000
0.3965 0.6247 0.0000
0.5001 0.6157 0.0000
0.6048 0.6048 0.0000
0.7111 0.5918 0.0000
0.8193 0.5766 0.0000
0.9294 0.5590 0.0000
1.0000 0.5386 0.0000
1.0000 0.5152 0.0000
1.0000 0.4883 0.0000
1.0000 0.4573 0.0000
0.0000 0.7494 0.0000
0.0000 0.7492 0.0000
0.0000 0.7484 0.0000
0.0000 0.7467 0.0000
0.0000 0.7440 0.0000
0.1532 0.7402 0.0000
0.2699 0.7351 0.0000
0.3783 0.7286 0.0000
0.4849 0.7207 0.0000
0.5918 0.7111 0.0000
0.6998 0.6998 0.0000
0.8092 0.6865 0.0000
0.9203 0.6712 0.0000
1.0000 0.6537 0.0000
1.0000 0.6338 0.0000
1.0000 0.6111 0.0000
1.0000 0.5854 0.0000
0.0000 0.8536 0.0000
0.0000 0.8534 0.0000
0.0000 0.8526 0.0000
0.0000 0.8511 0.0000
0.0000 0.8487 0.0000
0.1088 0.8453 0.0000
0.2414 0.8407 0.0000
0.3565 0.8349 0.0000
0.4671 0.8278 0.0000
0.5766 0.8193 0.0000
0.6865 0.8092 0.0000
0.7975 0.7975 0.0000
0.9098 0.7840 0.0000
1.0000 0.7686 0.0000
1.0000 0.7511 0.0000
1.0000 0.7315 0.0000
1.0000 0.7093 0.0000
0.0000 0.9604 0.0000
0.0000 0.9602 0.0000
0.0000 0.9596 0.0000
0.0000 0.9582 0.0000
0.0000 0.9560 0.0000
0.0391 0.9529 0.0000
0.2059 0.9488 0.0000
0.3305 0.9435 0.0000
0.4462 0.9371 0.0000
0.5590 0.9294 0.0000
0.6712 0.9203 0.0000
0.7840 0.9098 0.0000
0.8977 0.8977 0.0000
1.0000 0.8840 0.0000
1.0000 0.8684 0.0000
1.0000 0.8510 0.0000
1.0000 0.8315 0.0000
0.0000 1.0000 0.0000
0.0000 1.0000 0.0000
0.0000 1.0000 0.0000
0.0000 1.0000 0.0000
0.0000 1.0000 0.0000
0.0000 1.0000 0.0000
0.1601 1.0000 0.0000
0.2993 1.0000 0.0000
0.4217 1.0000 0.0000
0.5386 1.0000 0.0000
0.6537 1.0000 0.0000
0.7686 1.0000 0.0000
0.8840 1.0000 0.0000
1.0000 1.0000 0.0000
1.0000 0.9863 0.0000
1.0000 0.9706 0.0000
1.0000 0.9532 0.0000
0.0000 1.0000 0.0000
0.0000 1.0000 0.0000
0.0000 1.0000 0.0000
0.0000 1.0000 0.0000
0.0000 1.0000 0.0000
0.0000 1.0000 0.0000
0.0961 1.0000 0.0000
0.2615 1.0000 0.0000
0.3931 1.0000 0.0000
0.5152 1.0000 0.0000
0.6338 1.0000 0.0000
0.7511 1.0000 0.0000
0.8684 1.0000 0.0000
0.9863 1.0000 0.0000
1.0000 1.0000 0.0000
1.0000 1.0000 0.0000
1.0000 1.0000 0.0000
0.0000 1.0000 0.0000
0.0000 1.0000 0.0000
0.0000 1.0000 0.0000
0.0000 1.0000 0.0000
0.0000 1.0000 0.0000
0.0000 1.0000 0.0000
0.0000 1.0000 0.0000
0.2145 1.0000 0.0000
0.3594 1.0000 0.0000
0.4883 1.0000 0.0000
0.6111 1.0000 0.0000
0.7315 1.0000 0.0000
0.8510 1.0000 0.0000
0.9706 1.0000 0.0000
1.0000 1.0000 0.0000
1.0000 1.0000 0.0000
1.0000 1.0000 0.0000
0.0000 1.0000 0.0000
0.0000 1.0000 0.0000
0.0000 1.0000 0.0000
0.0000 1.0000 0.0000
0.0000 1.0000 0.0000
0.0000 1.0000 0.0000
0.0000 1.0000 0.0000
0.1527 1.0000 0.0000
0.3196 1.0000 0.0000
0.4573 1.0000 0.0000
0.5854 1.0000 0.0000
0.7093 1.0000 0.0000
0.8315 1.0000 0.0000
0.9532 1.0000 0.0000
1.0000 1.0000 0.0000
1.0000 1.0000 0.0000
1.0000 1.0000 0.0000
0.0000 0.0000 0.0565
0.0000 0.0000 0.0554
0.0507 0.0000 0.0507
0.1188 0.0000 0.0404
0.1946 0.0000 0.0216
0.2763 0.0000 0.0000
0.3630 0.0000 0.0000
0.4541 0.0000 0.0000
0.5489 0.0000 0.0000
0.6472 0.0000 0.0000
0.7486 0.0000 0.0000
0.8528 0.0000 0.0000
0.9597 0.0000 0.0000
1.0000 0.0000 0.0000
1.0000 0.0000 0.0000
1.0000 0.0000 0.0000
1.0000 0.0000 0.0000
0.0000 0.0000 0.0554
0.0000 0.0000 0.0543
0.0496 0.0000 0.0496
0.1181 0.0000 0.0392
0.1940 0.0000 0.0201
0.2759 0.0000 0.0000
0.3627 0.0000 0.0000
0.4538 0.0000 0.0000
0.5487 0.0000 0.0000
0.6470 0.0000 0.0000
0.7484 0.0000 0.0000
0.8526 0.0000 0.0000
0.9596 0.0000 0.0000
1.0000 0.0000 0.0000
1.0000 0.0000 0.0000
1.0000 0.0000 0.0000
1.0000 0.0000 0.0000
0.0000 0.0507 0.0507
0.0000 0.0496 0.0496
0.0446 0.0446 0.0446
0.1149 0.0337 0.0337
0.1917 0.0133 0.0133
0.2741 0.0000 0.0000
0.3612 0.0000 0.0000
0.4526 0.0000 0.0000
0.5476 0.0000 0.0000
0.6461 0.0000 0.0000
0.7476 0.0000 0.0000
0.8519 0.0000 0.0000
0.9589 0.0000 0.0000
1.0000 0.0000 0.0000
1.0000 0.0000 0.0000
1.0000 0.0000 0.0000
1.0000 0.0000 0.0000
0.0000 0.1188 0.0404
0.0000 0.1181 0.0392
0.0337 0.1149 0.0337
0.1084 0.1084 0.0215
0.1870 0.0973 0.0000
0.2704 0.0803 0.0000
0.3583 0.0544 0.0000
0.4501 0.0102 0.0000
0.5455 0.0000 0.0000
0.6442 0.0000 0.0000
0.7459 0.0000 0.0000
0.8504 0.0000 0.0000
0.9575 0.0000 0.0000
1.0000 0.0000 0.0000
1.0000 0.0000 0.0000
1.0000 0.0000 0.0000
1.0000 0.0000 0.0000
0.0000 0.1946 0.0216
0.0000 0.1940 0.0201
0.0133 0.1917 0.0133
0.0973 0.1870 0.0000
0.1793 0.1793 0.0000
0.2645 0.1680 0.0000
0.3535 0.1521 0.0000
0.4460 0.1305 0.0000
0.5420 0.1005 0.0000
0.6411 0.0563 0.0000
0.7432 0.0000 0.0000
0.8480 0.0000 0.0000
0.9553 0.0000 0.0000
1.0000 0.0000 0.0000
1.0000 0.0000 0.0000
1.0000 0.0000 0.0000
1.0000 0.0000 0.0000
0.0000 0.2763 0.0000
0.0000 0.2759 0.0000
0.0000 0.2741 0.0000
0.0803 0.2704 0.0000
0.1680 0.2645 0.0000
0.2559 0.2559 0.0000
0.3466 0.2442 0.0000
0.4403 0.2289 0.0000
0.5371 0.2091 0.0000
0.6368 0.1836 0.0000
0.7394 0.1505 0.0000
0.8446 0.1055 0.0000
0.9522 0.0336 0.0000
1.0000 0.0000 0.0000
1.0000 0.0000 0.0000
1.0000 0.0000 0.0000
1.0000 0.0000 0.0000
0.0000 0.3630 0.0000
0.0000 0.3627 0.0000
0.0000 0.3612 0.0000
0.0544 0.3583 0.0000
0.1521 0.3535 0.0000
0.2442 0.3466 0.0000
0.3372 0.3372 0.0000
0.4325 0.3252 0.0000
0.5305 0.3100 0.0000
0.6311 0.2912 0.0000
0.7343 0.2680 0.0000
0.8400 0.2394 0.0000
0.9481 0.2037 0.0000
1.0000 0.1575 0.0000
1.0000 0.0925 0.0000
1.0000 0.0000 0.0000
1.0000 0.0000 0.0000
0.0000 0.4541 0.0000
0.0000 0.4538 0.0000
0.0000 0.4526 0.0000
0.0102 0.4501 0.0000
0.1305 0.4460 0.0000
0.2289 0.4403 0.0000
0.3252 0.4325 0.0000
0.4226 0.4226 0.0000
0.5220 0.4103 0.0000
0.6237 0.3952 0.0000
0.7278 0.3769 0.0000
0.8342 0.3551 0.0000
0.9429 0.3290 0.0000
1.0000 0.2976 0.0000
1.0000 0.2596 0.0000
1.0000 0.2123 0.0000
1.0000 0.1501 0.0000
0.0000 0.5489 0.0000
0.0000 0.5487 0.0000
0.0000 0.5476 0.0000
0.0000 0.5455 0.0000
0.1005 0.5420 0.0000
0.2091 0.5371 0.0000
0.3100 0.5305 0.0000
0.4103 0.5220 0.0000
0.5116 0.5116 0.0000
0.6147 0.4989 0.0000
0.7198 0.4838 0.0000
0.8271 0.4659 0.0000
0.9364 0.4449 0.0000
1.0000 0.4204 0.0000
1.0000 0.3917 0.0000
1.0000 0.3580 0.0000
1.0000 0.3180 0.0000
0.0000 0.6472 0.0000
0.0000 0.6470 0.0000
0.0000 0.6461 0.0000
0.0000 0.6442 0.0000
0.0563 0.6411 0.0000
0.1836 0.6368 0.0000
0.2912 0.6311 0.0000
0.3952 0.6237 0.0000
0.4989 0.6147 0.0000
0.6038 0.6038 0.0000
0.7102 0.5908 0.0000
0.8185 0.5756 0.0000
0.9287 0.5579 0.0000
1.0000 0.5375 0.0000
1.0000 0.5141 0.0000
1.0000 0.4871 0.0000
1.0000 0.4561 0.0000
0.0000 0.7486 0.0000
0.0000 0.7484 0.0000
0.0000 0.7476 0.0000
0.0000 0.7459 0.0000
0.0000 0.7432 0.0000
0.1505 0.7394 0.0000
0.2680 0.7343 0.0000
0.3769 0.7278 0.0000
0.4838 0.7198 0.0000
0.5908 0.7102 0.0000
0.6989 0.6989 0.0000
0.8084 0.6856 0.0000
0.9196 0.6703 0.0000
1.0000 0.6528 0.0000
1.0000 0.6328 0.0000
1.0000 0.6101 0.0000
1.0000 0.5844 0.0000
0.0000 0.8528 0.0000
0.0000 0.8526 0.0000
0.0000 0.8519 0.0000
0.0000 0.8504 0.0000
0.0000 0.8480 0.0000
0.1055 0.8446 0.0000
0.2394 0.8400 0.0000
0.3551 0.8342 0.0000
0.4659 0.8271 0.0000
0.5756 0.8185 0.0000
0.6856 0.8084 0.0000
0.7967 0.7967 0.0000
0.9091 0.7832 0.0000
1.0000 0.7678 0.0000
1.0000 0.7503 0.0000
1.0000 0.7306 0.0000
1.0000 0.7085 0.0000
0.0000 0.9597 0.0000
0.0000 0.9596 0.0000
0.0000 0.9589 0.0000
0.0000 0.9575 0.0000
0.0000 0.9553 0.0000
0.0336 0.9522 0.0000
0.2037 0.9481 0.0000
0.3290 0.9429 0.0000
0.4449 0.9364 0.0000
0.5579 0.9287 0.0000
0.6703 0.9196 0.0000
0.7832 0.9091 0.0000
0.8970 0.8970 0.0000
1.0000 0.8832 0.0000
1.0000 0.8677 0.0000
1.0000 0.8503 0.0000
1.0000 0.8308 0.0000
0.0000 1.0000 0.0000
0.0000 1.0000 0.0000
0.0000 1.0000 0.0000
0.0000 1.0000 0.0000
0.0000 1.0000 0.0000
0.0000 1.0000 0.0000
0.1575 1.0000 0.0000
0.2976 1.0000 0.0000
0.4204 1.0000 0.0000
0.5375 1.0000 0.0000
0.6528 1.0000 0.0000
0.7678 1.0000 0.0000
0.8832 1.0000 0.0000
0.9996 0.9996 0.0000
1.0000 0.9856 0.0000
1.0000 0.9700 0.0000
1.0000 0.9525 0.0000
0.0000 1.0000 0.0000
0.0000 1.0000 0.0000
0.0000 1.0000 0.0000
0.0000 1.0000 0.0000
0.0000 1.0000 0.0000
0.0000 1.0000 0.0000
0.0925 1.0000 0.0000
0.2596 1.0000 0.0000
0.3917 1.0000 0.0000
0.5141 1.0000 0.0000
0.6328 1.0000 0.0000
0.7503 1.0000 0.0000
0.8677 1.0000 0.0000
0.9856 1.0000 0.0000
1.0000 1.0000 0.0000
1.0000 1.0000 0.0000
1.0000 1.0000 0.0000
0.0000 1.0000 0.0000
0.0000 1.0000 0.0000
0.0000 1.0000 0.0000
0.0000 1.0000 0.0000
0.0000 1.0000 0.0000
0.0000 1.0000 0.0000
0.0000 1.0000 0.0000
0.2123 1.0000 0.0000
0.3580 1.0000 0.0000
0.4871 1.0000 0.0000
0.6101 1.0000 0.0000
0.7306 1.0000 0.0000
0.8503 1.0000 0.0000
0.9700 1.0000 0.0000
1.0000 1.0000 0.0000
1.0000 1.0000 0.0000
1.0000 1.0000 0.0000
0.0000 1.0000 0.0000
0.0000 1.0000 0.0000
0.0000 1.0000 0.0000
0.0000 1.0000 0.0000
0.0000 1.0000 0.0000
0.0000 1.0000 0.0000
0.0000 1.0000 0.0000
0.1501 1.0000 0.0000
0.3180 1.0000 0.0000
0.4561 1.0000 0.0000
0.5844 1.0000 0.0000
0.7085 1.0000 0.0000
0.8308 1.0000 0.0000
0.9525 1.0000 0.0000
1.0000 1.0000 0.0000
1.0000 1.0000 0.0000
1.0000 1.0000 0.0000
0.0000 0.0000 0.1226
0.0000 0.0000 0.1219
0.0404 0.0000 0.1188
0.1124 0.0000 0.1124
0.1899 0.0000 0.1016
0.2727 0.0000 0.0850
0.3601 0.0000 0.0600
0.4516 0.0000 0.0188
0.5468 0.0000 0.0000
0.6453 0.0000 0.0000
0.7469 0.0000 0.0000
0.8513 0.0000 0.0000
0.9583 0.0000 0.0000
1.0000 0.0000 0.0000
1.0000 0.0000 0.0000
1.0000 0.0000 0.0000
1.0000 0.0000 0.0000
0.0000 0.0000 0.1219
0.0000 0.0000 0.1212
0.0392 0.0000 0.1181
0.1116 0.0000 0.1116
0.1894 0.0000 0.1008
0.2722 0.0000 0.0842
0.3597 0.0000 0.0590
0.4513 0.0000 0.0172
0.5465 0.0000 0.0000
0.6451 0.0000 0.0000
0.7467 0.0000 0.0000
0.8511 0.0000 0.0000
0.9582 0.0000 0.0000
1.0000 0.0000 0.0000
1.0000 0.0000 0.0000
1.0000 0.0000 0.0000
