assets/luts/LUTs/JD_DLOG-M_CONVERSION 0.CUBE
TITLE "ColorFinale Export"
# Created by Jeven Dovey on 2023-04-18 19:49:29 +0000
# Color Finale Plugin v.2.6.0 (537)
LUT_3D_SIZE 9
0.0000 0.0000 0.0000
0.0565 0.0000 0.0000
0.1974 0.0000 0.0000
0.3648 0.0000 0.0000
0.5502 0.0000 0.0000
0.7496 0.0000 0.0000
0.9605 0.0000 0.0000
1.0000 0.0000 0.0000
1.0000 0.0000 0.0000
0.0000 0.0565 0.0000
0.0507 0.0507 0.0000
0.1946 0.0216 0.0000
0.3630 0.0000 0.0000
0.5489 0.0000 0.0000
0.7486 0.0000 0.0000
0.9597 0.0000 0.0000
1.0000 0.0000 0.0000
1.0000 0.0000 0.0000
0.0000 0.1974 0.0000
0.0216 0.1946 0.0000
0.1823 0.1823 0.0000
0.3553 0.1554 0.0000
0.5433 0.1047 0.0000
0.7442 0.0000 0.0000
0.9562 0.0000 0.0000
1.0000 0.0000 0.0000
1.0000 0.0000 0.0000
0.0000 0.3648 0.0000
0.0000 0.3630 0.0000
0.1554 0.3553 0.0000
0.3391 0.3391 0.0000
0.5318 0.3121 0.0000
0.7353 0.2703 0.0000
0.9489 0.2064 0.0000
1.0000 0.0969 0.0000
1.0000 0.0000 0.0000
0.0000 0.5502 0.0000
0.0000 0.5489 0.0000
0.1047 0.5433 0.0000
0.3121 0.5318 0.0000
0.5130 0.5130 0.0000
0.7209 0.4852 0.0000
0.9373 0.4465 0.0000
1.0000 0.3934 0.0000
1.0000 0.3199 0.0000
0.0000 0.7496 0.0000
0.0000 0.7486 0.0000
0.0000 0.7442 0.0000
0.2703 0.7353 0.0000
0.4852 0.7209 0.0000
0.7000 0.7000 0.0000
0.9205 0.6715 0.0000
1.0000 0.6340 0.0000
1.0000 0.5856 0.0000
0.0000 0.9605 0.0000
0.0000 0.9597 0.0000
0.0000 0.9562 0.0000
0.2064 0.9489 0.0000
0.4465 0.9373 0.0000
0.6715 0.9205 0.0000
0.8979 0.8979 0.0000
1.0000 0.8686 0.0000
1.0000 0.8317 0.0000
0.0000 1.0000 0.0000
0.0000 1.0000 0.0000
0.0000 1.0000 0.0000
0.0969 1.0000 0.0000
0.3934 1.0000 0.0000
0.6340 1.0000 0.0000
0.8686 1.0000 0.0000
1.0000 1.0000 0.0000
1.0000 1.0000 0.0000
0.0000 1.0000 0.0000
0.0000 1.0000 0.0000
0.0000 1.0000 0.0000
0.0000 1.0000 0.0000
0.3199 1.0000 0.0000
0.5856 1.0000 0.0000
0.8317 1.0000 0.0000
1.0000 1.0000 0.0000
1.0000 1.0000 0.0000
0.0000 0.0000 0.0565
0.0507 0.0000 0.0507
0.1946 0.0000 0.0216
0.3630 0.0000 0.0000
0.5489 0.0000 0.0000
0.7486 0.0000 0.0000
0.9597 0.0000 0.0000
1.0000 0.0000 0.0000
1.0000 0.0000 0.0000
0.0000 0.0507 0.0507
0.0446 0.0446 0.0446
0.1917 0.0133 0.0133
0.3612 0.0000 0.0000
0.5476 0.0000 0.0000
0.7476 0.0000 0.0000
0.9589 0.0000 0.0000
1.0000 0.0000 0.0000
1.0000 0.0000 0.0000
0.0000 0.1946 0.0216
0.0133 0.1917 0.0133
0.1793 0.1793 0.0000
0.3535 0.1521 0.0000
0.5420 0.1005 0.0000
0.7432 0.0000 0.0000
0.9553 0.0000 0.0000
1.0000 0.0000 0.0000
1.0000 0.0000 0.0000
0.0000 0.3630 0.0000
0.0000 0.3612 0.0000
0.1521 0.3535 0.0000
0.3372 0.3372 0.0000
0.5305 0.3100 0.0000
0.7343 0.2680 0.0000
0.9481 0.2037 0.0000
1.0000 0.0925 0.0000
1.0000 0.0000 0.0000
0.0000 0.5489 0.0000
0.0000 0.5476 0.0000
0.1005 0.5420 0.0000
0.3100 0.5305 0.0000
0.5116 0.5116 0.0000
0.7198 0.4838 0.0000
0.9364 0.4449 0.0000
1.0000 0.3917 0.0000
1.0000 0.3180 0.0000
0.0000 0.7486 0.0000
0.0000 0.7476 0.0000
0.0000 0.7432 0.0000
0.2680 0.7343 0.0000
0.4838 0.7198 0.0000
0.6989 0.6989 0.0000
0.9196 0.6703 0.0000
1.0000 0.6328 0.0000
1.0000 0.5844 0.0000
0.0000 0.9597 0.0000
0.0000 0.9589 0.0000
0.0000 0.9553 0.0000
0.2037 0.9481 0.0000
0.4449 0.9364 0.0000
0.6703 0.9196 0.0000
0.8970 0.8970 0.0000
1.0000 0.8677 0.0000
1.0000 0.8308 0.0000
0.0000 1.0000 0.0000
0.0000 1.0000 0.0000
0.0000 1.0000 0.0000
0.0925 1.0000 0.0000
0.3917 1.0000 0.0000
0.6328 1.0000 0.0000
0.8677 1.0000 0.0000
1.0000 1.0000 0.0000
1.0000 1.0000 0.0000
0.0000 1.0000 0.0000
0.0000 1.0000 0.0000
0.0000 1.0000 0.0000
0.0000 1.0000 0.0000
0.3180 1.0000 0.0000
0.5844 1.0000 0.0000
0.8308 1.0000 0.0000
1.0000 1.0000 0.0000
1.0000 1.0000 0.0000
0.0000 0.0000 0.1974
0.0216 0.0000 0.1946
0.1823 0.0000 0.1823
0.3553 0.0000 0.1554
0.5433 0.0000 0.1047
0.7442 0.0000 0.0000
0.9562 0.0000 0.0000
1.0000 0.0000 0.0000
1.0000 0.0000 0.0000
0.0000 0.0216 0.1946
0.0133 0.0133 0.1917
0.1793 0.0000 0.1793
0.3535 0.0000 0.1521
0.5420 0.0000 0.1005
0.7432 0.0000 0.0000
0.9553 0.0000 0.0000
1.0000 0.0000 0.0000
1.0000 0.0000 0.0000
0.0000 0.1823 0.1823
0.0000 0.1793 0.1793
0.1663 0.1663 0.1663
0.3455 0.1375 0.1375
0.5364 0.0813 0.0813
0.7388 0.0000 0.0000
0.9518 0.0000 0.0000
1.0000 0.0000 0.0000
1.0000 0.0000 0.0000
0.0000 0.3553 0.1554
0.0000 0.3535 0.1521
0.1375 0.3455 0.1375
0.3290 0.3290 0.1044
0.5247 0.3013 0.0319
0.7299 0.2583 0.0000
0.9445 0.1918 0.0000
1.0000 0.0723 0.0000
1.0000 0.0000 0.0000
0.0000 0.5433 0.1047
0.0000 0.5420 0.1005
0.0813 0.5364 0.0813
0.3013 0.5247 0.0319
0.5057 0.5057 0.0000
0.7153 0.4776 0.0000
0.9328 0.4383 0.0000
1.0000 0.3844 0.0000
1.0000 0.3094 0.0000
0.0000 0.7442 0.0000
0.0000 0.7432 0.0000
0.0000 0.7388 0.0000
0.2583 0.7299 0.0000
0.4776 0.7153 0.0000
0.6943 0.6943 0.0000
0.9159 0.6656 0.0000
1.0000 0.6278 0.0000
1.0000 0.5791 0.0000
0.0000 0.9562 0.0000
0.0000 0.9553 0.0000
0.0000 0.9518 0.0000
0.1918 0.9445 0.0000
0.4383 0.9328 0.0000
0.6656 0.9159 0.0000
0.8932 0.8932 0.0000
1.0000 0.8638 0.0000
1.0000 0.8268 0.0000
0.0000 1.0000 0.0000
0.0000 1.0000 0.0000
0.0000 1.0000 0.0000
0.0723 1.0000 0.0000
0.3844 1.0000 0.0000
0.6278 1.0000 0.0000
0.8638 1.0000 0.0000
1.0000 1.0000 0.0000
1.0000 1.0000 0.0000
0.0000 1.0000 0.0000
0.0000 1.0000 0.0000
0.0000 1.0000 0.0000
0.0000 1.0000 0.0000
0.3094 1.0000 0.0000
0.5791 1.0000 0.0000
0.8268 1.0000 0.0000
1.0000 1.0000 0.0000
1.0000 1.0000 0.0000
0.0000 0.0000 0.3648
0.0000 0.0000 0.3630
0.1554 0.0000 0.3553
0.3391 0.0000 0.3391
0.5318 0.0000 0.3121
0.7353 0.0000 0.2703
0.9489 0.0000 0.2064
1.0000 0.0000 0.0969
1.0000 0.0000 0.0000
0.0000 0.0000 0.3630
0.0000 0.0000 0.3612
0.1521 0.0000 0.3535
0.3372 0.0000 0.3372
0.5305 0.0000 0.3100
0.7343 0.0000 0.2680
0.9481 0.0000 0.2037
1.0000 0.0000 0.0925
1.0000 0.0000 0.0000
0.0000 0.1554 0.3553
0.0000 0.1521 0.3535
0.1375 0.1375 0.3455
0.3290 0.1044 0.3290
0.5247 0.0319 0.3013
0.7299 0.0000 0.2583
0.9445 0.0000 0.1918
1.0000 0.0000 0.0723
1.0000 0.0000 0.0000
0.0000 0.3391 0.3391
0.0000 0.3372 0.3372
0.1044 0.3290 0.3290
0.3119 0.3119 0.3119
0.5129 0.2830 0.2830
0.7208 0.2376 0.2376
0.9372 0.1660 0.1660
1.0000 0.0178 0.0178
1.0000 0.0000 0.0000
0.0000 0.5318 0.3121
0.0000 0.5305 0.3100
0.0319 0.5247 0.3013
0.2830 0.5129 0.2830
0.4935 0.4935 0.2517
0.7061 0.4648 0.2017
0.9254 0.4246 0.1179
1.0000 0.3692 0.0000
1.0000 0.2914 0.0000
0.0000 0.7353 0.2703
0.0000 0.7343 0.2680
0.0000 0.7299 0.2583
0.2376 0.7208 0.2376
0.4648 0.7061 0.2017
0.6848 0.6848 0.1413
0.9084 0.6558 0.0125
1.0000 0.6176 0.0000
1.0000 0.5681 0.0000
0.0000 0.9489 0.2064
0.0000 0.9481 0.2037
0.0000 0.9445 0.1918
0.1660 0.9372 0.1660
0.4246 0.9254 0.1179
0.6558 0.9084 0.0125
0.8856 0.8856 0.0000
1.0000 0.8560 0.0000
1.0000 0.8186 0.0000
0.0000 1.0000 0.0969
0.0000 1.0000 0.0925
0.0000 1.0000 0.0723
0.0178 1.0000 0.0178
0.3692 1.0000 0.0000
0.6176 1.0000 0.0000
0.8560 1.0000 0.0000
1.0000 1.0000 0.0000
1.0000 1.0000 0.0000
0.0000 1.0000 0.0000
0.0000 1.0000 0.0000
0.0000 1.0000 0.0000
0.0000 1.0000 0.0000
0.2914 1.0000 0.0000
0.5681 1.0000 0.0000
0.8186 1.0000 0.0000
1.0000 1.0000 0.0000
1.0000 1.0000 0.0000
0.0000 0.0000 0.5502
0.0000 0.0000 0.5489
0.1047 0.0000 0.5433
0.3121 0.0000 0.5318
0.5130 0.0000 0.5130
0.7209 0.0000 0.4852
0.9373 0.0000 0.4465
1.0000 0.0000 0.3934
1.0000 0.0000 0.3199
0.0000 0.0000 0.5489
0.0000 0.0000 0.5476
0.1005 0.0000 0.5420
0.3100 0.0000 0.5305
0.5116 0.0000 0.5116
0.7198 0.0000 0.4838
0.9364 0.0000 0.4449
1.0000 0.0000 0.3917
1.0000 0.0000 0.3180
0.0000 0.1047 0.5433
0.0000 0.1005 0.5420
0.0813 0.0813 0.5364
0.3013 0.0319 0.5247
0.5057 0.0000 0.5057
0.7153 0.0000 0.4776
0.9328 0.0000 0.4383
1.0000 0.0000 0.3844
1.0000 0.0000 0.3094
0.0000 0.3121 0.5318
0.0000 0.3100 0.5305
0.0319 0.3013 0.5247
0.2830 0.2830 0.5129
0.4935 0.2517 0.4935
0.7061 0.2017 0.4648
0.9254 0.1179 0.4246
1.0000 0.0000 0.3692
1.0000 0.0000 0.2914
0.0000 0.5130 0.5130
0.0000 0.5116 0.5116
0.0000 0.5057 0.5057
0.2517 0.4935 0.4935
0.4734 0.4734 0.4734
0.6912 0.4438 0.4438
0.9135 0.4020 0.4020
1.0000 0.3439 0.3439
1.0000 0.2609 0.2609
0.0000 0.7209 0.4852
0.0000 0.7198 0.4838
0.0000 0.7153 0.4776
0.2017 0.7061 0.4648
0.4438 0.6912 0.4438
0.6695 0.6695 0.4125
0.8963 0.6399 0.3681
1.0000 0.6009 0.3053
1.0000 0.5503 0.2124
0.0000 0.9373 0.4465
0.0000 0.9364 0.4449
0.0000 0.9328 0.4383
0.1179 0.9254 0.4246
0.4020 0.9135 0.4020
0.6399 0.8963 0.3681
0.8732 0.8732 0.3192
1.0000 0.8433 0.2479
1.0000 0.8054 0.1327
0.0000 1.0000 0.3934
0.0000 1.0000 0.3917
0.0000 1.0000 0.3844
0.0000 1.0000 0.3692
0.3439 1.0000 0.3439
0.6009 1.0000 0.3053
0.8433 1.0000 0.2479
1.0000 1.0000 0.1576
1.0000 1.0000 0.0000
0.0000 1.0000 0.3199
0.0000 1.0000 0.3180
0.0000 1.0000 0.3094
0.0000 1.0000 0.2914
0.2609 1.0000 0.2609
0.5503 1.0000 0.2124
0.8054 1.0000 0.1327
1.0000 1.0000 0.0000
1.0000 1.0000 0.0000
0.0000 0.0000 0.7496
0.0000 0.0000 0.7486
0.0000 0.0000 0.7442
0.2703 0.0000 0.7353
0.4852 0.0000 0.7209
0.7000 0.0000 0.7000
0.9205 0.0000 0.6715
1.0000 0.0000 0.6340
1.0000 0.0000 0.5856
0.0000 0.0000 0.7486
0.0000 0.0000 0.7476
0.0000 0.0000 0.7432
0.2680 0.0000 0.7343
0.4838 0.0000 0.7198
0.6989 0.0000 0.6989
0.9196 0.0000 0.6703
1.0000 0.0000 0.6328
1.0000 0.0000 0.5844
0.0000 0.0000 0.7442
0.0000 0.0000 0.7432
0.0000 0.0000 0.7388
0.2583 0.0000 0.7299
0.4776 0.0000 0.7153
0.6943 0.0000 0.6943
0.9159 0.0000 0.6656
1.0000 0.0000 0.6278
1.0000 0.0000 0.5791
0.0000 0.2703 0.7353
0.0000 0.2680 0.7343
0.0000 0.2583 0.7299
0.2376 0.2376 0.7208
0.4648 0.2017 0.7061
0.6848 0.1413 0.6848
0.9084 0.0125 0.6558
1.0000 0.0000 0.6176
1.0000 0.0000 0.5681
0.0000 0.4852 0.7209
0.0000 0.4838 0.7198
0.0000 0.4776 0.7153
0.2017 0.4648 0.7061
0.4438 0.4438 0.6912
0.6695 0.4125 0.6695
0.8963 0.3681 0.6399
1.0000 0.3053 0.6009
1.0000 0.2124 0.5503
0.0000 0.7000 0.7000
0.0000 0.6989 0.6989
0.0000 0.6943 0.6943
0.1413 0.6848 0.6848
0.4125 0.6695 0.6695
0.6473 0.6473 0.6473
0.8789 0.6168 0.6168
1.0000 0.5766 0.5766
1.0000 0.5241 0.5241
0.0000 0.9205 0.6715
0.0000 0.9196 0.6703
0.0000 0.9159 0.6656
0.0125 0.9084 0.6558
0.3681 0.8963 0.6399
0.6168 0.8789 0.6168
0.8554 0.8554 0.5851
1.0000 0.8249 0.5430
1.0000 0.7863 0.4878
0.0000 1.0000 0.6340
0.0000 1.0000 0.6328
0.0000 1.0000 0.6278
0.0000 1.0000 0.6176
0.3053 1.0000 0.6009
0.5766 1.0000 0.5766
0.8249 1.0000 0.5430
1.0000 1.0000 0.4981
1.0000 1.0000 0.4386
0.0000 1.0000 0.5856
0.0000 1.0000 0.5844
0.0000 1.0000 0.5791
0.0000 1.0000 0.5681
0.2124 1.0000 0.5503
0.5241 1.0000 0.5241
0.7863 1.0000 0.4878
1.0000 1.0000 0.4386
1.0000 1.0000 0.3719
0.0000 0.0000 0.9605
0.0000 0.0000 0.9597
0.0000 0.0000 0.9562
0.2064 0.0000 0.9489
0.4465 0.0000 0.9373
0.6715 0.0000 0.9205
0.8979 0.0000 0.8979
1.0000 0.0000 0.8686
1.0000 0.0000 0.8317
0.0000 0.0000 0.9597
0.0000 0.0000 0.9589
0.0000 0.0000 0.9553
0.2037 0.0000 0.9481
0.4449 0.0000 0.9364
0.6703 0.0000 0.9196
0.8970 0.0000 0.8970
1.0000 0.0000 0.8677
1.0000 0.0000 0.8308
0.0000 0.0000 0.9562
0.0000 0.0000 0.9553
0.0000 0.0000 0.9518
0.1918 0.0000 0.9445
0.4383 0.0000 0.9328
0.6656 0.0000 0.9159
0.8932 0.0000 0.8932
1.0000 0.0000 0.8638
1.0000 0.0000 0.8268
0.0000 0.2064 0.9489
0.0000 0.2037 0.9481
0.0000 0.1918 0.9445
0.1660 0.1660 0.9372
0.4246 0.1179 0.9254
0.6558 0.0125 0.9084
0.8856 0.0000 0.8856
1.0000 0.0000 0.8560
1.0000 0.0000 0.8186
0.0000 0.4465 0.9373
0.0000 0.4449 0.9364
0.0000 0.4383 0.9328
0.1179 0.4246 0.9254
0.4020 0.4020 0.9135
0.6399 0.3681 0.8963
0.8732 0.3192 0.8732
1.0000 0.2479 0.8433
1.0000 0.1327 0.8054
0.0000 0.6715 0.9205
0.0000 0.6703 0.9196
0.0000 0.6656 0.9159
0.0125 0.6558 0.9084
0.3681 0.6399 0.8963
0.6168 0.6168 0.8789
0.8554 0.5851 0.8554
1.0000 0.5430 0.8249
1.0000 0.4878 0.7863
0.0000 0.8979 0.8979
0.0000 0.8970 0.8970
0.0000 0.8932 0.8932
0.0000 0.8856 0.8856
0.3192 0.8732 0.8732
0.5851 0.8554 0.8554
0.8313 0.8313 0.8313
1.0000 0.8001 0.8001
1.0000 0.7605 0.7605
0.0000 1.0000 0.8686
0.0000 1.0000 0.8677
0.0000 1.0000 0.8638
0.0000 1.0000 0.8560
0.2479 1.0000 0.8433
0.5430 1.0000 0.8249
0.8001 1.0000 0.8001
1.0000 1.0000 0.7678
1.0000 1.0000 0.7268
0.0000 1.0000 0.8317
0.0000 1.0000 0.8308
0.0000 1.0000 0.8268
0.0000 1.0000 0.8186
0.1327 1.0000 0.8054
0.4878 1.0000 0.7863
0.7605 1.0000 0.7605
1.0000 1.0000 0.7268
1.0000 1.0000 0.6838
0.0000 0.0000 1.0000
0.0000 0.0000 1.0000
0.0000 0.0000 1.0000
0.0969 0.0000 1.0000
0.3934 0.0000 1.0000
0.6340 0.0000 1.0000
0.8686 0.0000 1.0000
1.0000 0.0000 1.0000
1.0000 0.0000 1.0000
0.0000 0.0000 1.0000
0.0000 0.0000 1.0000
0.0000 0.0000 1.0000
0.0925 0.0000 1.0000
0.3917 0.0000 1.0000
0.6328 0.0000 1.0000
0.8677 0.0000 1.0000
1.0000 0.0000 1.0000
1.0000 0.0000 1.0000
0.0000 0.0000 1.0000
0.0000 0.0000 1.0000
0.0000 0.0000 1.0000
0.0723 0.0000 1.0000
0.3844 0.0000 1.0000
0.6278 0.0000 1.0000
0.8638 0.0000 1.0000
1.0000 0.0000 1.0000
1.0000 0.0000 1.0000
0.0000 0.0969 1.0000
0.0000 0.0925 1.0000
0.0000 0.0723 1.0000
0.0178 0.0178 1.0000
0.3692 0.0000 1.0000
0.6176 0.0000 1.0000
0.8560 0.0000 1.0000
1.0000 0.0000 1.0000
1.0000 0.0000 1.0000
0.0000 0.3934 1.0000
0.0000 0.3917 1.0000
0.0000 0.3844 1.0000
0.0000 0.3692 1.0000
0.3439 0.3439 1.0000
0.6009 0.3053 1.0000
0.8433 0.2479 1.0000
1.0000 0.1576 1.0000
1.0000 0.0000 1.0000
0.0000 0.6340 1.0000
0.0000 0.6328 1.0000
0.0000 0.6278 1.0000
0.0000 0.6176 1.0000
0.3053 0.6009 1.0000
0.5766 0.5766 1.0000
0.8249 0.5430 1.0000
1.0000 0.4981 1.0000
1.0000 0.4386 1.0000
0.0000 0.8686 1.0000
0.0000 0.8677 1.0000
0.0000 0.8638 1.0000
0.0000 0.8560 1.0000
0.2479 0.8433 1.0000
0.5430 0.8249 1.0000
0.8001 0.8001 1.0000
1.0000 0.7678 1.0000
1.0000 0.7268 1.0000
0.0000 1.0000 1.0000
0.0000 1.0000 1.0000
0.0000 1.0000 1.0000
0.0000 1.0000 1.0000
0.1576 1.0000 1.0000
0.4981 1.0000 1.0000
0.7678 1.0000 1.0000
1.0000 1.0000 1.0000
1.0000 0.9922 0.9922
0.0000 1.0000 1.0000
0.0000 1.0000 1.0000
0.0000 1.0000 1.0000
0.0000 1.0000 1.0000
0.0000 1.0000 1.0000
0.4386 1.0000 1.0000
0.7268 1.0000 1.0000
0.9922 1.0000 0.9922
1.0000 1.0000 0.9593
0.0000 0.0000 1.0000
0.0000 0.0000 1.0000
0.0000 0.0000 1.0000
0.0000 0.0000 1.0000
0.3199 0.0000 1.0000
0.5856 0.0000 1.0000
0.8317 0.0000 1.0000
1.0000 0.0000 1.0000
1.0000 0.0000 1.0000
0.0000 0.0000 1.0000
0.0000 0.0000 1.0000
0.0000 0.0000 1.0000
0.0000 0.0000 1.0000
0.3180 0.0000 1.0000
0.5844 0.0000 1.0000
0.8308 0.0000 1.0000
1.0000 0.0000 1.0000
1.0000 0.0000 1.0000
0.0000 0.0000 1.0000
0.0000 0.0000 1.0000
0.0000 0.0000 1.0000
0.0000 0.0000 1.0000
0.3094 0.0000 1.0000
0.5791 0.0000 1.0000
0.8268 0.0000 1.0000
1.0000 0.0000 1.0000
1.0000 0.0000 1.0000
0.0000 0.0000 1.0000
0.0000 0.0000 1.0000
0.0000 0.0000 1.0000
0.0000 0.0000 1.0000
0.2914 0.0000 1.0000
0.5681 0.0000 1.0000
0.8186 0.0000 1.0000
1.0000 0.0000 1.0000
1.0000 0.0000 1.0000
0.0000 0.3199 1.0000
0.0000 0.3180 1.0000
0.0000 0.3094 1.0000
0.0000 0.2914 1.0000
0.2609 0.2609 1.0000
0.5503 0.2124 1.0000
0.8054 0.1327 1.0000
1.0000 0.0000 1.0000
1.0000 0.0000 1.0000
0.0000 0.5856 1.0000
0.0000 0.5844 1.0000
0.0000 0.5791 1.0000
0.0000 0.5681 1.0000
0.2124 0.5503 1.0000
0.5241 0.5241 1.0000
0.7863 0.4878 1.0000
1.0000 0.4386 1.0000
1.0000 0.3719 1.0000
0.0000 0.8317 1.0000
0.0000 0.8308 1.0000
0.0000 0.8268 1.0000
0.0000 0.8186 1.0000
0.1327 0.8054 1.0000
0.4878 0.7863 1.0000
0.7605 0.7605 1.0000
1.0000 0.7268 1.0000
1.0000 0.6838 1.0000
0.0000 1.0000 1.0000
0.0000 1.0000 1.0000
0.0000 1.0000 1.0000
0.0000 1.0000 1.0000
0.0000 1.0000 1.0000
0.4386 1.0000 1.0000
0.7268 1.0000 1.0000
0.9922 0.9922 1.0000
1.0000 0.9593 1.0000
0.0000 1.0000 1.0000
0.0000 1.0000 1.0000
0.0000 1.0000 1.0000
0.0000 1.0000 1.0000
0.0000 1.0000 1.0000
0.3719 1.0000 1.0000
0.6838 1.0000 1.0000
0.9593 1.0000 1.0000
1.0000 1.0000 1.0000
