assets/luts/LUTs/JD_DLOG-M_CONVERSION 0.CUBE
TITLE "ColorFinale Export"
# Created by Jeven Dovey on 2023-04-18 19:49:29 +0000
# Color Finale Plugin v.2.6.0 (537)
LUT_3D_SIZE 5
0.0000 0.0000 0.0000
0.1974 0.0000 0.0000
0.5502 0.0000 0.0000
0.9605 0.0000 0.0000
1.0000 0.0000 0.0000
0.0000 0.1974 0.0000
0.1823 0.1823 0.0000
0.5433 0.1047 0.0000
0.9562 0.0000 0.0000
1.0000 0.0000 0.0000
0.0000 0.5502 0.0000
0.1047 0.5433 0.0000
0.5130 0.5130 0.0000
0.9373 0.4465 0.0000
1.0000 0.3199 0.0000
0.0000 0.9605 0.0000
0.0000 0.9562 0.0000
0.4465 0.9373 0.0000
0.8979 0.8979 0.0000
1.0000 0.8317 0.0000
0.0000 1.0000 0.0000
0.0000 1.0000 0.0000
0.3199 1.0000 0.0000
0.8317 1.0000 0.0000
1.0000 1.0000 0.0000
0.0000 0.0000 0.1974
0.1823 0.0000 0.1823
0.5433 0.0000 0.1047
0.9562 0.0000 0.0000
1.0000 0.0000 0.0000
0.0000 0.1823 0.1823
0.1663 0.1663 0.1663
0.5364 0.0813 0.0813
0.9518 0.0000 0.0000
1.0000 0.0000 0.0000
0.0000 0.5433 0.1047
0.0813 0.5364 0.0813
0.5057 0.5057 0.0000
0.9328 0.4383 0.0000
1.0000 0.3094 0.0000
0.0000 0.9562 0.0000
0.0000 0.9518 0.0000
0.4383 0.9328 0.0000
0.8932 0.8932 0.0000
1.0000 0.8268 0.0000
0.0000 1.0000 0.0000
0.0000 1.0000 0.0000
0.3094 1.0000 0.0000
0.8268 1.0000 0.0000
1.0000 1.0000 0.0000
0.0000 0.0000 0.5502
0.1047 0.0000 0.5433
0.5130 0.0000 0.5130
0.9373 0.0000 0.4465
1.0000 0.0000 0.3199
0.0000 0.1047 0.5433
0.0813 0.0813 0.5364
0.5057 0.0000 0.5057
0.9328 0.0000 0.4383
1.0000 0.0000 0.3094
0.0000 0.5130 0.5130
0.0000 0.5057 0.5057
0.4734 0.4734 0.4734
0.9135 0.4020 0.4020
1.0000 0.2609 0.2609
0.0000 0.9373 0.4465
0.0000 0.9328 0.4383
0.4020 0.9135 0.4020
0.8732 0.8732 0.3192
1.0000 0.8054 0.1327
0.0000 1.0000 0.3199
0.0000 1.0000 0.3094
0.2609 1.0000 0.2609
0.8054 1.0000 0.1327
1.0000 1.0000 0.0000
0.0000 0.0000 0.9605
0.0000 0.0000 0.9562
0.4465 0.0000 0.9373
0.8979 0.0000 0.8979
1.0000 0.0000 0.8317
0.0000 0.0000 0.9562
0.0000 0.0000 0.9518
0.4383 0.0000 0.9328
0.8932 0.0000 0.8932
1.0000 0.0000 0.8268
0.0000 0.4465 0.9373
0.0000 0.4383 0.9328
0.4020 0.4020 0.9135
0.8732 0.3192 0.8732
1.0000 0.1327 0.8054
0.0000 0.8979 0.8979
0.0000 0.8932 0.8932
0.3192 0.8732 0.8732
0.8313 0.8313 0.8313
1.0000 0.7605 0.7605
0.0000 1.0000 0.8317
0.0000 1.0000 0.8268
0.1327 1.0000 0.8054
0.7605 1.0000 0.7605
1.0000 1.0000 0.6838
0.0000 0.0000 1.0000
0.0000 0.0000 1.0000
0.3199 0.0000 1.0000
0.8317 0.0000 1.0000
1.0000 0.0000 1.0000
0.0000 0.0000 1.0000
0.0000 0.0000 1.0000
0.3094 0.0000 1.0000
0.8268 0.0000 1.0000
1.0000 0.0000 1.0000
0.0000 0.3199 1.0000
0.0000 0.3094 1.0000
0.2609 0.2609 1.0000
0.8054 0.1327 1.0000
1.0000 0.0000 1.0000
0.0000 0.8317 1.0000
0.0000 0.8268 1.0000
0.1327 0.8054 1.0000
0.7605 0.7605 1.0000
1.0000 0.6838 1.0000
0.0000 1.0000 1.0000
0.0000 1.0000 1.0000
0.0000 1.0000 1.0000
0.6838 1.0000 1.0000
1.0000 1.0000 1.0000
