assets/luts/LUTs/JD_DLOG M CONVERSION +1.CUBE
TITLE "ColorFinale Export"
# Created by Jeven Dovey on 2023-09-01 21:14:10 +0000
# Color Finale Plugin v.2.6.0 (537)
LUT_3D_SIZE 5
0.0000 0.0000 0.0000
0.0999 0.0000 0.0000
0.4912 0.0000 0.0000
0.8703 0.0000 0.0000
0.9984 0.0000 0.0000
0.0000 0.0999 0.0000
0.0953 0.0953 0.0000
0.4885 0.0759 0.0000
0.8695 0.0394 0.0000
0.9984 0.0000 0.0000
0.0000 0.4912 0.0000
0.0759 0.4885 0.0000
0.4766 0.4766 0.0000
0.8659 0.4524 0.0000
0.9984 0.4129 0.0000
0.0000 0.8703 0.0000
0.0394 0.8695 0.0000
0.4524 0.8659 0.0000
0.8585 0.8585 0.0000
0.9984 0.8459 0.0000
0.0000 0.9984 0.0000
0.0000 0.9984 0.0000
0.4129 0.9984 0.0000
0.8459 0.9984 0.0000
0.9984 0.9984 0.0000
0.0000 0.0000 0.0999
0.0953 0.0000 0.0953
0.4885 0.0000 0.0759
0.8695 0.0000 0.0394
0.9984 0.0000 0.0000
0.0000 0.0953 0.0953
0.0907 0.0907 0.0907
0.4857 0.0715 0.0715
0.8686 0.0357 0.0357
0.9984 0.0000 0.0000
0.0000 0.4885 0.0759
0.0715 0.4857 0.0715
0.4739 0.4739 0.0530
0.8651 0.4496 0.0211
0.9984 0.4100 0.0000
0.0000 0.8695 0.0394
0.0357 0.8686 0.0357
0.4496 0.8651 0.0211
0.8576 0.8576 0.0000
0.9984 0.8450 0.0000
0.0000 0.9984 0.0000
0.0000 0.9984 0.0000
0.4100 0.9984 0.0000
0.8450 0.9984 0.0000
0.9984 0.9984 0.0000
0.0000 0.0000 0.4912
0.0759 0.0000 0.4885
0.4766 0.0000 0.4766
0.8659 0.0000 0.4524
0.9984 0.0000 0.4129
0.0000 0.0759 0.4885
0.0715 0.0715 0.4857
0.4739 0.0530 0.4739
0.8651 0.0211 0.4496
0.9984 0.0000 0.4100
0.0000 0.4766 0.4766
0.0530 0.4739 0.4739
0.4620 0.4620 0.4620
0.8615 0.4375 0.4375
0.9984 0.3976 0.3976
0.0000 0.8659 0.4524
0.0211 0.8651 0.4496
0.4375 0.8615 0.4375
0.8538 0.8538 0.4127
0.9984 0.8409 0.3717
0.0000 0.9984 0.4129
0.0000 0.9984 0.4100
0.3976 0.9984 0.3976
0.8409 0.9984 0.3717
0.9984 0.9984 0.3286
0.0000 0.0000 0.8703
0.0394 0.0000 0.8695
0.4524 0.0000 0.8659
0.8585 0.0000 0.8585
0.9984 0.0000 0.8459
0.0000 0.0394 0.8695
0.0357 0.0357 0.8686
0.4496 0.0211 0.8651
0.8576 0.0000 0.8576
0.9984 0.0000 0.8450
0.0000 0.4524 0.8659
0.0211 0.4496 0.8651
0.4375 0.4375 0.8615
0.8538 0.4127 0.8538
0.9984 0.3717 0.8409
0.0000 0.8585 0.8585
0.0000 0.8576 0.8576
0.4127 0.8538 0.8538
0.8459 0.8459 0.8459
0.9984 0.8323 0.8323
0.0000 0.9984 0.8459
0.0000 0.9984 0.8450
0.3717 0.9984 0.8409
0.8323 0.9984 0.8323
0.9984 0.9984 0.8178
0.0000 0.0000 0.9984
0.0000 0.0000 0.9984
0.4129 0.0000 0.9984
0.8459 0.0000 0.9984
0.9984 0.0000 0.9984
0.0000 0.0000 0.9984
0.0000 0.0000 0.9984
0.4100 0.0000 0.9984
0.8450 0.0000 0.9984
0.9984 0.0000 0.9984
0.0000 0.4129 0.9984
0.0000 0.4100 0.9984
0.3976 0.3976 0.9984
0.8409 0.3717 0.9984
0.9984 0.3286 0.9984
0.0000 0.8459 0.9984
0.0000 0.8450 0.9984
0.3717 0.8409 0.9984
0.8323 0.8323 0.9984
0.9984 0.8178 0.9984
0.0000 0.9984 0.9984
0.0000 0.9984 0.9984
0.3286 0.9984 0.9984
0.8178 0.9984 0.9984
0.9984 0.9984 0.9984
