assets/luts/LUTs/JD_DLOG M CONVERSION -1.CUBE
TITLE "ColorFinale Export"
# Created by Jeven Dovey on 2023-09-01 21:02:42 +0000
# Color Finale Plugin v.2.6.0 (537)
LUT_3D_SIZE 9
0.0000 0.0000 0.0000
0.0481 0.0000 0.0000
0.1473 0.0000 0.0000
0.2853 0.0000 0.0000
0.4633 0.0000 0.0000
0.6694 0.0000 0.0000
0.8312 0.0000 0.0000
0.9400 0.0000 0.0000
0.9841 0.0000 0.0000
0.0000 0.0481 0.0000
0.0463 0.0463 0.0000
0.1463 0.0385 0.0000
0.2846 0.0192 0.0000
0.4626 0.0000 0.0000
0.6689 0.0000 0.0000
0.8310 0.0000 0.0000
0.9399 0.0000 0.0000
0.9841 0.0000 0.0000
0.0000 0.1473 0.0000
0.0385 0.1463 0.0000
0.1420 0.1420 0.0000
0.2814 0.1329 0.0000
0.4599 0.1178 0.0000
0.6670 0.0946 0.0000
0.8299 0.0586 0.0000
0.9393 0.0000 0.0000
0.9841 0.0000 0.0000
0.0000 0.2853 0.0000
0.0192 0.2846 0.0000
0.1329 0.2814 0.0000
0.2748 0.2748 0.0000
0.4543 0.2641 0.0000
0.6632 0.2487 0.0000
0.8278 0.2276 0.0000
0.9382 0.1996 0.0000
0.9841 0.1628 0.0000
0.0000 0.4633 0.0000
0.0000 0.4626 0.0000
0.1178 0.4599 0.0000
0.2641 0.4543 0.0000
0.4453 0.4453 0.0000
0.6569 0.4325 0.0000
0.8243 0.4154 0.0000
0.9365 0.3935 0.0000
0.9841 0.3662 0.0000
0.0000 0.6694 0.0000
0.0000 0.6689 0.0000
0.0946 0.6670 0.0000
0.2487 0.6632 0.0000
0.4325 0.6569 0.0000
0.6478 0.6478 0.0000
0.8193 0.6354 0.0000
0.9339 0.6191 0.0000
0.9841 0.5982 0.0000
0.0000 0.8312 0.0000
0.0000 0.8310 0.0000
0.0586 0.8299 0.0000
0.2276 0.8278 0.0000
0.4154 0.8243 0.0000
0.6354 0.8193 0.0000
0.8125 0.8125 0.0000
0.9305 0.8035 0.0000
0.9841 0.7921 0.0000
0.0000 0.9400 0.0000
0.0000 0.9399 0.0000
0.0000 0.9393 0.0000
0.1996 0.9382 0.0000
0.3935 0.9365 0.0000
0.6191 0.9339 0.0000
0.8035 0.9305 0.0000
0.9260 0.9260 0.0000
0.9841 0.9202 0.0000
0.0000 0.9841 0.0000
0.0000 0.9841 0.0000
0.0000 0.9841 0.0000
0.1628 0.9841 0.0000
0.3662 0.9841 0.0000
0.5982 0.9841 0.0000
0.7921 0.9841 0.0000
0.9202 0.9841 0.0000
0.9841 0.9841 0.0000
0.0000 0.0000 0.0481
0.0463 0.0000 0.0463
0.1463 0.0000 0.0385
0.2846 0.0000 0.0192
0.4626 0.0000 0.0000
0.6689 0.0000 0.0000
0.8310 0.0000 0.0000
0.9399 0.0000 0.0000
0.9841 0.0000 0.0000
0.0000 0.0463 0.0463
0.0445 0.0445 0.0445
0.1453 0.0365 0.0365
0.2838 0.0164 0.0164
0.4620 0.0000 0.0000
0.6685 0.0000 0.0000
0.8308 0.0000 0.0000
0.9397 0.0000 0.0000
0.9841 0.0000 0.0000
0.0000 0.1463 0.0385
0.0365 0.1453 0.0365
0.1409 0.1409 0.0276
0.2806 0.1319 0.0000
0.4593 0.1167 0.0000
0.6666 0.0934 0.0000
0.8297 0.0570 0.0000
0.9392 0.0000 0.0000
0.9841 0.0000 0.0000
0.0000 0.2846 0.0192
0.0164 0.2838 0.0164
0.1319 0.2806 0.0000
0.2740 0.2740 0.0000
0.4537 0.2634 0.0000
0.6627 0.2479 0.0000
0.8276 0.2268 0.0000
0.9381 0.1988 0.0000
0.9841 0.1618 0.0000
0.0000 0.4626 0.0000
0.0000 0.4620 0.0000
0.1167 0.4593 0.0000
0.2634 0.4537 0.0000
0.4447 0.4447 0.0000
0.6565 0.4319 0.0000
0.8241 0.4147 0.0000
0.9364 0.3928 0.0000
0.9841 0.3655 0.0000
0.0000 0.6689 0.0000
0.0000 0.6685 0.0000
0.0934 0.6666 0.0000
0.2479 0.6627 0.0000
0.4319 0.6565 0.0000
0.6474 0.6474 0.0000
0.8191 0.6350 0.0000
0.9338 0.6186 0.0000
0.9841 0.5976 0.0000
0.0000 0.8310 0.0000
0.0000 0.8308 0.0000
0.0570 0.8297 0.0000
0.2268 0.8276 0.0000
0.4147 0.8241 0.0000
0.6350 0.8191 0.0000
0.8122 0.8122 0.0000
0.9303 0.8033 0.0000
0.9841 0.7918 0.0000
0.0000 0.9399 0.0000
0.0000 0.9397 0.0000
0.0000 0.9392 0.0000
0.1988 0.9381 0.0000
0.3928 0.9364 0.0000
0.6186 0.9338 0.0000
0.8033 0.9303 0.0000
0.9258 0.9258 0.0000
0.9841 0.9201 0.0000
0.0000 0.9841 0.0000
0.0000 0.9841 0.0000
0.0000 0.9841 0.0000
0.1618 0.9841 0.0000
0.3655 0.9841 0.0000
0.5976 0.9841 0.0000
0.7918 0.9841 0.0000
0.9201 0.9841 0.0000
0.9841 0.9841 0.0000
0.0000 0.0000 0.1473
0.0385 0.0000 0.1463
0.1420 0.0000 0.1420
0.2814 0.0000 0.1329
0.4599 0.0000 0.1178
0.6670 0.0000 0.0946
0.8299 0.0000 0.0586
0.9393 0.0000 0.0000
0.9841 0.0000 0.0000
0.0000 0.0385 0.1463
0.0365 0.0365 0.1453
0.1409 0.0276 0.1409
0.2806 0.0000 0.1319
0.4593 0.0000 0.1167
0.6666 0.0000 0.0934
0.8297 0.0000 0.0570
0.9392 0.0000 0.0000
0.9841 0.0000 0.0000
0.0000 0.1420 0.1420
0.0276 0.1409 0.1409
0.1365 0.1365 0.1365
0.2774 0.1273 0.1273
0.4565 0.1119 0.1119
0.6647 0.0880 0.0880
0.8287 0.0500 0.0500
0.9387 0.0000 0.0000
0.9841 0.0000 0.0000
0.0000 0.2814 0.1329
0.0000 0.2806 0.1319
0.1273 0.2774 0.1273
0.2708 0.2708 0.1177
0.4509 0.2600 0.1017
0.6608 0.2445 0.0764
0.8265 0.2232 0.0340
0.9376 0.1950 0.0000
0.9841 0.1577 0.0000
0.0000 0.4599 0.1178
0.0000 0.4593 0.1167
0.1119 0.4565 0.1119
0.2600 0.4509 0.1017
0.4419 0.4419 0.0843
0.6545 0.4291 0.0559
0.8230 0.4119 0.0000
0.9358 0.3899 0.0000
0.9841 0.3625 0.0000
0.0000 0.6670 0.0946
0.0000 0.6666 0.0934
0.0880 0.6647 0.0880
0.2445 0.6608 0.0764
0.4291 0.6545 0.0559
0.6454 0.6454 0.0162
0.8180 0.6329 0.0000
0.9332 0.6165 0.0000
0.9841 0.5953 0.0000
0.0000 0.8299 0.0586
0.0000 0.8297 0.0570
0.0500 0.8287 0.0500
0.2232 0.8265 0.0340
0.4119 0.8230 0.0000
0.6329 0.8180 0.0000
0.8111 0.8111 0.0000
0.9298 0.8021 0.0000
0.9841 0.7906 0.0000
0.0000 0.9393 0.0000
0.0000 0.9392 0.0000
0.0000 0.9387 0.0000
0.1950 0.9376 0.0000
0.3899 0.9358 0.0000
0.6165 0.9332 0.0000
0.8021 0.9298 0.0000
0.9252 0.9252 0.0000
0.9841 0.9195 0.0000
0.0000 0.9841 0.0000
0.0000 0.9841 0.0000
0.0000 0.9841 0.0000
0.1577 0.9841 0.0000
0.3625 0.9841 0.0000
0.5953 0.9841 0.0000
0.7906 0.9841 0.0000
0.9195 0.9841 0.0000
0.9841 0.9841 0.0000
0.0000 0.0000 0.2853
0.0192 0.0000 0.2846
0.1329 0.0000 0.2814
0.2748 0.0000 0.2748
0.4543 0.0000 0.2641
0.6632 0.0000 0.2487
0.8278 0.0000 0.2276
0.9382 0.0000 0.1996
0.9841 0.0000 0.1628
0.0000 0.0192 0.2846
0.0164 0.0164 0.2838
0.1319 0.0000 0.2806
0.2740 0.0000 0.2740
0.4537 0.0000 0.2634
0.6627 0.0000 0.2479
0.8276 0.0000 0.2268
0.9381 0.0000 0.1988
0.9841 0.0000 0.1618
0.0000 0.1329 0.2814
0.0000 0.1319 0.2806
0.1273 0.1273 0.2774
0.2708 0.1177 0.2708
0.4509 0.1017 0.2600
0.6608 0.0764 0.2445
0.8265 0.0340 0.2232
0.9376 0.0000 0.1950
0.9841 0.0000 0.1577
0.0000 0.2748 0.2748
0.0000 0.2740 0.2740
0.1177 0.2708 0.2708
0.2641 0.2641 0.2641
0.4453 0.2532 0.2532
0.6569 0.2375 0.2375
0.8243 0.2160 0.2160
0.9365 0.1873 0.1873
0.9841 0.1491 0.1491
0.0000 0.4543 0.2641
0.0000 0.4537 0.2634
0.1017 0.4509 0.2600
0.2532 0.4453 0.2532
0.4363 0.4363 0.2422
0.6505 0.4234 0.2262
0.8208 0.4061 0.2041
0.9347 0.3841 0.1746
0.9841 0.3565 0.1349
0.0000 0.6632 0.2487
0.0000 0.6627 0.2479
0.0764 0.6608 0.2445
0.2375 0.6569 0.2375
0.4234 0.6505 0.2262
0.6413 0.6413 0.2096
0.8157 0.6286 0.1867
0.9321 0.6120 0.1557
0.9841 0.5906 0.1133
0.0000 0.8278 0.2276
0.0000 0.8276 0.2268
0.0340 0.8265 0.2232
0.2160 0.8243 0.2160
0.4061 0.8208 0.2041
0.6286 0.8157 0.1867
0.8087 0.8087 0.1624
0.9286 0.7997 0.1290
0.9841 0.7880 0.0813
0.0000 0.9382 0.1996
0.0000 0.9381 0.1988
0.0000 0.9376 0.1950
0.1873 0.9365 0.1873
0.3841 0.9347 0.1746
0.6120 0.9321 0.1557
0.7997 0.9286 0.1290
0.9240 0.9240 0.0908
0.9841 0.9182 0.0270
0.0000 0.9841 0.1628
0.0000 0.9841 0.1618
0.0000 0.9841 0.1577
0.1491 0.9841 0.1491
0.3565 0.9841 0.1349
0.5906 0.9841 0.1133
0.7880 0.9841 0.0813
0.9182 0.9841 0.0270
0.9841 0.9841 0.0000
0.0000 0.0000 0.4633
0.0000 0.0000 0.4626
0.1178 0.0000 0.4599
0.2641 0.0000 0.4543
0.4453 0.0000 0.4453
0.6569 0.0000 0.4325
0.8243 0.0000 0.4154
0.9365 0.0000 0.3935
0.9841 0.0000 0.3662
0.0000 0.0000 0.4626
0.0000 0.0000 0.4620
0.1167 0.0000 0.4593
0.2634 0.0000 0.4537
0.4447 0.0000 0.4447
0.6565 0.0000 0.4319
0.8241 0.0000 0.4147
0.9364 0.0000 0.3928
0.9841 0.0000 0.3655
0.0000 0.1178 0.4599
0.0000 0.1167 0.4593
0.1119 0.1119 0.4565
0.2600 0.1017 0.4509
0.4419 0.0843 0.4419
0.6545 0.0559 0.4291
0.8230 0.0000 0.4119
0.9358 0.0000 0.3899
0.9841 0.0000 0.3625
0.0000 0.2641 0.4543
0.0000 0.2634 0.4537
0.1017 0.2600 0.4509
0.2532 0.2532 0.4453
0.4363 0.2422 0.4363
0.6505 0.2262 0.4234
0.8208 0.2041 0.4061
0.9347 0.1746 0.3841
0.9841 0.1349 0.3565
0.0000 0.4453 0.4453
0.0000 0.4447 0.4447
0.0843 0.4419 0.4419
0.2422 0.4363 0.4363
0.4272 0.4272 0.4272
0.6440 0.4142 0.4142
0.8172 0.3969 0.3969
0.9329 0.3747 0.3747
0.9841 0.3469 0.3469
0.0000 0.6569 0.4325
0.0000 0.6565 0.4319
0.0559 0.6545 0.4291
0.2262 0.6505 0.4234
0.4142 0.6440 0.4142
0.6346 0.6346 0.4012
0.8120 0.6217 0.3837
0.9302 0.6048 0.3612
0.9841 0.5830 0.3330
0.0000 0.8243 0.4154
0.0000 0.8241 0.4147
0.0000 0.8230 0.4119
0.2041 0.8208 0.4061
0.3969 0.8172 0.3969
0.6217 0.8120 0.3837
0.8049 0.8049 0.3659
0.9267 0.7957 0.3430
0.9841 0.7839 0.3144
0.0000 0.9365 0.3935
0.0000 0.9364 0.3928
0.0000 0.9358 0.3899
0.1746 0.9347 0.3841
0.3747 0.9329 0.3747
0.6048 0.9302 0.3612
0.7957 0.9267 0.3430
0.9220 0.9220 0.3196
0.9841 0.9161 0.2902
0.0000 0.9841 0.3662
0.0000 0.9841 0.3655
0.0000 0.9841 0.3625
0.1349 0.9841 0.3565
0.3469 0.9841 0.3469
0.5830 0.9841 0.3330
0.7839 0.9841 0.3144
0.9161 0.9841 0.2902
0.9841 0.9841 0.2595
0.0000 0.0000 0.6694
0.0000 0.0000 0.6689
0.0946 0.0000 0.6670
0.2487 0.0000 0.6632
0.4325 0.0000 0.6569
0.6478 0.0000 0.6478
0.8193 0.0000 0.6354
0.9339 0.0000 0.6191
0.9841 0.0000 0.5982
0.0000 0.0000 0.6689
0.0000 0.0000 0.6685
0.0934 0.0000 0.6666
0.2479 0.0000 0.6627
0.4319 0.0000 0.6565
0.6474 0.0000 0.6474
0.8191 0.0000 0.6350
0.9338 0.0000 0.6186
0.9841 0.0000 0.5976
0.0000 0.0946 0.6670
0.0000 0.0934 0.6666
0.0880 0.0880 0.6647
0.2445 0.0764 0.6608
0.4291 0.0559 0.6545
0.6454 0.0162 0.6454
0.8180 0.0000 0.6329
0.9332 0.0000 0.6165
0.9841 0.0000 0.5953
0.0000 0.2487 0.6632
0.0000 0.2479 0.6627
0.0764 0.2445 0.6608
0.2375 0.2375 0.6569
0.4234 0.2262 0.6505
0.6413 0.2096 0.6413
0.8157 0.1867 0.6286
0.9321 0.1557 0.6120
0.9841 0.1133 0.5906
0.0000 0.4325 0.6569
0.0000 0.4319 0.6565
0.0559 0.4291 0.6545
0.2262 0.4234 0.6505
0.4142 0.4142 0.6440
0.6346 0.4012 0.6346
0.8120 0.3837 0.6217
0.9302 0.3612 0.6048
0.9841 0.3330 0.5830
0.0000 0.6478 0.6478
0.0000 0.6474 0.6474
0.0162 0.6454 0.6454
0.2096 0.6413 0.6413
0.4012 0.6346 0.6346
0.6249 0.6249 0.6249
0.8067 0.6117 0.6117
0.9276 0.5943 0.5943
0.9841 0.5718 0.5718
0.0000 0.8193 0.6354
0.0000 0.8191 0.6350
0.0000 0.8180 0.6329
0.1867 0.8157 0.6286
0.3837 0.8120 0.6217
0.6117 0.8067 0.6117
0.7995 0.7995 0.5980
0.9239 0.7900 0.5799
0.9841 0.7779 0.5565
0.0000 0.9339 0.6191
0.0000 0.9338 0.6186
0.0000 0.9332 0.6165
0.1557 0.9321 0.6120
0.3612 0.9302 0.6048
0.5943 0.9276 0.5943
0.7900 0.9239 0.5799
0.9192 0.9192 0.5609
0.9841 0.9132 0.5364
0.0000 0.9841 0.5982
0.0000 0.9841 0.5976
0.0000 0.9841 0.5953
0.1133 0.9841 0.5906
0.3330 0.9841 0.5830
0.5718 0.9841 0.5718
0.7779 0.9841 0.5565
0.9132 0.9841 0.5364
0.9841 0.9841 0.5112
0.0000 0.0000 0.8312
0.0000 0.0000 0.8310
0.0586 0.0000 0.8299
0.2276 0.0000 0.8278
0.4154 0.0000 0.8243
0.6354 0.0000 0.8193
0.8125 0.0000 0.8125
0.9305 0.0000 0.8035
0.9841 0.0000 0.7921
0.0000 0.0000 0.8310
0.0000 0.0000 0.8308
0.0570 0.0000 0.8297
0.2268 0.0000 0.8276
0.4147 0.0000 0.8241
0.6350 0.0000 0.8191
0.8122 0.0000 0.8122
0.9303 0.0000 0.8033
0.9841 0.0000 0.7918
0.0000 0.0586 0.8299
0.0000 0.0570 0.8297
0.0500 0.0500 0.8287
0.2232 0.0340 0.8265
0.4119 0.0000 0.8230
0.6329 0.0000 0.8180
0.8111 0.0000 0.8111
0.9298 0.0000 0.8021
0.9841 0.0000 0.7906
0.0000 0.2276 0.8278
0.0000 0.2268 0.8276
0.0340 0.2232 0.8265
0.2160 0.2160 0.8243
0.4061 0.2041 0.8208
0.6286 0.1867 0.8157
0.8087 0.1624 0.8087
0.9286 0.1290 0.7997
0.9841 0.0813 0.7880
0.0000 0.4154 0.8243
0.0000 0.4147 0.8241
0.0000 0.4119 0.8230
0.2041 0.4061 0.8208
0.3969 0.3969 0.8172
0.6217 0.3837 0.8120
0.8049 0.3659 0.8049
0.9267 0.3430 0.7957
0.9841 0.3144 0.7839
0.0000 0.6354 0.8193
0.0000 0.6350 0.8191
0.0000 0.6329 0.8180
0.1867 0.6286 0.8157
0.3837 0.6217 0.8120
0.6117 0.6117 0.8067
0.7995 0.5980 0.7995
0.9239 0.5799 0.7900
0.9841 0.5565 0.7779
0.0000 0.8125 0.8125
0.0000 0.8122 0.8122
0.0000 0.8111 0.8111
0.1624 0.8087 0.8087
0.3659 0.8049 0.8049
0.5980 0.7995 0.7995
0.7920 0.7920 0.7920
0.9202 0.7822 0.7822
0.9841 0.7698 0.7698
0.0000 0.9305 0.8035
0.0000 0.9303 0.8033
0.0000 0.9298 0.8021
0.1290 0.9286 0.7997
0.3430 0.9267 0.7957
0.5799 0.9239 0.7900
0.7822 0.9202 0.7822
0.9153 0.9153 0.7721
0.9841 0.9091 0.7591
0.0000 0.9841 0.7921
0.0000 0.9841 0.7918
0.0000 0.9841 0.7906
0.0813 0.9841 0.7880
0.3144 0.9841 0.7839
0.5565 0.9841 0.7779
0.7698 0.9841 0.7698
0.9091 0.9841 0.7591
0.9841 0.9841 0.7455
0.0000 0.0000 0.9400
0.0000 0.0000 0.9399
0.0000 0.0000 0.9393
0.1996 0.0000 0.9382
0.3935 0.0000 0.9365
0.6191 0.0000 0.9339
0.8035 0.0000 0.9305
0.9260 0.0000 0.9260
0.9841 0.0000 0.9202
0.0000 0.0000 0.9399
0.0000 0.0000 0.9397
0.0000 0.0000 0.9392
0.1988 0.0000 0.9381
0.3928 0.0000 0.9364
0.6186 0.0000 0.9338
0.8033 0.0000 0.9303
0.9258 0.0000 0.9258
0.9841 0.0000 0.9201
0.0000 0.0000 0.9393
0.0000 0.0000 0.9392
0.0000 0.0000 0.9387
0.1950 0.0000 0.9376
0.3899 0.0000 0.9358
0.6165 0.0000 0.9332
0.8021 0.0000 0.9298
0.9252 0.0000 0.9252
0.9841 0.0000 0.9195
0.0000 0.1996 0.9382
0.0000 0.1988 0.9381
0.0000 0.1950 0.9376
0.1873 0.1873 0.9365
0.3841 0.1746 0.9347
0.6120 0.1557 0.9321
0.7997 0.1290 0.9286
0.9240 0.0908 0.9240
0.9841 0.0270 0.9182
0.0000 0.3935 0.9365
0.0000 0.3928 0.9364
0.0000 0.3899 0.9358
0.1746 0.3841 0.9347
0.3747 0.3747 0.9329
0.6048 0.3612 0.9302
0.7957 0.3430 0.9267
0.9220 0.3196 0.9220
0.9841 0.2902 0.9161
0.0000 0.6191 0.9339
0.0000 0.6186 0.9338
0.0000 0.6165 0.9332
0.1557 0.6120 0.9321
0.3612 0.6048 0.9302
0.5943 0.5943 0.9276
0.7900 0.5799 0.9239
0.9192 0.5609 0.9192
0.9841 0.5364 0.9132
0.0000 0.8035 0.9305
0.0000 0.8033 0.9303
0.0000 0.8021 0.9298
0.1290 0.7997 0.9286
0.3430 0.7957 0.9267
0.5799 0.7900 0.9239
0.7822 0.7822 0.9202
0.9153 0.7721 0.9153
0.9841 0.7591 0.9091
0.0000 0.9260 0.9260
0.0000 0.9258 0.9258
0.0000 0.9252 0.9252
0.0908 0.9240 0.9240
0.3196 0.9220 0.9220
0.5609 0.9192 0.9192
0.7721 0.9153 0.9153
0.9103 0.9103 0.9103
0.9841 0.9039 0.9039
0.0000 0.9841 0.9202
0.0000 0.9841 0.9201
0.0000 0.9841 0.9195
0.0270 0.9841 0.9182
0.2902 0.9841 0.9161
0.5364 0.9841 0.9132
0.7591 0.9841 0.9091
0.9039 0.9841 0.9039
0.9841 0.9841 0.8972
0.0000 0.0000 0.9841
0.0000 0.0000 0.9841
0.0000 0.0000 0.9841
0.1628 0.0000 0.9841
0.3662 0.0000 0.9841
0.5982 0.0000 0.9841
0.7921 0.0000 0.9841
0.9202 0.0000 0.9841
0.9841 0.0000 0.9841
0.0000 0.0000 0.9841
0.0000 0.0000 0.9841
0.0000 0.0000 0.9841
0.1618 0.0000 0.9841
0.3655 0.0000 0.9841
0.5976 0.0000 0.9841
0.7918 0.0000 0.9841
0.9201 0.0000 0.9841
0.9841 0.0000 0.9841
0.0000 0.0000 0.9841
0.0000 0.0000 0.9841
0.0000 0.0000 0.9841
0.1577 0.0000 0.9841
0.3625 0.0000 0.9841
0.5953 0.0000 0.9841
0.7906 0.0000 0.9841
0.9195 0.0000 0.9841
0.9841 0.0000 0.9841
0.0000 0.1628 0.9841
0.0000 0.1618 0.9841
0.0000 0.1577 0.9841
0.1491 0.1491 0.9841
0.3565 0.1349 0.9841
0.5906 0.1133 0.9841
0.7880 0.0813 0.9841
0.9182 0.0270 0.9841
0.9841 0.0000 0.9841
0.0000 0.3662 0.9841
0.0000 0.3655 0.9841
0.0000 0.3625 0.9841
0.1349 0.3565 0.9841
0.3469 0.3469 0.9841
0.5830 0.3330 0.9841
0.7839 0.3144 0.9841
0.9161 0.2902 0.9841
0.9841 0.2595 0.9841
0.0000 0.5982 0.9841
0.0000 0.5976 0.9841
0.0000 0.5953 0.9841
0.1133 0.5906 0.9841
0.3330 0.5830 0.9841
0.5718 0.5718 0.9841
0.7779 0.5565 0.9841
0.9132 0.5364 0.9841
0.9841 0.5112 0.9841
0.0000 0.7921 0.9841
0.0000 0.7918 0.9841
0.0000 0.7906 0.9841
0.0813 0.7880 0.9841
0.3144 0.7839 0.9841
0.5565 0.7779 0.9841
0.7698 0.7698 0.9841
0.9091 0.7591 0.9841
0.9841 0.7455 0.9841
0.0000 0.9202 0.9841
0.0000 0.9201 0.9841
0.0000 0.9195 0.9841
0.0270 0.9182 0.9841
0.2902 0.9161 0.9841
0.5364 0.9132 0.9841
0.7591 0.9091 0.9841
0.9039 0.9039 0.9841
0.9841 0.8972 0.9841
0.0000 0.9841 0.9841
0.0000 0.9841 0.9841
0.0000 0.9841 0.9841
0.0000 0.9841 0.9841
0.2595 0.9841 0.9841
0.5112 0.9841 0.9841
0.7455 0.9841 0.9841
0.8972 0.9841 0.9841
0.9841 0.9841 0.9841
