assets/luts/LUTs/JD_DLOG M CONVERSION +1.CUBE
TITLE "ColorFinale Export"
# Created by Jeven Dovey on 2023-09-01 21:14:10 +0000
# Color Finale Plugin v.2.6.0 (537)
LUT_3D_SIZE 9
0.0000 0.0000 0.0000
0.0142 0.0000 0.0000
0.0999 0.0000 0.0000
0.2808 0.0000 0.0000
0.4912 0.0000 0.0000
0.7146 0.0000 0.0000
0.8703 0.0000 0.0000
0.9634 0.0000 0.0000
0.9984 0.0000 0.0000
0.0000 0.0142 0.0000
0.0137 0.0137 0.0000
0.0990 0.0114 0.0000
0.2802 0.0071 0.0000
0.4907 0.0000 0.0000
0.7143 0.0000 0.0000
0.8701 0.0000 0.0000
0.9633 0.0000 0.0000
0.9984 0.0000 0.0000
0.0000 0.0999 0.0000
0.0114 0.0990 0.0000
0.0953 0.0953 0.0000
0.2773 0.0878 0.0000
0.4885 0.0759 0.0000
0.7129 0.0595 0.0000
0.8695 0.0394 0.0000
0.9630 0.0181 0.0000
0.9984 0.0000 0.0000
0.0000 0.2808 0.0000
0.0071 0.2802 0.0000
0.0878 0.2773 0.0000
0.2715 0.2715 0.0000
0.4839 0.2621 0.0000
0.7102 0.2484 0.0000
0.8681 0.2296 0.0000
0.9624 0.2047 0.0000
0.9984 0.1723 0.0000
0.0000 0.4912 0.0000
0.0000 0.4907 0.0000
0.0759 0.4885 0.0000
0.2621 0.4839 0.0000
0.4766 0.4766 0.0000
0.7057 0.4663 0.0000
0.8659 0.4524 0.0000
0.9615 0.4348 0.0000
0.9984 0.4129 0.0000
0.0000 0.7146 0.0000
0.0000 0.7143 0.0000
0.0595 0.7129 0.0000
0.2484 0.7102 0.0000
0.4663 0.7057 0.0000
0.6992 0.6992 0.0000
0.8628 0.6904 0.0000
0.9600 0.6790 0.0000
0.9984 0.6644 0.0000
0.0000 0.8703 0.0000
0.0000 0.8701 0.0000
0.0394 0.8695 0.0000
0.2296 0.8681 0.0000
0.4524 0.8659 0.0000
0.6904 0.8628 0.0000
0.8585 0.8585 0.0000
0.9581 0.8530 0.0000
0.9984 0.8459 0.0000
0.0000 0.9634 0.0000
0.0000 0.9633 0.0000
0.0181 0.9630 0.0000
0.2047 0.9624 0.0000
0.4348 0.9615 0.0000
0.6790 0.9600 0.0000
0.8530 0.9581 0.0000
0.9556 0.9556 0.0000
0.9984 0.9525 0.0000
0.0000 0.9984 0.0000
0.0000 0.9984 0.0000
0.0000 0.9984 0.0000
0.1723 0.9984 0.0000
0.4129 0.9984 0.0000
0.6644 0.9984 0.0000
0.8459 0.9984 0.0000
0.9525 0.9984 0.0000
0.9984 0.9984 0.0000
0.0000 0.0000 0.0142
0.0137 0.0000 0.0137
0.0990 0.0000 0.0114
0.2802 0.0000 0.0071
0.4907 0.0000 0.0000
0.7143 0.0000 0.0000
0.8701 0.0000 0.0000
0.9633 0.0000 0.0000
0.9984 0.0000 0.0000
0.0000 0.0137 0.0137
0.0131 0.0131 0.0131
0.0982 0.0109 0.0109
0.2795 0.0066 0.0066
0.4902 0.0000 0.0000
0.7140 0.0000 0.0000
0.8700 0.0000 0.0000
0.9633 0.0000 0.0000
0.9984 0.0000 0.0000
0.0000 0.0990 0.0114
0.0109 0.0982 0.0109
0.0944 0.0944 0.0088
0.2767 0.0869 0.0045
0.4880 0.0751 0.0000
0.7126 0.0587 0.0000
0.8693 0.0387 0.0000
0.9630 0.0176 0.0000
0.9984 0.0000 0.0000
0.0000 0.2802 0.0071
0.0066 0.2795 0.0066
0.0869 0.2767 0.0045
0.2709 0.2709 0.0000
0.4834 0.2614 0.0000
0.7099 0.2477 0.0000
0.8680 0.2289 0.0000
0.9624 0.2040 0.0000
0.9984 0.1715 0.0000
0.0000 0.4907 0.0000
0.0000 0.4902 0.0000
0.0751 0.4880 0.0000
0.2614 0.4834 0.0000
0.4761 0.4761 0.0000
0.7054 0.4657 0.0000
0.8658 0.4519 0.0000
0.9614 0.4342 0.0000
0.9984 0.4124 0.0000
0.0000 0.7143 0.0000
0.0000 0.7140 0.0000
0.0587 0.7126 0.0000
0.2477 0.7099 0.0000
0.4657 0.7054 0.0000
0.6989 0.6989 0.0000
0.8626 0.6901 0.0000
0.9600 0.6786 0.0000
0.9984 0.6640 0.0000
0.0000 0.8701 0.0000
0.0000 0.8700 0.0000
0.0387 0.8693 0.0000
0.2289 0.8680 0.0000
0.4519 0.8658 0.0000
0.6901 0.8626 0.0000
0.8583 0.8583 0.0000
0.9580 0.8528 0.0000
0.9984 0.8458 0.0000
0.0000 0.9633 0.0000
0.0000 0.9633 0.0000
0.0176 0.9630 0.0000
0.2040 0.9624 0.0000
0.4342 0.9614 0.0000
0.6786 0.9600 0.0000
0.8528 0.9580 0.0000
0.9555 0.9555 0.0000
0.9984 0.9524 0.0000
0.0000 0.9984 0.0000
0.0000 0.9984 0.0000
0.0000 0.9984 0.0000
0.1715 0.9984 0.0000
0.4124 0.9984 0.0000
0.6640 0.9984 0.0000
0.8458 0.9984 0.0000
0.9524 0.9984 0.0000
0.9984 0.9984 0.0000
0.0000 0.0000 0.0999
0.0114 0.0000 0.0990
0.0953 0.0000 0.0953
0.2773 0.0000 0.0878
0.4885 0.0000 0.0759
0.7129 0.0000 0.0595
0.8695 0.0000 0.0394
0.9630 0.0000 0.0181
0.9984 0.0000 0.0000
0.0000 0.0114 0.0990
0.0109 0.0109 0.0982
0.0944 0.0088 0.0944
0.2767 0.0045 0.0869
0.4880 0.0000 0.0751
0.7126 0.0000 0.0587
0.8693 0.0000 0.0387
0.9630 0.0000 0.0176
0.9984 0.0000 0.0000
0.0000 0.0953 0.0953
0.0088 0.0944 0.0944
0.0907 0.0907 0.0907
0.2738 0.0832 0.0832
0.4857 0.0715 0.0715
0.7112 0.0553 0.0553
0.8686 0.0357 0.0357
0.9627 0.0152 0.0152
0.9984 0.0000 0.0000
0.0000 0.2773 0.0878
0.0045 0.2767 0.0869
0.0832 0.2738 0.0832
0.2680 0.2680 0.0758
0.4812 0.2585 0.0642
0.7085 0.2447 0.0485
0.8673 0.2257 0.0298
0.9621 0.2006 0.0106
0.9984 0.1679 0.0000
0.0000 0.4885 0.0759
0.0000 0.4880 0.0751
0.0715 0.4857 0.0715
0.2585 0.4812 0.0642
0.4739 0.4739 0.0530
0.7040 0.4635 0.0382
0.8651 0.4496 0.0211
0.9611 0.4319 0.0038
0.9984 0.4100 0.0000
0.0000 0.7129 0.0595
0.0000 0.7126 0.0587
0.0553 0.7112 0.0553
0.2447 0.7085 0.0485
0.4635 0.7040 0.0382
0.6975 0.6975 0.0250
0.8619 0.6886 0.0103
0.9596 0.6771 0.0000
0.9984 0.6625 0.0000
0.0000 0.8695 0.0394
0.0000 0.8693 0.0387
0.0357 0.8686 0.0357
0.2257 0.8673 0.0298
0.4496 0.8651 0.0211
0.6886 0.8619 0.0103
0.8576 0.8576 0.0000
0.9577 0.8521 0.0000
0.9984 0.8450 0.0000
0.0000 0.9630 0.0181
0.0000 0.9630 0.0176
0.0152 0.9627 0.0152
0.2006 0.9621 0.0106
0.4319 0.9611 0.0038
0.6771 0.9596 0.0000
0.8521 0.9577 0.0000
0.9552 0.9552 0.0000
0.9984 0.9520 0.0000
0.0000 0.9984 0.0000
0.0000 0.9984 0.0000
0.0000 0.9984 0.0000
0.1679 0.9984 0.0000
0.4100 0.9984 0.0000
0.6625 0.9984 0.0000
0.8450 0.9984 0.0000
0.9520 0.9984 0.0000
0.9984 0.9984 0.0000
0.0000 0.0000 0.2808
0.0071 0.0000 0.2802
0.0878 0.0000 0.2773
0.2715 0.0000 0.2715
0.4839 0.0000 0.2621
0.7102 0.0000 0.2484
0.8681 0.0000 0.2296
0.9624 0.0000 0.2047
0.9984 0.0000 0.1723
0.0000 0.0071 0.2802
0.0066 0.0066 0.2795
0.0869 0.0045 0.2767
0.2709 0.0000 0.2709
0.4834 0.0000 0.2614
0.7099 0.0000 0.2477
0.8680 0.0000 0.2289
0.9624 0.0000 0.2040
0.9984 0.0000 0.1715
0.0000 0.0878 0.2773
0.0045 0.0869 0.2767
0.0832 0.0832 0.2738
0.2680 0.0758 0.2680
0.4812 0.0642 0.2585
0.7085 0.0485 0.2447
0.8673 0.0298 0.2257
0.9621 0.0106 0.2006
0.9984 0.0000 0.1679
0.0000 0.2715 0.2715
0.0000 0.2709 0.2709
0.0758 0.2680 0.2680
0.2620 0.2620 0.2620
0.4766 0.2525 0.2525
0.7057 0.2385 0.2385
0.8659 0.2193 0.2193
0.9615 0.1938 0.1938
0.9984 0.1606 0.1606
0.0000 0.4839 0.2621
0.0000 0.4834 0.2614
0.0642 0.4812 0.2585
0.2525 0.4766 0.2525
0.4693 0.4693 0.2426
0.7011 0.4589 0.2284
0.8637 0.4450 0.2087
0.9604 0.4272 0.1826
0.9984 0.4052 0.1488
0.0000 0.7102 0.2484
0.0000 0.7099 0.2477
0.0485 0.7085 0.2447
0.2385 0.7057 0.2385
0.4589 0.7011 0.2284
0.6946 0.6946 0.2136
0.8605 0.6856 0.1932
0.9590 0.6740 0.1663
0.9984 0.6592 0.1318
0.0000 0.8681 0.2296
0.0000 0.8680 0.2289
0.0298 0.8673 0.2257
0.2193 0.8659 0.2193
0.4450 0.8637 0.2087
0.6856 0.8605 0.1932
0.8562 0.8562 0.1720
0.9571 0.8506 0.1441
0.9984 0.8434 0.1090
0.0000 0.9624 0.2047
0.0000 0.9624 0.2040
0.0106 0.9621 0.2006
0.1938 0.9615 0.1938
0.4272 0.9604 0.1826
0.6740 0.9590 0.1663
0.8506 0.9571 0.1441
0.9545 0.9545 0.1154
0.9984 0.9513 0.0804
0.0000 0.9984 0.1723
0.0000 0.9984 0.1715
0.0000 0.9984 0.1679
0.1606 0.9984 0.1606
0.4052 0.9984 0.1488
0.6592 0.9984 0.1318
0.8434 0.9984 0.1090
0.9513 0.9984 0.0804
0.9984 0.9984 0.0475
0.0000 0.0000 0.4912
0.0000 0.0000 0.4907
0.0759 0.0000 0.4885
0.2621 0.0000 0.4839
0.4766 0.0000 0.4766
0.7057 0.0000 0.4663
0.8659 0.0000 0.4524
0.9615 0.0000 0.4348
0.9984 0.0000 0.4129
0.0000 0.0000 0.4907
0.0000 0.0000 0.4902
0.0751 0.0000 0.4880
0.2614 0.0000 0.4834
0.4761 0.0000 0.4761
0.7054 0.0000 0.4657
0.8658 0.0000 0.4519
0.9614 0.0000 0.4342
0.9984 0.0000 0.4124
0.0000 0.0759 0.4885
0.0000 0.0751 0.4880
0.0715 0.0715 0.4857
0.2585 0.0642 0.4812
0.4739 0.0530 0.4739
0.7040 0.0382 0.4635
0.8651 0.0211 0.4496
0.9611 0.0038 0.4319
0.9984 0.0000 0.4100
0.0000 0.2621 0.4839
0.0000 0.2614 0.4834
0.0642 0.2585 0.4812
0.2525 0.2525 0.4766
0.4693 0.2426 0.4693
0.7011 0.2284 0.4589
0.8637 0.2087 0.4450
0.9604 0.1826 0.4272
0.9984 0.1488 0.4052
0.0000 0.4766 0.4766
0.0000 0.4761 0.4761
0.0530 0.4739 0.4739
0.2426 0.4693 0.4693
0.4620 0.4620 0.4620
0.6965 0.4515 0.4515
0.8615 0.4375 0.4375
0.9594 0.4197 0.4197
0.9984 0.3976 0.3976
0.0000 0.7057 0.4663
0.0000 0.7054 0.4657
0.0382 0.7040 0.4635
0.2284 0.7011 0.4589
0.4515 0.6965 0.4515
0.6898 0.6898 0.4410
0.8582 0.6808 0.4269
0.9580 0.6690 0.4089
0.9984 0.6539 0.3865
0.0000 0.8659 0.4524
0.0000 0.8658 0.4519
0.0211 0.8651 0.4496
0.2087 0.8637 0.4450
0.4375 0.8615 0.4375
0.6808 0.8582 0.4269
0.8538 0.8538 0.4127
0.9560 0.8481 0.3945
0.9984 0.8409 0.3717
0.0000 0.9615 0.4348
0.0000 0.9614 0.4342
0.0038 0.9611 0.4319
0.1826 0.9604 0.4272
0.4197 0.9594 0.4197
0.6690 0.9580 0.4089
0.8481 0.9560 0.3945
0.9534 0.9534 0.3759
0.9984 0.9502 0.3526
0.0000 0.9984 0.4129
0.0000 0.9984 0.4124
0.0000 0.9984 0.4100
0.1488 0.9984 0.4052
0.3976 0.9984 0.3976
0.6539 0.9984 0.3865
0.8409 0.9984 0.3717
0.9502 0.9984 0.3526
0.9984 0.9984 0.3286
0.0000 0.0000 0.7146
0.0000 0.0000 0.7143
0.0595 0.0000 0.7129
0.2484 0.0000 0.7102
0.4663 0.0000 0.7057
0.6992 0.0000 0.6992
0.8628 0.0000 0.6904
0.9600 0.0000 0.6790
0.9984 0.0000 0.6644
0.0000 0.0000 0.7143
0.0000 0.0000 0.7140
0.0587 0.0000 0.7126
0.2477 0.0000 0.7099
0.4657 0.0000 0.7054
0.6989 0.0000 0.6989
0.8626 0.0000 0.6901
0.9600 0.0000 0.6786
0.9984 0.0000 0.6640
0.0000 0.0595 0.7129
0.0000 0.0587 0.7126
0.0553 0.0553 0.7112
0.2447 0.0485 0.7085
0.4635 0.0382 0.7040
0.6975 0.0250 0.6975
0.8619 0.0103 0.6886
0.9596 0.0000 0.6771
0.9984 0.0000 0.6625
0.0000 0.2484 0.7102
0.0000 0.2477 0.7099
0.0485 0.2447 0.7085
0.2385 0.2385 0.7057
0.4589 0.2284 0.7011
0.6946 0.2136 0.6946
0.8605 0.1932 0.6856
0.9590 0.1663 0.6740
0.9984 0.1318 0.6592
0.0000 0.4663 0.7057
0.0000 0.4657 0.7054
0.0382 0.4635 0.7040
0.2284 0.4589 0.7011
0.4515 0.4515 0.6965
0.6898 0.4410 0.6898
0.8582 0.4269 0.6808
0.9580 0.4089 0.6690
0.9984 0.3865 0.6539
0.0000 0.6992 0.6992
0.0000 0.6989 0.6989
0.0250 0.6975 0.6975
0.2136 0.6946 0.6946
0.4410 0.6898 0.6898
0.6830 0.6830 0.6830
0.8549 0.6738 0.6738
0.9565 0.6617 0.6617
0.9984 0.6463 0.6463
0.0000 0.8628 0.6904
0.0000 0.8626 0.6901
0.0103 0.8619 0.6886
0.1932 0.8605 0.6856
0.4269 0.8582 0.6808
0.6738 0.8549 0.6738
0.8505 0.8505 0.6643
0.9545 0.8447 0.6518
0.9984 0.8373 0.6360
0.0000 0.9600 0.6790
0.0000 0.9600 0.6786
0.0000 0.9596 0.6771
0.1663 0.9590 0.6740
0.4089 0.9580 0.6690
0.6617 0.9565 0.6617
0.8447 0.9545 0.6518
0.9519 0.9519 0.6389
0.9984 0.9486 0.6225
0.0000 0.9984 0.6644
0.0000 0.9984 0.6640
0.0000 0.9984 0.6625
0.1318 0.9984 0.6592
0.3865 0.9984 0.6539
0.6463 0.9984 0.6463
0.8373 0.9984 0.6360
0.9486 0.9984 0.6225
0.9984 0.9984 0.6052
0.0000 0.0000 0.8703
0.0000 0.0000 0.8701
0.0394 0.0000 0.8695
0.2296 0.0000 0.8681
0.4524 0.0000 0.8659
0.6904 0.0000 0.8628
0.8585 0.0000 0.8585
0.9581 0.0000 0.8530
0.9984 0.0000 0.8459
0.0000 0.0000 0.8701
0.0000 0.0000 0.8700
0.0387 0.0000 0.8693
0.2289 0.0000 0.8680
0.4519 0.0000 0.8658
0.6901 0.0000 0.8626
0.8583 0.0000 0.8583
0.9580 0.0000 0.8528
0.9984 0.0000 0.8458
0.0000 0.0394 0.8695
0.0000 0.0387 0.8693
0.0357 0.0357 0.8686
0.2257 0.0298 0.8673
0.4496 0.0211 0.8651
0.6886 0.0103 0.8619
0.8576 0.0000 0.8576
0.9577 0.0000 0.8521
0.9984 0.0000 0.8450
0.0000 0.2296 0.8681
0.0000 0.2289 0.8680
0.0298 0.2257 0.8673
0.2193 0.2193 0.8659
0.4450 0.2087 0.8637
0.6856 0.1932 0.8605
0.8562 0.1720 0.8562
0.9571 0.1441 0.8506
0.9984 0.1090 0.8434
0.0000 0.4524 0.8659
0.0000 0.4519 0.8658
0.0211 0.4496 0.8651
0.2087 0.4450 0.8637
0.4375 0.4375 0.8615
0.6808 0.4269 0.8582
0.8538 0.4127 0.8538
0.9560 0.3945 0.8481
0.9984 0.3717 0.8409
0.0000 0.6904 0.8628
0.0000 0.6901 0.8626
0.0103 0.6886 0.8619
0.1932 0.6856 0.8605
0.4269 0.6808 0.8582
0.6738 0.6738 0.8549
0.8505 0.6643 0.8505
0.9545 0.6518 0.8447
0.9984 0.6360 0.8373
0.0000 0.8585 0.8585
0.0000 0.8583 0.8583
0.0000 0.8576 0.8576
0.1720 0.8562 0.8562
0.4127 0.8538 0.8538
0.6643 0.8505 0.8505
0.8459 0.8459 0.8459
0.9524 0.8399 0.8399
0.9984 0.8323 0.8323
0.0000 0.9581 0.8530
0.0000 0.9580 0.8528
0.0000 0.9577 0.8521
0.1441 0.9571 0.8506
0.3945 0.9560 0.8481
0.6518 0.9545 0.8447
0.8399 0.9524 0.8399
0.9498 0.9498 0.8337
0.9984 0.9464 0.8259
0.0000 0.9984 0.8459
0.0000 0.9984 0.8458
0.0000 0.9984 0.8450
0.1090 0.9984 0.8434
0.3717 0.9984 0.8409
0.6360 0.9984 0.8373
0.8323 0.9984 0.8323
0.9464 0.9984 0.8259
0.9984 0.9984 0.8178
0.0000 0.0000 0.9634
0.0000 0.0000 0.9633
0.0181 0.0000 0.9630
0.2047 0.0000 0.9624
0.4348 0.0000 0.9615
0.6790 0.0000 0.9600
0.8530 0.0000 0.9581
0.9556 0.0000 0.9556
0.9984 0.0000 0.9525
0.0000 0.0000 0.9633
0.0000 0.0000 0.9633
0.0176 0.0000 0.9630
0.2040 0.0000 0.9624
0.4342 0.0000 0.9614
0.6786 0.0000 0.9600
0.8528 0.0000 0.9580
0.9555 0.0000 0.9555
0.9984 0.0000 0.9524
0.0000 0.0181 0.9630
0.0000 0.0176 0.9630
0.0152 0.0152 0.9627
0.2006 0.0106 0.9621
0.4319 0.0038 0.9611
0.6771 0.0000 0.9596
0.8521 0.0000 0.9577
0.9552 0.0000 0.9552
0.9984 0.0000 0.9520
0.0000 0.2047 0.9624
0.0000 0.2040 0.9624
0.0106 0.2006 0.9621
0.1938 0.1938 0.9615
0.4272 0.1826 0.9604
0.6740 0.1663 0.9590
0.8506 0.1441 0.9571
0.9545 0.1154 0.9545
0.9984 0.0804 0.9513
0.0000 0.4348 0.9615
0.0000 0.4342 0.9614
0.0038 0.4319 0.9611
0.1826 0.4272 0.9604
0.4197 0.4197 0.9594
0.6690 0.4089 0.9580
0.8481 0.3945 0.9560
0.9534 0.3759 0.9534
0.9984 0.3526 0.9502
0.0000 0.6790 0.9600
0.0000 0.6786 0.9600
0.0000 0.6771 0.9596
0.1663 0.6740 0.9590
0.4089 0.6690 0.9580
0.6617 0.6617 0.9565
0.8447 0.6518 0.9545
0.9519 0.6389 0.9519
0.9984 0.6225 0.9486
0.0000 0.8530 0.9581
0.0000 0.8528 0.9580
0.0000 0.8521 0.9577
0.1441 0.8506 0.9571
0.3945 0.8481 0.9560
0.6518 0.8447 0.9545
0.8399 0.8399 0.9524
0.9498 0.8337 0.9498
0.9984 0.8259 0.9464
0.0000 0.9556 0.9556
0.0000 0.9555 0.9555
0.0000 0.9552 0.9552
0.1154 0.9545 0.9545
0.3759 0.9534 0.9534
0.6389 0.9519 0.9519
0.8337 0.9498 0.9498
0.9470 0.9470 0.9470
0.9984 0.9435 0.9435
0.0000 0.9984 0.9525
0.0000 0.9984 0.9524
0.0000 0.9984 0.9520
0.0804 0.9984 0.9513
0.3526 0.9984 0.9502
0.6225 0.9984 0.9486
0.8259 0.9984 0.9464
0.9435 0.9984 0.9435
0.9984 0.9984 0.9399
0.0000 0.0000 0.9984
0.0000 0.0000 0.9984
0.0000 0.0000 0.9984
0.1723 0.0000 0.9984
0.4129 0.0000 0.9984
0.6644 0.0000 0.9984
0.8459 0.0000 0.9984
0.9525 0.0000 0.9984
0.9984 0.0000 0.9984
0.0000 0.0000 0.9984
0.0000 0.0000 0.9984
0.0000 0.0000 0.9984
0.1715 0.0000 0.9984
0.4124 0.0000 0.9984
0.6640 0.0000 0.9984
0.8458 0.0000 0.9984
0.9524 0.0000 0.9984
0.9984 0.0000 0.9984
0.0000 0.0000 0.9984
0.0000 0.0000 0.9984
0.0000 0.0000 0.9984
0.1679 0.0000 0.9984
0.4100 0.0000 0.9984
0.6625 0.0000 0.9984
0.8450 0.0000 0.9984
0.9520 0.0000 0.9984
0.9984 0.0000 0.9984
0.0000 0.1723 0.9984
0.0000 0.1715 0.9984
0.0000 0.1679 0.9984
0.1606 0.1606 0.9984
0.4052 0.1488 0.9984
0.6592 0.1318 0.9984
0.8434 0.1090 0.9984
0.9513 0.0804 0.9984
0.9984 0.0475 0.9984
0.0000 0.4129 0.9984
0.0000 0.4124 0.9984
0.0000 0.4100 0.9984
0.1488 0.4052 0.9984
0.3976 0.3976 0.9984
0.6539 0.3865 0.9984
0.8409 0.3717 0.9984
0.9502 0.3526 0.9984
0.9984 0.3286 0.9984
0.0000 0.6644 0.9984
0.0000 0.6640 0.9984
0.0000 0.6625 0.9984
0.1318 0.6592 0.9984
0.3865 0.6539 0.9984
0.6463 0.6463 0.9984
0.8373 0.6360 0.9984
0.9486 0.6225 0.9984
0.9984 0.6052 0.9984
0.0000 0.8459 0.9984
0.0000 0.8458 0.9984
0.0000 0.8450 0.9984
0.1090 0.8434 0.9984
0.3717 0.8409 0.9984
0.6360 0.8373 0.9984
0.8323 0.8323 0.9984
0.9464 0.8259 0.9984
0.9984 0.8178 0.9984
0.0000 0.9525 0.9984
0.0000 0.9524 0.9984
0.0000 0.9520 0.9984
0.0804 0.9513 0.9984
0.3526 0.9502 0.9984
0.6225 0.9486 0.9984
0.8259 0.9464 0.9984
0.9435 0.9435 0.9984
0.9984 0.9399 0.9984
0.0000 0.9984 0.9984
0.0000 0.9984 0.9984
0.0000 0.9984 0.9984
0.0475 0.9984 0.9984
0.3286 0.9984 0.9984
0.6052 0.9984 0.9984
0.8178 0.9984 0.9984
0.9399 0.9984 0.9984
0.9984 0.9984 0.9984
