assets/luts/LUTs/JD_DLOG M CONVERSION -1.CUBE
TITLE "ColorFinale Export"
# Created by Jeven Dovey on 2023-09-01 21:02:42 +0000
# Color Finale Plugin v.2.6.0 (537)
LUT_3D_SIZE 5
0.0000 0.0000 0.0000
0.1473 0.0000 0.0000
0.4633 0.0000 0.0000
0.8312 0.0000 0.0000
0.9841 0.0000 0.0000
0.0000 0.1473 0.0000
0.1420 0.1420 0.0000
0.4599 0.1178 0.0000
0.8299 0.0586 0.0000
0.9841 0.0000 0.0000
0.0000 0.4633 0.0000
0.1178 0.4599 0.0000
0.4453 0.4453 0.0000
0.8243 0.4154 0.0000
0.9841 0.3662 0.0000
0.0000 0.8312 0.0000
0.0586 0.8299 0.0000
0.4154 0.8243 0.0000
0.8125 0.8125 0.0000
0.9841 0.7921 0.0000
0.0000 0.9841 0.0000
0.0000 0.9841 0.0000
0.3662 0.9841 0.0000
0.7921 0.9841 0.0000
0.9841 0.9841 0.0000
0.0000 0.0000 0.1473
0.1420 0.0000 0.1420
0.4599 0.0000 0.1178
0.8299 0.0000 0.0586
0.9841 0.0000 0.0000
0.0000 0.1420 0.1420
0.1365 0.1365 0.1365
0.4565 0.1119 0.1119
0.8287 0.0500 0.0500
0.9841 0.0000 0.0000
0.0000 0.4599 0.1178
0.1119 0.4565 0.1119
0.4419 0.4419 0.0843
0.8230 0.4119 0.0000
0.9841 0.3625 0.0000
0.0000 0.8299 0.0586
0.0500 0.8287 0.0500
0.4119 0.8230 0.0000
0.8111 0.8111 0.0000
0.9841 0.7906 0.0000
0.0000 0.9841 0.0000
0.0000 0.9841 0.0000
0.3625 0.9841 0.0000
0.7906 0.9841 0.0000
0.9841 0.9841 0.0000
0.0000 0.0000 0.4633
0.1178 0.0000 0.4599
0.4453 0.0000 0.4453
0.8243 0.0000 0.4154
0.9841 0.0000 0.3662
0.0000 0.1178 0.4599
0.1119 0.1119 0.4565
0.4419 0.0843 0.4419
0.8230 0.0000 0.4119
0.9841 0.0000 0.3625
0.0000 0.4453 0.4453
0.0843 0.4419 0.4419
0.4272 0.4272 0.4272
0.8172 0.3969 0.3969
0.9841 0.3469 0.3469
0.0000 0.8243 0.4154
0.0000 0.8230 0.4119
0.3969 0.8172 0.3969
0.8049 0.8049 0.3659
0.9841 0.7839 0.3144
0.0000 0.9841 0.3662
0.0000 0.9841 0.3625
0.3469 0.9841 0.3469
0.7839 0.9841 0.3144
0.9841 0.9841 0.2595
0.0000 0.0000 0.8312
0.0586 0.0000 0.8299
0.4154 0.0000 0.8243
0.8125 0.0000 0.8125
0.9841 0.0000 0.7921
0.0000 0.0586 0.8299
0.0500 0.0500 0.8287
0.4119 0.0000 0.8230
0.8111 0.0000 0.8111
0.9841 0.0000 0.7906
0.0000 0.4154 0.8243
0.0000 0.4119 0.8230
0.3969 0.3969 0.8172
0.8049 0.3659 0.8049
0.9841 0.3144 0.7839
0.0000 0.8125 0.8125
0.0000 0.8111 0.8111
0.3659 0.8049 0.8049
0.7920 0.7920 0.7920
0.9841 0.7698 0.7698
0.0000 0.9841 0.7921
0.0000 0.9841 0.7906
0.3144 0.9841 0.7839
0.7698 0.9841 0.7698
0.9841 0.9841 0.7455
0.0000 0.0000 0.9841
0.0000 0.0000 0.9841
0.3662 0.0000 0.9841
0.7921 0.0000 0.9841
0.9841 0.0000 0.9841
0.0000 0.0000 0.9841
0.0000 0.0000 0.9841
0.3625 0.0000 0.9841
0.7906 0.0000 0.9841
0.9841 0.0000 0.9841
0.0000 0.3662 0.9841
0.0000 0.3625 0.9841
0.3469 0.3469 0.9841
0.7839 0.3144 0.9841
0.9841 0.2595 0.9841
0.0000 0.7921 0.9841
0.0000 0.7906 0.9841
0.3144 0.7839 0.9841
0.7698 0.7698 0.9841
0.9841 0.7455 0.9841
0.0000 0.9841 0.9841
0.0000 0.9841 0.9841
0.2595 0.9841 0.9841
0.7455 0.9841 0.9841
0.9841 0.9841 0.9841
