assets/luts/LUTs/JD_D-LOG_Conversion_1.CUBE
TITLE "ColorFinale Export"
# Created by Jeven Dovey on 2021-12-03 18:53:33 +0000
# Color Finale Plugin v.2.4.5 (531)
LUT_3D_SIZE 9
0.0000 0.0000 0.0000
0.0563 0.0000 0.0000
0.1810 0.0000 0.0000
0.4417 0.0000 0.0000
0.7478 0.0000 0.0000
0.9741 0.0000 0.0000
1.0000 0.0000 0.0000
1.0000 0.0000 0.0000
1.0000 0.0000 0.0000
0.0000 0.0522 0.0000
0.0480 0.0480 0.0000
0.1724 0.0391 0.0000
0.4328 0.0212 0.0000
0.7391 0.0011 0.0000
0.9658 0.0000 0.0000
1.0000 0.0000 0.0000
1.0000 0.0000 0.0000
1.0000 0.0000 0.0000
0.0000 0.1679 0.0000
0.0306 0.1635 0.0000
0.1542 0.1542 0.0000
0.4142 0.1356 0.0000
0.7207 0.1138 0.0000
0.9483 0.0973 0.0000
1.0000 0.0847 0.0000
1.0000 0.0798 0.0000
1.0000 0.0793 0.0000
0.0000 0.4096 0.0000
0.0000 0.4051 0.0000
0.1176 0.3956 0.0000
0.3764 0.3764 0.0000
0.6834 0.3539 0.0000
0.9122 0.3369 0.0000
1.0000 0.3237 0.0000
1.0000 0.3186 0.0000
1.0000 0.3182 0.0000
0.0000 0.6948 0.0000
0.0000 0.6904 0.0000
0.0753 0.6810 0.0000
0.3324 0.6619 0.0000
0.6396 0.6396 0.0000
0.8696 0.6225 0.0000
1.0000 0.6094 0.0000
1.0000 0.6043 0.0000
1.0000 0.6038 0.0000
0.0000 0.9075 0.0000
0.0000 0.9031 0.0000
0.0434 0.8940 0.0000
0.2990 0.8754 0.0000
0.6061 0.8536 0.0000
0.8369 0.8369 0.0000
1.0000 0.8240 0.0000
1.0000 0.8190 0.0000
1.0000 0.8185 0.0000
0.0000 1.0000 0.0000
0.0000 1.0000 0.0000
0.0194 1.0000 0.0000
0.2733 1.0000 0.0000
0.5802 1.0000 0.0000
0.8116 0.9967 0.0000
0.9847 0.9847 0.0000
1.0000 0.9800 0.0000
1.0000 0.9796 0.0000
0.0000 1.0000 0.0000
0.0000 1.0000 0.0000
0.0102 1.0000 0.0000
0.2633 1.0000 0.0000
0.5702 1.0000 0.0000
0.8017 1.0000 0.0000
0.9754 1.0000 0.0000
1.0000 1.0000 0.0000
1.0000 1.0000 0.0000
0.0000 1.0000 0.0000
0.0000 1.0000 0.0000
0.0094 1.0000 0.0000
0.2624 1.0000 0.0000
0.5692 1.0000 0.0000
0.8008 1.0000 0.0000
0.9746 1.0000 0.0000
1.0000 1.0000 0.0000
1.0000 1.0000 0.0000
0.0000 0.0000 0.0589
0.0547 0.0000 0.0547
0.1793 0.0000 0.0457
0.4399 0.0000 0.0278
0.7461 0.0000 0.0073
0.9725 0.0000 0.0000
1.0000 0.0000 0.0000
1.0000 0.0000 0.0000
1.0000 0.0000 0.0000
0.0000 0.0506 0.0506
0.0463 0.0463 0.0463
0.1707 0.0375 0.0375
0.4311 0.0197 0.0197
0.7374 0.0000 0.0000
0.9642 0.0000 0.0000
1.0000 0.0000 0.0000
1.0000 0.0000 0.0000
1.0000 0.0000 0.0000
0.0000 0.1662 0.0332
0.0290 0.1618 0.0290
0.1526 0.1526 0.0202
0.4124 0.1339 0.0029
0.7190 0.1122 0.0000
0.9467 0.0957 0.0000
1.0000 0.0830 0.0000
1.0000 0.0781 0.0000
1.0000 0.0777 0.0000
0.0000 0.4079 0.0000
0.0000 0.4034 0.0000
0.1160 0.3939 0.0000
0.3747 0.3747 0.0000
0.6817 0.3522 0.0000
0.9106 0.3352 0.0000
1.0000 0.3220 0.0000
1.0000 0.3169 0.0000
1.0000 0.3165 0.0000
0.0000 0.6931 0.0000
0.0000 0.6887 0.0000
0.0736 0.6793 0.0000
0.3307 0.6602 0.0000
0.6379 0.6379 0.0000
0.8679 0.6208 0.0000
1.0000 0.6076 0.0000
1.0000 0.6026 0.0000
1.0000 0.6021 0.0000
0.0000 0.9058 0.0000
0.0000 0.9015 0.0000
0.0418 0.8923 0.0000
0.2973 0.8737 0.0000
0.6044 0.8519 0.0000
0.8352 0.8352 0.0000
1.0000 0.8223 0.0000
1.0000 0.8173 0.0000
1.0000 0.8169 0.0000
0.0000 1.0000 0.0000
0.0000 1.0000 0.0000
0.0178 1.0000 0.0000
0.2716 1.0000 0.0000
0.5785 1.0000 0.0000
0.8099 0.9951 0.0000
0.9831 0.9831 0.0000
1.0000 0.9784 0.0000
1.0000 0.9780 0.0000
0.0000 1.0000 0.0000
0.0000 1.0000 0.0000
0.0087 1.0000 0.0000
0.2616 1.0000 0.0000
0.5684 1.0000 0.0000
0.8001 1.0000 0.0000
0.9738 1.0000 0.0000
1.0000 1.0000 0.0000
1.0000 1.0000 0.0000
0.0000 1.0000 0.0000
0.0000 1.0000 0.0000
0.0079 1.0000 0.0000
0.2607 1.0000 0.0000
0.5675 1.0000 0.0000
0.7992 1.0000 0.0000
0.9730 1.0000 0.0000
1.0000 1.0000 0.0000
1.0000 1.0000 0.0000
0.0000 0.0000 0.1894
0.0512 0.0000 0.1850
0.1758 0.0000 0.1758
0.4363 0.0000 0.1570
0.7425 0.0000 0.1352
0.9691 0.0000 0.1186
1.0000 0.0000 0.1059
1.0000 0.0000 0.1009
1.0000 0.0000 0.1005
0.0000 0.0472 0.1808
0.0430 0.0430 0.1764
0.1672 0.0341 0.1672
0.4275 0.0163 0.1484
0.7338 0.0000 0.1266
0.9608 0.0000 0.1101
1.0000 0.0000 0.0974
1.0000 0.0000 0.0925
1.0000 0.0000 0.0920
0.0000 0.1627 0.1627
0.0256 0.1583 0.1583
0.1491 0.1491 0.1491
0.4088 0.1304 0.1304
0.7155 0.1087 0.1087
0.9432 0.0922 0.0922
1.0000 0.0796 0.0796
1.0000 0.0747 0.0747
1.0000 0.0742 0.0742
0.0000 0.4043 0.1260
0.0000 0.3998 0.1216
0.1125 0.3903 0.1125
0.3711 0.3711 0.0940
0.6781 0.3486 0.0725
0.9071 0.3316 0.0562
1.0000 0.3184 0.0438
1.0000 0.3134 0.0390
1.0000 0.3129 0.0386
0.0000 0.6895 0.0835
0.0000 0.6851 0.0792
0.0702 0.6757 0.0702
0.3271 0.6566 0.0520
0.6343 0.6343 0.0309
0.8644 0.6172 0.0152
1.0000 0.6040 0.0033
1.0000 0.5990 0.0000
1.0000 0.5985 0.0000
0.0000 0.9023 0.0516
0.0000 0.8980 0.0473
0.0385 0.8889 0.0385
0.2937 0.8702 0.0206
0.6008 0.8484 0.0005
0.8317 0.8317 0.0000
1.0000 0.8188 0.0000
1.0000 0.8138 0.0000
1.0000 0.8133 0.0000
0.0000 1.0000 0.0273
0.0000 1.0000 0.0232
0.0145 1.0000 0.0145
0.2680 1.0000 0.0000
0.5749 1.0000 0.0000
0.8063 0.9919 0.0000
0.9798 0.9798 0.0000
1.0000 0.9751 0.0000
1.0000 0.9746 0.0000
0.0000 1.0000 0.0181
0.0000 1.0000 0.0140
0.0055 1.0000 0.0055
0.2581 1.0000 0.0000
0.5648 1.0000 0.0000
0.7965 1.0000 0.0000
0.9705 1.0000 0.0000
1.0000 1.0000 0.0000
1.0000 1.0000 0.0000
0.0000 1.0000 0.0172
0.0000 1.0000 0.0132
0.0047 1.0000 0.0047
0.2572 1.0000 0.0000
0.5639 1.0000 0.0000
0.7956 1.0000 0.0000
0.9696 1.0000 0.0000
1.0000 1.0000 0.0000
1.0000 1.0000 0.0000
0.0000 0.0000 0.4623
0.0443 0.0000 0.4578
0.1686 0.0000 0.4483
0.4290 0.0000 0.4290
0.7353 0.0000 0.4064
0.9622 0.0000 0.3893
1.0000 0.0000 0.3761
1.0000 0.0000 0.3710
1.0000 0.0000 0.3705
0.0000 0.0403 0.4534
0.0361 0.0361 0.4489
0.1600 0.0273 0.4394
0.4201 0.0097 0.4201
0.7266 0.0000 0.3976
0.9539 0.0000 0.3805
1.0000 0.0000 0.3673
1.0000 0.0000 0.3622
1.0000 0.0000 0.3617
0.0000 0.1555 0.4348
0.0189 0.1511 0.4303
0.1419 0.1419 0.4208
0.4015 0.1233 0.4015
0.7082 0.1016 0.3790
0.9363 0.0852 0.3619
1.0000 0.0726 0.3487
1.0000 0.0677 0.3436
1.0000 0.0673 0.3432
0.0000 0.3969 0.3969
0.0000 0.3924 0.3924
0.1054 0.3830 0.3830
0.3637 0.3637 0.3637
0.6708 0.3413 0.3413
0.9000 0.3243 0.3243
1.0000 0.3111 0.3111
1.0000 0.3061 0.3061
1.0000 0.3056 0.3056
0.0000 0.6823 0.3528
0.0000 0.6778 0.3484
0.0632 0.6684 0.3389
0.3198 0.6493 0.3198
0.6270 0.6270 0.2975
0.8573 0.6099 0.2805
1.0000 0.5967 0.2674
1.0000 0.5916 0.2624
1.0000 0.5912 0.2619
0.0000 0.8953 0.3194
0.0000 0.8909 0.3149
0.0316 0.8818 0.3055
0.2864 0.8631 0.2864
0.5934 0.8412 0.2642
0.8245 0.8245 0.2472
0.9967 0.8116 0.2342
1.0000 0.8066 0.2292
1.0000 0.8062 0.2287
0.0000 1.0000 0.2936
0.0000 1.0000 0.2892
0.0079 1.0000 0.2798
0.2607 1.0000 0.2607
0.5675 1.0000 0.2385
0.7992 0.9852 0.2217
0.9730 0.9730 0.2087
1.0000 0.9682 0.2037
1.0000 0.9678 0.2032
0.0000 1.0000 0.2837
0.0000 1.0000 0.2792
0.0000 1.0000 0.2698
0.2508 1.0000 0.2508
0.5575 1.0000 0.2287
0.7893 1.0000 0.2118
0.9636 1.0000 0.1988
1.0000 1.0000 0.1938
1.0000 1.0000 0.1934
0.0000 1.0000 0.2828
0.0000 1.0000 0.2783
0.0000 1.0000 0.2689
0.2499 1.0000 0.2499
0.5566 1.0000 0.2278
0.7884 1.0000 0.2109
0.9627 1.0000 0.1979
1.0000 1.0000 0.1929
1.0000 1.0000 0.1925
0.0000 0.0000 0.7816
0.0363 0.0000 0.7772
0.1603 0.0000 0.7679
0.4204 0.0000 0.7490
0.7268 0.0000 0.7268
0.9541 0.0000 0.7099
1.0000 0.0000 0.6968
1.0000 0.0000 0.6918
1.0000 0.0000 0.6913
0.0000 0.0323 0.7730
0.0281 0.0281 0.7686
0.1517 0.0194 0.7592
0.4115 0.0021 0.7403
0.7181 0.0000 0.7181
0.9458 0.0000 0.7012
1.0000 0.0000 0.6881
1.0000 0.0000 0.6830
1.0000 0.0000 0.6826
0.0000 0.1472 0.7547
0.0111 0.1428 0.7503
0.1336 0.1336 0.7409
0.3929 0.1150 0.7220
0.6997 0.0934 0.6997
0.9281 0.0770 0.6828
1.0000 0.0644 0.6697
1.0000 0.0596 0.6646
1.0000 0.0591 0.6641
0.0000 0.3883 0.7174
0.0000 0.3839 0.7130
0.0972 0.3744 0.7036
0.3552 0.3552 0.6846
0.6623 0.3328 0.6623
0.8918 0.3158 0.6453
1.0000 0.3026 0.6322
1.0000 0.2976 0.6271
1.0000 0.2971 0.6266
0.0000 0.6738 0.6738
0.0000 0.6693 0.6693
0.0551 0.6599 0.6599
0.3113 0.6408 0.6408
0.6184 0.6184 0.6184
0.8490 0.6014 0.6014
1.0000 0.5882 0.5882
1.0000 0.5831 0.5831
1.0000 0.5826 0.5826
0.0000 0.8870 0.6404
0.0000 0.8826 0.6359
0.0237 0.8735 0.6265
0.2779 0.8548 0.6073
0.5849 0.8329 0.5849
0.8162 0.8162 0.5678
0.9890 0.8032 0.5545
1.0000 0.7982 0.5494
1.0000 0.7978 0.5490
0.0000 1.0000 0.6146
0.0000 1.0000 0.6101
0.0004 1.0000 0.6006
0.2523 1.0000 0.5814
0.5590 0.9930 0.5590
0.7908 0.9773 0.5418
0.9650 0.9650 0.5285
1.0000 0.9602 0.5234
1.0000 0.9597 0.5229
0.0000 1.0000 0.6046
0.0000 1.0000 0.6001
0.0000 1.0000 0.5906
0.2424 1.0000 0.5714
0.5489 1.0000 0.5489
0.7809 1.0000 0.5317
0.9555 1.0000 0.5184
1.0000 1.0000 0.5133
1.0000 1.0000 0.5128
0.0000 1.0000 0.6037
0.0000 1.0000 0.5992
0.0000 1.0000 0.5897
0.2415 1.0000 0.5705
0.5480 1.0000 0.5480
0.7800 1.0000 0.5308
0.9547 1.0000 0.5175
1.0000 1.0000 0.5124
1.0000 1.0000 0.5119
0.0000 0.0000 1.0000
0.0302 0.0000 1.0000
0.1539 0.0000 1.0000
0.4138 0.0000 0.9850
0.7204 0.0000 0.9641
0.9480 0.0000 0.9480
1.0000 0.0000 0.9354
1.0000 0.0000 0.9305
1.0000 0.0000 0.9301
0.0000 0.0262 1.0000
0.0221 0.0221 1.0000
0.1453 0.0134 0.9945
0.4050 0.0000 0.9769
0.7117 0.0000 0.9558
0.9396 0.0000 0.9396
1.0000 0.0000 0.9270
1.0000 0.0000 0.9221
1.0000 0.0000 0.9216
0.0000 0.1408 0.9903
0.0053 0.1365 0.9862
0.1273 0.1273 0.9775
0.3864 0.1087 0.9595
0.6933 0.0871 0.9382
0.9218 0.0708 0.9218
1.0000 0.0582 0.9091
1.0000 0.0534 0.9042
1.0000 0.0530 0.9038
0.0000 0.3818 0.9552
0.0000 0.3773 0.9509
0.0909 0.3679 0.9419
0.3487 0.3487 0.9236
0.6558 0.3263 0.9020
0.8855 0.3093 0.8855
1.0000 0.2962 0.8727
1.0000 0.2911 0.8677
1.0000 0.2906 0.8673
0.0000 0.6673 0.9131
0.0000 0.6628 0.9088
0.0490 0.6534 0.8997
0.3048 0.6343 0.8811
0.6119 0.6119 0.8593
0.8426 0.5948 0.8426
1.0000 0.5817 0.8297
1.0000 0.5765 0.8247
1.0000 0.5761 0.8243
0.0000 0.8807 0.8807
0.0000 0.8763 0.8763
0.0177 0.8671 0.8671
0.2714 0.8484 0.8484
0.5784 0.8265 0.8265
0.8098 0.8098 0.8098
0.9830 0.7968 0.7968
1.0000 0.7918 0.7918
1.0000 0.7914 0.7914
0.0000 1.0000 0.8555
0.0000 1.0000 0.8511
0.0000 1.0000 0.8419
0.2458 1.0000 0.8231
0.5524 0.9871 0.8011
0.7844 0.9712 0.7844
0.9588 0.9588 0.7714
1.0000 0.9540 0.7664
1.0000 0.9536 0.7659
0.0000 1.0000 0.8457
0.0000 1.0000 0.8414
0.0000 1.0000 0.8321
0.2359 1.0000 0.8133
0.5424 1.0000 0.7913
0.7745 1.0000 0.7745
0.9493 1.0000 0.7615
1.0000 1.0000 0.7565
1.0000 1.0000 0.7560
0.0000 1.0000 0.8448
0.0000 1.0000 0.8405
0.0000 1.0000 0.8312
0.2350 1.0000 0.8124
0.5414 1.0000 0.7904
0.7736 1.0000 0.7736
0.9485 1.0000 0.7606
1.0000 1.0000 0.7556
1.0000 1.0000 0.7551
0.0000 0.0000 1.0000
0.0256 0.0000 1.0000
0.1490 0.0000 1.0000
0.4088 0.0000 1.0000
0.7154 0.0000 1.0000
0.9432 0.0000 1.0000
1.0000 0.0000 1.0000
1.0000 0.0000 1.0000
1.0000 0.0000 1.0000
0.0000 0.0216 1.0000
0.0175 0.0175 1.0000
0.1404 0.0089 1.0000
0.3999 0.0000 1.0000
0.7067 0.0000 1.0000
0.9348 0.0000 1.0000
1.0000 0.0000 1.0000
1.0000 0.0000 1.0000
1.0000 0.0000 1.0000
0.0000 0.1359 1.0000
0.0009 0.1316 1.0000
0.1224 0.1224 1.0000
0.3813 0.1039 1.0000
0.6883 0.0823 1.0000
0.9170 0.0660 1.0000
1.0000 0.0535 1.0000
1.0000 0.0487 1.0000
1.0000 0.0482 1.0000
0.0000 0.3768 1.0000
0.0000 0.3723 1.0000
0.0861 0.3628 1.0000
0.3437 0.3437 1.0000
0.6508 0.3213 1.0000
0.8806 0.3043 1.0000
1.0000 0.2912 1.0000
1.0000 0.2861 1.0000
1.0000 0.2856 1.0000
0.0000 0.6623 1.0000
0.0000 0.6578 1.0000
0.0442 0.6484 1.0000
0.2998 0.6293 1.0000
0.6069 0.6069 1.0000
0.8377 0.5898 1.0000
1.0000 0.5766 1.0000
1.0000 0.5715 1.0000
1.0000 0.5710 1.0000
0.0000 0.8758 1.0000
0.0000 0.8714 1.0000
0.0131 0.8622 1.0000
0.2665 0.8435 1.0000
0.5733 0.8216 1.0000
0.8048 0.8048 0.9905
0.9784 0.7919 0.9784
1.0000 0.7869 0.9736
1.0000 0.7864 0.9732
0.0000 1.0000 1.0000
0.0000 1.0000 1.0000
0.0000 1.0000 1.0000
0.2409 1.0000 1.0000
0.5474 0.9825 0.9825
0.7794 0.9665 0.9665
0.9541 0.9541 0.9541
1.0000 0.9492 0.9492
1.0000 0.9488 0.9488
0.0000 1.0000 1.0000
0.0000 1.0000 1.0000
0.0000 1.0000 1.0000
0.2310 1.0000 0.9938
0.5373 1.0000 0.9731
0.7695 1.0000 0.9571
0.9446 1.0000 0.9446
1.0000 1.0000 0.9397
1.0000 1.0000 0.9393
0.0000 1.0000 1.0000
0.0000 1.0000 1.0000
0.0000 1.0000 1.0000
0.2301 1.0000 0.9930
0.5364 1.0000 0.9723
0.7687 1.0000 0.9562
0.9437 1.0000 0.9437
1.0000 1.0000 0.9388
1.0000 1.0000 0.9384
0.0000 0.0000 1.0000
0.0238 0.0000 1.0000
0.1471 0.0000 1.0000
0.4068 0.0000 1.0000
0.7135 0.0000 1.0000
0.9413 0.0000 1.0000
1.0000 0.0000 1.0000
1.0000 0.0000 1.0000
1.0000 0.0000 1.0000
0.0000 0.0198 1.0000
0.0157 0.0157 1.0000
0.1385 0.0072 1.0000
0.3980 0.0000 1.0000
0.7048 0.0000 1.0000
0.9329 0.0000 1.0000
1.0000 0.0000 1.0000
1.0000 0.0000 1.0000
1.0000 0.0000 1.0000
0.0000 0.1341 1.0000
0.0000 0.1297 1.0000
0.1205 0.1205 1.0000
0.3794 0.1020 1.0000
0.6864 0.0804 1.0000
0.9151 0.0641 1.0000
1.0000 0.0516 1.0000
1.0000 0.0468 1.0000
1.0000 0.0464 1.0000
0.0000 0.3748 1.0000
0.0000 0.3704 1.0000
0.0842 0.3609 1.0000
0.3417 0.3417 1.0000
0.6489 0.3194 1.0000
0.8787 0.3023 1.0000
1.0000 0.2892 1.0000
1.0000 0.2842 1.0000
1.0000 0.2837 1.0000
0.0000 0.6604 1.0000
0.0000 0.6559 1.0000
0.0424 0.6465 1.0000
0.2978 0.6274 1.0000
0.6050 0.6050 1.0000
0.8358 0.5879 1.0000
1.0000 0.5747 1.0000
1.0000 0.5696 1.0000
1.0000 0.5691 1.0000
0.0000 0.8739 1.0000
0.0000 0.8695 1.0000
0.0113 0.8603 1.0000
0.2645 0.8416 1.0000
0.5714 0.8197 1.0000
0.8029 0.8029 1.0000
0.9766 0.7900 1.0000
1.0000 0.7850 1.0000
1.0000 0.7845 1.0000
0.0000 1.0000 1.0000
0.0000 1.0000 1.0000
0.0000 1.0000 1.0000
0.2389 1.0000 1.0000
0.5454 0.9807 1.0000
0.7775 0.9647 1.0000
0.9522 0.9522 1.0000
1.0000 0.9474 1.0000
1.0000 0.9469 1.0000
0.0000 1.0000 1.0000
0.0000 1.0000 1.0000
0.0000 1.0000 1.0000
0.2290 1.0000 1.0000
0.5353 1.0000 1.0000
0.7676 1.0000 1.0000
0.9427 1.0000 1.0000
1.0000 1.0000 1.0000
1.0000 1.0000 1.0000
0.0000 1.0000 1.0000
0.0000 1.0000 1.0000
0.0000 1.0000 1.0000
0.2281 1.0000 1.0000
0.5344 1.0000 1.0000
0.7667 1.0000 1.0000
0.9418 1.0000 1.0000
1.0000 1.0000 1.0000
1.0000 1.0000 1.0000
0.0000 0.0000 1.0000
0.0236 0.0000 1.0000
0.1469 0.0000 1.0000
0.4066 0.0000 1.0000
0.7133 0.0000 1.0000
0.9412 0.0000 1.0000
1.0000 0.0000 1.0000
1.0000 0.0000 1.0000
1.0000 0.0000 1.0000
0.0000 0.0196 1.0000
0.0155 0.0155 1.0000
0.1384 0.0070 1.0000
0.3978 0.0000 1.0000
0.7046 0.0000 1.0000
0.9328 0.0000 1.0000
1.0000 0.0000 1.0000
1.0000 0.0000 1.0000
1.0000 0.0000 1.0000
0.0000 0.1339 1.0000
0.0000 0.1295 1.0000
0.1204 0.1204 1.0000
0.3792 0.1018 1.0000
0.6862 0.0803 1.0000
0.9149 0.0640 1.0000
1.0000 0.0515 1.0000
1.0000 0.0467 1.0000
1.0000 0.0462 1.0000
0.0000 0.3747 1.0000
0.0000 0.3702 1.0000
0.0840 0.3607 1.0000
0.3415 0.3415 1.0000
0.6487 0.3192 1.0000
0.8785 0.3022 1.0000
1.0000 0.2891 1.0000
1.0000 0.2840 1.0000
1.0000 0.2835 1.0000
0.0000 0.6602 1.0000
0.0000 0.6557 1.0000
0.0422 0.6463 1.0000
0.2977 0.6272 1.0000
0.6048 0.6048 1.0000
0.8356 0.5877 1.0000
1.0000 0.5745 1.0000
1.0000 0.5694 1.0000
1.0000 0.5689 1.0000
0.0000 0.8737 1.0000
0.0000 0.8694 1.0000
0.0112 0.8602 1.0000
0.2644 0.8415 1.0000
0.5712 0.8195 1.0000
0.8028 0.8028 1.0000
0.9764 0.7898 1.0000
1.0000 0.7848 1.0000
1.0000 0.7843 1.0000
0.0000 1.0000 1.0000
0.0000 1.0000 1.0000
0.0000 1.0000 1.0000
0.2388 1.0000 1.0000
0.5452 0.9805 1.0000
0.7773 0.9645 1.0000
0.9521 0.9521 1.0000
1.0000 0.9472 1.0000
1.0000 0.9468 1.0000
0.0000 1.0000 1.0000
0.0000 1.0000 1.0000
0.0000 1.0000 1.0000
0.2289 1.0000 1.0000
0.5352 1.0000 1.0000
0.7675 1.0000 1.0000
0.9425 1.0000 1.0000
1.0000 1.0000 1.0000
1.0000 1.0000 1.0000
0.0000 1.0000 1.0000
0.0000 1.0000 1.0000
0.0000 1.0000 1.0000
0.2280 1.0000 1.0000
0.5343 1.0000 1.0000
0.7666 1.0000 1.0000
0.9417 1.0000 1.0000
1.0000 1.0000 1.0000
1.0000 1.0000 1.0000
