assets/luts/LUTs/JD_DLOG M CONVERSION -1.CUBE
TITLE "ColorFinale Export"
# Created by Jeven Dovey on 2023-09-01 21:02:42 +0000
# Color Finale Plugin v.2.6.0 (537)
LUT_3D_SIZE 17
0.0000 0.0000 0.0000
0.0157 0.0000 0.0000
0.0481 0.0000 0.0000
0.0925 0.0000 0.0000
0.1473 0.0000 0.0000
0.2117 0.0000 0.0000
0.2853 0.0000 0.0000
0.3688 0.0000 0.0000
0.4633 0.0000 0.0000
0.5692 0.0000 0.0000
0.6694 0.0000 0.0000
0.7570 0.0000 0.0000
0.8312 0.0000 0.0000
0.8917 0.0000 0.0000
0.9400 0.0000 0.0000
0.9766 0.0000 0.0000
0.9841 0.0000 0.0000
0.0000 0.0157 0.0000
0.0152 0.0152 0.0000
0.0477 0.0126 0.0000
0.0922 0.0063 0.0000
0.1471 0.0000 0.0000
0.2115 0.0000 0.0000
0.2852 0.0000 0.0000
0.3687 0.0000 0.0000
0.4632 0.0000 0.0000
0.5691 0.0000 0.0000
0.6693 0.0000 0.0000
0.7569 0.0000 0.0000
0.8312 0.0000 0.0000
0.8917 0.0000 0.0000
0.9400 0.0000 0.0000
0.9766 0.0000 0.0000
0.9841 0.0000 0.0000
0.0000 0.0481 0.0000
0.0126 0.0477 0.0000
0.0463 0.0463 0.0000
0.0912 0.0434 0.0000
0.1463 0.0385 0.0000
0.2108 0.0309 0.0000
0.2846 0.0192 0.0000
0.3681 0.0000 0.0000
0.4626 0.0000 0.0000
0.5686 0.0000 0.0000
0.6689 0.0000 0.0000
0.7566 0.0000 0.0000
0.8310 0.0000 0.0000
0.8915 0.0000 0.0000
0.9399 0.0000 0.0000
0.9765 0.0000 0.0000
0.9841 0.0000 0.0000
0.0000 0.0925 0.0000
0.0063 0.0922 0.0000
0.0434 0.0912 0.0000
0.0891 0.0891 0.0000
0.1446 0.0857 0.0000
0.2094 0.0808 0.0000
0.2833 0.0740 0.0000
0.3670 0.0650 0.0000
0.4616 0.0531 0.0000
0.5677 0.0369 0.0000
0.6682 0.0107 0.0000
0.7561 0.0000 0.0000
0.8306 0.0000 0.0000
0.8913 0.0000 0.0000
0.9397 0.0000 0.0000
0.9764 0.0000 0.0000
0.9841 0.0000 0.0000
0.0000 0.1473 0.0000
0.0000 0.1471 0.0000
0.0385 0.1463 0.0000
0.0857 0.1446 0.0000
0.1420 0.1420 0.0000
0.2072 0.1381 0.0000
0.2814 0.1329 0.0000
0.3652 0.1262 0.0000
0.4599 0.1178 0.0000
0.5661 0.1074 0.0000
0.6670 0.0946 0.0000
0.7552 0.0788 0.0000
0.8299 0.0586 0.0000
0.8908 0.0306 0.0000
0.9393 0.0000 0.0000
0.9762 0.0000 0.0000
0.9841 0.0000 0.0000
0.0000 0.2117 0.0000
0.0000 0.2115 0.0000
0.0309 0.2108 0.0000
0.0808 0.2094 0.0000
0.1381 0.2072 0.0000
0.2039 0.2039 0.0000
0.2785 0.1996 0.0000
0.3626 0.1941 0.0000
0.4575 0.1873 0.0000
0.5640 0.1791 0.0000
0.6654 0.1692 0.0000
0.7540 0.1574 0.0000
0.8290 0.1436 0.0000
0.8901 0.1273 0.0000
0.9389 0.1078 0.0000
0.9759 0.0840 0.0000
0.9841 0.0534 0.0000
0.0000 0.2853 0.0000
0.0000 0.2852 0.0000
0.0192 0.2846 0.0000
0.0740 0.2833 0.0000
0.1329 0.2814 0.0000
0.1996 0.2785 0.0000
0.2748 0.2748 0.0000
0.3592 0.2700 0.0000
0.4543 0.2641 0.0000
0.5610 0.2571 0.0000
0.6632 0.2487 0.0000
0.7523 0.2389 0.0000
0.8278 0.2276 0.0000
0.8892 0.2146 0.0000
0.9382 0.1996 0.0000
0.9755 0.1825 0.0000
0.9841 0.1628 0.0000
0.0000 0.3688 0.0000
0.0000 0.3687 0.0000
0.0000 0.3681 0.0000
0.0650 0.3670 0.0000
0.1262 0.3652 0.0000
0.1941 0.3626 0.0000
0.2700 0.3592 0.0000
0.3549 0.3549 0.0000
0.4503 0.3496 0.0000
0.5573 0.3433 0.0000
0.6604 0.3358 0.0000
0.7502 0.3272 0.0000
0.8262 0.3172 0.0000
0.8881 0.3059 0.0000
0.9375 0.2931 0.0000
0.9750 0.2787 0.0000
0.9841 0.2626 0.0000
0.0000 0.4633 0.0000
0.0000 0.4632 0.0000
0.0000 0.4626 0.0000
0.0531 0.4616 0.0000
0.1178 0.4599 0.0000
0.1873 0.4575 0.0000
0.2641 0.4543 0.0000
0.3496 0.4503 0.0000
0.4453 0.4453 0.0000
0.5527 0.4394 0.0000
0.6569 0.4325 0.0000
0.7476 0.4245 0.0000
0.8243 0.4154 0.0000
0.8868 0.4051 0.0000
0.9365 0.3935 0.0000
0.9743 0.3805 0.0000
0.9841 0.3662 0.0000
0.0000 0.5692 0.0000
0.0000 0.5691 0.0000
0.0000 0.5686 0.0000
0.0369 0.5677 0.0000
0.1074 0.5661 0.0000
0.1791 0.5640 0.0000
0.2571 0.5610 0.0000
0.3433 0.5573 0.0000
0.4394 0.5527 0.0000
0.5472 0.5472 0.0000
0.6528 0.5407 0.0000
0.7444 0.5331 0.0000
0.8220 0.5244 0.0000
0.8851 0.5147 0.0000
0.9353 0.5038 0.0000
0.9736 0.4916 0.0000
0.9841 0.4783 0.0000
0.0000 0.6694 0.0000
0.0000 0.6693 0.0000
0.0000 0.6689 0.0000
0.0107 0.6682 0.0000
0.0946 0.6670 0.0000
0.1692 0.6654 0.0000
0.2487 0.6632 0.0000
0.3358 0.6604 0.0000
0.4325 0.6569 0.0000
0.5407 0.6528 0.0000
0.6478 0.6478 0.0000
0.7407 0.6421 0.0000
0.8193 0.6354 0.0000
0.8832 0.6278 0.0000
0.9339 0.6191 0.0000
0.9726 0.6093 0.0000
0.9841 0.5982 0.0000
0.0000 0.7570 0.0000
0.0000 0.7569 0.0000
0.0000 0.7566 0.0000
0.0000 0.7561 0.0000
0.0788 0.7552 0.0000
0.1574 0.7540 0.0000
0.2389 0.7523 0.0000
0.3272 0.7502 0.0000
0.4245 0.7476 0.0000
0.5331 0.7444 0.0000
0.6421 0.7407 0.0000
0.7364 0.7364 0.0000
0.8161 0.7314 0.0000
0.8809 0.7257 0.0000
0.9323 0.7192 0.0000
0.9716 0.7119 0.0000
0.9841 0.7036 0.0000
0.0000 0.8312 0.0000
0.0000 0.8312 0.0000
0.0000 0.8310 0.0000
0.0000 0.8306 0.0000
0.0586 0.8299 0.0000
0.1436 0.8290 0.0000
0.2276 0.8278 0.0000
0.3172 0.8262 0.0000
0.4154 0.8243 0.0000
0.5244 0.8220 0.0000
0.6354 0.8193 0.0000
0.7314 0.8161 0.0000
0.8125 0.8125 0.0000
0.8783 0.8083 0.0000
0.9305 0.8035 0.0000
0.9704 0.7982 0.0000
0.9841 0.7921 0.0000
0.0000 0.8917 0.0000
0.0000 0.8917 0.0000
0.0000 0.8915 0.0000
0.0000 0.8913 0.0000
0.0306 0.8908 0.0000
0.1273 0.8901 0.0000
0.2146 0.8892 0.0000
0.3059 0.8881 0.0000
0.4051 0.8868 0.0000
0.5147 0.8851 0.0000
0.6278 0.8832 0.0000
0.7257 0.8809 0.0000
0.8083 0.8783 0.0000
0.8753 0.8753 0.0000
0.9284 0.8719 0.0000
0.9690 0.8681 0.0000
0.9841 0.8638 0.0000
0.0000 0.9400 0.0000
0.0000 0.9400 0.0000
0.0000 0.9399 0.0000
0.0000 0.9397 0.0000
0.0000 0.9393 0.0000
0.1078 0.9389 0.0000
0.1996 0.9382 0.0000
0.2931 0.9375 0.0000
0.3935 0.9365 0.0000
0.5038 0.9353 0.0000
0.6191 0.9339 0.0000
0.7192 0.9323 0.0000
0.8035 0.9305 0.0000
0.8719 0.9284 0.0000
0.9260 0.9260 0.0000
0.9674 0.9233 0.0000
0.9841 0.9202 0.0000
0.0000 0.9766 0.0000
0.0000 0.9766 0.0000
0.0000 0.9765 0.0000
0.0000 0.9764 0.0000
0.0000 0.9762 0.0000
0.0840 0.9759 0.0000
0.1825 0.9755 0.0000
0.2787 0.9750 0.0000
0.3805 0.9743 0.0000
0.4916 0.9736 0.0000
0.6093 0.9726 0.0000
0.7119 0.9716 0.0000
0.7982 0.9704 0.0000
0.8681 0.9690 0.0000
0.9233 0.9674 0.0000
0.9656 0.9656 0.0000
0.9841 0.9635 0.0000
0.0000 0.9841 0.0000
0.0000 0.9841 0.0000
0.0000 0.9841 0.0000
0.0000 0.9841 0.0000
0.0000 0.9841 0.0000
0.0534 0.9841 0.0000
0.1628 0.9841 0.0000
0.2626 0.9841 0.0000
0.3662 0.9841 0.0000
0.4783 0.9841 0.0000
0.5982 0.9841 0.0000
0.7036 0.9841 0.0000
0.7921 0.9841 0.0000
0.8638 0.9841 0.0000
0.9202 0.9841 0.0000
0.9635 0.9841 0.0000
0.9841 0.9841 0.0000
0.0000 0.0000 0.0157
0.0152 0.0000 0.0152
0.0477 0.0000 0.0126
0.0922 0.0000 0.0063
0.1471 0.0000 0.0000
0.2115 0.0000 0.0000
0.2852 0.0000 0.0000
0.3687 0.0000 0.0000
0.4632 0.0000 0.0000
0.5691 0.0000 0.0000
0.6693 0.0000 0.0000
0.7569 0.0000 0.0000
0.8312 0.0000 0.0000
0.8917 0.0000 0.0000
0.9400 0.0000 0.0000
0.9766 0.0000 0.0000
0.9841 0.0000 0.0000
0.0000 0.0152 0.0152
0.0146 0.0146 0.0146
0.0474 0.0120 0.0120
0.0920 0.0054 0.0054
0.1469 0.0000 0.0000
0.2114 0.0000 0.0000
0.2850 0.0000 0.0000
0.3686 0.0000 0.0000
0.4630 0.0000 0.0000
0.5690 0.0000 0.0000
0.6692 0.0000 0.0000
0.7568 0.0000 0.0000
0.8311 0.0000 0.0000
0.8917 0.0000 0.0000
0.9399 0.0000 0.0000
0.9766 0.0000 0.0000
0.9841 0.0000 0.0000
0.0000 0.0477 0.0126
0.0120 0.0474 0.0120
0.0460 0.0460 0.0090
0.0910 0.0430 0.0000
0.1461 0.0381 0.0000
0.2107 0.0305 0.0000
0.2844 0.0187 0.0000
0.3680 0.0000 0.0000
0.4625 0.0000 0.0000
0.5685 0.0000 0.0000
0.6689 0.0000 0.0000
0.7566 0.0000 0.0000
0.8309 0.0000 0.0000
0.8915 0.0000 0.0000
0.9398 0.0000 0.0000
0.9765 0.0000 0.0000
0.9841 0.0000 0.0000
0.0000 0.0922 0.0063
0.0054 0.0920 0.0054
0.0430 0.0910 0.0000
0.0889 0.0889 0.0000
0.1444 0.0855 0.0000
0.2093 0.0805 0.0000
0.2832 0.0737 0.0000
0.3669 0.0647 0.0000
0.4615 0.0528 0.0000
0.5676 0.0365 0.0000
0.6681 0.0100 0.0000
0.7560 0.0000 0.0000
0.8305 0.0000 0.0000
0.8912 0.0000 0.0000
0.9396 0.0000 0.0000
0.9764 0.0000 0.0000
0.9841 0.0000 0.0000
0.0000 0.1471 0.0000
0.0000 0.1469 0.0000
0.0381 0.1461 0.0000
0.0855 0.1444 0.0000
0.1418 0.1418 0.0000
0.2070 0.1379 0.0000
0.2812 0.1327 0.0000
0.3651 0.1260 0.0000
0.4598 0.1176 0.0000
0.5660 0.1072 0.0000
0.6670 0.0944 0.0000
0.7552 0.0785 0.0000
0.8299 0.0583 0.0000
0.8908 0.0302 0.0000
0.9393 0.0000 0.0000
0.9762 0.0000 0.0000
0.9841 0.0000 0.0000
0.0000 0.2115 0.0000
0.0000 0.2114 0.0000
0.0305 0.2107 0.0000
0.0805 0.2093 0.0000
0.1379 0.2070 0.0000
0.2038 0.2038 0.0000
0.2784 0.1995 0.0000
0.3625 0.1940 0.0000
0.4574 0.1872 0.0000
0.5638 0.1789 0.0000
0.6653 0.1690 0.0000
0.7539 0.1573 0.0000
0.8290 0.1434 0.0000
0.8901 0.1271 0.0000
0.9388 0.1076 0.0000
0.9759 0.0838 0.0000
0.9841 0.0531 0.0000
0.0000 0.2852 0.0000
0.0000 0.2850 0.0000
0.0187 0.2844 0.0000
0.0737 0.2832 0.0000
0.1327 0.2812 0.0000
0.1995 0.2784 0.0000
0.2746 0.2746 0.0000
0.3591 0.2699 0.0000
0.4542 0.2640 0.0000
0.5609 0.2569 0.0000
0.6631 0.2485 0.0000
0.7522 0.2388 0.0000
0.8278 0.2274 0.0000
0.8892 0.2144 0.0000
0.9382 0.1995 0.0000
0.9755 0.1823 0.0000
0.9841 0.1626 0.0000
0.0000 0.3687 0.0000
0.0000 0.3686 0.0000
0.0000 0.3680 0.0000
0.0647 0.3669 0.0000
0.1260 0.3651 0.0000
0.1940 0.3625 0.0000
0.2699 0.3591 0.0000
0.3548 0.3548 0.0000
0.4501 0.3495 0.0000
0.5572 0.3431 0.0000
0.6603 0.3357 0.0000
0.7501 0.3270 0.0000
0.8262 0.3171 0.0000
0.8881 0.3058 0.0000
0.9374 0.2930 0.0000
0.9749 0.2786 0.0000
0.9841 0.2624 0.0000
0.0000 0.4632 0.0000
0.0000 0.4630 0.0000
0.0000 0.4625 0.0000
0.0528 0.4615 0.0000
0.1176 0.4598 0.0000
0.1872 0.4574 0.0000
0.2640 0.4542 0.0000
0.3495 0.4501 0.0000
0.4452 0.4452 0.0000
0.5526 0.4393 0.0000
0.6568 0.4324 0.0000
0.7475 0.4244 0.0000
0.8243 0.4153 0.0000
0.8867 0.4049 0.0000
0.9365 0.3933 0.0000
0.9743 0.3804 0.0000
0.9841 0.3660 0.0000
0.0000 0.5691 0.0000
0.0000 0.5690 0.0000
0.0000 0.5685 0.0000
0.0365 0.5676 0.0000
0.1072 0.5660 0.0000
0.1789 0.5638 0.0000
0.2569 0.5609 0.0000
0.3431 0.5572 0.0000
0.4393 0.5526 0.0000
0.5471 0.5471 0.0000
0.6527 0.5406 0.0000
0.7444 0.5330 0.0000
0.8220 0.5243 0.0000
0.8851 0.5146 0.0000
0.9353 0.5036 0.0000
0.9735 0.4915 0.0000
0.9841 0.4781 0.0000
0.0000 0.6693 0.0000
0.0000 0.6692 0.0000
0.0000 0.6689 0.0000
0.0100 0.6681 0.0000
0.0944 0.6670 0.0000
0.1690 0.6653 0.0000
0.2485 0.6631 0.0000
0.3357 0.6603 0.0000
0.4324 0.6568 0.0000
0.5406 0.6527 0.0000
0.6478 0.6478 0.0000
0.7407 0.6420 0.0000
0.8193 0.6354 0.0000
0.8831 0.6277 0.0000
0.9339 0.6190 0.0000
0.9726 0.6092 0.0000
0.9841 0.5981 0.0000
0.0000 0.7569 0.0000
0.0000 0.7568 0.0000
0.0000 0.7566 0.0000
0.0000 0.7560 0.0000
0.0785 0.7552 0.0000
0.1573 0.7539 0.0000
0.2388 0.7522 0.0000
0.3270 0.7501 0.0000
0.4244 0.7475 0.0000
0.5330 0.7444 0.0000
0.6420 0.7407 0.0000
0.7363 0.7363 0.0000
0.8161 0.7313 0.0000
0.8809 0.7256 0.0000
0.9323 0.7191 0.0000
0.9716 0.7118 0.0000
0.9841 0.7036 0.0000
0.0000 0.8312 0.0000
0.0000 0.8311 0.0000
0.0000 0.8309 0.0000
0.0000 0.8305 0.0000
0.0583 0.8299 0.0000
0.1434 0.8290 0.0000
0.2274 0.8278 0.0000
0.3171 0.8262 0.0000
0.4153 0.8243 0.0000
0.5243 0.8220 0.0000
0.6354 0.8193 0.0000
0.7313 0.8161 0.0000
0.8124 0.8124 0.0000
0.8782 0.8082 0.0000
0.9305 0.8035 0.0000
0.9703 0.7981 0.0000
0.9841 0.7921 0.0000
0.0000 0.8917 0.0000
0.0000 0.8917 0.0000
0.0000 0.8915 0.0000
0.0000 0.8912 0.0000
0.0302 0.8908 0.0000
0.1271 0.8901 0.0000
0.2144 0.8892 0.0000
0.3058 0.8881 0.0000
0.4049 0.8867 0.0000
0.5146 0.8851 0.0000
0.6277 0.8831 0.0000
0.7256 0.8809 0.0000
0.8082 0.8782 0.0000
0.8752 0.8752 0.0000
0.9283 0.8719 0.0000
0.9689 0.8680 0.0000
0.9841 0.8638 0.0000
0.0000 0.9400 0.0000
0.0000 0.9399 0.0000
0.0000 0.9398 0.0000
0.0000 0.9396 0.0000
0.0000 0.9393 0.0000
0.1076 0.9388 0.0000
0.1995 0.9382 0.0000
0.2930 0.9374 0.0000
0.3933 0.9365 0.0000
0.5036 0.9353 0.0000
0.6190 0.9339 0.0000
0.7191 0.9323 0.0000
0.8035 0.9305 0.0000
0.8719 0.9283 0.0000
0.9259 0.9259 0.0000
0.9674 0.9232 0.0000
0.9841 0.9202 0.0000
0.0000 0.9766 0.0000
0.0000 0.9766 0.0000
0.0000 0.9765 0.0000
0.0000 0.9764 0.0000
0.0000 0.9762 0.0000
0.0838 0.9759 0.0000
0.1823 0.9755 0.0000
0.2786 0.9749 0.0000
0.3804 0.9743 0.0000
0.4915 0.9735 0.0000
0.6092 0.9726 0.0000
0.7118 0.9716 0.0000
0.7981 0.9703 0.0000
0.8680 0.9689 0.0000
0.9232 0.9674 0.0000
0.9655 0.9655 0.0000
0.9841 0.9635 0.0000
0.0000 0.9841 0.0000
0.0000 0.9841 0.0000
0.0000 0.9841 0.0000
0.0000 0.9841 0.0000
0.0000 0.9841 0.0000
0.0531 0.9841 0.0000
0.1626 0.9841 0.0000
0.2624 0.9841 0.0000
0.3660 0.9841 0.0000
0.4781 0.9841 0.0000
0.5981 0.9841 0.0000
0.7036 0.9841 0.0000
0.7921 0.9841 0.0000
0.8638 0.9841 0.0000
0.9202 0.9841 0.0000
0.9635 0.9841 0.0000
0.9841 0.9841 0.0000
0.0000 0.0000 0.0481
0.0126 0.0000 0.0477
0.0463 0.0000 0.0463
0.0912 0.0000 0.0434
0.1463 0.0000 0.0385
0.2108 0.0000 0.0309
0.2846 0.0000 0.0192
0.3681 0.0000 0.0000
0.4626 0.0000 0.0000
0.5686 0.0000 0.0000
0.6689 0.0000 0.0000
0.7566 0.0000 0.0000
0.8310 0.0000 0.0000
0.8915 0.0000 0.0000
0.9399 0.0000 0.0000
0.9765 0.0000 0.0000
0.9841 0.0000 0.0000
0.0000 0.0126 0.0477
0.0120 0.0120 0.0474
0.0460 0.0090 0.0460
0.0910 0.0000 0.0430
0.1461 0.0000 0.0381
0.2107 0.0000 0.0305
0.2844 0.0000 0.0187
0.3680 0.0000 0.0000
0.4625 0.0000 0.0000
0.5685 0.0000 0.0000
0.6689 0.0000 0.0000
0.7566 0.0000 0.0000
0.8309 0.0000 0.0000
0.8915 0.0000 0.0000
0.9398 0.0000 0.0000
0.9765 0.0000 0.0000
0.9841 0.0000 0.0000
0.0000 0.0463 0.0463
0.0090 0.0460 0.0460
0.0445 0.0445 0.0445
0.0899 0.0416 0.0416
0.1453 0.0365 0.0365
0.2100 0.0288 0.0288
0.2838 0.0164 0.0164
0.3675 0.0000 0.0000
0.4620 0.0000 0.0000
0.5680 0.0000 0.0000
0.6685 0.0000 0.0000
0.7563 0.0000 0.0000
0.8308 0.0000 0.0000
0.8914 0.0000 0.0000
0.9397 0.0000 0.0000
0.9764 0.0000 0.0000
0.9841 0.0000 0.0000
0.0000 0.0912 0.0434
0.0000 0.0910 0.0430
0.0416 0.0899 0.0416
0.0878 0.0878 0.0385
0.1436 0.0844 0.0332
0.2086 0.0794 0.0250
0.2826 0.0726 0.0111
0.3663 0.0635 0.0000
0.4609 0.0514 0.0000
0.5671 0.0349 0.0000
0.6678 0.0067 0.0000
0.7557 0.0000 0.0000
0.8303 0.0000 0.0000
0.8911 0.0000 0.0000
0.9395 0.0000 0.0000
0.9763 0.0000 0.0000
0.9841 0.0000 0.0000
0.0000 0.1463 0.0385
0.0000 0.1461 0.0381
0.0365 0.1453 0.0365
0.0844 0.1436 0.0332
0.1409 0.1409 0.0276
0.2063 0.1371 0.0183
0.2806 0.1319 0.0000
0.3645 0.1251 0.0000
0.4593 0.1167 0.0000
0.5656 0.1063 0.0000
0.6666 0.0934 0.0000
0.7549 0.0774 0.0000
0.8297 0.0570 0.0000
0.8906 0.0284 0.0000
0.9392 0.0000 0.0000
0.9761 0.0000 0.0000
0.9841 0.0000 0.0000
0.0000 0.2108 0.0309
0.0000 0.2107 0.0305
0.0288 0.2100 0.0288
0.0794 0.2086 0.0250
0.1371 0.2063 0.0183
0.2031 0.2031 0.0053
0.2778 0.1988 0.0000
0.3620 0.1933 0.0000
0.4569 0.1864 0.0000
0.5633 0.1781 0.0000
0.6650 0.1682 0.0000
0.7536 0.1565 0.0000
0.8288 0.1426 0.0000
0.8899 0.1262 0.0000
0.9387 0.1066 0.0000
0.9758 0.0827 0.0000
0.9841 0.0517 0.0000
0.0000 0.2846 0.0192
0.0000 0.2844 0.0187
0.0164 0.2838 0.0164
0.0726 0.2826 0.0111
0.1319 0.2806 0.0000
0.1988 0.2778 0.0000
0.2740 0.2740 0.0000
0.3586 0.2693 0.0000
0.4537 0.2634 0.0000
0.5604 0.2563 0.0000
0.6627 0.2479 0.0000
0.7520 0.2381 0.0000
0.8276 0.2268 0.0000
0.8891 0.2137 0.0000
0.9381 0.1988 0.0000
0.9754 0.1816 0.0000
0.9841 0.1618 0.0000
0.0000 0.3681 0.0000
0.0000 0.3680 0.0000
0.0000 0.3675 0.0000
0.0635 0.3663 0.0000
0.1251 0.3645 0.0000
0.1933 0.3620 0.0000
0.2693 0.3586 0.0000
0.3542 0.3542 0.0000
0.4496 0.3489 0.0000
0.5567 0.3426 0.0000
0.6599 0.3351 0.0000
0.7498 0.3264 0.0000
0.8260 0.3165 0.0000
0.8880 0.3052 0.0000
0.9373 0.2924 0.0000
0.9749 0.2780 0.0000
0.9841 0.2618 0.0000
0.0000 0.4626 0.0000
0.0000 0.4625 0.0000
0.0000 0.4620 0.0000
0.0514 0.4609 0.0000
0.1167 0.4593 0.0000
0.1864 0.4569 0.0000
0.2634 0.4537 0.0000
0.3489 0.4496 0.0000
0.4447 0.4447 0.0000
0.5522 0.4388 0.0000
0.6565 0.4319 0.0000
0.7472 0.4239 0.0000
0.8241 0.4147 0.0000
0.8866 0.4044 0.0000
0.9364 0.3928 0.0000
0.9742 0.3798 0.0000
0.9841 0.3655 0.0000
0.0000 0.5686 0.0000
0.0000 0.5685 0.0000
0.0000 0.5680 0.0000
0.0349 0.5671 0.0000
0.1063 0.5656 0.0000
0.1781 0.5633 0.0000
0.2563 0.5604 0.0000
0.3426 0.5567 0.0000
0.4388 0.5522 0.0000
0.5466 0.5466 0.0000
0.6523 0.5400 0.0000
0.7441 0.5325 0.0000
0.8218 0.5238 0.0000
0.8849 0.5141 0.0000
0.9352 0.5031 0.0000
0.9735 0.4910 0.0000
0.9841 0.4776 0.0000
0.0000 0.6689 0.0000
0.0000 0.6689 0.0000
0.0000 0.6685 0.0000
0.0067 0.6678 0.0000
0.0934 0.6666 0.0000
0.1682 0.6650 0.0000
0.2479 0.6627 0.0000
0.3351 0.6599 0.0000
0.4319 0.6565 0.0000
0.5400 0.6523 0.0000
0.6474 0.6474 0.0000
0.7404 0.6416 0.0000
0.8191 0.6350 0.0000
0.8830 0.6273 0.0000
0.9338 0.6186 0.0000
0.9726 0.6088 0.0000
0.9841 0.5976 0.0000
0.0000 0.7566 0.0000
0.0000 0.7566 0.0000
0.0000 0.7563 0.0000
0.0000 0.7557 0.0000
0.0774 0.7549 0.0000
0.1565 0.7536 0.0000
0.2381 0.7520 0.0000
0.3264 0.7498 0.0000
0.4239 0.7472 0.0000
0.5325 0.7441 0.0000
0.6416 0.7404 0.0000
0.7360 0.7360 0.0000
0.8159 0.7310 0.0000
0.8807 0.7253 0.0000
0.9322 0.7188 0.0000
0.9715 0.7115 0.0000
0.9841 0.7032 0.0000
0.0000 0.8310 0.0000
0.0000 0.8309 0.0000
0.0000 0.8308 0.0000
0.0000 0.8303 0.0000
0.0570 0.8297 0.0000
0.1426 0.8288 0.0000
0.2268 0.8276 0.0000
0.3165 0.8260 0.0000
0.4147 0.8241 0.0000
0.5238 0.8218 0.0000
0.6350 0.8191 0.0000
0.7310 0.8159 0.0000
0.8122 0.8122 0.0000
0.8781 0.8080 0.0000
0.9303 0.8033 0.0000
0.9703 0.7979 0.0000
0.9841 0.7918 0.0000
0.0000 0.8915 0.0000
0.0000 0.8915 0.0000
0.0000 0.8914 0.0000
0.0000 0.8911 0.0000
0.0284 0.8906 0.0000
0.1262 0.8899 0.0000
0.2137 0.8891 0.0000
0.3052 0.8880 0.0000
0.4044 0.8866 0.0000
0.5141 0.8849 0.0000
0.6273 0.8830 0.0000
0.7253 0.8807 0.0000
0.8080 0.8781 0.0000
0.8751 0.8751 0.0000
0.9282 0.8717 0.0000
0.9689 0.8679 0.0000
0.9841 0.8636 0.0000
0.0000 0.9399 0.0000
0.0000 0.9398 0.0000
0.0000 0.9397 0.0000
0.0000 0.9395 0.0000
0.0000 0.9392 0.0000
0.1066 0.9387 0.0000
0.1988 0.9381 0.0000
0.2924 0.9373 0.0000
0.3928 0.9364 0.0000
0.5031 0.9352 0.0000
0.6186 0.9338 0.0000
0.7188 0.9322 0.0000
0.8033 0.9303 0.0000
0.8717 0.9282 0.0000
0.9258 0.9258 0.0000
0.9673 0.9231 0.0000
0.9841 0.9201 0.0000
0.0000 0.9765 0.0000
0.0000 0.9765 0.0000
0.0000 0.9764 0.0000
0.0000 0.9763 0.0000
0.0000 0.9761 0.0000
0.0827 0.9758 0.0000
0.1816 0.9754 0.0000
0.2780 0.9749 0.0000
0.3798 0.9742 0.0000
0.4910 0.9735 0.0000
0.6088 0.9726 0.0000
0.7115 0.9715 0.0000
0.7979 0.9703 0.0000
0.8679 0.9689 0.0000
0.9231 0.9673 0.0000
0.9655 0.9655 0.0000
0.9841 0.9634 0.0000
0.0000 0.9841 0.0000
0.0000 0.9841 0.0000
0.0000 0.9841 0.0000
0.0000 0.9841 0.0000
0.0000 0.9841 0.0000
0.0517 0.9841 0.0000
0.1618 0.9841 0.0000
0.2618 0.9841 0.0000
0.3655 0.9841 0.0000
0.4776 0.9841 0.0000
0.5976 0.9841 0.0000
0.7032 0.9841 0.0000
0.7918 0.9841 0.0000
0.8636 0.9841 0.0000
0.9201 0.9841 0.0000
0.9634 0.9841 0.0000
0.9841 0.9841 0.0000
0.0000 0.0000 0.0925
0.0063 0.0000 0.0922
0.0434 0.0000 0.0912
0.0891 0.0000 0.0891
0.1446 0.0000 0.0857
0.2094 0.0000 0.0808
0.2833 0.0000 0.0740
0.3670 0.0000 0.0650
0.4616 0.0000 0.0531
0.5677 0.0000 0.0369
0.6682 0.0000 0.0107
0.7561 0.0000 0.0000
0.8306 0.0000 0.0000
0.8913 0.0000 0.0000
0.9397 0.0000 0.0000
0.9764 0.0000 0.0000
0.9841 0.0000 0.0000
0.0000 0.0063 0.0922
0.0054 0.0054 0.0920
0.0430 0.0000 0.0910
0.0889 0.0000 0.0889
0.1444 0.0000 0.0855
0.2093 0.0000 0.0805
0.2832 0.0000 0.0737
0.3669 0.0000 0.0647
0.4615 0.0000 0.0528
0.5676 0.0000 0.0365
0.6681 0.0000 0.0100
0.7560 0.0000 0.0000
0.8305 0.0000 0.0000
0.8912 0.0000 0.0000
0.9396 0.0000 0.0000
0.9764 0.0000 0.0000
