assets/luts/LUTs/JD_D-LOG_Conversion_5.CUBE
TITLE "ColorFinale Export"
# Created by Jeven Dovey on 2021-07-14 17:54:03 +0000
# Color Finale Plugin v.2.3.2 (520)
LUT_3D_SIZE 5
0.0000 0.0000 0.0000
0.1845 0.0000 0.0000
0.6402 0.0000 0.0000
0.9877 0.0000 0.0000
1.0000 0.0000 0.0000
0.0000 0.1587 0.0000
0.1346 0.1346 0.0000
0.5320 0.1128 0.0000
0.9530 0.0930 0.0000
1.0000 0.0748 0.0000
0.0000 0.5336 0.0000
0.0937 0.4799 0.0000
0.4282 0.4282 0.0000
0.9092 0.3798 0.0000
1.0000 0.3346 0.0000
0.0000 0.9337 0.0000
0.0593 0.9101 0.0000
0.3362 0.8820 0.0000
0.8486 0.8486 0.0000
1.0000 0.8082 0.0000
0.0000 1.0000 0.0000
0.0289 1.0000 0.0000
0.2558 1.0000 0.0000
0.7623 1.0000 0.0000
1.0000 1.0000 0.0000
0.0000 0.0000 0.2025
0.1740 0.0000 0.1740
0.6192 0.0000 0.1482
0.9814 0.0000 0.1250
1.0000 0.0000 0.1040
0.0000 0.1492 0.1492
0.1261 0.1261 0.1261
0.5113 0.1051 0.1051
0.9455 0.0859 0.0859
1.0000 0.0684 0.0684
0.0000 0.5129 0.1057
0.0867 0.4600 0.0867
0.4095 0.4095 0.0691
0.8990 0.3624 0.0527
1.0000 0.3183 0.0372
0.0000 0.9251 0.0695
0.0532 0.9000 0.0532
0.3199 0.8701 0.0378
0.8342 0.8342 0.0228
1.0000 0.7910 0.0078
0.0000 1.0000 0.0381
0.0232 1.0000 0.0232
0.2415 1.0000 0.0084
0.7425 1.0000 0.0000
1.0000 1.0000 0.0000
0.0000 0.0000 0.7070
0.1638 0.0000 0.6534
0.5980 0.0000 0.5980
0.9748 0.0000 0.5423
1.0000 0.0000 0.4877
0.0000 0.1401 0.6004
0.1178 0.1178 0.5452
0.4907 0.0976 0.4907
0.9375 0.0791 0.4383
1.0000 0.0620 0.3892
0.0000 0.4923 0.4923
0.0798 0.4403 0.4403
0.3912 0.3912 0.3912
0.8882 0.3453 0.3453
1.0000 0.3023 0.3023
0.0000 0.9159 0.3924
0.0473 0.8892 0.3468
0.3039 0.8572 0.3039
0.8187 0.8187 0.2638
1.0000 0.7727 0.2263
0.0000 1.0000 0.3048
0.0176 1.0000 0.2650
0.2276 1.0000 0.2276
0.7217 1.0000 0.1927
1.0000 1.0000 0.1604
0.0000 0.0000 1.0000
0.1540 0.0000 1.0000
0.5767 0.0000 0.9854
0.9681 0.0000 0.9681
1.0000 0.0000 0.9492
0.0000 0.1312 0.9861
0.1099 0.1099 0.9690
0.4704 0.0903 0.9503
0.9291 0.0724 0.9291
1.0000 0.0558 0.9044
0.0000 0.4720 0.9509
0.0731 0.4212 0.9299
0.3733 0.3733 0.9055
0.8766 0.3286 0.8766
1.0000 0.2867 0.8419
0.0000 0.9062 0.9062
0.0414 0.8776 0.8776
0.2883 0.8434 0.8434
0.8021 0.8021 0.8021
1.0000 0.7532 0.7532
0.0000 1.0000 0.8442
0.0119 1.0000 0.8035
0.2140 1.0000 0.7551
0.6999 1.0000 0.6999
1.0000 1.0000 0.6387
0.0000 0.0000 1.0000
0.1446 0.0000 1.0000
0.5555 0.0000 1.0000
0.9611 0.0000 1.0000
1.0000 0.0000 1.0000
0.0000 0.1228 1.0000
0.1022 0.1022 1.0000
0.4505 0.0833 1.0000
0.9201 0.0660 1.0000
1.0000 0.0498 1.0000
0.0000 0.4520 1.0000
0.0666 0.4025 1.0000
0.3559 0.3559 1.0000
0.8641 0.3123 1.0000
1.0000 0.2715 1.0000
0.0000 0.8958 1.0000
0.0356 0.8653 1.0000
0.2730 0.8285 1.0000
0.7843 0.7843 1.0000
1.0000 0.7328 1.0000
0.0000 1.0000 1.0000
0.0062 1.0000 1.0000
0.2008 1.0000 1.0000
0.6772 1.0000 1.0000
1.0000 1.0000 1.0000
