assets/luts/LUTs/JD_DLOG M CONVERSION +1.CUBE
TITLE "ColorFinale Export"
# Created by Jeven Dovey on 2023-09-01 21:14:10 +0000
# Color Finale Plugin v.2.6.0 (537)
LUT_3D_SIZE 17
0.0000 0.0000 0.0000
0.0033 0.0000 0.0000
0.0142 0.0000 0.0000
0.0421 0.0000 0.0000
0.0999 0.0000 0.0000
0.1849 0.0000 0.0000
0.2808 0.0000 0.0000
0.3816 0.0000 0.0000
0.4912 0.0000 0.0000
0.6101 0.0000 0.0000
0.7146 0.0000 0.0000
0.8015 0.0000 0.0000
0.8703 0.0000 0.0000
0.9234 0.0000 0.0000
0.9634 0.0000 0.0000
0.9907 0.0000 0.0000
0.9984 0.0000 0.0000
0.0000 0.0033 0.0000
0.0032 0.0032 0.0000
0.0141 0.0028 0.0000
0.0420 0.0019 0.0000
0.0997 0.0000 0.0000
0.1847 0.0000 0.0000
0.2807 0.0000 0.0000
0.3815 0.0000 0.0000
0.4911 0.0000 0.0000
0.6100 0.0000 0.0000
0.7145 0.0000 0.0000
0.8014 0.0000 0.0000
0.8702 0.0000 0.0000
0.9234 0.0000 0.0000
0.9634 0.0000 0.0000
0.9907 0.0000 0.0000
0.9984 0.0000 0.0000
0.0000 0.0142 0.0000
0.0028 0.0141 0.0000
0.0137 0.0137 0.0000
0.0414 0.0128 0.0000
0.0990 0.0114 0.0000
0.1841 0.0095 0.0000
0.2802 0.0071 0.0000
0.3811 0.0040 0.0000
0.4907 0.0000 0.0000
0.6096 0.0000 0.0000
0.7143 0.0000 0.0000
0.8012 0.0000 0.0000
0.8701 0.0000 0.0000
0.9233 0.0000 0.0000
0.9633 0.0000 0.0000
0.9907 0.0000 0.0000
0.9984 0.0000 0.0000
0.0000 0.0421 0.0000
0.0019 0.0420 0.0000
0.0128 0.0414 0.0000
0.0402 0.0402 0.0000
0.0976 0.0383 0.0000
0.1827 0.0356 0.0000
0.2791 0.0322 0.0000
0.3801 0.0281 0.0000
0.4898 0.0233 0.0000
0.6089 0.0180 0.0000
0.7138 0.0122 0.0000
0.8009 0.0061 0.0000
0.8699 0.0000 0.0000
0.9231 0.0000 0.0000
0.9632 0.0000 0.0000
0.9906 0.0000 0.0000
0.9984 0.0000 0.0000
0.0000 0.0999 0.0000
0.0000 0.0997 0.0000
0.0114 0.0990 0.0000
0.0383 0.0976 0.0000
0.0953 0.0953 0.0000
0.1806 0.0921 0.0000
0.2773 0.0878 0.0000
0.3787 0.0824 0.0000
0.4885 0.0759 0.0000
0.6078 0.0683 0.0000
0.7129 0.0595 0.0000
0.8003 0.0498 0.0000
0.8695 0.0394 0.0000
0.9229 0.0287 0.0000
0.9630 0.0181 0.0000
0.9905 0.0080 0.0000
0.9984 0.0000 0.0000
0.0000 0.1849 0.0000
0.0000 0.1847 0.0000
0.0095 0.1841 0.0000
0.0356 0.1827 0.0000
0.0921 0.1806 0.0000
0.1775 0.1775 0.0000
0.2748 0.1734 0.0000
0.3765 0.1682 0.0000
0.4865 0.1618 0.0000
0.6061 0.1541 0.0000
0.7118 0.1450 0.0000
0.7994 0.1345 0.0000
0.8689 0.1224 0.0000
0.9225 0.1088 0.0000
0.9628 0.0936 0.0000
0.9904 0.0771 0.0000
0.9984 0.0596 0.0000
0.0000 0.2808 0.0000
0.0000 0.2807 0.0000
0.0071 0.2802 0.0000
0.0322 0.2791 0.0000
0.0878 0.2773 0.0000
0.1734 0.2748 0.0000
0.2715 0.2715 0.0000
0.3737 0.2673 0.0000
0.4839 0.2621 0.0000
0.6040 0.2558 0.0000
0.7102 0.2484 0.0000
0.7983 0.2397 0.0000
0.8681 0.2296 0.0000
0.9219 0.2180 0.0000
0.9624 0.2047 0.0000
0.9902 0.1895 0.0000
0.9984 0.1723 0.0000
0.0000 0.3816 0.0000
0.0000 0.3815 0.0000
0.0040 0.3811 0.0000
0.0281 0.3801 0.0000
0.0824 0.3787 0.0000
0.1682 0.3765 0.0000
0.2673 0.3737 0.0000
0.3701 0.3701 0.0000
0.4807 0.3658 0.0000
0.6012 0.3605 0.0000
0.7082 0.3543 0.0000
0.7969 0.3471 0.0000
0.8671 0.3389 0.0000
0.9213 0.3295 0.0000
0.9620 0.3188 0.0000
0.9900 0.3069 0.0000
0.9984 0.2934 0.0000
0.0000 0.4912 0.0000
0.0000 0.4911 0.0000
0.0000 0.4907 0.0000
0.0233 0.4898 0.0000
0.0759 0.4885 0.0000
0.1618 0.4865 0.0000
0.2621 0.4839 0.0000
0.3658 0.4807 0.0000
0.4766 0.4766 0.0000
0.5978 0.4719 0.0000
0.7057 0.4663 0.0000
0.7951 0.4598 0.0000
0.8659 0.4524 0.0000
0.9204 0.4441 0.0000
0.9615 0.4348 0.0000
0.9897 0.4244 0.0000
0.9984 0.4129 0.0000
0.0000 0.6101 0.0000
0.0000 0.6100 0.0000
0.0000 0.6096 0.0000
0.0180 0.6089 0.0000
0.0683 0.6078 0.0000
0.1541 0.6061 0.0000
0.2558 0.6040 0.0000
0.3605 0.6012 0.0000
0.4719 0.5978 0.0000
0.5937 0.5937 0.0000
0.7027 0.5889 0.0000
0.7930 0.5832 0.0000
0.8645 0.5767 0.0000
0.9194 0.5692 0.0000
0.9608 0.5607 0.0000
0.9893 0.5510 0.0000
0.9984 0.5403 0.0000
0.0000 0.7146 0.0000
0.0000 0.7145 0.0000
0.0000 0.7143 0.0000
0.0122 0.7138 0.0000
0.0595 0.7129 0.0000
0.1450 0.7118 0.0000
0.2484 0.7102 0.0000
0.3543 0.7082 0.0000
0.4663 0.7057 0.0000
0.5889 0.7027 0.0000
0.6992 0.6992 0.0000
0.7905 0.6951 0.0000
0.8628 0.6904 0.0000
0.9183 0.6851 0.0000
0.9600 0.6790 0.0000
0.9889 0.6721 0.0000
0.9984 0.6644 0.0000
0.0000 0.8015 0.0000
0.0000 0.8014 0.0000
0.0000 0.8012 0.0000
0.0061 0.8009 0.0000
0.0498 0.8003 0.0000
0.1345 0.7994 0.0000
0.2397 0.7983 0.0000
0.3471 0.7969 0.0000
0.4598 0.7951 0.0000
0.5832 0.7930 0.0000
0.6951 0.7905 0.0000
0.7876 0.7876 0.0000
0.8608 0.7843 0.0000
0.9169 0.7805 0.0000
0.9591 0.7762 0.0000
0.9884 0.7713 0.0000
0.9984 0.7659 0.0000
0.0000 0.8703 0.0000
0.0000 0.8702 0.0000
0.0000 0.8701 0.0000
0.0000 0.8699 0.0000
0.0394 0.8695 0.0000
0.1224 0.8689 0.0000
0.2296 0.8681 0.0000
0.3389 0.8671 0.0000
0.4524 0.8659 0.0000
0.5767 0.8645 0.0000
0.6904 0.8628 0.0000
0.7843 0.8608 0.0000
0.8585 0.8585 0.0000
0.9154 0.8559 0.0000
0.9581 0.8530 0.0000
0.9878 0.8497 0.0000
0.9984 0.8459 0.0000
0.0000 0.9234 0.0000
0.0000 0.9234 0.0000
0.0000 0.9233 0.0000
0.0000 0.9231 0.0000
0.0287 0.9229 0.0000
0.1088 0.9225 0.0000
0.2180 0.9219 0.0000
0.3295 0.9213 0.0000
0.4441 0.9204 0.0000
0.5692 0.9194 0.0000
0.6851 0.9183 0.0000
0.7805 0.9169 0.0000
0.8559 0.9154 0.0000
0.9136 0.9136 0.0000
0.9569 0.9116 0.0000
0.9871 0.9094 0.0000
0.9984 0.9069 0.0000
0.0000 0.9634 0.0000
0.0000 0.9634 0.0000
0.0000 0.9633 0.0000
0.0000 0.9632 0.0000
0.0181 0.9630 0.0000
0.0936 0.9628 0.0000
0.2047 0.9624 0.0000
0.3188 0.9620 0.0000
0.4348 0.9615 0.0000
0.5607 0.9608 0.0000
0.6790 0.9600 0.0000
0.7762 0.9591 0.0000
0.8530 0.9581 0.0000
0.9116 0.9569 0.0000
0.9556 0.9556 0.0000
0.9864 0.9541 0.0000
0.9984 0.9525 0.0000
0.0000 0.9907 0.0000
0.0000 0.9907 0.0000
0.0000 0.9907 0.0000
0.0000 0.9906 0.0000
0.0080 0.9905 0.0000
0.0771 0.9904 0.0000
0.1895 0.9902 0.0000
0.3069 0.9900 0.0000
0.4244 0.9897 0.0000
0.5510 0.9893 0.0000
0.6721 0.9889 0.0000
0.7713 0.9884 0.0000
0.8497 0.9878 0.0000
0.9094 0.9871 0.0000
0.9541 0.9864 0.0000
0.9855 0.9855 0.0000
0.9984 0.9845 0.0000
0.0000 0.9984 0.0000
0.0000 0.9984 0.0000
0.0000 0.9984 0.0000
0.0000 0.9984 0.0000
0.0000 0.9984 0.0000
0.0596 0.9984 0.0000
0.1723 0.9984 0.0000
0.2934 0.9984 0.0000
0.4129 0.9984 0.0000
0.5403 0.9984 0.0000
0.6644 0.9984 0.0000
0.7659 0.9984 0.0000
0.8459 0.9984 0.0000
0.9069 0.9984 0.0000
0.9525 0.9984 0.0000
0.9845 0.9984 0.0000
0.9984 0.9984 0.0000
0.0000 0.0000 0.0033
0.0032 0.0000 0.0032
0.0141 0.0000 0.0028
0.0420 0.0000 0.0019
0.0997 0.0000 0.0000
0.1847 0.0000 0.0000
0.2807 0.0000 0.0000
0.3815 0.0000 0.0000
0.4911 0.0000 0.0000
0.6100 0.0000 0.0000
0.7145 0.0000 0.0000
0.8014 0.0000 0.0000
0.8702 0.0000 0.0000
0.9234 0.0000 0.0000
0.9634 0.0000 0.0000
0.9907 0.0000 0.0000
0.9984 0.0000 0.0000
0.0000 0.0032 0.0032
0.0031 0.0031 0.0031
0.0140 0.0027 0.0027
0.0418 0.0018 0.0018
0.0996 0.0000 0.0000
0.1846 0.0000 0.0000
0.2806 0.0000 0.0000
0.3814 0.0000 0.0000
0.4910 0.0000 0.0000
0.6099 0.0000 0.0000
0.7145 0.0000 0.0000
0.8014 0.0000 0.0000
0.8702 0.0000 0.0000
0.9234 0.0000 0.0000
0.9634 0.0000 0.0000
0.9907 0.0000 0.0000
0.9984 0.0000 0.0000
0.0000 0.0141 0.0028
0.0027 0.0140 0.0027
0.0136 0.0136 0.0023
0.0412 0.0127 0.0013
0.0988 0.0113 0.0000
0.1839 0.0094 0.0000
0.2800 0.0070 0.0000
0.3810 0.0039 0.0000
0.4906 0.0000 0.0000
0.6095 0.0000 0.0000
0.7142 0.0000 0.0000
0.8012 0.0000 0.0000
0.8701 0.0000 0.0000
0.9233 0.0000 0.0000
0.9633 0.0000 0.0000
0.9907 0.0000 0.0000
0.9984 0.0000 0.0000
0.0000 0.0420 0.0019
0.0018 0.0418 0.0018
0.0127 0.0412 0.0013
0.0400 0.0400 0.0000
0.0974 0.0381 0.0000
0.1826 0.0355 0.0000
0.2789 0.0321 0.0000
0.3800 0.0280 0.0000
0.4897 0.0232 0.0000
0.6088 0.0179 0.0000
0.7137 0.0121 0.0000
0.8008 0.0060 0.0000
0.8698 0.0000 0.0000
0.9231 0.0000 0.0000
0.9632 0.0000 0.0000
0.9906 0.0000 0.0000
0.9984 0.0000 0.0000
0.0000 0.0997 0.0000
0.0000 0.0996 0.0000
0.0113 0.0988 0.0000
0.0381 0.0974 0.0000
0.0951 0.0951 0.0000
0.1804 0.0919 0.0000
0.2772 0.0876 0.0000
0.3786 0.0822 0.0000
0.4884 0.0758 0.0000
0.6077 0.0681 0.0000
0.7129 0.0594 0.0000
0.8002 0.0497 0.0000
0.8694 0.0393 0.0000
0.9228 0.0286 0.0000
0.9630 0.0180 0.0000
0.9905 0.0079 0.0000
0.9984 0.0000 0.0000
0.0000 0.1847 0.0000
0.0000 0.1846 0.0000
0.0094 0.1839 0.0000
0.0355 0.1826 0.0000
0.0919 0.1804 0.0000
0.1774 0.1774 0.0000
0.2747 0.1733 0.0000
0.3764 0.1681 0.0000
0.4864 0.1617 0.0000
0.6061 0.1540 0.0000
0.7117 0.1449 0.0000
0.7994 0.1343 0.0000
0.8689 0.1222 0.0000
0.9224 0.1086 0.0000
0.9628 0.0935 0.0000
0.9904 0.0770 0.0000
0.9984 0.0594 0.0000
0.0000 0.2807 0.0000
0.0000 0.2806 0.0000
0.0070 0.2800 0.0000
0.0321 0.2789 0.0000
0.0876 0.2772 0.0000
0.1733 0.2747 0.0000
0.2714 0.2714 0.0000
0.3736 0.2672 0.0000
0.4838 0.2620 0.0000
0.6039 0.2557 0.0000
0.7101 0.2483 0.0000
0.7983 0.2396 0.0000
0.8681 0.2295 0.0000
0.9219 0.2179 0.0000
0.9624 0.2046 0.0000
0.9902 0.1894 0.0000
0.9984 0.1722 0.0000
0.0000 0.3815 0.0000
0.0000 0.3814 0.0000
0.0039 0.3810 0.0000
0.0280 0.3800 0.0000
0.0822 0.3786 0.0000
0.1681 0.3764 0.0000
0.2672 0.3736 0.0000
0.3700 0.3700 0.0000
0.4805 0.3656 0.0000
0.6011 0.3604 0.0000
0.7081 0.3542 0.0000
0.7968 0.3470 0.0000
0.8671 0.3387 0.0000
0.9212 0.3294 0.0000
0.9620 0.3187 0.0000
0.9900 0.3068 0.0000
0.9984 0.2933 0.0000
0.0000 0.4911 0.0000
0.0000 0.4910 0.0000
0.0000 0.4906 0.0000
0.0232 0.4897 0.0000
0.0758 0.4884 0.0000
0.1617 0.4864 0.0000
0.2620 0.4838 0.0000
0.3656 0.4805 0.0000
0.4765 0.4765 0.0000
0.5977 0.4717 0.0000
0.7056 0.4662 0.0000
0.7951 0.4597 0.0000
0.8659 0.4523 0.0000
0.9204 0.4440 0.0000
0.9614 0.4347 0.0000
0.9897 0.4243 0.0000
0.9984 0.4128 0.0000
0.0000 0.6100 0.0000
0.0000 0.6099 0.0000
0.0000 0.6095 0.0000
0.0179 0.6088 0.0000
0.0681 0.6077 0.0000
0.1540 0.6061 0.0000
0.2557 0.6039 0.0000
0.3604 0.6011 0.0000
0.4717 0.5977 0.0000
0.5936 0.5936 0.0000
0.7026 0.5888 0.0000
0.7930 0.5831 0.0000
0.8645 0.5766 0.0000
0.9194 0.5691 0.0000
0.9608 0.5606 0.0000
0.9893 0.5509 0.0000
0.9984 0.5402 0.0000
0.0000 0.7145 0.0000
0.0000 0.7145 0.0000
0.0000 0.7142 0.0000
0.0121 0.7137 0.0000
0.0594 0.7129 0.0000
0.1449 0.7117 0.0000
0.2483 0.7101 0.0000
0.3542 0.7081 0.0000
0.4662 0.7056 0.0000
0.5888 0.7026 0.0000
0.6992 0.6992 0.0000
0.7905 0.6951 0.0000
0.8627 0.6904 0.0000
0.9183 0.6850 0.0000
0.9600 0.6789 0.0000
0.9889 0.6720 0.0000
0.9984 0.6643 0.0000
0.0000 0.8014 0.0000
0.0000 0.8014 0.0000
0.0000 0.8012 0.0000
0.0060 0.8008 0.0000
0.0497 0.8002 0.0000
0.1343 0.7994 0.0000
0.2396 0.7983 0.0000
0.3470 0.7968 0.0000
0.4597 0.7951 0.0000
0.5831 0.7930 0.0000
0.6951 0.7905 0.0000
0.7876 0.7876 0.0000
0.8608 0.7843 0.0000
0.9169 0.7804 0.0000
0.9591 0.7761 0.0000
0.9884 0.7713 0.0000
0.9984 0.7658 0.0000
0.0000 0.8702 0.0000
0.0000 0.8702 0.0000
0.0000 0.8701 0.0000
0.0000 0.8698 0.0000
0.0393 0.8694 0.0000
0.1222 0.8689 0.0000
0.2295 0.8681 0.0000
0.3387 0.8671 0.0000
0.4523 0.8659 0.0000
0.5766 0.8645 0.0000
0.6904 0.8627 0.0000
0.7843 0.8608 0.0000
0.8585 0.8585 0.0000
0.9154 0.8559 0.0000
0.9581 0.8529 0.0000
0.9878 0.8496 0.0000
0.9984 0.8459 0.0000
0.0000 0.9234 0.0000
0.0000 0.9234 0.0000
0.0000 0.9233 0.0000
0.0000 0.9231 0.0000
0.0286 0.9228 0.0000
0.1086 0.9224 0.0000
0.2179 0.9219 0.0000
0.3294 0.9212 0.0000
0.4440 0.9204 0.0000
0.5691 0.9194 0.0000
0.6850 0.9183 0.0000
0.7804 0.9169 0.0000
0.8559 0.9154 0.0000
0.9136 0.9136 0.0000
0.9569 0.9116 0.0000
0.9871 0.9093 0.0000
0.9984 0.9068 0.0000
0.0000 0.9634 0.0000
0.0000 0.9634 0.0000
0.0000 0.9633 0.0000
0.0000 0.9632 0.0000
0.0180 0.9630 0.0000
0.0935 0.9628 0.0000
0.2046 0.9624 0.0000
0.3187 0.9620 0.0000
0.4347 0.9614 0.0000
0.5606 0.9608 0.0000
0.6789 0.9600 0.0000
0.7761 0.9591 0.0000
0.8529 0.9581 0.0000
0.9116 0.9569 0.0000
0.9556 0.9556 0.0000
0.9864 0.9541 0.0000
0.9984 0.9524 0.0000
0.0000 0.9907 0.0000
0.0000 0.9907 0.0000
0.0000 0.9907 0.0000
0.0000 0.9906 0.0000
0.0079 0.9905 0.0000
0.0770 0.9904 0.0000
0.1894 0.9902 0.0000
0.3068 0.9900 0.0000
0.4243 0.9897 0.0000
0.5509 0.9893 0.0000
0.6720 0.9889 0.0000
0.7713 0.9884 0.0000
0.8496 0.9878 0.0000
0.9093 0.9871 0.0000
0.9541 0.9864 0.0000
0.9855 0.9855 0.0000
0.9984 0.9845 0.0000
0.0000 0.9984 0.0000
0.0000 0.9984 0.0000
0.0000 0.9984 0.0000
0.0000 0.9984 0.0000
0.0000 0.9984 0.0000
0.0594 0.9984 0.0000
0.1722 0.9984 0.0000
0.2933 0.9984 0.0000
0.4128 0.9984 0.0000
0.5402 0.9984 0.0000
0.6643 0.9984 0.0000
0.7658 0.9984 0.0000
0.8459 0.9984 0.0000
0.9068 0.9984 0.0000
0.9524 0.9984 0.0000
0.9845 0.9984 0.0000
0.9984 0.9984 0.0000
0.0000 0.0000 0.0142
0.0028 0.0000 0.0141
0.0137 0.0000 0.0137
0.0414 0.0000 0.0128
0.0990 0.0000 0.0114
0.1841 0.0000 0.0095
0.2802 0.0000 0.0071
0.3811 0.0000 0.0040
0.4907 0.0000 0.0000
0.6096 0.0000 0.0000
0.7143 0.0000 0.0000
0.8012 0.0000 0.0000
0.8701 0.0000 0.0000
0.9233 0.0000 0.0000
0.9633 0.0000 0.0000
0.9907 0.0000 0.0000
0.9984 0.0000 0.0000
0.0000 0.0028 0.0141
0.0027 0.0027 0.0140
0.0136 0.0023 0.0136
0.0412 0.0013 0.0127
0.0988 0.0000 0.0113
0.1839 0.0000 0.0094
0.2800 0.0000 0.0070
0.3810 0.0000 0.0039
0.4906 0.0000 0.0000
0.6095 0.0000 0.0000
0.7142 0.0000 0.0000
0.8012 0.0000 0.0000
0.8701 0.0000 0.0000
0.9233 0.0000 0.0000
0.9633 0.0000 0.0000
0.9907 0.0000 0.0000
0.9984 0.0000 0.0000
0.0000 0.0137 0.0137
0.0023 0.0136 0.0136
0.0131 0.0131 0.0131
0.0406 0.0123 0.0123
0.0982 0.0109 0.0109
0.1833 0.0090 0.0090
0.2795 0.0066 0.0066
0.3805 0.0035 0.0035
0.4902 0.0000 0.0000
0.6092 0.0000 0.0000
0.7140 0.0000 0.0000
0.8010 0.0000 0.0000
0.8700 0.0000 0.0000
0.9232 0.0000 0.0000
0.9633 0.0000 0.0000
0.9907 0.0000 0.0000
0.9984 0.0000 0.0000
0.0000 0.0414 0.0128
0.0013 0.0412 0.0127
0.0123 0.0406 0.0123
0.0394 0.0394 0.0114
0.0967 0.0375 0.0101
0.1819 0.0349 0.0082
0.2784 0.0315 0.0058
0.3796 0.0275 0.0027
0.4893 0.0227 0.0000
0.6085 0.0174 0.0000
0.7134 0.0117 0.0000
0.8006 0.0056 0.0000
0.8697 0.0000 0.0000
0.9230 0.0000 0.0000
0.9632 0.0000 0.0000
0.9906 0.0000 0.0000
0.9984 0.0000 0.0000
0.0000 0.0990 0.0114
0.0000 0.0988 0.0113
0.0109 0.0982 0.0109
0.0375 0.0967 0.0101
0.0944 0.0944 0.0088
0.1798 0.0912 0.0069
0.2767 0.0869 0.0045
0.3781 0.0816 0.0011
0.4880 0.0751 0.0000
0.6073 0.0674 0.0000
0.7126 0.0587 0.0000
0.8001 0.0491 0.0000
0.8693 0.0387 0.0000
0.9228 0.0280 0.0000
0.9630 0.0176 0.0000
0.9905 0.0075 0.0000
0.9984 0.0000 0.0000
0.0000 0.1841 0.0095
0.0000 0.1839 0.0094
0.0090 0.1833 0.0090
0.0349 0.1819 0.0082
0.0912 0.1798 0.0069
0.1767 0.1767 0.0051
0.2742 0.1726 0.0026
0.3760 0.1674 0.0000
0.4860 0.1610 0.0000
0.6057 0.1533 0.0000
0.7114 0.1442 0.0000
0.7992 0.1336 0.0000
0.8687 0.1215 0.0000
0.9224 0.1079 0.0000
0.9627 0.0928 0.0000
0.9904 0.0763 0.0000
0.9984 0.0588 0.0000
0.0000 0.2802 0.0071
0.0000 0.2800 0.0070
0.0066 0.2795 0.0066
0.0315 0.2784 0.0058
0.0869 0.2767 0.0045
0.1726 0.2742 0.0026
0.2709 0.2709 0.0000
0.3731 0.2666 0.0000
0.4834 0.2614 0.0000
0.6035 0.2551 0.0000
0.7099 0.2477 0.0000
0.7981 0.2390 0.0000
0.8680 0.2289 0.0000
0.9218 0.2173 0.0000
0.9624 0.2040 0.0000
0.9902 0.1887 0.0000
0.9984 0.1715 0.0000
0.0000 0.3811 0.0040
0.0000 0.3810 0.0039
0.0035 0.3805 0.0035
0.0275 0.3796 0.0027
0.0816 0.3781 0.0011
0.1674 0.3760 0.0000
0.2666 0.3731 0.0000
0.3696 0.3696 0.0000
0.4801 0.3652 0.0000
0.6008 0.3599 0.0000
0.7078 0.3537 0.0000
0.7967 0.3465 0.0000
0.8670 0.3383 0.0000
0.9212 0.3289 0.0000
0.9619 0.3182 0.0000
0.9899 0.3062 0.0000
0.9984 0.2928 0.0000
0.0000 0.4907 0.0000
0.0000 0.4906 0.0000
0.0000 0.4902 0.0000
0.0227 0.4893 0.0000
0.0751 0.4880 0.0000
0.1610 0.4860 0.0000
0.2614 0.4834 0.0000
0.3652 0.4801 0.0000
0.4761 0.4761 0.0000
0.5973 0.4713 0.0000
0.7054 0.4657 0.0000
0.7949 0.4592 0.0000
0.8658 0.4519 0.0000
0.9203 0.4436 0.0000
0.9614 0.4342 0.0000
0.9896 0.4239 0.0000
0.9984 0.4124 0.0000
0.0000 0.6096 0.0000
0.0000 0.6095 0.0000
0.0000 0.6092 0.0000
0.0174 0.6085 0.0000
0.0674 0.6073 0.0000
0.1533 0.6057 0.0000
0.2551 0.6035 0.0000
0.3599 0.6008 0.0000
0.4713 0.5973 0.0000
0.5932 0.5932 0.0000
0.7024 0.5884 0.0000
0.7928 0.5827 0.0000
0.8643 0.5762 0.0000
0.9193 0.5687 0.0000
0.9607 0.5602 0.0000
0.9893 0.5505 0.0000
0.9984 0.5398 0.0000
0.0000 0.7143 0.0000
0.0000 0.7142 0.0000
0.0000 0.7140 0.0000
0.0117 0.7134 0.0000
0.0587 0.7126 0.0000
0.1442 0.7114 0.0000
0.2477 0.7099 0.0000
0.3537 0.7078 0.0000
0.4657 0.7054 0.0000
0.5884 0.7024 0.0000
0.6989 0.6989 0.0000
0.7903 0.6948 0.0000
0.8626 0.6901 0.0000
0.9182 0.6847 0.0000
0.9600 0.6786 0.0000
0.9888 0.6717 0.0000
0.9984 0.6640 0.0000
0.0000 0.8012 0.0000
0.0000 0.8012 0.0000
0.0000 0.8010 0.0000
0.0056 0.8006 0.0000
0.0491 0.8001 0.0000
0.1336 0.7992 0.0000
0.2390 0.7981 0.0000
0.3465 0.7967 0.0000
0.4592 0.7949 0.0000
0.5827 0.7928 0.0000
0.6948 0.7903 0.0000
0.7874 0.7874 0.0000
0.8606 0.7841 0.0000
0.9168 0.7802 0.0000
0.9591 0.7759 0.0000
0.9883 0.7711 0.0000
0.9984 0.7656 0.0000
0.0000 0.8701 0.0000
0.0000 0.8701 0.0000
0.0000 0.8700 0.0000
0.0000 0.8697 0.0000
0.0387 0.8693 0.0000
0.1215 0.8687 0.0000
0.2289 0.8680 0.0000
0.3383 0.8670 0.0000
0.4519 0.8658 0.0000
0.5762 0.8643 0.0000
0.6901 0.8626 0.0000
0.7841 0.8606 0.0000
0.8583 0.8583 0.0000
0.9153 0.8557 0.0000
0.9580 0.8528 0.0000
0.9878 0.8495 0.0000
0.9984 0.8458 0.0000
0.0000 0.9233 0.0000
0.0000 0.9233 0.0000
0.0000 0.9232 0.0000
0.0000 0.9230 0.0000
0.0280 0.9228 0.0000
0.1079 0.9224 0.0000
0.2173 0.9218 0.0000
0.3289 0.9212 0.0000
0.4436 0.9203 0.0000
0.5687 0.9193 0.0000
0.6847 0.9182 0.0000
0.7802 0.9168 0.0000
0.8557 0.9153 0.0000
0.9135 0.9135 0.0000
0.9569 0.9115 0.0000
0.9871 0.9092 0.0000
0.9984 0.9067 0.0000
0.0000 0.9633 0.0000
0.0000 0.9633 0.0000
0.0000 0.9633 0.0000
0.0000 0.9632 0.0000
0.0176 0.9630 0.0000
0.0928 0.9627 0.0000
0.2040 0.9624 0.0000
0.3182 0.9619 0.0000
0.4342 0.9614 0.0000
0.5602 0.9607 0.0000
0.6786 0.9600 0.0000
0.7759 0.9591 0.0000
0.8528 0.9580 0.0000
0.9115 0.9569 0.0000
0.9555 0.9555 0.0000
0.9863 0.9540 0.0000
0.9984 0.9524 0.0000
0.0000 0.9907 0.0000
0.0000 0.9907 0.0000
0.0000 0.9907 0.0000
0.0000 0.9906 0.0000
0.0075 0.9905 0.0000
0.0763 0.9904 0.0000
0.1887 0.9902 0.0000
0.3062 0.9899 0.0000
0.4239 0.9896 0.0000
0.5505 0.9893 0.0000
0.6717 0.9888 0.0000
0.7711 0.9883 0.0000
0.8495 0.9878 0.0000
0.9092 0.9871 0.0000
0.9540 0.9863 0.0000
0.9855 0.9855 0.0000
0.9984 0.9845 0.0000
0.0000 0.9984 0.0000
0.0000 0.9984 0.0000
0.0000 0.9984 0.0000
0.0000 0.9984 0.0000
0.0000 0.9984 0.0000
0.0588 0.9984 0.0000
0.1715 0.9984 0.0000
0.2928 0.9984 0.0000
0.4124 0.9984 0.0000
0.5398 0.9984 0.0000
0.6640 0.9984 0.0000
0.7656 0.9984 0.0000
0.8458 0.9984 0.0000
0.9067 0.9984 0.0000
0.9524 0.9984 0.0000
0.9845 0.9984 0.0000
0.9984 0.9984 0.0000
0.0000 0.0000 0.0421
0.0019 0.0000 0.0420
0.0128 0.0000 0.0414
0.0402 0.0000 0.0402
0.0976 0.0000 0.0383
0.1827 0.0000 0.0356
0.2791 0.0000 0.0322
0.3801 0.0000 0.0281
0.4898 0.0000 0.0233
0.6089 0.0000 0.0180
0.7138 0.0000 0.0122
0.8009 0.0000 0.0061
0.8699 0.0000 0.0000
0.9231 0.0000 0.0000
0.9632 0.0000 0.0000
0.9906 0.0000 0.0000
0.9984 0.0000 0.0000
0.0000 0.0019 0.0420
0.0018 0.0018 0.0418
0.0127 0.0013 0.0412
0.0400 0.0000 0.0400
0.0974 0.0000 0.0381
0.1826 0.0000 0.0355
0.2789 0.0000 0.0321
0.3800 0.0000 0.0280
0.4897 0.0000 0.0232
0.6088 0.0000 0.0179
0.7137 0.0000 0.0121
0.8008 0.0000 0.0060
0.8698 0.0000 0.0000
0.9231 0.0000 0.0000
0.9632 0.0000 0.0000
0.9906 0.0000 0.0000
