assets/luts/LUTs/JD_D-LOG_Conversion_2.CUBE
TITLE "ColorFinale Export"
# Created by Jeven Dovey on 2021-12-03 18:55:52 +0000
# Color Finale Plugin v.2.4.5 (531)
LUT_3D_SIZE 17
0.0000 0.0000 0.0000
0.0306 0.0000 0.0000
0.0690 0.0000 0.0000
0.1213 0.0000 0.0000
0.1943 0.0000 0.0000
0.2954 0.0000 0.0000
0.4304 0.0000 0.0000
0.5873 0.0000 0.0000
0.7411 0.0000 0.0000
0.8918 0.0000 0.0000
1.0000 0.0000 0.0000
1.0000 0.0000 0.0000
1.0000 0.0000 0.0000
1.0000 0.0000 0.0000
1.0000 0.0000 0.0000
1.0000 0.0000 0.0000
1.0000 0.0000 0.0000
0.0000 0.0284 0.0000
0.0261 0.0261 0.0000
0.0643 0.0233 0.0000
0.1165 0.0196 0.0000
0.1896 0.0146 0.0000
0.2906 0.0079 0.0000
0.4255 0.0000 0.0000
0.5824 0.0000 0.0000
0.7363 0.0000 0.0000
0.8871 0.0000 0.0000
1.0000 0.0000 0.0000
1.0000 0.0000 0.0000
1.0000 0.0000 0.0000
1.0000 0.0000 0.0000
1.0000 0.0000 0.0000
1.0000 0.0000 0.0000
1.0000 0.0000 0.0000
0.0000 0.0640 0.0000
0.0207 0.0616 0.0000
0.0588 0.0588 0.0000
0.1109 0.0550 0.0000
0.1838 0.0498 0.0000
0.2848 0.0428 0.0000
0.4196 0.0335 0.0000
0.5765 0.0229 0.0000
0.7305 0.0125 0.0000
0.8814 0.0025 0.0000
1.0000 0.0000 0.0000
1.0000 0.0000 0.0000
1.0000 0.0000 0.0000
1.0000 0.0000 0.0000
1.0000 0.0000 0.0000
1.0000 0.0000 0.0000
1.0000 0.0000 0.0000
0.0000 0.1125 0.0000
0.0135 0.1101 0.0000
0.0514 0.1072 0.0000
0.1033 0.1033 0.0000
0.1762 0.0981 0.0000
0.2770 0.0908 0.0000
0.4117 0.0814 0.0000
0.5687 0.0705 0.0000
0.7228 0.0597 0.0000
0.8738 0.0490 0.0000
1.0000 0.0386 0.0000
1.0000 0.0324 0.0000
1.0000 0.0298 0.0000
1.0000 0.0284 0.0000
1.0000 0.0273 0.0000
1.0000 0.0264 0.0000
1.0000 0.0256 0.0000
0.0000 0.1802 0.0000
0.0039 0.1778 0.0000
0.0412 0.1749 0.0000
0.0930 0.1710 0.0000
0.1656 0.1656 0.0000
0.2663 0.1583 0.0000
0.4009 0.1487 0.0000
0.5579 0.1375 0.0000
0.7122 0.1265 0.0000
0.8633 0.1156 0.0000
1.0000 0.1049 0.0000
1.0000 0.0986 0.0000
1.0000 0.0958 0.0000
1.0000 0.0944 0.0000
1.0000 0.0932 0.0000
1.0000 0.0923 0.0000
1.0000 0.0915 0.0000
0.0000 0.2740 0.0000
0.0000 0.2715 0.0000
0.0275 0.2685 0.0000
0.0789 0.2646 0.0000
0.1513 0.2592 0.0000
0.2518 0.2518 0.0000
0.3862 0.2420 0.0000
0.5431 0.2307 0.0000
0.6976 0.2195 0.0000
0.8490 0.2084 0.0000
0.9935 0.1975 0.0000
1.0000 0.1911 0.0000
1.0000 0.1882 0.0000
1.0000 0.1868 0.0000
1.0000 0.1856 0.0000
1.0000 0.1847 0.0000
1.0000 0.1838 0.0000
0.0000 0.3991 0.0000
0.0000 0.3966 0.0000
0.0097 0.3936 0.0000
0.0604 0.3896 0.0000
0.1324 0.3842 0.0000
0.2326 0.3767 0.0000
0.3668 0.3668 0.0000
0.5236 0.3553 0.0000
0.6783 0.3440 0.0000
0.8300 0.3328 0.0000
0.9756 0.3217 0.0000
1.0000 0.3152 0.0000
1.0000 0.3123 0.0000
1.0000 0.3108 0.0000
1.0000 0.3096 0.0000
1.0000 0.3087 0.0000
1.0000 0.3078 0.0000
0.0000 0.5450 0.0000
0.0000 0.5425 0.0000
0.0000 0.5396 0.0000
0.0392 0.5355 0.0000
0.1107 0.5300 0.0000
0.2105 0.5225 0.0000
0.3443 0.5125 0.0000
0.5010 0.5010 0.0000
0.6560 0.4896 0.0000
0.8081 0.4782 0.0000
0.9545 0.4670 0.0000
1.0000 0.4604 0.0000
1.0000 0.4575 0.0000
1.0000 0.4560 0.0000
1.0000 0.4548 0.0000
1.0000 0.4538 0.0000
1.0000 0.4530 0.0000
0.0000 0.6886 0.0000
0.0000 0.6862 0.0000
0.0000 0.6832 0.0000
0.0185 0.6792 0.0000
0.0892 0.6738 0.0000
0.1886 0.6664 0.0000
0.3221 0.6565 0.0000
0.4786 0.6451 0.0000
0.6338 0.6338 0.0000
0.7862 0.6226 0.0000
0.9333 0.6115 0.0000
1.0000 0.6050 0.0000
1.0000 0.6021 0.0000
1.0000 0.6006 0.0000
1.0000 0.5994 0.0000
1.0000 0.5985 0.0000
1.0000 0.5976 0.0000
0.0000 0.8296 0.0000
0.0000 0.8272 0.0000
0.0000 0.8242 0.0000
0.0000 0.8203 0.0000
0.0681 0.8150 0.0000
0.1669 0.8076 0.0000
0.3001 0.7979 0.0000
0.4563 0.7867 0.0000
0.6118 0.7755 0.0000
0.7644 0.7644 0.0000
0.9121 0.7535 0.0000
0.9966 0.7470 0.0000
1.0000 0.7442 0.0000
1.0000 0.7427 0.0000
1.0000 0.7415 0.0000
1.0000 0.7406 0.0000
1.0000 0.7397 0.0000
0.0000 0.9652 0.0000
0.0000 0.9628 0.0000
0.0000 0.9600 0.0000
0.0000 0.9563 0.0000
0.0474 0.9511 0.0000
0.1457 0.9439 0.0000
0.2785 0.9345 0.0000
0.4344 0.9236 0.0000
0.5900 0.9127 0.0000
0.7430 0.9018 0.0000
0.8911 0.8911 0.0000
0.9767 0.8847 0.0000
1.0000 0.8819 0.0000
1.0000 0.8805 0.0000
1.0000 0.8793 0.0000
1.0000 0.8784 0.0000
1.0000 0.8775 0.0000
0.0000 1.0000 0.0000
0.0000 1.0000 0.0000
0.0000 1.0000 0.0000
0.0000 1.0000 0.0000
0.0353 1.0000 0.0000
0.1331 1.0000 0.0000
0.2657 1.0000 0.0000
0.4214 1.0000 0.0000
0.5771 0.9915 0.0000
0.7302 0.9811 0.0000
0.8786 0.9708 0.0000
0.9646 0.9646 0.0000
1.0000 0.9619 0.0000
1.0000 0.9605 0.0000
1.0000 0.9594 0.0000
1.0000 0.9585 0.0000
1.0000 0.9577 0.0000
0.0000 1.0000 0.0000
0.0000 1.0000 0.0000
0.0000 1.0000 0.0000
0.0000 1.0000 0.0000
0.0301 1.0000 0.0000
0.1277 1.0000 0.0000
0.2601 1.0000 0.0000
0.4158 1.0000 0.0000
0.5715 1.0000 0.0000
0.7246 1.0000 0.0000
0.8731 1.0000 0.0000
0.9593 0.9981 0.0000
0.9956 0.9956 0.0000
1.0000 0.9942 0.0000
1.0000 0.9932 0.0000
1.0000 0.9923 0.0000
1.0000 0.9915 0.0000
0.0000 1.0000 0.0000
0.0000 1.0000 0.0000
0.0000 1.0000 0.0000
0.0000 1.0000 0.0000
0.0273 1.0000 0.0000
0.1248 1.0000 0.0000
0.2572 1.0000 0.0000
0.4128 1.0000 0.0000
0.5685 1.0000 0.0000
0.7217 1.0000 0.0000
0.8702 1.0000 0.0000
0.9565 1.0000 0.0000
0.9929 1.0000 0.0000
1.0000 1.0000 0.0000
1.0000 1.0000 0.0000
1.0000 1.0000 0.0000
1.0000 1.0000 0.0000
0.0000 1.0000 0.0000
0.0000 1.0000 0.0000
0.0000 1.0000 0.0000
0.0000 1.0000 0.0000
0.0252 1.0000 0.0000
0.1226 1.0000 0.0000
0.2549 1.0000 0.0000
0.4105 1.0000 0.0000
0.5662 1.0000 0.0000
0.7194 1.0000 0.0000
0.8680 1.0000 0.0000
0.9543 1.0000 0.0000
0.9908 1.0000 0.0000
1.0000 1.0000 0.0000
1.0000 1.0000 0.0000
1.0000 1.0000 0.0000
1.0000 1.0000 0.0000
0.0000 1.0000 0.0000
0.0000 1.0000 0.0000
0.0000 1.0000 0.0000
0.0000 1.0000 0.0000
0.0234 1.0000 0.0000
0.1207 1.0000 0.0000
0.2530 1.0000 0.0000
0.4085 1.0000 0.0000
0.5643 1.0000 0.0000
0.7175 1.0000 0.0000
0.8661 1.0000 0.0000
0.9525 1.0000 0.0000
0.9891 1.0000 0.0000
1.0000 1.0000 0.0000
1.0000 1.0000 0.0000
1.0000 1.0000 0.0000
1.0000 1.0000 0.0000
0.0000 1.0000 0.0000
0.0000 1.0000 0.0000
0.0000 1.0000 0.0000
0.0000 1.0000 0.0000
0.0218 1.0000 0.0000
0.1190 1.0000 0.0000
0.2513 1.0000 0.0000
0.4068 1.0000 0.0000
0.5625 1.0000 0.0000
0.7158 1.0000 0.0000
0.8645 1.0000 0.0000
0.9509 1.0000 0.0000
0.9875 1.0000 0.0000
1.0000 1.0000 0.0000
1.0000 1.0000 0.0000
1.0000 1.0000 0.0000
1.0000 1.0000 0.0000
0.0000 0.0000 0.0320
0.0297 0.0000 0.0297
0.0681 0.0000 0.0269
0.1203 0.0000 0.0233
0.1934 0.0000 0.0182
0.2945 0.0000 0.0114
0.4294 0.0000 0.0026
0.5863 0.0000 0.0000
0.7402 0.0000 0.0000
0.8909 0.0000 0.0000
1.0000 0.0000 0.0000
1.0000 0.0000 0.0000
1.0000 0.0000 0.0000
1.0000 0.0000 0.0000
1.0000 0.0000 0.0000
1.0000 0.0000 0.0000
1.0000 0.0000 0.0000
0.0000 0.0275 0.0275
0.0252 0.0252 0.0252
0.0634 0.0224 0.0224
0.1156 0.0188 0.0188
0.1886 0.0138 0.0138
0.2896 0.0070 0.0070
0.4245 0.0000 0.0000
0.5815 0.0000 0.0000
0.7354 0.0000 0.0000
0.8862 0.0000 0.0000
1.0000 0.0000 0.0000
1.0000 0.0000 0.0000
1.0000 0.0000 0.0000
1.0000 0.0000 0.0000
1.0000 0.0000 0.0000
1.0000 0.0000 0.0000
1.0000 0.0000 0.0000
0.0000 0.0631 0.0221
0.0198 0.0607 0.0198
0.0579 0.0579 0.0171
0.1100 0.0541 0.0134
0.1829 0.0489 0.0085
0.2838 0.0419 0.0019
0.4186 0.0326 0.0000
0.5756 0.0220 0.0000
0.7296 0.0117 0.0000
0.8805 0.0017 0.0000
1.0000 0.0000 0.0000
1.0000 0.0000 0.0000
1.0000 0.0000 0.0000
1.0000 0.0000 0.0000
1.0000 0.0000 0.0000
1.0000 0.0000 0.0000
1.0000 0.0000 0.0000
0.0000 0.1115 0.0149
0.0127 0.1091 0.0127
0.0505 0.1063 0.0100
0.1024 0.1024 0.0064
0.1752 0.0971 0.0016
0.2761 0.0899 0.0000
0.4108 0.0805 0.0000
0.5678 0.0695 0.0000
0.7219 0.0588 0.0000
0.8729 0.0481 0.0000
1.0000 0.0377 0.0000
1.0000 0.0316 0.0000
1.0000 0.0289 0.0000
1.0000 0.0275 0.0000
1.0000 0.0264 0.0000
1.0000 0.0255 0.0000
1.0000 0.0247 0.0000
0.0000 0.1793 0.0052
0.0030 0.1769 0.0030
0.0403 0.1740 0.0005
0.0921 0.1701 0.0000
0.1647 0.1647 0.0000
0.2654 0.1574 0.0000
0.4000 0.1477 0.0000
0.5570 0.1366 0.0000
0.7112 0.1256 0.0000
0.8624 0.1147 0.0000
1.0000 0.1040 0.0000
1.0000 0.0977 0.0000
1.0000 0.0949 0.0000
1.0000 0.0935 0.0000
1.0000 0.0923 0.0000
1.0000 0.0914 0.0000
1.0000 0.0905 0.0000
0.0000 0.2730 0.0000
0.0000 0.2706 0.0000
0.0266 0.2676 0.0000
0.0780 0.2637 0.0000
0.1503 0.2582 0.0000
0.2508 0.2508 0.0000
0.3852 0.2410 0.0000
0.5422 0.2298 0.0000
0.6966 0.2186 0.0000
0.8481 0.2075 0.0000
0.9926 0.1966 0.0000
1.0000 0.1901 0.0000
1.0000 0.1873 0.0000
1.0000 0.1858 0.0000
1.0000 0.1847 0.0000
1.0000 0.1837 0.0000
1.0000 0.1829 0.0000
0.0000 0.3982 0.0000
0.0000 0.3957 0.0000
0.0089 0.3927 0.0000
0.0595 0.3887 0.0000
0.1315 0.3832 0.0000
0.2316 0.3757 0.0000
0.3658 0.3658 0.0000
0.5227 0.3544 0.0000
0.6774 0.3431 0.0000
0.8291 0.3318 0.0000
0.9747 0.3208 0.0000
1.0000 0.3142 0.0000
1.0000 0.3114 0.0000
1.0000 0.3099 0.0000
1.0000 0.3087 0.0000
1.0000 0.3077 0.0000
1.0000 0.3068 0.0000
0.0000 0.5441 0.0000
0.0000 0.5416 0.0000
0.0000 0.5386 0.0000
0.0383 0.5346 0.0000
0.1097 0.5291 0.0000
0.2095 0.5215 0.0000
0.3434 0.5116 0.0000
0.5000 0.5000 0.0000
0.6551 0.4886 0.0000
0.8071 0.4772 0.0000
0.9536 0.4661 0.0000
1.0000 0.4595 0.0000
1.0000 0.4566 0.0000
1.0000 0.4551 0.0000
1.0000 0.4539 0.0000
1.0000 0.4529 0.0000
1.0000 0.4520 0.0000
0.0000 0.6877 0.0000
0.0000 0.6852 0.0000
0.0000 0.6823 0.0000
0.0177 0.6783 0.0000
0.0883 0.6729 0.0000
0.1877 0.6654 0.0000
0.3212 0.6556 0.0000
0.4776 0.6442 0.0000
0.6329 0.6329 0.0000
0.7853 0.6217 0.0000
0.9324 0.6106 0.0000
1.0000 0.6040 0.0000
1.0000 0.6012 0.0000
1.0000 0.5997 0.0000
1.0000 0.5985 0.0000
1.0000 0.5975 0.0000
1.0000 0.5966 0.0000
0.0000 0.8287 0.0000
0.0000 0.8262 0.0000
0.0000 0.8233 0.0000
0.0000 0.8194 0.0000
0.0672 0.8140 0.0000
0.1660 0.8067 0.0000
0.2992 0.7970 0.0000
0.4553 0.7858 0.0000
0.6108 0.7746 0.0000
0.7635 0.7635 0.0000
0.9112 0.7526 0.0000
0.9958 0.7461 0.0000
1.0000 0.7433 0.0000
1.0000 0.7418 0.0000
1.0000 0.7406 0.0000
1.0000 0.7396 0.0000
1.0000 0.7388 0.0000
0.0000 0.9643 0.0000
0.0000 0.9620 0.0000
0.0000 0.9591 0.0000
0.0000 0.9554 0.0000
0.0465 0.9502 0.0000
0.1448 0.9430 0.0000
0.2776 0.9336 0.0000
0.4334 0.9227 0.0000
0.5891 0.9118 0.0000
0.7420 0.9009 0.0000
0.8902 0.8902 0.0000
0.9758 0.8838 0.0000
1.0000 0.8810 0.0000
1.0000 0.8796 0.0000
1.0000 0.8784 0.0000
1.0000 0.8775 0.0000
1.0000 0.8766 0.0000
0.0000 1.0000 0.0000
0.0000 1.0000 0.0000
0.0000 1.0000 0.0000
0.0000 1.0000 0.0000
0.0344 1.0000 0.0000
0.1322 1.0000 0.0000
0.2648 1.0000 0.0000
0.4205 1.0000 0.0000
0.5762 0.9906 0.0000
0.7293 0.9803 0.0000
0.8777 0.9699 0.0000
0.9638 0.9638 0.0000
0.9996 0.9610 0.0000
1.0000 0.9596 0.0000
1.0000 0.9585 0.0000
1.0000 0.9576 0.0000
1.0000 0.9568 0.0000
0.0000 1.0000 0.0000
0.0000 1.0000 0.0000
0.0000 1.0000 0.0000
0.0000 1.0000 0.0000
0.0292 1.0000 0.0000
0.1268 1.0000 0.0000
0.2592 1.0000 0.0000
0.4148 1.0000 0.0000
0.5705 1.0000 0.0000
0.7237 1.0000 0.0000
0.8722 1.0000 0.0000
0.9584 0.9973 0.0000
0.9947 0.9947 0.0000
1.0000 0.9934 0.0000
1.0000 0.9923 0.0000
1.0000 0.9914 0.0000
1.0000 0.9906 0.0000
0.0000 1.0000 0.0000
0.0000 1.0000 0.0000
0.0000 1.0000 0.0000
0.0000 1.0000 0.0000
0.0265 1.0000 0.0000
0.1239 1.0000 0.0000
0.2563 1.0000 0.0000
0.4118 1.0000 0.0000
0.5676 1.0000 0.0000
0.7208 1.0000 0.0000
0.8693 1.0000 0.0000
0.9556 1.0000 0.0000
0.9921 1.0000 0.0000
1.0000 1.0000 0.0000
1.0000 1.0000 0.0000
1.0000 1.0000 0.0000
1.0000 1.0000 0.0000
0.0000 1.0000 0.0000
0.0000 1.0000 0.0000
0.0000 1.0000 0.0000
0.0000 1.0000 0.0000
0.0243 1.0000 0.0000
0.1216 1.0000 0.0000
0.2540 1.0000 0.0000
0.4095 1.0000 0.0000
0.5652 1.0000 0.0000
0.7185 1.0000 0.0000
0.8671 1.0000 0.0000
0.9534 1.0000 0.0000
0.9900 1.0000 0.0000
1.0000 1.0000 0.0000
1.0000 1.0000 0.0000
1.0000 1.0000 0.0000
1.0000 1.0000 0.0000
0.0000 1.0000 0.0000
0.0000 1.0000 0.0000
0.0000 1.0000 0.0000
0.0000 1.0000 0.0000
0.0225 1.0000 0.0000
0.1198 1.0000 0.0000
0.2521 1.0000 0.0000
0.4076 1.0000 0.0000
0.5633 1.0000 0.0000
0.7166 1.0000 0.0000
0.8652 1.0000 0.0000
0.9516 1.0000 0.0000
0.9882 1.0000 0.0000
1.0000 1.0000 0.0000
1.0000 1.0000 0.0000
1.0000 1.0000 0.0000
1.0000 1.0000 0.0000
0.0000 1.0000 0.0000
0.0000 1.0000 0.0000
0.0000 1.0000 0.0000
0.0000 1.0000 0.0000
0.0210 1.0000 0.0000
0.1181 1.0000 0.0000
0.2504 1.0000 0.0000
0.4059 1.0000 0.0000
0.5616 1.0000 0.0000
0.7149 1.0000 0.0000
0.8635 1.0000 0.0000
0.9500 1.0000 0.0000
0.9866 1.0000 0.0000
1.0000 1.0000 0.0000
1.0000 1.0000 0.0000
1.0000 1.0000 0.0000
1.0000 1.0000 0.0000
0.0000 0.0000 0.0722
0.0287 0.0000 0.0698
0.0670 0.0000 0.0670
0.1192 0.0000 0.0632
0.1923 0.0000 0.0580
0.2933 0.0000 0.0509
0.4283 0.0000 0.0416
0.5852 0.0000 0.0309
0.7391 0.0000 0.0204
0.8898 0.0000 0.0102
1.0000 0.0000 0.0004
1.0000 0.0000 0.0000
1.0000 0.0000 0.0000
1.0000 0.0000 0.0000
1.0000 0.0000 0.0000
1.0000 0.0000 0.0000
1.0000 0.0000 0.0000
0.0000 0.0264 0.0676
0.0241 0.0241 0.0652
0.0624 0.0214 0.0624
0.1145 0.0177 0.0586
0.1875 0.0127 0.0534
0.2885 0.0060 0.0463
0.4234 0.0000 0.0370
0.5803 0.0000 0.0264
0.7343 0.0000 0.0160
0.8850 0.0000 0.0058
1.0000 0.0000 0.0000
1.0000 0.0000 0.0000
1.0000 0.0000 0.0000
1.0000 0.0000 0.0000
1.0000 0.0000 0.0000
1.0000 0.0000 0.0000
1.0000 0.0000 0.0000
0.0000 0.0620 0.0620
0.0188 0.0596 0.0596
0.0568 0.0568 0.0568
0.1089 0.0530 0.0530
0.1818 0.0479 0.0479
0.2827 0.0408 0.0408
0.4175 0.0316 0.0316
0.5745 0.0210 0.0210
0.7285 0.0106 0.0106
0.8794 0.0007 0.0007
1.0000 0.0000 0.0000
1.0000 0.0000 0.0000
1.0000 0.0000 0.0000
1.0000 0.0000 0.0000
1.0000 0.0000 0.0000
1.0000 0.0000 0.0000
1.0000 0.0000 0.0000
0.0000 0.1104 0.0546
0.0116 0.1080 0.0522
0.0494 0.1052 0.0494
0.1013 0.1013 0.0457
0.1741 0.0960 0.0405
0.2749 0.0888 0.0335
0.4096 0.0794 0.0243
0.5666 0.0685 0.0138
0.7208 0.0577 0.0037
0.8718 0.0470 0.0000
1.0000 0.0366 0.0000
1.0000 0.0305 0.0000
1.0000 0.0278 0.0000
1.0000 0.0264 0.0000
1.0000 0.0253 0.0000
1.0000 0.0244 0.0000
1.0000 0.0236 0.0000
0.0000 0.1782 0.0444
0.0021 0.1758 0.0421
0.0393 0.1728 0.0393
0.0910 0.1689 0.0356
0.1636 0.1636 0.0304
0.2643 0.1563 0.0235
0.3988 0.1466 0.0144
0.5558 0.1355 0.0042
0.7101 0.1245 0.0000
0.8613 0.1136 0.0000
1.0000 0.1029 0.0000
1.0000 0.0966 0.0000
1.0000 0.0938 0.0000
1.0000 0.0924 0.0000
1.0000 0.0912 0.0000
1.0000 0.0903 0.0000
1.0000 0.0895 0.0000
0.0000 0.2719 0.0306
0.0000 0.2694 0.0283
0.0256 0.2665 0.0256
0.0769 0.2625 0.0219
0.1492 0.2571 0.0169
0.2497 0.2497 0.0101
0.3841 0.2399 0.0013
0.5410 0.2286 0.0000
0.6955 0.2175 0.0000
0.8470 0.2064 0.0000
0.9916 0.1955 0.0000
1.0000 0.1890 0.0000
1.0000 0.1862 0.0000
1.0000 0.1847 0.0000
1.0000 0.1836 0.0000
1.0000 0.1826 0.0000
1.0000 0.1818 0.0000
0.0000 0.3970 0.0128
0.0000 0.3945 0.0105
0.0079 0.3916 0.0079
0.0584 0.3876 0.0043
0.1304 0.3821 0.0000
0.2305 0.3746 0.0000
0.3647 0.3647 0.0000
0.5215 0.3533 0.0000
0.6762 0.3419 0.0000
0.8280 0.3307 0.0000
0.9737 0.3196 0.0000
1.0000 0.3131 0.0000
1.0000 0.3102 0.0000
1.0000 0.3087 0.0000
1.0000 0.3076 0.0000
1.0000 0.3066 0.0000
1.0000 0.3057 0.0000
0.0000 0.5429 0.0000
0.0000 0.5405 0.0000
0.0000 0.5375 0.0000
0.0373 0.5335 0.0000
0.1086 0.5279 0.0000
0.2084 0.5204 0.0000
0.3423 0.5104 0.0000
0.4989 0.4989 0.0000
0.6539 0.4875 0.0000
0.8060 0.4761 0.0000
0.9526 0.4649 0.0000
1.0000 0.4583 0.0000
1.0000 0.4554 0.0000
1.0000 0.4539 0.0000
1.0000 0.4527 0.0000
1.0000 0.4517 0.0000
1.0000 0.4509 0.0000
0.0000 0.6866 0.0000
0.0000 0.6841 0.0000
0.0000 0.6811 0.0000
0.0166 0.6772 0.0000
0.0872 0.6717 0.0000
0.1865 0.6643 0.0000
0.3201 0.6544 0.0000
0.4765 0.6431 0.0000
0.6318 0.6318 0.0000
0.7842 0.6205 0.0000
0.9313 0.6095 0.0000
1.0000 0.6029 0.0000
1.0000 0.6000 0.0000
1.0000 0.5985 0.0000
1.0000 0.5973 0.0000
1.0000 0.5964 0.0000
1.0000 0.5955 0.0000
0.0000 0.8275 0.0000
0.0000 0.8251 0.0000
0.0000 0.8222 0.0000
0.0000 0.8183 0.0000
0.0661 0.8129 0.0000
0.1649 0.8056 0.0000
0.2980 0.7959 0.0000
0.4542 0.7846 0.0000
0.6097 0.7735 0.0000
0.7624 0.7624 0.0000
0.9101 0.7515 0.0000
0.9948 0.7450 0.0000
1.0000 0.7421 0.0000
1.0000 0.7406 0.0000
1.0000 0.7395 0.0000
1.0000 0.7385 0.0000
1.0000 0.7376 0.0000
0.0000 0.9632 0.0000
0.0000 0.9609 0.0000
0.0000 0.9581 0.0000
0.0000 0.9543 0.0000
0.0455 0.9491 0.0000
0.1437 0.9420 0.0000
0.2764 0.9325 0.0000
0.4323 0.9216 0.0000
0.5879 0.9107 0.0000
0.7409 0.8998 0.0000
0.8891 0.8891 0.0000
0.9748 0.8827 0.0000
1.0000 0.8799 0.0000
1.0000 0.8785 0.0000
1.0000 0.8773 0.0000
1.0000 0.8764 0.0000
1.0000 0.8755 0.0000
0.0000 1.0000 0.0000
0.0000 1.0000 0.0000
0.0000 1.0000 0.0000
0.0000 1.0000 0.0000
0.0334 1.0000 0.0000
0.1311 1.0000 0.0000
0.2636 1.0000 0.0000
0.4193 0.9996 0.0000
0.5750 0.9896 0.0000
0.7282 0.9792 0.0000
0.8766 0.9689 0.0000
0.9627 0.9627 0.0000
0.9987 0.9600 0.0000
1.0000 0.9586 0.0000
1.0000 0.9574 0.0000
1.0000 0.9565 0.0000
1.0000 0.9557 0.0000
0.0000 1.0000 0.0000
0.0000 1.0000 0.0000
0.0000 1.0000 0.0000
0.0000 1.0000 0.0000
0.0281 1.0000 0.0000
0.1257 1.0000 0.0000
0.2581 1.0000 0.0000
0.4137 1.0000 0.0000
0.5694 1.0000 0.0000
0.7226 1.0000 0.0000
0.8711 1.0000 0.0000
0.9574 0.9963 0.0000
0.9937 0.9937 0.0000
1.0000 0.9924 0.0000
1.0000 0.9913 0.0000
1.0000 0.9904 0.0000
1.0000 0.9896 0.0000
0.0000 1.0000 0.0000
0.0000 1.0000 0.0000
0.0000 1.0000 0.0000
0.0000 1.0000 0.0000
0.0254 1.0000 0.0000
0.1228 1.0000 0.0000
0.2551 1.0000 0.0000
0.4107 1.0000 0.0000
0.5664 1.0000 0.0000
0.7197 1.0000 0.0000
0.8682 1.0000 0.0000
0.9546 1.0000 0.0000
0.9910 1.0000 0.0000
1.0000 1.0000 0.0000
1.0000 1.0000 0.0000
1.0000 1.0000 0.0000
1.0000 1.0000 0.0000
0.0000 1.0000 0.0000
0.0000 1.0000 0.0000
0.0000 1.0000 0.0000
0.0000 1.0000 0.0000
0.0233 1.0000 0.0000
0.1205 1.0000 0.0000
0.2528 1.0000 0.0000
0.4084 1.0000 0.0000
0.5641 1.0000 0.0000
0.7174 1.0000 0.0000
0.8660 1.0000 0.0000
0.9524 1.0000 0.0000
0.9889 1.0000 0.0000
1.0000 1.0000 0.0000
1.0000 1.0000 0.0000
1.0000 1.0000 0.0000
1.0000 1.0000 0.0000
0.0000 1.0000 0.0000
0.0000 1.0000 0.0000
0.0000 1.0000 0.0000
0.0000 1.0000 0.0000
0.0215 1.0000 0.0000
0.1187 1.0000 0.0000
0.2509 1.0000 0.0000
0.4064 1.0000 0.0000
0.5622 1.0000 0.0000
0.7155 1.0000 0.0000
0.8641 1.0000 0.0000
0.9505 1.0000 0.0000
0.9872 1.0000 0.0000
1.0000 1.0000 0.0000
1.0000 1.0000 0.0000
1.0000 1.0000 0.0000
1.0000 1.0000 0.0000
0.0000 1.0000 0.0000
0.0000 1.0000 0.0000
0.0000 1.0000 0.0000
0.0000 1.0000 0.0000
0.0199 1.0000 0.0000
0.1170 1.0000 0.0000
0.2492 1.0000 0.0000
0.4047 1.0000 0.0000
0.5604 1.0000 0.0000
0.7138 1.0000 0.0000
0.8624 1.0000 0.0000
0.9489 1.0000 0.0000
0.9856 1.0000 0.0000
1.0000 1.0000 0.0000
1.0000 1.0000 0.0000
1.0000 1.0000 0.0000
1.0000 1.0000 0.0000
0.0000 0.0000 0.1269
0.0272 0.0000 0.1245
0.0655 0.0000 0.1216
0.1178 0.0000 0.1178
0.1908 0.0000 0.1125
0.2918 0.0000 0.1052
0.4267 0.0000 0.0957
0.5837 0.0000 0.0847
0.7376 0.0000 0.0739
0.8883 0.0000 0.0632
1.0000 0.0000 0.0527
1.0000 0.0000 0.0464
1.0000 0.0000 0.0438
1.0000 0.0000 0.0423
1.0000 0.0000 0.0412
1.0000 0.0000 0.0403
1.0000 0.0000 0.0395
0.0000 0.0250 0.1222
0.0227 0.0227 0.1198
0.0609 0.0200 0.1169
0.1131 0.0163 0.1131
0.1860 0.0114 0.1078
0.2870 0.0047 0.1005
0.4218 0.0000 0.0910
0.5788 0.0000 0.0801
0.7328 0.0000 0.0692
0.8836 0.0000 0.0585
1.0000 0.0000 0.0481
1.0000 0.0000 0.0419
1.0000 0.0000 0.0392
1.0000 0.0000 0.0378
1.0000 0.0000 0.0367
1.0000 0.0000 0.0357
