assets/luts/LUTs/JD_D-LOG_Conversion_1.CUBE
TITLE "ColorFinale Export"
# Created by Jeven Dovey on 2021-12-03 18:53:33 +0000
# Color Finale Plugin v.2.4.5 (531)
LUT_3D_SIZE 17
0.0000 0.0000 0.0000
0.0236 0.0000 0.0000
0.0563 0.0000 0.0000
0.1058 0.0000 0.0000
0.1810 0.0000 0.0000
0.2907 0.0000 0.0000
0.4417 0.0000 0.0000
0.6085 0.0000 0.0000
0.7478 0.0000 0.0000
0.8636 0.0000 0.0000
0.9741 0.0000 0.0000
1.0000 0.0000 0.0000
1.0000 0.0000 0.0000
1.0000 0.0000 0.0000
1.0000 0.0000 0.0000
1.0000 0.0000 0.0000
1.0000 0.0000 0.0000
0.0000 0.0219 0.0000
0.0201 0.0201 0.0000
0.0527 0.0178 0.0000
0.1022 0.0143 0.0000
0.1773 0.0092 0.0000
0.2870 0.0020 0.0000
0.4378 0.0000 0.0000
0.6047 0.0000 0.0000
0.7440 0.0000 0.0000
0.8599 0.0000 0.0000
0.9705 0.0000 0.0000
1.0000 0.0000 0.0000
1.0000 0.0000 0.0000
1.0000 0.0000 0.0000
1.0000 0.0000 0.0000
1.0000 0.0000 0.0000
1.0000 0.0000 0.0000
0.0000 0.0522 0.0000
0.0156 0.0504 0.0000
0.0480 0.0480 0.0000
0.0974 0.0444 0.0000
0.1724 0.0391 0.0000
0.2820 0.0315 0.0000
0.4328 0.0212 0.0000
0.5997 0.0101 0.0000
0.7391 0.0011 0.0000
0.8551 0.0000 0.0000
0.9658 0.0000 0.0000
1.0000 0.0000 0.0000
1.0000 0.0000 0.0000
1.0000 0.0000 0.0000
1.0000 0.0000 0.0000
1.0000 0.0000 0.0000
1.0000 0.0000 0.0000
0.0000 0.0982 0.0000
0.0088 0.0963 0.0000
0.0409 0.0938 0.0000
0.0902 0.0902 0.0000
0.1651 0.0848 0.0000
0.2746 0.0770 0.0000
0.4253 0.0664 0.0000
0.5922 0.0549 0.0000
0.7317 0.0452 0.0000
0.8478 0.0371 0.0000
0.9588 0.0292 0.0000
1.0000 0.0222 0.0000
1.0000 0.0170 0.0000
1.0000 0.0139 0.0000
1.0000 0.0124 0.0000
1.0000 0.0120 0.0000
1.0000 0.0120 0.0000
0.0000 0.1679 0.0000
0.0000 0.1660 0.0000
0.0306 0.1635 0.0000
0.0795 0.1598 0.0000
0.1542 0.1542 0.0000
0.2636 0.1463 0.0000
0.4142 0.1356 0.0000
0.5811 0.1238 0.0000
0.7207 0.1138 0.0000
0.8369 0.1055 0.0000
0.9483 0.0973 0.0000
1.0000 0.0901 0.0000
1.0000 0.0847 0.0000
1.0000 0.0814 0.0000
1.0000 0.0798 0.0000
1.0000 0.0793 0.0000
1.0000 0.0793 0.0000
0.0000 0.2696 0.0000
0.0000 0.2677 0.0000
0.0158 0.2652 0.0000
0.0643 0.2614 0.0000
0.1387 0.2558 0.0000
0.2478 0.2478 0.0000
0.3981 0.2368 0.0000
0.5651 0.2248 0.0000
0.7049 0.2147 0.0000
0.8213 0.2062 0.0000
0.9330 0.1979 0.0000
1.0000 0.1905 0.0000
1.0000 0.1850 0.0000
1.0000 0.1816 0.0000
1.0000 0.1800 0.0000
1.0000 0.1795 0.0000
1.0000 0.1795 0.0000
0.0000 0.4096 0.0000
0.0000 0.4077 0.0000
0.0000 0.4051 0.0000
0.0438 0.4013 0.0000
0.1176 0.3956 0.0000
0.2263 0.3875 0.0000
0.3764 0.3764 0.0000
0.5433 0.3642 0.0000
0.6834 0.3539 0.0000
0.8000 0.3453 0.0000
0.9122 0.3369 0.0000
1.0000 0.3294 0.0000
1.0000 0.3237 0.0000
1.0000 0.3203 0.0000
1.0000 0.3186 0.0000
1.0000 0.3182 0.0000
1.0000 0.3182 0.0000
0.0000 0.5648 0.0000
0.0000 0.5629 0.0000
0.0000 0.5603 0.0000
0.0215 0.5565 0.0000
0.0946 0.5508 0.0000
0.2028 0.5426 0.0000
0.3525 0.5315 0.0000
0.5193 0.5193 0.0000
0.6596 0.5089 0.0000
0.7766 0.5002 0.0000
0.8892 0.4917 0.0000
0.9869 0.4841 0.0000
1.0000 0.4784 0.0000
1.0000 0.4749 0.0000
1.0000 0.4732 0.0000
1.0000 0.4728 0.0000
1.0000 0.4728 0.0000
0.0000 0.6948 0.0000
0.0000 0.6929 0.0000
0.0000 0.6904 0.0000
0.0033 0.6866 0.0000
0.0753 0.6810 0.0000
0.1830 0.6729 0.0000
0.3324 0.6619 0.0000
0.4989 0.6498 0.0000
0.6396 0.6396 0.0000
0.7567 0.6309 0.0000
0.8696 0.6225 0.0000
0.9681 0.6150 0.0000
1.0000 0.6094 0.0000
1.0000 0.6059 0.0000
1.0000 0.6043 0.0000
1.0000 0.6038 0.0000
1.0000 0.6038 0.0000
0.0000 0.8032 0.0000
0.0000 0.8013 0.0000
0.0000 0.7988 0.0000
0.0000 0.7950 0.0000
0.0591 0.7895 0.0000
0.1664 0.7815 0.0000
0.3154 0.7706 0.0000
0.4818 0.7586 0.0000
0.6226 0.7485 0.0000
0.7399 0.7399 0.0000
0.8531 0.7316 0.0000
0.9521 0.7241 0.0000
1.0000 0.7185 0.0000
1.0000 0.7152 0.0000
1.0000 0.7135 0.0000
1.0000 0.7130 0.0000
1.0000 0.7130 0.0000
0.0000 0.9075 0.0000
0.0000 0.9056 0.0000
0.0000 0.9031 0.0000
0.0000 0.8995 0.0000
0.0434 0.8940 0.0000
0.1502 0.8861 0.0000
0.2990 0.8754 0.0000
0.4651 0.8636 0.0000
0.6061 0.8536 0.0000
0.7235 0.8451 0.0000
0.8369 0.8369 0.0000
0.9363 0.8295 0.0000
1.0000 0.8240 0.0000
1.0000 0.8206 0.0000
1.0000 0.8190 0.0000
1.0000 0.8185 0.0000
1.0000 0.8185 0.0000
0.0000 0.9974 0.0000
0.0000 0.9957 0.0000
0.0000 0.9934 0.0000
0.0000 0.9900 0.0000
0.0296 0.9848 0.0000
0.1358 0.9773 0.0000
0.2843 0.9669 0.0000
0.4502 0.9555 0.0000
0.5913 0.9457 0.0000
0.7089 0.9375 0.0000
0.8224 0.9294 0.0000
0.9222 0.9222 0.0000
0.9948 0.9167 0.0000
1.0000 0.9134 0.0000
1.0000 0.9118 0.0000
1.0000 0.9114 0.0000
1.0000 0.9114 0.0000
0.0000 1.0000 0.0000
0.0000 1.0000 0.0000
0.0000 1.0000 0.0000
0.0000 1.0000 0.0000
0.0194 1.0000 0.0000
0.1251 1.0000 0.0000
0.2733 1.0000 0.0000
0.4391 1.0000 0.0000
0.5802 1.0000 0.0000
0.6979 1.0000 0.0000
0.8116 0.9967 0.0000
0.9115 0.9899 0.0000
0.9847 0.9847 0.0000
1.0000 0.9816 0.0000
1.0000 0.9800 0.0000
1.0000 0.9796 0.0000
1.0000 0.9796 0.0000
0.0000 1.0000 0.0000
0.0000 1.0000 0.0000
0.0000 1.0000 0.0000
0.0000 1.0000 0.0000
0.0132 1.0000 0.0000
0.1186 1.0000 0.0000
0.2666 1.0000 0.0000
0.4323 1.0000 0.0000
0.5735 1.0000 0.0000
0.6913 1.0000 0.0000
0.8050 1.0000 0.0000
0.9050 1.0000 0.0000
0.9785 1.0000 0.0000
1.0000 1.0000 0.0000
1.0000 1.0000 0.0000
1.0000 1.0000 0.0000
1.0000 1.0000 0.0000
0.0000 1.0000 0.0000
0.0000 1.0000 0.0000
0.0000 1.0000 0.0000
0.0000 1.0000 0.0000
0.0102 1.0000 0.0000
0.1154 1.0000 0.0000
0.2633 1.0000 0.0000
0.4290 1.0000 0.0000
0.5702 1.0000 0.0000
0.6880 1.0000 0.0000
0.8017 1.0000 0.0000
0.9018 1.0000 0.0000
0.9754 1.0000 0.0000
1.0000 1.0000 0.0000
1.0000 1.0000 0.0000
1.0000 1.0000 0.0000
1.0000 1.0000 0.0000
0.0000 1.0000 0.0000
0.0000 1.0000 0.0000
0.0000 1.0000 0.0000
0.0000 1.0000 0.0000
0.0094 1.0000 0.0000
0.1145 1.0000 0.0000
0.2624 1.0000 0.0000
0.4281 1.0000 0.0000
0.5692 1.0000 0.0000
0.6871 1.0000 0.0000
0.8008 1.0000 0.0000
0.9009 1.0000 0.0000
0.9746 1.0000 0.0000
1.0000 1.0000 0.0000
1.0000 1.0000 0.0000
1.0000 1.0000 0.0000
1.0000 1.0000 0.0000
0.0000 1.0000 0.0000
0.0000 1.0000 0.0000
0.0000 1.0000 0.0000
0.0000 1.0000 0.0000
0.0094 1.0000 0.0000
0.1145 1.0000 0.0000
0.2624 1.0000 0.0000
0.4281 1.0000 0.0000
0.5692 1.0000 0.0000
0.6871 1.0000 0.0000
0.8008 1.0000 0.0000
0.9009 1.0000 0.0000
0.9746 1.0000 0.0000
1.0000 1.0000 0.0000
1.0000 1.0000 0.0000
1.0000 1.0000 0.0000
1.0000 1.0000 0.0000
0.0000 0.0000 0.0247
0.0230 0.0000 0.0230
0.0556 0.0000 0.0206
0.1051 0.0000 0.0171
0.1803 0.0000 0.0120
0.2900 0.0000 0.0047
0.4409 0.0000 0.0000
0.6077 0.0000 0.0000
0.7470 0.0000 0.0000
0.8629 0.0000 0.0000
0.9734 0.0000 0.0000
1.0000 0.0000 0.0000
1.0000 0.0000 0.0000
1.0000 0.0000 0.0000
1.0000 0.0000 0.0000
1.0000 0.0000 0.0000
1.0000 0.0000 0.0000
0.0000 0.0212 0.0212
0.0195 0.0195 0.0195
0.0520 0.0171 0.0171
0.1015 0.0137 0.0137
0.1766 0.0086 0.0086
0.2862 0.0014 0.0014
0.4371 0.0000 0.0000
0.6039 0.0000 0.0000
0.7433 0.0000 0.0000
0.8592 0.0000 0.0000
0.9699 0.0000 0.0000
1.0000 0.0000 0.0000
1.0000 0.0000 0.0000
1.0000 0.0000 0.0000
1.0000 0.0000 0.0000
1.0000 0.0000 0.0000
1.0000 0.0000 0.0000
0.0000 0.0515 0.0166
0.0149 0.0497 0.0149
0.0473 0.0473 0.0126
0.0966 0.0437 0.0091
0.1717 0.0384 0.0041
0.2813 0.0308 0.0000
0.4321 0.0205 0.0000
0.5989 0.0095 0.0000
0.7383 0.0005 0.0000
0.8543 0.0000 0.0000
0.9651 0.0000 0.0000
1.0000 0.0000 0.0000
1.0000 0.0000 0.0000
1.0000 0.0000 0.0000
1.0000 0.0000 0.0000
1.0000 0.0000 0.0000
1.0000 0.0000 0.0000
0.0000 0.0974 0.0099
0.0081 0.0956 0.0081
0.0403 0.0931 0.0059
0.0895 0.0895 0.0025
0.1644 0.0841 0.0000
0.2739 0.0763 0.0000
0.4246 0.0657 0.0000
0.5915 0.0542 0.0000
0.7310 0.0445 0.0000
0.8471 0.0364 0.0000
0.9581 0.0285 0.0000
1.0000 0.0216 0.0000
1.0000 0.0164 0.0000
1.0000 0.0132 0.0000
1.0000 0.0117 0.0000
1.0000 0.0113 0.0000
1.0000 0.0113 0.0000
0.0000 0.1671 0.0001
0.0000 0.1652 0.0000
0.0299 0.1627 0.0000
0.0788 0.1590 0.0000
0.1535 0.1535 0.0000
0.2629 0.1456 0.0000
0.4134 0.1348 0.0000
0.5804 0.1230 0.0000
0.7200 0.1131 0.0000
0.8362 0.1047 0.0000
0.9476 0.0966 0.0000
1.0000 0.0894 0.0000
1.0000 0.0840 0.0000
1.0000 0.0807 0.0000
1.0000 0.0791 0.0000
1.0000 0.0786 0.0000
1.0000 0.0786 0.0000
0.0000 0.2689 0.0000
0.0000 0.2670 0.0000
0.0151 0.2645 0.0000
0.0636 0.2607 0.0000
0.1380 0.2551 0.0000
0.2470 0.2470 0.0000
0.3974 0.2361 0.0000
0.5643 0.2241 0.0000
0.7042 0.2140 0.0000
0.8206 0.2055 0.0000
0.9323 0.1972 0.0000
1.0000 0.1898 0.0000
1.0000 0.1842 0.0000
1.0000 0.1809 0.0000
1.0000 0.1792 0.0000
1.0000 0.1788 0.0000
1.0000 0.1788 0.0000
0.0000 0.4089 0.0000
0.0000 0.4069 0.0000
0.0000 0.4044 0.0000
0.0431 0.4006 0.0000
0.1169 0.3949 0.0000
0.2256 0.3867 0.0000
0.3756 0.3756 0.0000
0.5425 0.3635 0.0000
0.6826 0.3532 0.0000
0.7993 0.3446 0.0000
0.9115 0.3361 0.0000
1.0000 0.3286 0.0000
1.0000 0.3230 0.0000
1.0000 0.3196 0.0000
1.0000 0.3179 0.0000
1.0000 0.3175 0.0000
1.0000 0.3175 0.0000
0.0000 0.5641 0.0000
0.0000 0.5621 0.0000
0.0000 0.5596 0.0000
0.0209 0.5558 0.0000
0.0939 0.5501 0.0000
0.2021 0.5419 0.0000
0.3518 0.5308 0.0000
0.5185 0.5185 0.0000
0.6589 0.5082 0.0000
0.7758 0.4995 0.0000
0.8885 0.4909 0.0000
0.9862 0.4833 0.0000
1.0000 0.4776 0.0000
1.0000 0.4742 0.0000
1.0000 0.4725 0.0000
1.0000 0.4720 0.0000
1.0000 0.4720 0.0000
0.0000 0.6941 0.0000
0.0000 0.6922 0.0000
0.0000 0.6896 0.0000
0.0027 0.6859 0.0000
0.0746 0.6802 0.0000
0.1823 0.6722 0.0000
0.3316 0.6612 0.0000
0.4982 0.6491 0.0000
0.6388 0.6388 0.0000
0.7560 0.6302 0.0000
0.8689 0.6218 0.0000
0.9674 0.6143 0.0000
1.0000 0.6086 0.0000
1.0000 0.6052 0.0000
1.0000 0.6035 0.0000
1.0000 0.6031 0.0000
1.0000 0.6031 0.0000
0.0000 0.8024 0.0000
0.0000 0.8005 0.0000
0.0000 0.7980 0.0000
0.0000 0.7943 0.0000
0.0584 0.7888 0.0000
0.1657 0.7807 0.0000
0.3147 0.7699 0.0000
0.4811 0.7579 0.0000
0.6219 0.7477 0.0000
0.7392 0.7392 0.0000
0.8523 0.7309 0.0000
0.9514 0.7234 0.0000
1.0000 0.7178 0.0000
1.0000 0.7144 0.0000
1.0000 0.7128 0.0000
1.0000 0.7123 0.0000
1.0000 0.7123 0.0000
0.0000 0.9067 0.0000
0.0000 0.9049 0.0000
0.0000 0.9024 0.0000
0.0000 0.8988 0.0000
0.0427 0.8933 0.0000
0.1495 0.8854 0.0000
0.2982 0.8747 0.0000
0.4644 0.8629 0.0000
0.6053 0.8529 0.0000
0.7228 0.8444 0.0000
0.8362 0.8362 0.0000
0.9356 0.8288 0.0000
1.0000 0.8233 0.0000
1.0000 0.8199 0.0000
1.0000 0.8183 0.0000
1.0000 0.8178 0.0000
1.0000 0.8178 0.0000
0.0000 0.9967 0.0000
0.0000 0.9950 0.0000
0.0000 0.9927 0.0000
0.0000 0.9893 0.0000
0.0289 0.9841 0.0000
0.1351 0.9766 0.0000
0.2835 0.9662 0.0000
0.4495 0.9548 0.0000
0.5906 0.9450 0.0000
0.7082 0.9367 0.0000
0.8217 0.9287 0.0000
0.9215 0.9215 0.0000
0.9942 0.9160 0.0000
1.0000 0.9127 0.0000
1.0000 0.9111 0.0000
1.0000 0.9107 0.0000
1.0000 0.9107 0.0000
0.0000 1.0000 0.0000
0.0000 1.0000 0.0000
0.0000 1.0000 0.0000
0.0000 1.0000 0.0000
0.0187 1.0000 0.0000
0.1243 1.0000 0.0000
0.2725 1.0000 0.0000
0.4383 1.0000 0.0000
0.5795 1.0000 0.0000
0.6972 1.0000 0.0000
0.8108 0.9960 0.0000
0.9108 0.9892 0.0000
0.9840 0.9840 0.0000
1.0000 0.9809 0.0000
1.0000 0.9793 0.0000
1.0000 0.9789 0.0000
1.0000 0.9789 0.0000
0.0000 1.0000 0.0000
0.0000 1.0000 0.0000
0.0000 1.0000 0.0000
0.0000 1.0000 0.0000
0.0126 1.0000 0.0000
0.1178 1.0000 0.0000
0.2659 1.0000 0.0000
0.4316 1.0000 0.0000
0.5727 1.0000 0.0000
0.6905 1.0000 0.0000
0.8042 1.0000 0.0000
0.9043 1.0000 0.0000
0.9778 1.0000 0.0000
1.0000 1.0000 0.0000
1.0000 1.0000 0.0000
1.0000 1.0000 0.0000
1.0000 1.0000 0.0000
0.0000 1.0000 0.0000
0.0000 1.0000 0.0000
0.0000 1.0000 0.0000
0.0000 1.0000 0.0000
0.0096 1.0000 0.0000
0.1147 1.0000 0.0000
0.2626 1.0000 0.0000
0.4282 1.0000 0.0000
0.5694 1.0000 0.0000
0.6872 1.0000 0.0000
0.8010 1.0000 0.0000
0.9011 1.0000 0.0000
0.9747 1.0000 0.0000
1.0000 1.0000 0.0000
1.0000 1.0000 0.0000
1.0000 1.0000 0.0000
1.0000 1.0000 0.0000
0.0000 1.0000 0.0000
0.0000 1.0000 0.0000
0.0000 1.0000 0.0000
0.0000 1.0000 0.0000
0.0088 1.0000 0.0000
0.1138 1.0000 0.0000
0.2617 1.0000 0.0000
0.4273 1.0000 0.0000
0.5685 1.0000 0.0000
0.6863 1.0000 0.0000
0.8001 1.0000 0.0000
0.9002 1.0000 0.0000
0.9739 1.0000 0.0000
1.0000 1.0000 0.0000
1.0000 1.0000 0.0000
1.0000 1.0000 0.0000
1.0000 1.0000 0.0000
0.0000 1.0000 0.0000
0.0000 1.0000 0.0000
0.0000 1.0000 0.0000
0.0000 1.0000 0.0000
0.0088 1.0000 0.0000
0.1138 1.0000 0.0000
0.2617 1.0000 0.0000
0.4273 1.0000 0.0000
0.5685 1.0000 0.0000
0.6863 1.0000 0.0000
0.8001 1.0000 0.0000
0.9002 1.0000 0.0000
0.9739 1.0000 0.0000
1.0000 1.0000 0.0000
1.0000 1.0000 0.0000
1.0000 1.0000 0.0000
1.0000 1.0000 0.0000
0.0000 0.0000 0.0589
0.0221 0.0000 0.0571
0.0547 0.0000 0.0547
0.1042 0.0000 0.0511
0.1793 0.0000 0.0457
0.2890 0.0000 0.0381
0.4399 0.0000 0.0278
0.6067 0.0000 0.0166
0.7461 0.0000 0.0073
0.8620 0.0000 0.0000
0.9725 0.0000 0.0000
1.0000 0.0000 0.0000
1.0000 0.0000 0.0000
1.0000 0.0000 0.0000
1.0000 0.0000 0.0000
1.0000 0.0000 0.0000
1.0000 0.0000 0.0000
0.0000 0.0203 0.0553
0.0186 0.0186 0.0535
0.0511 0.0162 0.0511
0.1005 0.0128 0.0475
0.1756 0.0077 0.0422
0.2853 0.0006 0.0345
0.4361 0.0000 0.0243
0.6030 0.0000 0.0131
0.7423 0.0000 0.0039
0.8583 0.0000 0.0000
0.9689 0.0000 0.0000
1.0000 0.0000 0.0000
1.0000 0.0000 0.0000
1.0000 0.0000 0.0000
1.0000 0.0000 0.0000
1.0000 0.0000 0.0000
1.0000 0.0000 0.0000
0.0000 0.0506 0.0506
0.0140 0.0488 0.0488
0.0463 0.0463 0.0463
0.0957 0.0428 0.0428
0.1707 0.0375 0.0375
0.2803 0.0299 0.0299
0.4311 0.0197 0.0197
0.5979 0.0086 0.0086
0.7374 0.0000 0.0000
0.8534 0.0000 0.0000
0.9642 0.0000 0.0000
1.0000 0.0000 0.0000
1.0000 0.0000 0.0000
1.0000 0.0000 0.0000
1.0000 0.0000 0.0000
1.0000 0.0000 0.0000
1.0000 0.0000 0.0000
0.0000 0.0965 0.0436
0.0073 0.0947 0.0417
0.0393 0.0922 0.0393
0.0886 0.0886 0.0358
0.1634 0.0831 0.0305
0.2729 0.0753 0.0230
0.4236 0.0648 0.0128
0.5905 0.0533 0.0020
0.7300 0.0436 0.0000
0.8461 0.0355 0.0000
0.9572 0.0276 0.0000
1.0000 0.0207 0.0000
1.0000 0.0155 0.0000
1.0000 0.0124 0.0000
1.0000 0.0108 0.0000
1.0000 0.0104 0.0000
1.0000 0.0104 0.0000
0.0000 0.1662 0.0332
0.0000 0.1643 0.0314
0.0290 0.1618 0.0290
0.0779 0.1581 0.0255
0.1526 0.1526 0.0202
0.2619 0.1446 0.0128
0.4124 0.1339 0.0029
0.5794 0.1221 0.0000
0.7190 0.1122 0.0000
0.8353 0.1038 0.0000
0.9467 0.0957 0.0000
1.0000 0.0884 0.0000
1.0000 0.0830 0.0000
1.0000 0.0797 0.0000
1.0000 0.0781 0.0000
1.0000 0.0777 0.0000
1.0000 0.0777 0.0000
0.0000 0.2679 0.0184
0.0000 0.2660 0.0166
0.0143 0.2635 0.0143
0.0627 0.2597 0.0108
0.1370 0.2541 0.0058
0.2461 0.2461 0.0000
0.3964 0.2352 0.0000
0.5634 0.2232 0.0000
0.7032 0.2130 0.0000
0.8196 0.2045 0.0000
0.9314 0.1962 0.0000
1.0000 0.1888 0.0000
1.0000 0.1833 0.0000
1.0000 0.1799 0.0000
1.0000 0.1783 0.0000
1.0000 0.1778 0.0000
1.0000 0.1778 0.0000
0.0000 0.4079 0.0000
0.0000 0.4059 0.0000
0.0000 0.4034 0.0000
0.0422 0.3996 0.0000
0.1160 0.3939 0.0000
0.2246 0.3857 0.0000
0.3747 0.3747 0.0000
0.5416 0.3625 0.0000
0.6817 0.3522 0.0000
0.7984 0.3436 0.0000
0.9106 0.3352 0.0000
1.0000 0.3277 0.0000
1.0000 0.3220 0.0000
1.0000 0.3186 0.0000
1.0000 0.3169 0.0000
1.0000 0.3165 0.0000
1.0000 0.3165 0.0000
0.0000 0.5631 0.0000
0.0000 0.5611 0.0000
0.0000 0.5586 0.0000
0.0200 0.5548 0.0000
0.0930 0.5491 0.0000
0.2012 0.5409 0.0000
0.3508 0.5298 0.0000
0.5176 0.5176 0.0000
0.6579 0.5072 0.0000
0.7749 0.4985 0.0000
0.8875 0.4900 0.0000
0.9853 0.4824 0.0000
1.0000 0.4767 0.0000
1.0000 0.4732 0.0000
1.0000 0.4715 0.0000
1.0000 0.4711 0.0000
1.0000 0.4711 0.0000
0.0000 0.6931 0.0000
0.0000 0.6912 0.0000
0.0000 0.6887 0.0000
0.0018 0.6849 0.0000
0.0736 0.6793 0.0000
0.1814 0.6712 0.0000
0.3307 0.6602 0.0000
0.4972 0.6481 0.0000
0.6379 0.6379 0.0000
0.7550 0.6292 0.0000
0.8679 0.6208 0.0000
0.9665 0.6133 0.0000
1.0000 0.6076 0.0000
1.0000 0.6042 0.0000
1.0000 0.6026 0.0000
1.0000 0.6021 0.0000
1.0000 0.6021 0.0000
0.0000 0.8015 0.0000
0.0000 0.7996 0.0000
0.0000 0.7971 0.0000
0.0000 0.7934 0.0000
0.0575 0.7878 0.0000
0.1647 0.7798 0.0000
0.3137 0.7689 0.0000
0.4801 0.7569 0.0000
0.6209 0.7468 0.0000
0.7382 0.7382 0.0000
0.8514 0.7299 0.0000
0.9505 0.7225 0.0000
1.0000 0.7169 0.0000
1.0000 0.7135 0.0000
1.0000 0.7118 0.0000
1.0000 0.7113 0.0000
1.0000 0.7113 0.0000
0.0000 0.9058 0.0000
0.0000 0.9039 0.0000
0.0000 0.9015 0.0000
0.0000 0.8978 0.0000
0.0418 0.8923 0.0000
0.1486 0.8845 0.0000
0.2973 0.8737 0.0000
0.4634 0.8619 0.0000
0.6044 0.8519 0.0000
0.7219 0.8435 0.0000
0.8352 0.8352 0.0000
0.9347 0.8279 0.0000
1.0000 0.8223 0.0000
1.0000 0.8190 0.0000
1.0000 0.8173 0.0000
1.0000 0.8169 0.0000
1.0000 0.8169 0.0000
0.0000 0.9959 0.0000
0.0000 0.9942 0.0000
0.0000 0.9919 0.0000
0.0000 0.9884 0.0000
0.0280 0.9832 0.0000
0.1342 0.9757 0.0000
0.2826 0.9653 0.0000
0.4485 0.9538 0.0000
0.5896 0.9441 0.0000
0.7072 0.9358 0.0000
0.8208 0.9277 0.0000
0.9205 0.9205 0.0000
0.9933 0.9151 0.0000
1.0000 0.9118 0.0000
1.0000 0.9102 0.0000
1.0000 0.9097 0.0000
1.0000 0.9097 0.0000
0.0000 1.0000 0.0000
0.0000 1.0000 0.0000
0.0000 1.0000 0.0000
0.0000 1.0000 0.0000
0.0178 1.0000 0.0000
0.1234 1.0000 0.0000
0.2716 1.0000 0.0000
0.4373 1.0000 0.0000
0.5785 1.0000 0.0000
0.6962 1.0000 0.0000
0.8099 0.9951 0.0000
0.9098 0.9883 0.0000
0.9831 0.9831 0.0000
1.0000 0.9800 0.0000
1.0000 0.9784 0.0000
1.0000 0.9780 0.0000
1.0000 0.9780 0.0000
0.0000 1.0000 0.0000
0.0000 1.0000 0.0000
0.0000 1.0000 0.0000
0.0000 1.0000 0.0000
0.0117 1.0000 0.0000
0.1169 1.0000 0.0000
0.2649 1.0000 0.0000
0.4306 1.0000 0.0000
0.5718 1.0000 0.0000
0.6896 1.0000 0.0000
0.8033 1.0000 0.0000
0.9034 1.0000 0.0000
0.9769 1.0000 0.0000
1.0000 1.0000 0.0000
1.0000 1.0000 0.0000
1.0000 1.0000 0.0000
1.0000 1.0000 0.0000
0.0000 1.0000 0.0000
0.0000 1.0000 0.0000
0.0000 1.0000 0.0000
0.0000 1.0000 0.0000
0.0087 1.0000 0.0000
0.1137 1.0000 0.0000
0.2616 1.0000 0.0000
0.4273 1.0000 0.0000
0.5684 1.0000 0.0000
0.6863 1.0000 0.0000
0.8001 1.0000 0.0000
0.9002 1.0000 0.0000
0.9738 1.0000 0.0000
1.0000 1.0000 0.0000
1.0000 1.0000 0.0000
1.0000 1.0000 0.0000
1.0000 1.0000 0.0000
0.0000 1.0000 0.0000
0.0000 1.0000 0.0000
0.0000 1.0000 0.0000
0.0000 1.0000 0.0000
0.0079 1.0000 0.0000
0.1128 1.0000 0.0000
0.2607 1.0000 0.0000
0.4264 1.0000 0.0000
0.5675 1.0000 0.0000
0.6854 1.0000 0.0000
0.7992 1.0000 0.0000
0.8993 1.0000 0.0000
0.9730 1.0000 0.0000
1.0000 1.0000 0.0000
1.0000 1.0000 0.0000
1.0000 1.0000 0.0000
1.0000 1.0000 0.0000
0.0000 1.0000 0.0000
0.0000 1.0000 0.0000
0.0000 1.0000 0.0000
0.0000 1.0000 0.0000
0.0079 1.0000 0.0000
0.1128 1.0000 0.0000
0.2607 1.0000 0.0000
0.4264 1.0000 0.0000
0.5675 1.0000 0.0000
0.6854 1.0000 0.0000
0.7992 1.0000 0.0000
0.8993 1.0000 0.0000
0.9730 1.0000 0.0000
1.0000 1.0000 0.0000
1.0000 1.0000 0.0000
1.0000 1.0000 0.0000
1.0000 1.0000 0.0000
0.0000 0.0000 0.1108
0.0207 0.0000 0.1089
0.0533 0.0000 0.1065
0.1028 0.0000 0.1028
0.1779 0.0000 0.0973
0.2876 0.0000 0.0895
0.4385 0.0000 0.0789
0.6053 0.0000 0.0673
0.7446 0.0000 0.0576
0.8606 0.0000 0.0494
0.9711 0.0000 0.0414
1.0000 0.0000 0.0344
1.0000 0.0000 0.0291
1.0000 0.0000 0.0259
1.0000 0.0000 0.0244
1.0000 0.0000 0.0240
1.0000 0.0000 0.0240
0.0000 0.0190 0.1071
0.0172 0.0172 0.1053
0.0497 0.0149 0.1028
0.0991 0.0115 0.0991
0.1742 0.0064 0.0937
0.2838 0.0000 0.0859
0.4347 0.0000 0.0753
0.6015 0.0000 0.0637
0.7409 0.0000 0.0540
0.8569 0.0000 0.0458
0.9676 0.0000 0.0379
1.0000 0.0000 0.0309
1.0000 0.0000 0.0256
1.0000 0.0000 0.0224
1.0000 0.0000 0.0209
1.0000 0.0000 0.0205
