assets/luts/LUTs/JD_D-LOG_Conversion_1.CUBE
TITLE "ColorFinale Export"
# Created by Jeven Dovey on 2021-12-03 18:53:33 +0000
# Color Finale Plugin v.2.4.5 (531)
LUT_3D_SIZE 5
0.0000 0.0000 0.0000
0.1810 0.0000 0.0000
0.7478 0.0000 0.0000
1.0000 0.0000 0.0000
1.0000 0.0000 0.0000
0.0000 0.1679 0.0000
0.1542 0.1542 0.0000
0.7207 0.1138 0.0000
1.0000 0.0847 0.0000
1.0000 0.0793 0.0000
0.0000 0.6948 0.0000
0.0753 0.6810 0.0000
0.6396 0.6396 0.0000
1.0000 0.6094 0.0000
1.0000 0.6038 0.0000
0.0000 1.0000 0.0000
0.0194 1.0000 0.0000
0.5802 1.0000 0.0000
0.9847 0.9847 0.0000
1.0000 0.9796 0.0000
0.0000 1.0000 0.0000
0.0094 1.0000 0.0000
0.5692 1.0000 0.0000
0.9746 1.0000 0.0000
1.0000 1.0000 0.0000
0.0000 0.0000 0.1894
0.1758 0.0000 0.1758
0.7425 0.0000 0.1352
1.0000 0.0000 0.1059
1.0000 0.0000 0.1005
0.0000 0.1627 0.1627
0.1491 0.1491 0.1491
0.7155 0.1087 0.1087
1.0000 0.0796 0.0796
1.0000 0.0742 0.0742
0.0000 0.6895 0.0835
0.0702 0.6757 0.0702
0.6343 0.6343 0.0309
1.0000 0.6040 0.0033
1.0000 0.5985 0.0000
0.0000 1.0000 0.0273
0.0145 1.0000 0.0145
0.5749 1.0000 0.0000
0.9798 0.9798 0.0000
1.0000 0.9746 0.0000
0.0000 1.0000 0.0172
0.0047 1.0000 0.0047
0.5639 1.0000 0.0000
0.9696 1.0000 0.0000
1.0000 1.0000 0.0000
0.0000 0.0000 0.7816
0.1603 0.0000 0.7679
0.7268 0.0000 0.7268
1.0000 0.0000 0.6968
1.0000 0.0000 0.6913
0.0000 0.1472 0.7547
0.1336 0.1336 0.7409
0.6997 0.0934 0.6997
1.0000 0.0644 0.6697
1.0000 0.0591 0.6641
0.0000 0.6738 0.6738
0.0551 0.6599 0.6599
0.6184 0.6184 0.6184
1.0000 0.5882 0.5882
1.0000 0.5826 0.5826
0.0000 1.0000 0.6146
0.0004 1.0000 0.6006
0.5590 0.9930 0.5590
0.9650 0.9650 0.5285
1.0000 0.9597 0.5229
0.0000 1.0000 0.6037
0.0000 1.0000 0.5897
0.5480 1.0000 0.5480
0.9547 1.0000 0.5175
1.0000 1.0000 0.5119
0.0000 0.0000 1.0000
0.1490 0.0000 1.0000
0.7154 0.0000 1.0000
1.0000 0.0000 1.0000
1.0000 0.0000 1.0000
0.0000 0.1359 1.0000
0.1224 0.1224 1.0000
0.6883 0.0823 1.0000
1.0000 0.0535 1.0000
1.0000 0.0482 1.0000
0.0000 0.6623 1.0000
0.0442 0.6484 1.0000
0.6069 0.6069 1.0000
1.0000 0.5766 1.0000
1.0000 0.5710 1.0000
0.0000 1.0000 1.0000
0.0000 1.0000 1.0000
0.5474 0.9825 0.9825
0.9541 0.9541 0.9541
1.0000 0.9488 0.9488
0.0000 1.0000 1.0000
0.0000 1.0000 1.0000
0.5364 1.0000 0.9723
0.9437 1.0000 0.9437
1.0000 1.0000 0.9384
0.0000 0.0000 1.0000
0.1469 0.0000 1.0000
0.7133 0.0000 1.0000
1.0000 0.0000 1.0000
1.0000 0.0000 1.0000
0.0000 0.1339 1.0000
0.1204 0.1204 1.0000
0.6862 0.0803 1.0000
1.0000 0.0515 1.0000
1.0000 0.0462 1.0000
0.0000 0.6602 1.0000
0.0422 0.6463 1.0000
0.6048 0.6048 1.0000
1.0000 0.5745 1.0000
1.0000 0.5689 1.0000
0.0000 1.0000 1.0000
0.0000 1.0000 1.0000
0.5452 0.9805 1.0000
0.9521 0.9521 1.0000
1.0000 0.9468 1.0000
0.0000 1.0000 1.0000
0.0000 1.0000 1.0000
0.5343 1.0000 1.0000
0.9417 1.0000 1.0000
1.0000 1.0000 1.0000
