assets/luts/LUTs/JD_D-LOG_Conversion_2.CUBE
TITLE "ColorFinale Export"
# Created by Jeven Dovey on 2021-12-03 18:55:52 +0000
# Color Finale Plugin v.2.4.5 (531)
LUT_3D_SIZE 5
0.0000 0.0000 0.0000
0.1943 0.0000 0.0000
0.7411 0.0000 0.0000
1.0000 0.0000 0.0000
1.0000 0.0000 0.0000
0.0000 0.1802 0.0000
0.1656 0.1656 0.0000
0.7122 0.1265 0.0000
1.0000 0.0958 0.0000
1.0000 0.0915 0.0000
0.0000 0.6886 0.0000
0.0892 0.6738 0.0000
0.6338 0.6338 0.0000
1.0000 0.6021 0.0000
1.0000 0.5976 0.0000
0.0000 1.0000 0.0000
0.0301 1.0000 0.0000
0.5715 1.0000 0.0000
0.9956 0.9956 0.0000
1.0000 0.9915 0.0000
0.0000 1.0000 0.0000
0.0218 1.0000 0.0000
0.5625 1.0000 0.0000
0.9875 1.0000 0.0000
1.0000 1.0000 0.0000
0.0000 0.0000 0.2034
0.1888 0.0000 0.1888
0.7355 0.0000 0.1495
1.0000 0.0000 0.1186
1.0000 0.0000 0.1142
0.0000 0.1747 0.1747
0.1601 0.1601 0.1601
0.7065 0.1210 0.1210
1.0000 0.0903 0.0903
1.0000 0.0860 0.0860
0.0000 0.6830 0.0981
0.0838 0.6681 0.0838
0.6282 0.6282 0.0456
1.0000 0.5964 0.0160
1.0000 0.5919 0.0119
0.0000 1.0000 0.0387
0.0248 1.0000 0.0248
0.5658 1.0000 0.0000
0.9905 0.9905 0.0000
1.0000 0.9863 0.0000
0.0000 1.0000 0.0304
0.0166 1.0000 0.0166
0.5568 1.0000 0.0000
0.9823 1.0000 0.0000
1.0000 1.0000 0.0000
0.0000 0.0000 0.7747
0.1738 0.0000 0.7600
0.7204 0.0000 0.7204
1.0000 0.0000 0.6889
1.0000 0.0000 0.6844
0.0000 0.1597 0.7458
0.1451 0.1451 0.7311
0.6913 0.1062 0.6913
1.0000 0.0757 0.6598
1.0000 0.0714 0.6552
0.0000 0.6678 0.6678
0.0691 0.6529 0.6529
0.6129 0.6129 0.6129
1.0000 0.5811 0.5811
1.0000 0.5766 0.5766
0.0000 1.0000 0.6056
0.0108 1.0000 0.5906
0.5504 1.0000 0.5504
0.9764 0.9764 0.5184
1.0000 0.9721 0.5139
0.0000 1.0000 0.5967
0.0029 1.0000 0.5817
0.5414 1.0000 0.5414
0.9680 1.0000 0.5094
1.0000 1.0000 0.5049
0.0000 0.0000 1.0000
0.1619 0.0000 1.0000
0.7084 0.0000 1.0000
1.0000 0.0000 1.0000
1.0000 0.0000 1.0000
0.0000 0.1479 1.0000
0.1333 0.1333 1.0000
0.6793 0.0945 1.0000
1.0000 0.0641 1.0000
1.0000 0.0598 1.0000
0.0000 0.6557 1.0000
0.0576 0.6408 1.0000
0.6008 0.6008 1.0000
1.0000 0.5690 1.0000
1.0000 0.5644 1.0000
0.0000 1.0000 1.0000
0.0001 1.0000 1.0000
0.5382 0.9944 0.9944
0.9650 0.9650 0.9650
1.0000 0.9607 0.9607
0.0000 1.0000 1.0000
0.0000 1.0000 1.0000
0.5293 1.0000 0.9863
0.9566 1.0000 0.9566
1.0000 1.0000 0.9523
0.0000 0.0000 1.0000
0.1602 0.0000 1.0000
0.7067 0.0000 1.0000
1.0000 0.0000 1.0000
1.0000 0.0000 1.0000
0.0000 0.1462 1.0000
0.1317 0.1317 1.0000
0.6776 0.0929 1.0000
1.0000 0.0625 1.0000
1.0000 0.0582 1.0000
0.0000 0.6540 1.0000
0.0560 0.6391 1.0000
0.5991 0.5991 1.0000
1.0000 0.5672 1.0000
1.0000 0.5627 1.0000
0.0000 1.0000 1.0000
0.0000 1.0000 1.0000
0.5365 0.9928 1.0000
0.9634 0.9634 1.0000
1.0000 0.9591 1.0000
0.0000 1.0000 1.0000
0.0000 1.0000 1.0000
0.5275 1.0000 1.0000
0.9550 1.0000 1.0000
1.0000 1.0000 1.0000
