assets/luts/LUTs/JD_EUREKA.CUBE
TITLE "ColorFinale Export"
# Created by Jeven Dovey on 2020-10-01 21:33:21 +0000
# Color Finale Plugin v.2.1.144 (485)
LUT_3D_SIZE 9
0.0000 0.0000 0.0038
0.0711 0.0000 0.0058
0.1654 0.0000 0.0079
0.2931 0.0010 0.0101
0.4587 0.0028 0.0123
0.6444 0.0043 0.0141
0.7802 0.0051 0.0150
0.8694 0.0054 0.0154
0.9216 0.0056 0.0156
0.0074 0.0779 0.0081
0.1141 0.0704 0.0188
0.2006 0.0707 0.0189
0.3136 0.0685 0.0125
0.4734 0.0598 0.0138
0.6546 0.0516 0.0149
0.7871 0.0469 0.0155
0.8745 0.0444 0.0158
0.9293 0.0421 0.0159
0.0160 0.1879 0.0117
0.1199 0.1819 0.0129
0.2638 0.1691 0.0344
0.3945 0.1644 0.0598
0.5202 0.1706 0.0155
0.6828 0.1688 0.0160
0.8072 0.1653 0.0161
0.8907 0.1627 0.0161
0.9472 0.1602 0.0160
0.0251 0.3370 0.0146
0.1228 0.3314 0.0152
0.2729 0.3199 0.0157
0.4625 0.3009 0.0512
0.6406 0.2899 0.0988
0.7772 0.2976 0.0658
0.8728 0.3035 0.0276
0.9407 0.3057 0.0153
0.9909 0.3060 0.0150
0.0334 0.5249 0.0160
0.1248 0.5196 0.0161
0.2725 0.5100 0.0160
0.4746 0.4916 0.0156
0.7110 0.4665 0.0680
0.9043 0.4500 0.1308
0.9998 0.4496 0.1383
1.0000 0.4535 0.1241
1.0000 0.4577 0.1047
0.0396 0.7235 0.0157
0.1247 0.7186 0.0154
0.2705 0.7101 0.0148
0.4717 0.6946 0.0137
0.7253 0.6692 0.0175
0.9580 0.6416 0.0819
1.0000 0.6262 0.1342
1.0000 0.6196 0.1627
1.0000 0.6166 0.1783
0.0427 0.8586 0.0145
0.1231 0.8542 0.0140
0.2682 0.8465 0.0130
0.4679 0.8332 0.0114
0.7238 0.8109 0.0090
0.9698 0.7833 0.0391
1.0000 0.7643 0.0905
1.0000 0.7534 0.1282
1.0000 0.7448 0.1619
0.0442 0.9445 0.0133
0.1214 0.9405 0.0127
0.2660 0.9335 0.0113
0.4645 0.9215 0.0093
0.7206 0.9016 0.0064
0.9719 0.8754 0.0141
1.0000 0.8560 0.0592
1.0000 0.8439 0.0964
1.0000 0.8332 0.1348
0.0453 0.9995 0.0122
0.1190 1.0000 0.0114
0.2627 1.0000 0.0096
0.4604 0.9938 0.0072
0.7160 0.9803 0.0036
0.9707 0.9603 0.0000
1.0000 0.9442 0.0297
1.0000 0.9336 0.0632
1.0000 0.9234 0.1020
0.0011 0.0109 0.0889
0.0999 0.0000 0.0467
0.1755 0.0000 0.0081
0.2958 0.0011 0.0102
0.4566 0.0028 0.0123
0.6391 0.0043 0.0140
0.7734 0.0050 0.0149
0.8621 0.0054 0.0154
0.9149 0.0056 0.0156
0.0075 0.1143 0.0759
0.0852 0.0771 0.0881
0.1790 0.0669 0.0698
0.3045 0.0553 0.0485
0.4664 0.0443 0.0262
0.6487 0.0364 0.0147
0.7825 0.0325 0.0153
0.8708 0.0305 0.0156
0.9269 0.0288 0.0158
0.0114 0.2273 0.0712
0.0920 0.1868 0.0874
0.2337 0.1760 0.1014
0.3501 0.1754 0.0990
0.4941 0.1722 0.0538
0.6699 0.1633 0.0226
0.7993 0.1575 0.0161
0.8850 0.1541 0.0161
0.9435 0.1514 0.0161
0.0186 0.3791 0.0649
0.0987 0.3357 0.0842
0.2412 0.3267 0.0757
0.4331 0.3079 0.1150
0.6018 0.2996 0.1494
0.7382 0.3074 0.0970
0.8444 0.3092 0.0597
0.9192 0.3086 0.0389
0.9755 0.3071 0.0245
0.0265 0.5683 0.0551
0.1035 0.5237 0.0771
0.2443 0.5155 0.0618
0.4446 0.4988 0.0704
0.6839 0.4733 0.1269
0.8760 0.4577 0.1849
0.9725 0.4592 0.1798
1.0000 0.4638 0.1575
1.0000 0.4678 0.1335
0.0328 0.7661 0.0426
0.1055 0.7223 0.0664
0.2459 0.7146 0.0485
0.4439 0.7007 0.0434
0.6988 0.6760 0.0699
0.9371 0.6478 0.1347
1.0000 0.6324 0.1858
1.0000 0.6262 0.2115
1.0000 0.6239 0.2222
0.0361 0.8986 0.0328
0.1053 0.8574 0.0574
0.2458 0.8503 0.0383
0.4421 0.8382 0.0281
0.6982 0.8169 0.0402
0.9501 0.7891 0.0870
1.0000 0.7697 0.1382
1.0000 0.7587 0.1756
1.0000 0.7501 0.2081
0.0380 0.9810 0.0255
0.1045 0.9434 0.0506
0.2450 0.9368 0.0311
0.4404 0.9259 0.0185
0.6961 0.9068 0.0235
0.9526 0.8808 0.0584
1.0000 0.8611 0.1036
1.0000 0.8488 0.1408
1.0000 0.8378 0.1789
0.0392 0.9995 0.0206
0.1028 1.0000 0.0440
0.2431 1.0000 0.0240
0.4378 0.9975 0.0095
0.6926 0.9852 0.0091
0.9520 0.9657 0.0329
1.0000 0.9495 0.0699
1.0000 0.9387 0.1037
1.0000 0.9283 0.1425
0.0028 0.0306 0.1971
0.0744 0.0113 0.2008
0.2317 0.0008 0.1010
0.3258 0.0044 0.0108
0.4730 0.0030 0.0125
0.6469 0.0043 0.0141
0.7767 0.0050 0.0149
0.8629 0.0054 0.0154
0.9153 0.0056 0.0156
0.0224 0.1329 0.1854
0.0724 0.1009 0.1959
0.2159 0.0748 0.1442
0.3183 0.0749 0.0686
0.4713 0.0643 0.0471
0.6479 0.0553 0.0266
0.7786 0.0504 0.0155
0.8656 0.0480 0.0158
0.9219 0.0459 0.0159
0.0141 0.2742 0.1659
0.0912 0.2323 0.1812
0.1960 0.1848 0.1946
0.3220 0.1702 0.1694
0.4825 0.1548 0.1414
0.6624 0.1426 0.1159
0.7937 0.1363 0.1001
0.8804 0.1330 0.0904
0.9406 0.1305 0.0832
0.0148 0.4290 0.1565
0.0901 0.3849 0.1747
0.2033 0.3336 0.1919
0.3920 0.3177 0.2092
0.5402 0.3158 0.2079
0.6955 0.3137 0.1542
0.8180 0.3077 0.1266
0.9002 0.3035 0.1108
0.9622 0.2998 0.0990
0.0184 0.6196 0.1438
0.0915 0.5747 0.1654
0.2096 0.5219 0.1856
0.3992 0.5091 0.1735
0.6409 0.4840 0.2236
0.8253 0.4720 0.2699
0.9175 0.4771 0.2412
0.9756 0.4814 0.2105
1.0000 0.4834 0.1846
0.0222 0.8156 0.1288
0.0917 0.7727 0.1532
0.2129 0.7211 0.1753
0.3999 0.7099 0.1550
0.6524 0.6878 0.1693
0.8984 0.6593 0.2337
1.0000 0.6444 0.2842
1.0000 0.6399 0.3038
1.0000 0.6397 0.3048
0.0242 0.9445 0.1172
0.0904 0.9049 0.1433
0.2133 0.8565 0.1661
0.3997 0.8464 0.1427
0.6508 0.8279 0.1431
0.9105 0.8007 0.1857
1.0000 0.7810 0.2378
1.0000 0.7702 0.2758
1.0000 0.7622 0.3072
0.0256 0.9997 0.1096
0.0891 0.9866 0.1357
0.2128 0.9427 0.1591
0.3988 0.9335 0.1342
0.6485 0.9171 0.1280
0.9119 0.8922 0.1575
1.0000 0.8723 0.2023
1.0000 0.8599 0.2408
1.0000 0.8489 0.2801
0.0260 0.9997 0.1058
0.0867 1.0000 0.1310
0.2112 1.0000 0.1518
0.3968 1.0000 0.1254
0.6455 0.9944 0.1140
0.9103 0.9770 0.1323
1.0000 0.9611 0.1677
1.0000 0.9503 0.2024
1.0000 0.9397 0.2429
0.0045 0.0553 0.3363
0.0508 0.0372 0.3438
0.1967 0.0107 0.3316
0.4080 0.0030 0.1716
0.5231 0.0125 0.0133
0.6804 0.0108 0.0144
0.8002 0.0096 0.0151
0.8810 0.0089 0.0155
0.9312 0.0085 0.0157
0.0128 0.1658 0.3017
0.0554 0.1301 0.3354
0.1803 0.1021 0.3442
0.3914 0.0713 0.2140
0.5117 0.0814 0.0624
0.6729 0.0745 0.0448
0.7953 0.0701 0.0324
0.8774 0.0674 0.0244
0.9320 0.0652 0.0186
0.0393 0.2938 0.3319
0.1008 0.2581 0.3239
0.1778 0.2170 0.3357
0.3701 0.1803 0.2687
0.5002 0.1809 0.1678
0.6687 0.1692 0.1437
0.7947 0.1622 0.1276
0.8788 0.1583 0.1173
0.9384 0.1552 0.1096
0.0179 0.4906 0.2798
0.0932 0.4464 0.2993
0.2013 0.3944 0.3148
0.3420 0.3295 0.3319
0.5020 0.3099 0.2998
0.6791 0.2922 0.2689
0.8073 0.2824 0.2494
0.8921 0.2770 0.2373
0.9568 0.2729 0.2278
0.0143 0.6830 0.2645
0.0852 0.6381 0.2868
0.1974 0.5852 0.3041
0.3488 0.5181 0.3265
0.5870 0.4969 0.3467
0.7514 0.4928 0.3535
0.8514 0.4946 0.3085
0.9250 0.4923 0.2836
0.9873 0.4887 0.2645
0.0135 0.8748 0.2467
0.0801 0.8333 0.2718
0.1965 0.7833 0.2912
0.3537 0.7181 0.3174
0.5932 0.7013 0.3035
0.8482 0.6731 0.3594
0.9788 0.6598 0.4056
1.0000 0.6587 0.4093
1.0000 0.6616 0.3920
0.0133 0.9963 0.2332
0.0764 0.9608 0.2603
0.1950 0.9150 0.2808
0.3550 0.8542 0.3087
0.5920 0.8399 0.2861
0.8583 0.8147 0.3138
1.0000 0.7946 0.3645
1.0000 0.7841 0.4019
1.0000 0.7774 0.4285
0.0138 1.0000 0.2282
0.0741 1.0000 0.2537
0.1934 0.9952 0.2731
0.3548 0.9408 0.3018
0.5908 0.9279 0.2756
0.8580 0.9058 0.2892
1.0000 0.8859 0.3293
1.0000 0.8732 0.3678
1.0000 0.8624 0.4073
0.0141 1.0000 0.2239
0.0711 1.0000 0.2503
0.1907 1.0000 0.2686
0.3535 1.0000 0.2942
0.5885 1.0000 0.2648
0.8553 0.9898 0.2676
1.0000 0.9748 0.2957
1.0000 0.9640 0.3291
1.0000 0.9533 0.3706
0.0062 0.0833 0.5023
0.0259 0.0669 0.5085
0.1549 0.0409 0.5179
0.3656 0.0077 0.4773
0.6317 0.0048 0.2578
0.7510 0.0223 0.0150
0.8550 0.0229 0.0155
0.9267 0.0231 0.0158
0.9717 0.0230 0.0159
0.0085 0.2006 0.4623
0.0328 0.1629 0.5012
0.1487 0.1368 0.5166
0.3447 0.0980 0.5022
0.6142 0.0666 0.2985
0.7378 0.0892 0.0557
0.8440 0.0869 0.0462
0.9172 0.0851 0.0394
0.9668 0.0833 0.0341
0.0409 0.3319 0.4623
0.0740 0.3002 0.4665
0.1541 0.2539 0.5054
0.3231 0.2151 0.5157
0.5917 0.1746 0.3533
0.7211 0.1899 0.1615
0.8310 0.1852 0.1487
0.9069 0.1820 0.1398
0.9621 0.1792 0.1325
0.0461 0.5119 0.4925
0.1141 0.4701 0.5035
0.2140 0.4256 0.4906
0.3178 0.3707 0.5039
0.5616 0.3222 0.4217
0.7021 0.3249 0.3004
0.8188 0.3160 0.2828
0.8983 0.3103 0.2710
0.9608 0.3057 0.2612
0.0166 0.7552 0.4134
0.0882 0.7118 0.4373
0.2001 0.6599 0.4556
0.3453 0.5929 0.4760
0.5240 0.5117 0.4966
0.6994 0.4895 0.4619
0.8240 0.4753 0.4387
0.9063 0.4670 0.4241
0.9754 0.4602 0.4115
0.0092 0.9412 0.3940
0.0743 0.9019 0.4207
0.1881 0.8543 0.4398
0.3379 0.7916 0.4621
0.5291 0.7124 0.4887
0.7859 0.6888 0.5091
0.9070 0.6814 0.5325
0.9649 0.6847 0.5040
1.0000 0.6852 0.4738
0.0071 1.0000 0.3819
0.0668 1.0000 0.4075
0.1817 0.9796 0.4273
0.3351 0.9233 0.4512
0.5315 0.8495 0.4810
0.7911 0.8304 0.4719
0.9613 0.8102 0.5162
1.0000 0.8004 0.5501
1.0000 0.7975 0.5608
0.0072 1.0000 0.3778
0.0642 1.0000 0.4043
0.1786 1.0000 0.4212
0.3329 1.0000 0.4432
0.5320 0.9369 0.4747
0.7898 0.9204 0.4559
0.9683 0.9014 0.4835
1.0000 0.8884 0.5194
1.0000 0.8781 0.5576
0.0072 1.0000 0.3734
0.0612 1.0000 0.4007
0.1753 1.0000 0.4177
0.3300 1.0000 0.4389
0.5313 1.0000 0.4671
0.7872 1.0000 0.4418
0.9681 0.9900 0.4550
1.0000 0.9795 0.4820
1.0000 0.9686 0.5229
0.0076 0.1104 0.6800
0.0073 0.0956 0.6845
0.1188 0.0709 0.7020
0.3103 0.0369 0.6989
0.5904 0.0053 0.6074
0.8672 0.0058 0.3469
0.9608 0.0137 0.1007
0.9929 0.0327 0.0160
0.9987 0.0335 0.0160
0.0094 0.2326 0.6350
0.0090 0.1940 0.6765
0.1179 0.1697 0.6963
0.2957 0.1332 0.7074
0.5674 0.0870 0.6419
0.8505 0.0612 0.3854
0.9424 0.0826 0.1367
0.9821 0.0965 0.0461
1.0000 0.0956 0.0419
0.0219 0.3727 0.6077
0.0431 0.3380 0.6320
0.1261 0.2893 0.6842
0.2855 0.2535 0.7045
0.5402 0.2021 0.6747
0.8286 0.1682 0.4399
0.9157 0.1908 0.2012
0.9668 0.1975 0.1509
1.0000 0.1959 0.1453
0.0664 0.5420 0.6520
0.1049 0.5087 0.6444
0.1832 0.4708 0.6376
0.2902 0.4108 0.6866
0.5080 0.3599 0.6967
0.7993 0.3145 0.5075
0.8811 0.3358 0.2977
0.9465 0.3328 0.2895
0.9981 0.3296 0.2817
0.0409 0.7742 0.6438
0.1059 0.7320 0.6680
0.2224 0.6827 0.6795
0.3626 0.6233 0.6707
0.4965 0.5557 0.6810
0.7616 0.5023 0.5883
0.8533 0.5090 0.4693
0.9247 0.5027 0.4575
0.9875 0.4964 0.4460
0.0100 1.0000 0.5476
0.0758 0.9672 0.5755
0.1903 0.9231 0.5965
0.3401 0.8641 0.6211
0.5242 0.7882 0.6469
0.7197 0.7043 0.6693
0.8423 0.6876 0.6421
0.9223 0.6767 0.6247
0.9944 0.6666 0.6082
0.0088 1.0000 0.5399
0.0674 1.0000 0.5665
0.1787 1.0000 0.5844
0.3283 0.9885 0.6081
0.5161 0.9210 0.6350
0.7220 0.8424 0.6619
0.8999 0.8255 0.6767
0.9776 0.8201 0.6950
1.0000 0.8223 0.6624
0.0086 1.0000 0.5358
0.0646 1.0000 0.5632
0.1757 1.0000 0.5812
0.3240 1.0000 0.6021
0.5124 1.0000 0.6263
0.7233 0.9306 0.6558
0.9031 0.9167 0.6489
1.0000 0.9032 0.6812
1.0000 0.8950 0.7141
0.0084 1.0000 0.5312
0.0614 1.0000 0.5597
0.1723 1.0000 0.5776
0.3204 1.0000 0.5984
0.5091 1.0000 0.6216
0.7234 1.0000 0.6483
0.9010 1.0000 0.6312
1.0000 0.9941 0.6452
1.0000 0.9833 0.6860
0.0084 0.1285 0.8154
0.0081 0.1149 0.8190
0.0942 0.0908 0.8384
0.2760 0.0578 0.8483
0.5439 0.0171 0.8005
0.8490 0.0059 0.6293
1.0000 0.0059 0.4092
0.9994 0.0059 0.2365
0.9989 0.0160 0.1247
0.0099 0.2534 0.7672
0.0096 0.2148 0.8104
0.0954 0.1911 0.8312
0.2657 0.1566 0.8503
0.5223 0.1100 0.8249
0.8281 0.0683 0.6698
1.0000 0.0572 0.4462
1.0000 0.0693 0.2712
1.0000 0.0825 0.1521
0.0106 0.3983 0.7271
0.0210 0.3619 0.7599
0.1042 0.3123 0.8188
0.2605 0.2784 0.8427
0.4988 0.2290 0.8423
0.8023 0.1789 0.7193
0.9840 0.1636 0.5002
1.0000 0.1772 0.3243
1.0000 0.1927 0.2032
0.0600 0.5701 0.7489
0.0820 0.5383 0.7486
0.1576 0.4992 0.7608
0.2683 0.4370 0.8238
0.4764 0.3894 0.8448
0.7674 0.3310 0.7743
0.9581 0.3090 0.5674
1.0000 0.3244 0.3911
1.0000 0.3396 0.2874
0.0638 0.7877 0.7945
0.1185 0.7483 0.8089
0.2267 0.7053 0.8001
0.3430 0.6559 0.7770
0.4755 0.5853 0.8211
0.7227 0.5276 0.8196
0.9237 0.4958 0.6494
0.9784 0.5099 0.4948
1.0000 0.5118 0.4575
0.0221 1.0000 0.7213
0.0825 0.9779 0.7538
0.2002 0.9353 0.7766
0.3545 0.8779 0.8006
0.5423 0.8056 0.8120
0.6993 0.7355 0.8102
0.8845 0.6967 0.7383
0.9427 0.7012 0.6475
1.0000 0.6934 0.6338
0.0151 1.0000 0.6526
0.0743 1.0000 0.6816
0.1852 1.0000 0.7025
0.3317 1.0000 0.7268
0.5188 0.9680 0.7566
0.7183 0.8933 0.7831
0.8547 0.8360 0.7993
0.9338 0.8249 0.7794
1.0000 0.8134 0.7592
0.0148 1.0000 0.6485
0.0714 1.0000 0.6782
0.1820 1.0000 0.6992
0.3284 1.0000 0.7233
0.5115 1.0000 0.7489
0.7124 0.9778 0.7742
0.8556 0.9247 0.7933
0.9698 0.9135 0.8038
1.0000 0.9108 0.8043
0.0145 1.0000 0.6437
0.0681 1.0000 0.6745
0.1785 1.0000 0.6953
0.3246 1.0000 0.7193
0.5077 1.0000 0.7450
0.7086 1.0000 0.7675
0.8563 1.0000 0.7858
0.9707 1.0000 0.7758
1.0000 0.9927 0.8094
0.0089 0.1404 0.9064
0.0087 0.1275 0.9091
0.0776 0.1038 0.9281
0.2544 0.0714 0.9432
0.5137 0.0303 0.9179
0.8215 0.0059 0.7910
1.0000 0.0059 0.6144
1.0000 0.0059 0.4495
1.0000 0.0059 0.3298
0.0102 0.2667 0.8586
0.0099 0.2283 0.9007
0.0797 0.2049 0.9210
0.2464 0.1714 0.9425
0.4939 0.1257 0.9345
0.7989 0.0799 0.8292
0.9947 0.0582 0.6545
1.0000 0.0545 0.4855
1.0000 0.0619 0.3572
0.0107 0.4143 0.8138
0.0106 0.3770 0.8491
0.0887 0.3269 0.9093
0.2434 0.2942 0.9341
0.4737 0.2464 0.9439
0.7717 0.1936 0.8698
0.9747 0.1661 0.7093
1.0000 0.1604 0.5399
1.0000 0.1695 0.4014
0.0504 0.5894 0.8183
0.0644 0.5570 0.8257
0.1398 0.5166 0.8486
0.2524 0.4536 0.9160
0.4570 0.4079 0.9399
0.7363 0.3496 0.9088
0.9458 0.3143 0.7766
1.0000 0.3053 0.6079
1.0000 0.3168 0.4564
0.0756 0.7988 0.8832
0.1186 0.7625 0.8876
0.2171 0.7242 0.8701
0.3247 0.6771 0.8571
0.4602 0.6041 0.9158
0.6967 0.5491 0.9290
0.9059 0.5057 0.8509
1.0000 0.4913 0.6915
1.0000 0.5061 0.5241
0.0346 1.0000 0.8398
0.0914 0.9843 0.8717
0.2113 0.9431 0.8910
0.3664 0.8880 0.9051
0.5391 0.8242 0.8889
0.6849 0.7557 0.9076
0.8594 0.7136 0.9041
0.9872 0.6915 0.7817
1.0000 0.7033 0.6410
0.0259 1.0000 0.7722
0.0807 1.0000 0.8050
0.1921 1.0000 0.8284
0.3386 1.0000 0.8560
0.5280 0.9765 0.8856
0.7309 0.9044 0.8998
0.8413 0.8560 0.8972
0.9606 0.8306 0.8470
1.0000 0.8303 0.7772
0.0213 1.0000 0.7263
0.0786 1.0000 0.7574
0.1898 1.0000 0.7802
0.3361 1.0000 0.8069
0.5180 1.0000 0.8354
0.7147 1.0000 0.8606
0.8530 0.9571 0.8780
0.9410 0.9202 0.8888
1.0000 0.9084 0.8669
0.0209 1.0000 0.7214
0.0753 1.0000 0.7536
0.1861 1.0000 0.7762
0.3322 1.0000 0.8029
0.5140 1.0000 0.8313
0.7099 1.0000 0.8559
0.8478 1.0000 0.8700
0.9416 1.0000 0.8814
1.0000 0.9984 0.8940
0.0090 0.1449 0.9407
0.0089 0.1378 0.9399
0.0647 0.1142 0.9408
0.2370 0.0826 0.9466
0.4898 0.0417 0.9535
0.7957 0.0059 0.8876
0.9950 0.0059 0.7413
1.0000 0.0059 0.5977
1.0000 0.0059 0.4769
0.0103 0.2801 0.9432
0.0101 0.2394 0.9469
0.0671 0.2164 0.9510
0.2302 0.1838 0.9554
0.4708 0.1392 0.9606
0.7717 0.0921 0.9273
0.9766 0.0659 0.7916
1.0000 0.0558 0.6469
1.0000 0.0518 0.5135
0.0107 0.4314 0.9126
0.0107 0.3931 0.9442
0.0760 0.3394 0.9606
0.2284 0.3077 0.9638
0.4527 0.2615 0.9675
0.7435 0.2085 0.9646
0.9532 0.1763 0.8510
1.0000 0.1626 0.7141
1.0000 0.1573 0.5704
0.0374 0.6102 0.9009
0.0440 0.5767 0.9157
0.1195 0.5349 0.9465
0.2380 0.4681 0.9720
0.4393 0.4243 0.9744
0.7082 0.3677 0.9771
0.9200 0.3283 0.9178
1.0000 0.3093 0.7971
1.0000 0.3016 0.6420
0.0811 0.8142 0.9658
0.1095 0.7810 0.9637
0.1994 0.7458 0.9478
0.3028 0.6988 0.9505
0.4449 0.6213 0.9805
0.6742 0.5691 0.9820
0.8767 0.5245 0.9779
1.0000 0.4989 0.8913
1.0000 0.4870 0.7304
0.0511 1.0000 0.9631
0.1019 0.9916 0.9846
0.2218 0.9529 0.9848
0.3700 0.9030 0.9852
0.5214 0.8476 0.9698
0.6692 0.7752 0.9854
0.8339 0.7361 0.9859
0.9668 0.7053 0.9696
1.0000 0.6864 0.8251
0.0420 1.0000 0.9032
0.0916 1.0000 0.9359
0.2046 1.0000 0.9589
0.3526 1.0000 0.9844
0.5426 0.9864 0.9866
0.7243 0.9256 0.9828
0.8265 0.8765 0.9867
0.9348 0.8499 0.9867
1.0000 0.8250 0.8927
0.0362 1.0000 0.8598
0.0886 1.0000 0.8931
0.2010 1.0000 0.9167
0.3485 1.0000 0.9443
0.5316 1.0000 0.9729
0.7281 1.0000 0.9865
0.8607 0.9716 0.9864
0.9268 0.9407 0.9864
1.0000 0.9144 0.9373
0.0336 1.0000 0.8393
0.0853 1.0000 0.8421
0.1972 1.0000 0.8659
0.3442 1.0000 0.8939
0.5266 1.0000 0.9238
0.7218 1.0000 0.9500
0.8558 1.0000 0.9656
0.9415 1.0000 0.9750
1.0000 1.0000 0.9848
