assets/luts/LUTs/JD_EUREKA.CUBE
TITLE "ColorFinale Export"
# Created by Jeven Dovey on 2020-10-01 21:33:21 +0000
# Color Finale Plugin v.2.1.144 (485)
LUT_3D_SIZE 17
0.0000 0.0000 0.0038
0.0324 0.0000 0.0048
0.0711 0.0000 0.0058
0.1150 0.0000 0.0068
0.1654 0.0000 0.0079
0.2242 0.0002 0.0090
0.2931 0.0010 0.0101
0.3716 0.0020 0.0113
0.4587 0.0028 0.0123
0.5521 0.0036 0.0133
0.6444 0.0043 0.0141
0.7228 0.0048 0.0146
0.7802 0.0051 0.0150
0.8255 0.0053 0.0152
0.8694 0.0054 0.0154
0.9169 0.0056 0.0156
0.9216 0.0056 0.0156
0.0033 0.0329 0.0060
0.0521 0.0297 0.0113
0.0883 0.0297 0.0128
0.1261 0.0296 0.0086
0.1746 0.0268 0.0093
0.2324 0.0227 0.0101
0.3002 0.0180 0.0109
0.3775 0.0134 0.0117
0.4631 0.0090 0.0126
0.5550 0.0053 0.0134
0.6463 0.0043 0.0141
0.7240 0.0048 0.0146
0.7809 0.0051 0.0150
0.8260 0.0053 0.0152
0.8695 0.0054 0.0154
0.9167 0.0056 0.0156
0.9233 0.0056 0.0156
0.0074 0.0779 0.0081
0.0551 0.0753 0.0090
0.1141 0.0704 0.0188
0.1618 0.0685 0.0313
0.2006 0.0707 0.0189
0.2498 0.0710 0.0118
0.3136 0.0685 0.0125
0.3890 0.0644 0.0132
0.4734 0.0598 0.0138
0.5644 0.0554 0.0144
0.6546 0.0516 0.0149
0.7310 0.0488 0.0153
0.7871 0.0469 0.0155
0.8315 0.0456 0.0156
0.8745 0.0444 0.0158
0.9210 0.0431 0.0159
0.9293 0.0421 0.0159
0.0116 0.1291 0.0100
0.0569 0.1268 0.0107
0.1186 0.1223 0.0115
0.1840 0.1165 0.0265
0.2424 0.1129 0.0448
0.2910 0.1145 0.0398
0.3431 0.1173 0.0189
0.4096 0.1173 0.0143
0.4889 0.1149 0.0148
0.5768 0.1114 0.0152
0.6650 0.1078 0.0155
0.7400 0.1050 0.0158
0.7951 0.1030 0.0159
0.8387 0.1015 0.0160
0.8810 0.1001 0.0160
0.9269 0.0986 0.0161
0.9370 0.0976 0.0161
0.0160 0.1879 0.0117
0.0590 0.1856 0.0123
0.1199 0.1819 0.0129
0.1899 0.1759 0.0143
0.2638 0.1691 0.0344
0.3338 0.1641 0.0572
0.3945 0.1644 0.0598
0.4526 0.1682 0.0390
0.5202 0.1706 0.0155
0.5999 0.1705 0.0158
0.6828 0.1688 0.0160
0.7543 0.1669 0.0160
0.8072 0.1653 0.0161
0.8496 0.1640 0.0161
0.8907 0.1627 0.0161
0.9353 0.1613 0.0161
0.9472 0.1602 0.0160
0.0205 0.2566 0.0133
0.0612 0.2544 0.0137
0.1213 0.2510 0.0142
0.1915 0.2457 0.0146
0.2710 0.2383 0.0190
0.3560 0.2300 0.0426
0.4387 0.2235 0.0699
0.5113 0.2223 0.0795
0.5767 0.2261 0.0629
0.6453 0.2304 0.0357
0.7173 0.2327 0.0161
0.7814 0.2332 0.0161
0.8301 0.2329 0.0160
0.8695 0.2325 0.0159
0.9080 0.2319 0.0159
0.9501 0.2311 0.0158
0.9634 0.2302 0.0157
0.0251 0.3370 0.0146
0.0633 0.3347 0.0149
0.1228 0.3314 0.0152
0.1923 0.3267 0.0155
0.2729 0.3199 0.0157
0.3646 0.3108 0.0237
0.4625 0.3009 0.0512
0.5570 0.2928 0.0823
0.6406 0.2899 0.0988
0.7133 0.2926 0.0896
0.7772 0.2976 0.0658
0.8312 0.3014 0.0432
0.8728 0.3035 0.0276
0.9068 0.3048 0.0161
0.9407 0.3057 0.0153
0.9775 0.3063 0.0151
0.9909 0.3060 0.0150
0.0294 0.4273 0.0155
0.0648 0.4251 0.0157
0.1239 0.4219 0.0158
0.1927 0.4176 0.0160
0.2731 0.4114 0.0161
0.3667 0.4028 0.0161
0.4722 0.3919 0.0288
0.5818 0.3804 0.0598
0.6863 0.3711 0.0940
0.7765 0.3664 0.1167
0.8475 0.3673 0.1168
0.9000 0.3707 0.1031
0.9368 0.3741 0.0883
0.9655 0.3768 0.0750
0.9922 0.3794 0.0615
1.0000 0.3819 0.0470
1.0000 0.3825 0.0403
0.0334 0.5249 0.0160
0.0658 0.5227 0.0161
0.1248 0.5196 0.0161
0.1928 0.5156 0.0161
0.2725 0.5100 0.0160
0.3662 0.5021 0.0159
0.4746 0.4916 0.0156
0.5925 0.4791 0.0343
0.7110 0.4665 0.0680
0.8181 0.4560 0.1045
0.9043 0.4500 0.1308
0.9639 0.4487 0.1399
0.9998 0.4496 0.1383
1.0000 0.4513 0.1327
1.0000 0.4535 0.1241
1.0000 0.4564 0.1121
1.0000 0.4577 0.1047
0.0368 0.6265 0.0160
0.0661 0.6245 0.0160
0.1249 0.6214 0.0159
0.1927 0.6175 0.0158
0.2717 0.6123 0.0155
0.3649 0.6052 0.0152
0.4738 0.5954 0.0148
0.5952 0.5831 0.0143
0.7220 0.5694 0.0400
0.8410 0.5560 0.0756
0.9394 0.5453 0.1113
1.0000 0.5388 0.1370
1.0000 0.5357 0.1512
1.0000 0.5345 0.1583
1.0000 0.5344 0.1615
1.0000 0.5352 0.1606
1.0000 0.5359 0.1578
0.0396 0.7235 0.0157
0.0658 0.7216 0.0156
0.1247 0.7186 0.0154
0.1920 0.7149 0.0151
0.2705 0.7101 0.0148
0.3630 0.7036 0.0143
0.4717 0.6946 0.0137
0.5944 0.6830 0.0129
0.7253 0.6692 0.0175
0.8514 0.6547 0.0472
0.9580 0.6416 0.0819
1.0000 0.6321 0.1122
1.0000 0.6262 0.1342
1.0000 0.6224 0.1498
1.0000 0.6196 0.1627
1.0000 0.6176 0.1735
1.0000 0.6166 0.1783
0.0415 0.8021 0.0151
0.0650 0.8004 0.0150
0.1239 0.7974 0.0147
0.1912 0.7939 0.0143
0.2694 0.7894 0.0138
0.3613 0.7834 0.0132
0.4696 0.7753 0.0125
0.5925 0.7646 0.0115
0.7249 0.7517 0.0104
0.8549 0.7373 0.0260
0.9665 0.7236 0.0567
1.0000 0.7128 0.0865
1.0000 0.7056 0.1101
1.0000 0.7004 0.1287
1.0000 0.6960 0.1459
1.0000 0.6920 0.1631
1.0000 0.6893 0.1739
0.0427 0.8586 0.0145
0.0644 0.8570 0.0144
0.1231 0.8542 0.0140
0.1903 0.8508 0.0135
0.2682 0.8465 0.0130
0.3598 0.8408 0.0123
0.4679 0.8332 0.0114
0.5905 0.8232 0.0103
0.7238 0.8109 0.0090
0.8556 0.7970 0.0122
0.9698 0.7833 0.0391
1.0000 0.7721 0.0671
1.0000 0.7643 0.0905
1.0000 0.7585 0.1096
1.0000 0.7534 0.1282
1.0000 0.7484 0.1479
1.0000 0.7448 0.1619
0.0435 0.9027 0.0139
0.0638 0.9011 0.0138
0.1223 0.8984 0.0134
0.1894 0.8952 0.0128
0.2671 0.8910 0.0122
0.3585 0.8857 0.0114
0.4661 0.8784 0.0104
0.5887 0.8690 0.0092
0.7225 0.8572 0.0078
0.8553 0.8438 0.0062
0.9712 0.8303 0.0260
1.0000 0.8189 0.0519
1.0000 0.8109 0.0746
1.0000 0.8048 0.0936
1.0000 0.7993 0.1125
1.0000 0.7936 0.1332
1.0000 0.7894 0.1491
0.0442 0.9445 0.0133
0.0630 0.9431 0.0132
0.1214 0.9405 0.0127
0.1884 0.9374 0.0121
0.2660 0.9335 0.0113
0.3571 0.9284 0.0104
0.4645 0.9215 0.0093
0.5871 0.9126 0.0080
0.7206 0.9016 0.0064
0.8545 0.8886 0.0047
0.9719 0.8754 0.0141
1.0000 0.8641 0.0377
1.0000 0.8560 0.0592
1.0000 0.8498 0.0777
1.0000 0.8439 0.0964
1.0000 0.8379 0.1175
1.0000 0.8332 0.1348
0.0448 0.9879 0.0125
0.0619 0.9867 0.0123
0.1205 0.9843 0.0118
0.1872 0.9815 0.0111
0.2646 0.9780 0.0103
0.3555 0.9734 0.0093
0.4626 0.9672 0.0080
0.5848 0.9591 0.0066
0.7186 0.9488 0.0048
0.8530 0.9367 0.0029
0.9719 0.9240 0.0025
1.0000 0.9131 0.0228
1.0000 0.9050 0.0428
1.0000 0.8987 0.0603
1.0000 0.8927 0.0785
1.0000 0.8864 0.0994
1.0000 0.8811 0.1178
0.0453 0.9995 0.0122
0.0605 0.9997 0.0120
0.1190 1.0000 0.0114
0.1854 1.0000 0.0106
0.2627 1.0000 0.0096
0.3537 0.9978 0.0085
0.4604 0.9938 0.0072
0.5823 0.9880 0.0055
0.7160 0.9803 0.0036
0.8510 0.9707 0.0016
0.9707 0.9603 0.0000
1.0000 0.9511 0.0117
1.0000 0.9442 0.0297
1.0000 0.9388 0.0460
1.0000 0.9336 0.0632
1.0000 0.9281 0.0833
1.0000 0.9234 0.1020
0.0004 0.0027 0.0435
0.0456 0.0000 0.0240
0.0762 0.0000 0.0059
0.1173 0.0000 0.0069
0.1662 0.0000 0.0079
0.2239 0.0002 0.0090
0.2919 0.0010 0.0101
0.3696 0.0019 0.0112
0.4560 0.0028 0.0123
0.5489 0.0036 0.0133
0.6408 0.0043 0.0140
0.7190 0.0047 0.0146
0.7762 0.0050 0.0149
0.8215 0.0052 0.0152
0.8654 0.0054 0.0154
0.9130 0.0056 0.0156
0.9181 0.0056 0.0156
0.0036 0.0495 0.0376
0.0390 0.0327 0.0432
0.0776 0.0286 0.0357
0.1211 0.0243 0.0278
0.1708 0.0198 0.0195
0.2287 0.0151 0.0107
0.2965 0.0104 0.0106
0.3738 0.0061 0.0115
0.4596 0.0029 0.0123
0.5525 0.0037 0.0133
0.6442 0.0043 0.0141
0.7223 0.0048 0.0146
0.7794 0.0050 0.0149
0.8246 0.0053 0.0152
0.8683 0.0054 0.0154
0.9157 0.0056 0.0156
0.9227 0.0056 0.0156
0.0057 0.0954 0.0362
0.0422 0.0775 0.0434
0.1005 0.0735 0.0496
0.1422 0.0732 0.0517
0.1851 0.0731 0.0355
0.2412 0.0697 0.0225
0.3084 0.0648 0.0123
0.3853 0.0596 0.0130
0.4705 0.0545 0.0137
0.5620 0.0499 0.0143
0.6526 0.0463 0.0148
0.7293 0.0436 0.0152
0.7856 0.0419 0.0154
0.8302 0.0407 0.0156
0.8733 0.0396 0.0157
0.9201 0.0385 0.0159
0.9288 0.0378 0.0159
0.0093 0.1473 0.0350
0.0456 0.1286 0.0433
0.1041 0.1253 0.0408
0.1706 0.1195 0.0560
0.2258 0.1168 0.0704
0.2714 0.1192 0.0552
0.3286 0.1195 0.0339
0.4003 0.1168 0.0161
0.4828 0.1126 0.0147
0.5727 0.1082 0.0152
0.6620 0.1042 0.0155
0.7377 0.1012 0.0157
0.7931 0.0991 0.0159
0.8371 0.0977 0.0160
0.8796 0.0962 0.0160
0.9258 0.0949 0.0161
0.9363 0.0939 0.0161
0.0134 0.2068 0.0335
0.0488 0.1873 0.0426
0.1064 0.1843 0.0374
0.1760 0.1790 0.0426
0.2509 0.1720 0.0622
0.3191 0.1674 0.0833
0.3764 0.1689 0.0772
0.4356 0.1720 0.0521
0.5077 0.1723 0.0277
0.5912 0.1704 0.0158
0.6768 0.1675 0.0159
0.7498 0.1650 0.0160
0.8037 0.1631 0.0161
0.8465 0.1616 0.0161
0.8881 0.1602 0.0161
0.9332 0.1587 0.0161
0.9457 0.1577 0.0160
0.0178 0.2763 0.0315
0.0518 0.2560 0.0413
0.1091 0.2530 0.0347
0.1781 0.2484 0.0346
0.2581 0.2412 0.0450
0.3439 0.2328 0.0684
0.4256 0.2265 0.0946
0.4954 0.2262 0.0979
0.5602 0.2301 0.0756
0.6313 0.2333 0.0469
0.7068 0.2342 0.0232
0.7733 0.2337 0.0161
0.8235 0.2329 0.0160
0.8640 0.2320 0.0160
0.9034 0.2312 0.0159
0.9464 0.2301 0.0158
0.9604 0.2291 0.0157
0.0226 0.3572 0.0286
0.0547 0.3363 0.0392
0.1120 0.3331 0.0317
0.1800 0.3290 0.0287
0.2603 0.3225 0.0325
0.3527 0.3135 0.0472
0.4514 0.3034 0.0744
0.5455 0.2954 0.1047
0.6273 0.2931 0.1170
0.6991 0.2962 0.1024
0.7640 0.3009 0.0757
0.8202 0.3040 0.0525
0.8633 0.3056 0.0365
0.8987 0.3063 0.0250
0.9335 0.3068 0.0153
0.9717 0.3070 0.0151
0.9862 0.3064 0.0150
0.0271 0.4479 0.0248
0.0571 0.4266 0.0360
0.1144 0.4234 0.0281
0.1818 0.4194 0.0234
0.2616 0.4136 0.0232
0.3553 0.4053 0.0306
0.4617 0.3943 0.0495
0.5720 0.3827 0.0801
0.6765 0.3732 0.1135
0.7662 0.3688 0.1334
0.8367 0.3701 0.1295
0.8896 0.3737 0.1131
0.9270 0.3769 0.0967
0.9565 0.3794 0.0826
0.9847 0.3817 0.0688
1.0000 0.3839 0.0538
1.0000 0.3843 0.0467
0.0315 0.5456 0.0200
0.0588 0.5241 0.0319
0.1164 0.5209 0.0236
0.1835 0.5170 0.0178
0.2624 0.5118 0.0160
0.3559 0.5042 0.0179
0.4649 0.4937 0.0290
0.5834 0.4812 0.0518
0.7029 0.4684 0.0851
0.8105 0.4578 0.1206
0.8967 0.4518 0.1451
0.9566 0.4506 0.1519
0.9938 0.4517 0.1484
1.0000 0.4534 0.1414
1.0000 0.4556 0.1318
1.0000 0.4584 0.1188
1.0000 0.4596 0.1107
0.0353 0.6473 0.0160
0.0598 0.6256 0.0270
0.1176 0.6225 0.0186
0.1844 0.6187 0.0158
0.2629 0.6138 0.0156
0.3560 0.6068 0.0153
0.4650 0.5972 0.0148
0.5870 0.5849 0.0280
0.7149 0.5710 0.0542
0.8348 0.5574 0.0891
0.9339 0.5466 0.1239
1.0000 0.5400 0.1484
1.0000 0.5370 0.1614
1.0000 0.5358 0.1675
1.0000 0.5357 0.1695
1.0000 0.5366 0.1675
1.0000 0.5371 0.1638
0.0385 0.7438 0.0156
0.0602 0.7226 0.0217
0.1181 0.7195 0.0154
0.1850 0.7159 0.0151
0.2631 0.7112 0.0148
0.3553 0.7049 0.0143
0.4642 0.6960 0.0137
0.5871 0.6844 0.0130
0.7189 0.6706 0.0290
0.8462 0.6558 0.0580
0.9538 0.6426 0.0919
1.0000 0.6329 0.1214
1.0000 0.6270 0.1425
1.0000 0.6231 0.1575
1.0000 0.6203 0.1697
1.0000 0.6182 0.1796
1.0000 0.6172 0.1836
0.0408 0.8217 0.0149
0.0601 0.8011 0.0170
0.1183 0.7982 0.0147
0.1849 0.7947 0.0143
0.2628 0.7903 0.0139
0.3546 0.7845 0.0133
0.4630 0.7764 0.0125
0.5861 0.7657 0.0115
0.7194 0.7527 0.0116
0.8504 0.7382 0.0346
0.9630 0.7243 0.0645
1.0000 0.7134 0.0935
1.0000 0.7060 0.1165
1.0000 0.7008 0.1345
1.0000 0.6963 0.1511
1.0000 0.6922 0.1675
1.0000 0.6895 0.1777
0.0423 0.8776 0.0143
0.0598 0.8576 0.0144
0.1180 0.8548 0.0140
0.1846 0.8515 0.0136
0.2623 0.8473 0.0130
0.3538 0.8417 0.0123
0.4621 0.8340 0.0114
0.5850 0.8241 0.0103
0.7190 0.8117 0.0090
0.8516 0.7977 0.0192
0.9669 0.7838 0.0453
1.0000 0.7724 0.0725
1.0000 0.7646 0.0953
1.0000 0.7587 0.1139
1.0000 0.7535 0.1318
1.0000 0.7484 0.1508
1.0000 0.7447 0.1643
0.0434 0.9211 0.0137
0.0594 0.9017 0.0138
0.1177 0.8990 0.0134
0.1842 0.8958 0.0129
0.2617 0.8917 0.0122
0.3531 0.8864 0.0114
0.4609 0.8792 0.0104
0.5838 0.8697 0.0092
0.7179 0.8579 0.0078
0.8518 0.8443 0.0082
0.9687 0.8306 0.0309
1.0000 0.8191 0.0561
1.0000 0.8110 0.0781
1.0000 0.8049 0.0965
1.0000 0.7992 0.1149
1.0000 0.7936 0.1349
1.0000 0.7892 0.1503
0.0444 0.9620 0.0130
0.0589 0.9436 0.0132
0.1172 0.9410 0.0127
0.1837 0.9379 0.0121
0.2611 0.9340 0.0114
0.3523 0.9290 0.0105
0.4598 0.9221 0.0094
0.5828 0.9131 0.0080
0.7169 0.9020 0.0065
0.8515 0.8890 0.0047
0.9698 0.8757 0.0179
1.0000 0.8642 0.0407
1.0000 0.8560 0.0615
1.0000 0.8496 0.0794
1.0000 0.8437 0.0976
1.0000 0.8376 0.1180
1.0000 0.8328 0.1349
0.0451 0.9995 0.0122
0.0581 0.9870 0.0124
0.1165 0.9847 0.0118
0.1832 0.9819 0.0111
0.2603 0.9784 0.0103
0.3515 0.9738 0.0093
0.4585 0.9676 0.0081
0.5810 0.9594 0.0066
0.7155 0.9491 0.0049
0.8506 0.9369 0.0030
0.9702 0.9241 0.0048
1.0000 0.9130 0.0245
1.0000 0.9048 0.0438
1.0000 0.8984 0.0608
1.0000 0.8923 0.0785
1.0000 0.8860 0.0994
1.0000 0.8807 0.1180
0.0453 0.9995 0.0122
0.0571 0.9996 0.0121
0.1154 1.0000 0.0114
0.1820 1.0000 0.0106
0.2589 1.0000 0.0097
0.3501 0.9983 0.0086
0.4569 0.9943 0.0072
0.5793 0.9885 0.0056
0.7135 0.9808 0.0037
0.8492 0.9710 0.0016
0.9696 0.9606 0.0000
1.0000 0.9512 0.0120
1.0000 0.9442 0.0296
1.0000 0.9388 0.0459
1.0000 0.9337 0.0631
1.0000 0.9281 0.0832
1.0000 0.9234 0.1020
0.0011 0.0109 0.0889
0.0350 0.0022 0.0901
0.0999 0.0000 0.0467
0.1313 0.0000 0.0073
0.1755 0.0000 0.0081
0.2301 0.0002 0.0091
0.2958 0.0011 0.0102
0.3718 0.0020 0.0113
0.4566 0.0028 0.0123
0.5482 0.0036 0.0133
0.6391 0.0043 0.0140
0.7166 0.0047 0.0146
0.7734 0.0050 0.0149
0.8184 0.0052 0.0152
0.8621 0.0054 0.0154
0.9094 0.0056 0.0156
0.9149 0.0056 0.0156
0.0106 0.0569 0.0846
0.0338 0.0426 0.0881
0.0928 0.0320 0.0669
0.1277 0.0325 0.0364
0.1744 0.0286 0.0289
0.2306 0.0240 0.0203
0.2970 0.0191 0.0109
0.3733 0.0143 0.0117
0.4581 0.0099 0.0125
0.5494 0.0063 0.0133
0.6401 0.0043 0.0140
0.7177 0.0047 0.0146
0.7746 0.0050 0.0149
0.8196 0.0052 0.0152
0.8632 0.0054 0.0154
0.9105 0.0056 0.0156
0.9178 0.0056 0.0156
0.0075 0.1143 0.0759
0.0423 0.0960 0.0826
0.0852 0.0771 0.0881
0.1291 0.0722 0.0793
0.1790 0.0669 0.0698
0.2370 0.0613 0.0595
0.3045 0.0553 0.0485
0.3813 0.0496 0.0372
0.4664 0.0443 0.0262
0.5579 0.0398 0.0160
0.6487 0.0364 0.0147
0.7259 0.0340 0.0151
0.7825 0.0325 0.0153
0.8274 0.0315 0.0155
0.8708 0.0305 0.0156
0.9178 0.0296 0.0158
0.9269 0.0288 0.0158
0.0087 0.1670 0.0737
0.0428 0.1479 0.0812
0.0885 0.1280 0.0880
0.1541 0.1233 0.0945
0.2018 0.1228 0.0966
0.2520 0.1224 0.0774
0.3176 0.1180 0.0617
0.3937 0.1123 0.0473
0.4781 0.1064 0.0340
0.5689 0.1009 0.0217
0.6587 0.0964 0.0154
0.7349 0.0932 0.0157
0.7907 0.0911 0.0158
0.8350 0.0895 0.0159
0.8777 0.0881 0.0160
0.9241 0.0867 0.0160
0.9351 0.0858 0.0161
0.0114 0.2273 0.0712
0.0449 0.2075 0.0798
0.0920 0.1868 0.0874
0.1578 0.1829 0.0842
0.2337 0.1760 0.1014
0.2972 0.1726 0.1179
0.3501 0.1754 0.0990
0.4152 0.1754 0.0743
0.4941 0.1722 0.0538
0.5820 0.1677 0.0366
0.6699 0.1633 0.0226
0.7445 0.1599 0.0160
0.7993 0.1575 0.0161
0.8429 0.1557 0.0161
0.8850 0.1541 0.0161
0.9306 0.1524 0.0161
0.9435 0.1514 0.0161
0.0148 0.2976 0.0684
0.0472 0.2770 0.0780
0.0954 0.2554 0.0863
0.1601 0.2518 0.0799
0.2394 0.2455 0.0854
0.3261 0.2370 0.1083
0.4048 0.2314 0.1328
0.4688 0.2330 0.1249
0.5338 0.2365 0.0966
0.6103 0.2370 0.0694
0.6913 0.2353 0.0482
0.7613 0.2331 0.0331
0.8136 0.2312 0.0234
0.8554 0.2297 0.0162
0.8961 0.2283 0.0159
0.9402 0.2267 0.0158
0.9550 0.2255 0.0158
0.0186 0.3791 0.0649
0.0495 0.3581 0.0756
0.0987 0.3357 0.0842
0.1629 0.3321 0.0763
0.2412 0.3267 0.0757
0.3337 0.3181 0.0875
0.4331 0.3079 0.1150
0.5250 0.3003 0.1449
0.6018 0.2996 0.1494
0.6708 0.3038 0.1261
0.7382 0.3074 0.0970
0.7981 0.3089 0.0744
0.8444 0.3092 0.0597
0.8821 0.3090 0.0488
0.9192 0.3086 0.0389
0.9596 0.3079 0.0289
0.9755 0.3071 0.0245
0.0226 0.4703 0.0605
0.0515 0.4490 0.0721
0.1014 0.4261 0.0812
0.1656 0.4225 0.0724
0.2429 0.4175 0.0684
0.3356 0.4099 0.0726
0.4424 0.3992 0.0900
0.5532 0.3874 0.1212
0.6562 0.3782 0.1549
0.7428 0.3751 0.1699
0.8108 0.3776 0.1586
0.8633 0.3816 0.1373
0.9019 0.3845 0.1191
0.9331 0.3865 0.1045
0.9637 0.3882 0.0905
0.9962 0.3896 0.0760
1.0000 0.3896 0.0689
0.0265 0.5683 0.0551
0.0529 0.5468 0.0677
0.1035 0.5237 0.0771
0.1677 0.5201 0.0678
0.2443 0.5155 0.0618
0.3363 0.5087 0.0614
0.4446 0.4988 0.0704
0.5639 0.4862 0.0926
0.6839 0.4733 0.1269
0.7914 0.4629 0.1630
0.8760 0.4577 0.1849
0.9346 0.4575 0.1871
0.9725 0.4592 0.1798
0.9989 0.4614 0.1698
1.0000 0.4638 0.1575
1.0000 0.4667 0.1425
1.0000 0.4678 0.1335
0.0299 0.6704 0.0490
0.0536 0.6487 0.0623
0.1049 0.6253 0.0720
0.1693 0.6217 0.0622
0.2455 0.6173 0.0551
0.3365 0.6111 0.0518
0.4448 0.6021 0.0553
0.5666 0.5901 0.0691
0.6955 0.5762 0.0954
0.8167 0.5625 0.1315
0.9164 0.5517 0.1669
0.9853 0.5456 0.1907
1.0000 0.5431 0.2016
1.0000 0.5424 0.2055
1.0000 0.5428 0.2051
1.0000 0.5442 0.2000
1.0000 0.5450 0.1946
0.0328 0.7661 0.0426
0.0537 0.7452 0.0567
0.1055 0.7223 0.0664
0.1700 0.7189 0.0565
0.2459 0.7146 0.0485
0.3365 0.7088 0.0434
0.4439 0.7007 0.0434
0.5665 0.6896 0.0513
0.6988 0.6760 0.0699
0.8278 0.6612 0.0997
0.9371 0.6478 0.1347
1.0000 0.6382 0.1649
1.0000 0.6324 0.1858
1.0000 0.6287 0.2003
1.0000 0.6262 0.2115
1.0000 0.6246 0.2197
1.0000 0.6239 0.2222
0.0348 0.8433 0.0371
0.0534 0.8231 0.0516
0.1055 0.8009 0.0614
0.1701 0.7976 0.0513
0.2461 0.7935 0.0427
0.3360 0.7881 0.0366
0.4429 0.7807 0.0344
0.5654 0.7706 0.0386
0.6990 0.7580 0.0520
0.8316 0.7436 0.0757
0.9464 0.7296 0.1067
1.0000 0.7186 0.1364
1.0000 0.7113 0.1599
1.0000 0.7061 0.1781
1.0000 0.7018 0.1946
1.0000 0.6978 0.2107
1.0000 0.6954 0.2202
0.0361 0.8986 0.0328
0.0530 0.8790 0.0476
0.1053 0.8574 0.0574
0.1701 0.8542 0.0472
0.2458 0.8503 0.0383
0.3357 0.8452 0.0314
0.4421 0.8382 0.0281
0.5642 0.8287 0.0302
0.6982 0.8169 0.0402
0.8326 0.8030 0.0598
0.9501 0.7891 0.0870
1.0000 0.7777 0.1147
1.0000 0.7697 0.1382
1.0000 0.7639 0.1573
1.0000 0.7587 0.1756
1.0000 0.7537 0.1947
1.0000 0.7501 0.2081
0.0371 0.9414 0.0291
0.0525 0.9225 0.0442
0.1050 0.9015 0.0540
0.1699 0.8984 0.0437
0.2455 0.8946 0.0347
0.3352 0.8897 0.0274
0.4413 0.8831 0.0232
0.5631 0.8742 0.0238
0.6972 0.8629 0.0315
0.8325 0.8495 0.0480
0.9518 0.8358 0.0721
1.0000 0.8243 0.0979
1.0000 0.8161 0.1207
1.0000 0.8100 0.1397
1.0000 0.8043 0.1584
1.0000 0.7987 0.1788
1.0000 0.7944 0.1944
0.0380 0.9810 0.0255
0.0519 0.9634 0.0408
0.1045 0.9434 0.0506
0.1695 0.9404 0.0402
0.2450 0.9368 0.0311
0.3345 0.9321 0.0234
0.4404 0.9259 0.0185
0.5620 0.9175 0.0178
0.6961 0.9068 0.0235
0.8319 0.8941 0.0372
0.9526 0.8808 0.0584
1.0000 0.8694 0.0819
1.0000 0.8611 0.1036
1.0000 0.8547 0.1221
1.0000 0.8488 0.1408
1.0000 0.8427 0.1617
1.0000 0.8378 0.1789
0.0388 0.9995 0.0224
0.0512 0.9997 0.0370
0.1038 0.9869 0.0467
0.1689 0.9842 0.0363
0.2443 0.9810 0.0270
0.3337 0.9767 0.0189
0.4393 0.9710 0.0133
0.5607 0.9634 0.0114
0.6946 0.9536 0.0152
0.8309 0.9418 0.0261
0.9527 0.9291 0.0440
1.0000 0.9180 0.0650
1.0000 0.9098 0.0852
1.0000 0.9034 0.1029
1.0000 0.8973 0.1211
1.0000 0.8909 0.1420
1.0000 0.8855 0.1604
0.0392 0.9995 0.0206
0.0499 0.9997 0.0354
0.1028 1.0000 0.0440
0.1678 1.0000 0.0335
0.2431 1.0000 0.0240
0.3323 1.0000 0.0155
0.4378 0.9975 0.0095
0.5587 0.9924 0.0069
0.6926 0.9852 0.0091
0.8292 0.9760 0.0177
0.9520 0.9657 0.0329
1.0000 0.9565 0.0513
1.0000 0.9495 0.0699
1.0000 0.9440 0.0864
1.0000 0.9387 0.1037
1.0000 0.9331 0.1238
1.0000 0.9283 0.1425
0.0019 0.0201 0.1397
0.0265 0.0116 0.1428
0.0883 0.0011 0.1336
0.1614 0.0000 0.0722
0.1954 0.0026 0.0086
0.2446 0.0013 0.0094
0.3064 0.0012 0.0103
0.3794 0.0020 0.0114
0.4618 0.0029 0.0124
0.5515 0.0036 0.0133
0.6407 0.0043 0.0140
0.7171 0.0047 0.0146
0.7732 0.0050 0.0149
0.8178 0.0052 0.0152
0.8609 0.0054 0.0154
0.9079 0.0056 0.0156
0.9138 0.0056 0.0156
0.0082 0.0691 0.1250
0.0283 0.0533 0.1386
0.0803 0.0417 0.1413
0.1541 0.0312 0.0922
0.1905 0.0349 0.0346
0.2416 0.0316 0.0276
0.3048 0.0272 0.0189
0.3785 0.0226 0.0120
0.4615 0.0181 0.0128
0.5513 0.0142 0.0135
0.6406 0.0110 0.0142
0.7170 0.0089 0.0146
0.7732 0.0075 0.0150
0.8177 0.0065 0.0152
0.8608 0.0056 0.0154
0.9078 0.0056 0.0156
