assets/luts/LUTs/JD_EUREKA.CUBE
TITLE "ColorFinale Export"
# Created by Jeven Dovey on 2020-10-01 21:33:21 +0000
# Color Finale Plugin v.2.1.144 (485)
LUT_3D_SIZE 5
0.0000 0.0000 0.0038
0.1654 0.0000 0.0079
0.4587 0.0028 0.0123
0.7802 0.0051 0.0150
0.9216 0.0056 0.0156
0.0160 0.1879 0.0117
0.2638 0.1691 0.0344
0.5202 0.1706 0.0155
0.8072 0.1653 0.0161
0.9472 0.1602 0.0160
0.0334 0.5249 0.0160
0.2725 0.5100 0.0160
0.7110 0.4665 0.0680
0.9998 0.4496 0.1383
1.0000 0.4577 0.1047
0.0427 0.8586 0.0145
0.2682 0.8465 0.0130
0.7238 0.8109 0.0090
1.0000 0.7643 0.0905
1.0000 0.7448 0.1619
0.0453 0.9995 0.0122
0.2627 1.0000 0.0096
0.7160 0.9803 0.0036
1.0000 0.9442 0.0297
1.0000 0.9234 0.1020
0.0028 0.0306 0.1971
0.2317 0.0008 0.1010
0.4730 0.0030 0.0125
0.7767 0.0050 0.0149
0.9153 0.0056 0.0156
0.0141 0.2742 0.1659
0.1960 0.1848 0.1946
0.4825 0.1548 0.1414
0.7937 0.1363 0.1001
0.9406 0.1305 0.0832
0.0184 0.6196 0.1438
0.2096 0.5219 0.1856
0.6409 0.4840 0.2236
0.9175 0.4771 0.2412
1.0000 0.4834 0.1846
0.0242 0.9445 0.1172
0.2133 0.8565 0.1661
0.6508 0.8279 0.1431
1.0000 0.7810 0.2378
1.0000 0.7622 0.3072
0.0260 0.9997 0.1058
0.2112 1.0000 0.1518
0.6455 0.9944 0.1140
1.0000 0.9611 0.1677
1.0000 0.9397 0.2429
0.0062 0.0833 0.5023
0.1549 0.0409 0.5179
0.6317 0.0048 0.2578
0.8550 0.0229 0.0155
0.9717 0.0230 0.0159
0.0409 0.3319 0.4623
0.1541 0.2539 0.5054
0.5917 0.1746 0.3533
0.8310 0.1852 0.1487
0.9621 0.1792 0.1325
0.0166 0.7552 0.4134
0.2001 0.6599 0.4556
0.5240 0.5117 0.4966
0.8240 0.4753 0.4387
0.9754 0.4602 0.4115
0.0071 1.0000 0.3819
0.1817 0.9796 0.4273
0.5315 0.8495 0.4810
0.9613 0.8102 0.5162
1.0000 0.7975 0.5608
0.0072 1.0000 0.3734
0.1753 1.0000 0.4177
0.5313 1.0000 0.4671
0.9681 0.9900 0.4550
1.0000 0.9686 0.5229
0.0084 0.1285 0.8154
0.0942 0.0908 0.8384
0.5439 0.0171 0.8005
1.0000 0.0059 0.4092
0.9989 0.0160 0.1247
0.0106 0.3983 0.7271
0.1042 0.3123 0.8188
0.4988 0.2290 0.8423
0.9840 0.1636 0.5002
1.0000 0.1927 0.2032
0.0638 0.7877 0.7945
0.2267 0.7053 0.8001
0.4755 0.5853 0.8211
0.9237 0.4958 0.6494
1.0000 0.5118 0.4575
0.0151 1.0000 0.6526
0.1852 1.0000 0.7025
0.5188 0.9680 0.7566
0.8547 0.8360 0.7993
1.0000 0.8134 0.7592
0.0145 1.0000 0.6437
0.1785 1.0000 0.6953
0.5077 1.0000 0.7450
0.8563 1.0000 0.7858
1.0000 0.9927 0.8094
0.0090 0.1449 0.9407
0.0647 0.1142 0.9408
0.4898 0.0417 0.9535
0.9950 0.0059 0.7413
1.0000 0.0059 0.4769
0.0107 0.4314 0.9126
0.0760 0.3394 0.9606
0.4527 0.2615 0.9675
0.9532 0.1763 0.8510
1.0000 0.1573 0.5704
0.0811 0.8142 0.9658
0.1994 0.7458 0.9478
0.4449 0.6213 0.9805
0.8767 0.5245 0.9779
1.0000 0.4870 0.7304
0.0420 1.0000 0.9032
0.2046 1.0000 0.9589
0.5426 0.9864 0.9866
0.8265 0.8765 0.9867
1.0000 0.8250 0.8927
0.0336 1.0000 0.8393
0.1972 1.0000 0.8659
0.5266 1.0000 0.9238
0.8558 1.0000 0.9656
1.0000 1.0000 0.9848
