assets/luts/LUTs/JD_Hollywood.CUBE
TITLE "ColorFinale Export"
# Created by Jeven Dovey on 2021-07-15 17:41:51 +0000
# Color Finale Plugin v.2.3.2 (520)
LUT_3D_SIZE 17
0.0588 0.0588 0.0588
0.0615 0.0588 0.0584
0.0784 0.0596 0.0562
0.1065 0.0642 0.0543
0.1357 0.0726 0.0551
0.1651 0.0813 0.0576
0.1954 0.0904 0.0610
0.2280 0.0995 0.0642
0.2629 0.1085 0.0670
0.3008 0.1174 0.0694
0.3421 0.1263 0.0714
0.3863 0.1353 0.0731
0.4325 0.1446 0.0747
0.4794 0.1543 0.0766
0.5259 0.1647 0.0792
0.5708 0.1761 0.0826
0.6130 0.1884 0.0872
0.0604 0.0632 0.0622
0.0691 0.0612 0.0578
0.0876 0.0603 0.0543
0.1130 0.0657 0.0533
0.1408 0.0739 0.0542
0.1693 0.0823 0.0569
0.1993 0.0912 0.0604
0.2314 0.1002 0.0637
0.2662 0.1091 0.0665
0.3040 0.1180 0.0690
0.3451 0.1268 0.0710
0.3892 0.1357 0.0727
0.4352 0.1450 0.0744
0.4818 0.1547 0.0763
0.5282 0.1653 0.0790
0.5727 0.1765 0.0824
0.6147 0.1889 0.0872
0.0699 0.0876 0.0831
0.0828 0.0889 0.0763
0.1107 0.0782 0.0561
0.1394 0.0742 0.0486
0.1632 0.0797 0.0497
0.1889 0.0872 0.0531
0.2172 0.0954 0.0572
0.2480 0.1037 0.0608
0.2819 0.1122 0.0640
0.3192 0.1208 0.0666
0.3599 0.1293 0.0688
0.4032 0.1382 0.0707
0.4482 0.1473 0.0726
0.4937 0.1571 0.0749
0.5387 0.1675 0.0779
0.5821 0.1789 0.0817
0.6226 0.1914 0.0868
0.0922 0.1256 0.1171
0.0996 0.1281 0.1137
0.1339 0.1202 0.0908
0.1681 0.1061 0.0588
0.2014 0.0972 0.0468
0.2272 0.0991 0.0453
0.2544 0.1048 0.0491
0.2841 0.1117 0.0534
0.3172 0.1192 0.0574
0.3537 0.1270 0.0605
0.3931 0.1352 0.0634
0.4346 0.1437 0.0660
0.4773 0.1528 0.0686
0.5202 0.1626 0.0718
0.5623 0.1732 0.0755
0.6025 0.1848 0.0802
0.6398 0.1975 0.0862
0.1140 0.1638 0.1509
0.1197 0.1656 0.1487
0.1505 0.1667 0.1318
0.1916 0.1472 0.0881
0.2268 0.1347 0.0661
0.2667 0.1225 0.0508
0.2974 0.1209 0.0440
0.3288 0.1242 0.0450
0.3624 0.1296 0.0486
0.3983 0.1364 0.0523
0.4359 0.1439 0.0560
0.4749 0.1521 0.0597
0.5146 0.1611 0.0635
0.5538 0.1709 0.0678
0.5920 0.1817 0.0727
0.6280 0.1935 0.0788
0.6608 0.2066 0.0860
0.1352 0.2033 0.1853
0.1400 0.2047 0.1834
0.1609 0.2134 0.1679
0.2163 0.1930 0.1380
0.2501 0.1775 0.0961
0.2900 0.1642 0.0753
0.3388 0.1493 0.0583
0.3748 0.1449 0.0462
0.4101 0.1459 0.0436
0.4458 0.1502 0.0455
0.4820 0.1564 0.0492
0.5183 0.1639 0.0537
0.5545 0.1726 0.0587
0.5897 0.1824 0.0643
0.6233 0.1933 0.0707
0.6544 0.2054 0.0782
0.6827 0.2187 0.0868
0.1562 0.2460 0.2218
0.1605 0.2472 0.2201
0.1802 0.2540 0.2087
0.2380 0.2426 0.1810
0.2793 0.2237 0.1405
0.3137 0.2103 0.1074
0.3600 0.1956 0.0857
0.4167 0.1784 0.0671
0.4558 0.1720 0.0525
0.4917 0.1715 0.0469
0.5265 0.1749 0.0474
0.5603 0.1809 0.0510
0.5929 0.1887 0.0564
0.6239 0.1981 0.0630
0.6526 0.2088 0.0707
0.6790 0.2210 0.0795
0.7035 0.2343 0.0893
0.1772 0.2930 0.2612
0.1812 0.2940 0.2595
0.1998 0.2997 0.2496
0.2507 0.3012 0.2212
0.3092 0.2753 0.1909
0.3474 0.2565 0.1435
0.3843 0.2459 0.1212
0.4352 0.2301 0.0988
0.4949 0.2114 0.0793
0.5339 0.2035 0.0639
0.5669 0.2021 0.0567
0.5976 0.2050 0.0562
0.6264 0.2110 0.0600
0.6529 0.2193 0.0664
0.6776 0.2294 0.0746
0.7006 0.2410 0.0841
0.7223 0.2540 0.0945
0.1987 0.3451 0.3040
0.2020 0.3463 0.3024
0.2197 0.3515 0.2932
0.2593 0.3671 0.2613
0.3372 0.3335 0.2382
0.3813 0.3144 0.2028
0.4201 0.2962 0.1586
0.4593 0.2859 0.1394
0.5103 0.2694 0.1171
0.5670 0.2498 0.0971
0.6034 0.2406 0.0821
0.6301 0.2388 0.0746
0.6541 0.2414 0.0738
0.6767 0.2473 0.0776
0.6981 0.2559 0.0846
0.7188 0.2663 0.0936
0.7388 0.2785 0.1040
0.2219 0.4027 0.3512
0.2249 0.4038 0.3496
0.2398 0.4097 0.3405
0.2791 0.4232 0.3114
0.3580 0.4030 0.2861
0.4188 0.3752 0.2574
0.4594 0.3569 0.2159
0.4949 0.3423 0.1828
0.5334 0.3315 0.1643
0.5801 0.3147 0.1426
0.6291 0.2947 0.1227
0.6595 0.2840 0.1085
0.6791 0.2818 0.1012
0.6976 0.2840 0.1000
0.7161 0.2897 0.1036
0.7351 0.2985 0.1111
0.7681 0.3356 0.1640
0.2459 0.4648 0.4029
0.2488 0.4659 0.4013
0.2631 0.4717 0.3926
0.3004 0.4848 0.3654
0.3705 0.4822 0.3320
0.4544 0.4443 0.3110
0.4999 0.4242 0.2804
0.5365 0.4036 0.2352
0.5675 0.3935 0.2148
0.6019 0.3828 0.1977
0.6404 0.3661 0.1772
0.6783 0.3462 0.1575
0.7039 0.3335 0.1433
0.7189 0.3308 0.1361
0.7376 0.3361 0.1408
0.7736 0.3730 0.1952
0.7996 0.4123 0.2487
0.2715 0.5296 0.4584
0.2742 0.5307 0.4569
0.2879 0.5361 0.4487
0.3216 0.5499 0.4230
0.3795 0.5665 0.3804
0.4829 0.5216 0.3656
0.5431 0.4923 0.3421
0.5795 0.4753 0.3074
0.6073 0.4560 0.2683
0.6335 0.4485 0.2548
0.6607 0.4381 0.2395
0.6890 0.4219 0.2204
0.7185 0.4023 0.2006
0.7454 0.3915 0.1914
0.7814 0.4228 0.2391
0.8083 0.4567 0.2877
0.8312 0.4930 0.3381
0.2991 0.5950 0.5164
0.3018 0.5960 0.5150
0.3150 0.6011 0.5074
0.3485 0.6136 0.4848
0.4010 0.6309 0.4420
0.5026 0.6045 0.4193
0.5834 0.5662 0.4008
0.6237 0.5459 0.3758
0.6519 0.5274 0.3401
0.6701 0.5123 0.3132
0.6897 0.5054 0.3021
0.7089 0.4953 0.2886
0.7299 0.4797 0.2704
0.7721 0.4793 0.2778
0.8189 0.5121 0.3379
0.8432 0.5429 0.3849
0.8642 0.5760 0.4341
0.3295 0.6588 0.5753
0.3321 0.6598 0.5741
0.3451 0.6646 0.5674
0.3782 0.6760 0.5478
0.4260 0.6938 0.5089
0.5125 0.6897 0.4711
0.6165 0.6441 0.4604
0.6687 0.6145 0.4421
0.6966 0.5987 0.4128
0.7119 0.5786 0.3789
0.7230 0.5686 0.3640
0.7364 0.5619 0.3547
0.7502 0.5521 0.3425
0.7952 0.5628 0.3584
0.8462 0.5963 0.4215
0.8781 0.6288 0.4866
0.8961 0.6584 0.5344
0.3635 0.7191 0.6341
0.3661 0.7200 0.6330
0.3787 0.7245 0.6272
0.4109 0.7348 0.6105
0.4554 0.7517 0.5773
0.5201 0.7689 0.5265
0.6404 0.7222 0.5188
0.7099 0.6864 0.5020
0.7406 0.6660 0.4812
0.7576 0.6490 0.4526
0.7592 0.6285 0.4247
0.7679 0.6226 0.4173
0.7783 0.6167 0.4101
0.8309 0.6437 0.4426
0.8756 0.6760 0.5037
0.9052 0.7071 0.5720
0.9240 0.7364 0.6335
0.4011 0.7736 0.6908
0.4036 0.7744 0.6899
0.4158 0.7785 0.6851
0.4462 0.7880 0.6712
0.4892 0.8026 0.6441
0.5454 0.8205 0.5967
0.6542 0.7964 0.5738
0.7431 0.7567 0.5624
0.7828 0.7286 0.5446
0.8005 0.7134 0.5203
0.8056 0.6946 0.4932
0.8010 0.6772 0.4750
0.8362 0.6946 0.4909
0.8777 0.7234 0.5352
0.9092 0.7518 0.5942
0.9313 0.7789 0.6581
0.9458 0.8042 0.7162
0.4420 0.8213 0.7440
0.4444 0.8220 0.7433
0.4560 0.8257 0.7395
0.4840 0.8345 0.7286
0.5431 0.8469 0.7136
0.6144 0.8608 0.6912
0.6925 0.8610 0.6660
0.7730 0.8249 0.6386
0.8201 0.7909 0.6020
0.8400 0.7708 0.5815
0.8536 0.7602 0.5646
0.8730 0.7620 0.5674
0.8977 0.7767 0.5930
0.9226 0.8003 0.6430
0.9413 0.8228 0.6970
0.9547 0.8442 0.7497
0.9643 0.8644 0.7975
0.0588 0.0590 0.0594
0.0588 0.0597 0.0626
0.0762 0.0619 0.0620
0.1062 0.0656 0.0588
0.1354 0.0740 0.0598
0.1650 0.0827 0.0619
0.1957 0.0916 0.0648
0.2281 0.1004 0.0673
0.2630 0.1093 0.0697
0.3010 0.1181 0.0719
0.3423 0.1269 0.0736
0.3866 0.1359 0.0750
0.4328 0.1451 0.0765
0.4797 0.1547 0.0782
0.5263 0.1651 0.0807
0.5713 0.1764 0.0840
0.6135 0.1887 0.0885
0.0583 0.0629 0.0648
0.0642 0.0645 0.0648
0.0833 0.0648 0.0611
0.1106 0.0698 0.0597
0.1389 0.0772 0.0605
0.1679 0.0853 0.0626
0.1982 0.0938 0.0653
0.2304 0.1024 0.0679
0.2652 0.1110 0.0703
0.3030 0.1197 0.0723
0.3442 0.1284 0.0741
0.3884 0.1372 0.0754
0.4345 0.1464 0.0769
0.4813 0.1560 0.0787
0.5277 0.1664 0.0811
0.5724 0.1776 0.0844
0.6145 0.1899 0.0890
0.0610 0.0864 0.0870
0.0745 0.0893 0.0854
0.1077 0.0825 0.0655
0.1363 0.0789 0.0573
0.1613 0.0837 0.0576
0.1874 0.0905 0.0600
0.2157 0.0981 0.0629
0.2468 0.1060 0.0655
0.2808 0.1141 0.0679
0.3181 0.1225 0.0702
0.3589 0.1310 0.0720
0.4022 0.1396 0.0735
0.4474 0.1487 0.0753
0.4930 0.1583 0.0773
0.5382 0.1687 0.0800
0.5816 0.1801 0.0838
0.6224 0.1925 0.0887
0.0850 0.1244 0.1199
0.0952 0.1265 0.1185
0.1317 0.1228 0.0973
0.1664 0.1097 0.0685
0.1995 0.1012 0.0558
0.2257 0.1028 0.0539
0.2530 0.1078 0.0561
0.2829 0.1143 0.0591
0.3160 0.1214 0.0621
0.3527 0.1290 0.0646
0.3922 0.1369 0.0669
0.4338 0.1453 0.0690
0.4766 0.1543 0.0714
0.5196 0.1639 0.0742
0.5618 0.1744 0.0778
0.6022 0.1859 0.0823
0.6397 0.1986 0.0881
0.1085 0.1629 0.1532
0.1164 0.1645 0.1520
0.1456 0.1700 0.1362
0.1906 0.1494 0.0942
0.2258 0.1377 0.0745
0.2655 0.1258 0.0591
0.2963 0.1241 0.0520
0.3278 0.1270 0.0519
0.3615 0.1321 0.0542
0.3974 0.1385 0.0569
0.4352 0.1457 0.0599
0.4743 0.1537 0.0630
0.5140 0.1626 0.0665
0.5534 0.1723 0.0704
0.5916 0.1829 0.0751
0.6279 0.1947 0.0809
0.6609 0.2077 0.0880
0.1306 0.2027 0.1876
0.1372 0.2039 0.1863
0.1589 0.2120 0.1732
0.2150 0.1946 0.1420
0.2494 0.1794 0.1012
0.2892 0.1667 0.0820
0.3378 0.1519 0.0646
0.3742 0.1476 0.0531
0.4096 0.1485 0.0499
0.4453 0.1524 0.0508
0.4815 0.1583 0.0536
0.5179 0.1657 0.0574
0.5542 0.1742 0.0619
0.5895 0.1838 0.0671
0.6232 0.1946 0.0732
0.6544 0.2066 0.0804
0.6829 0.2198 0.0888
0.1522 0.2455 0.2240
0.1580 0.2466 0.2227
0.1781 0.2530 0.2124
0.2352 0.2447 0.1841
0.2784 0.2253 0.1446
0.3131 0.2119 0.1118
0.3595 0.1977 0.0912
0.4162 0.1806 0.0722
0.4556 0.1743 0.0580
0.4917 0.1737 0.0522
0.5265 0.1769 0.0520
0.5604 0.1826 0.0550
0.5931 0.1903 0.0598
0.6241 0.1995 0.0660
0.6529 0.2102 0.0734
0.6794 0.2222 0.0819
0.7039 0.2355 0.0914
0.1734 0.2926 0.2633
0.1788 0.2935 0.2620
0.1976 0.2990 0.2527
0.2465 0.3037 0.2235
0.3081 0.2765 0.1936
0.3467 0.2581 0.1472
0.3840 0.2475 0.1249
0.4350 0.2320 0.1033
0.4948 0.2131 0.0835
0.5342 0.2055 0.0684
0.5674 0.2040 0.0611
0.5983 0.2068 0.0603
0.6271 0.2126 0.0635
0.6537 0.2207 0.0695
0.6783 0.2307 0.0774
0.7012 0.2423 0.0865
0.7230 0.2552 0.0968
0.1957 0.3446 0.3061
0.2001 0.3457 0.3048
0.2175 0.3508 0.2960
0.2558 0.3666 0.2635
0.3353 0.3352 0.2406
0.3805 0.3156 0.2055
0.4198 0.2974 0.1614
0.4592 0.2873 0.1425
0.5105 0.2710 0.1208
0.5674 0.2514 0.1005
0.6040 0.2423 0.0857
0.6311 0.2404 0.0782
0.6553 0.2430 0.0772
0.6779 0.2488 0.0807
0.6993 0.2572 0.0874
0.7198 0.2676 0.0961
0.7398 0.2798 0.1063
0.2190 0.4022 0.3532
0.2231 0.4032 0.3519
0.2381 0.4089 0.3432
0.2772 0.4224 0.3150
0.3549 0.4051 0.2880
0.4180 0.3763 0.2595
0.4589 0.3582 0.2186
0.4949 0.3434 0.1852
0.5336 0.3328 0.1669
0.5807 0.3161 0.1456
0.6299 0.2960 0.1255
0.6604 0.2854 0.1114
0.6805 0.2833 0.1042
0.6991 0.2855 0.1029
0.7175 0.2911 0.1063
0.7362 0.2997 0.1133
0.7686 0.3364 0.1653
0.2432 0.4643 0.4049
0.2472 0.4653 0.4036
0.2615 0.4709 0.3952
0.2982 0.4842 0.3687
0.3663 0.4848 0.3333
0.4529 0.4457 0.3129
0.4993 0.4252 0.2823
0.5364 0.4047 0.2374
0.5677 0.3946 0.2167
0.6024 0.3839 0.1998
0.6413 0.3674 0.1796
0.6793 0.3474 0.1598
0.7050 0.3349 0.1457
0.7203 0.3322 0.1385
0.7388 0.3374 0.1429
0.7739 0.3738 0.1964
0.7998 0.4129 0.2497
0.2688 0.5290 0.4603
0.2727 0.5300 0.4591
0.2864 0.5353 0.4511
0.3199 0.5491 0.4263
0.3756 0.5664 0.3818
0.4805 0.5234 0.3672
0.5425 0.4932 0.3439
0.5793 0.4763 0.3092
0.6075 0.4569 0.2698
0.6340 0.4495 0.2564
0.6615 0.4391 0.2412
0.6902 0.4231 0.2223
0.7198 0.4035 0.2024
0.7463 0.3926 0.1931
0.7818 0.4236 0.2403
0.8085 0.4575 0.2888
0.8314 0.4936 0.3390
0.2966 0.5944 0.5182
0.3003 0.5954 0.5170
0.3135 0.6004 0.5097
0.3468 0.6129 0.4877
0.3991 0.6302 0.4455
0.4993 0.6066 0.4206
0.5823 0.5675 0.4022
0.6234 0.5468 0.3773
0.6520 0.5283 0.3416
0.6705 0.5131 0.3144
0.6904 0.5063 0.3034
0.7098 0.4962 0.2899
0.7312 0.4808 0.2719
0.7728 0.4802 0.2791
0.8191 0.5127 0.3389
0.8434 0.5435 0.3858
0.8643 0.5765 0.4350
0.3271 0.6582 0.5770
0.3307 0.6591 0.5760
0.3437 0.6640 0.5695
0.3765 0.6753 0.5503
0.4239 0.6933 0.5120
0.5081 0.6921 0.4720
0.6148 0.6456 0.4617
0.6684 0.6154 0.4435
0.6966 0.5996 0.4142
0.7124 0.5796 0.3802
0.7236 0.5694 0.3649
0.7373 0.5627 0.3556
0.7512 0.5530 0.3435
0.7959 0.5636 0.3596
0.8465 0.5968 0.4224
0.8781 0.6293 0.4874
0.8961 0.6587 0.5351
0.3611 0.7186 0.6355
0.3648 0.7195 0.6346
0.3774 0.7239 0.6290
0.4093 0.7343 0.6126
0.4540 0.7509 0.5802
0.5160 0.7689 0.5274
0.6379 0.7238 0.5199
0.7092 0.6875 0.5031
0.7405 0.6667 0.4823
0.7579 0.6498 0.4537
0.7599 0.6293 0.4256
0.7686 0.6233 0.4181
0.7793 0.6175 0.4109
0.8315 0.6444 0.4436
0.8759 0.6766 0.5049
0.9053 0.7075 0.5729
0.9240 0.7367 0.6341
0.3988 0.7731 0.6920
0.4023 0.7739 0.6913
0.4145 0.7779 0.6867
0.4447 0.7875 0.6731
0.4878 0.8019 0.6466
0.5436 0.8200 0.5996
0.6511 0.7982 0.5747
0.7419 0.7578 0.5635
0.7827 0.7294 0.5454
0.8007 0.7141 0.5213
0.8061 0.6954 0.4941
0.8017 0.6778 0.4755
0.8369 0.6954 0.4918
0.8781 0.7240 0.5362
0.9093 0.7522 0.5951
0.9313 0.7793 0.6589
0.9458 0.8044 0.7167
0.4397 0.8208 0.7450
0.4431 0.8216 0.7445
0.4548 0.8252 0.7408
0.4826 0.8341 0.7301
0.5412 0.8463 0.7153
0.6126 0.8605 0.6931
0.6904 0.8623 0.6675
0.7719 0.8262 0.6409
0.8197 0.7918 0.6030
0.8401 0.7714 0.5824
0.8540 0.7609 0.5657
0.8735 0.7628 0.5687
0.8980 0.7772 0.5940
0.9228 0.8007 0.6439
0.9413 0.8232 0.6978
0.9547 0.8445 0.7503
0.9642 0.8646 0.7979
0.0585 0.0605 0.0628
0.0584 0.0615 0.0659
0.0584 0.0660 0.0838
0.0996 0.0799 0.0932
0.1317 0.0847 0.0873
0.1651 0.0881 0.0807
0.1962 0.0960 0.0805
0.2289 0.1044 0.0814
0.2640 0.1127 0.0823
0.3020 0.1212 0.0832
0.3435 0.1298 0.0838
0.3879 0.1384 0.0843
0.4344 0.1474 0.0849
0.4814 0.1568 0.0859
0.5282 0.1670 0.0877
0.5733 0.1781 0.0905
0.6158 0.1903 0.0945
0.0582 0.0646 0.0711
0.0593 0.0660 0.0731
0.0635 0.0717 0.0871
0.1045 0.0828 0.0930
0.1362 0.0863 0.0860
0.1680 0.0905 0.0809
0.1986 0.0983 0.0811
0.2310 0.1064 0.0818
0.2660 0.1146 0.0827
0.3040 0.1229 0.0836
0.3453 0.1313 0.0842
0.3897 0.1398 0.0847
0.4359 0.1487 0.0853
0.4829 0.1581 0.0864
0.5295 0.1682 0.0882
0.5744 0.1793 0.0910
0.6167 0.1915 0.0951
0.0561 0.0867 0.0950
0.0608 0.0882 0.0953
0.0934 0.0959 0.0970
0.1243 0.0956 0.0896
0.1517 0.0983 0.0860
0.1801 0.1029 0.0843
0.2096 0.1090 0.0841
0.2413 0.1158 0.0845
0.2757 0.1230 0.0851
0.3133 0.1305 0.0857
0.3543 0.1383 0.0861
0.3982 0.1464 0.0865
0.4438 0.1550 0.0872
0.4901 0.1642 0.0883
0.5357 0.1742 0.0902
0.5799 0.1852 0.0932
0.6213 0.1973 0.0974
0.0561 0.1216 0.1274
0.0654 0.1232 0.1280
0.1094 0.1313 0.1251
0.1584 0.1216 0.0985
0.1905 0.1159 0.0876
0.2175 0.1168 0.0837
0.2459 0.1203 0.0820
0.2765 0.1253 0.0816
0.3101 0.1313 0.0817
0.3471 0.1378 0.0820
0.3872 0.1449 0.0824
0.4294 0.1526 0.0831
0.4729 0.1609 0.0842
0.5166 0.1701 0.0859
0.5596 0.1802 0.0885
0.6007 0.1913 0.0922
0.6389 0.2037 0.0973
0.0798 0.1600 0.1618
0.0891 0.1613 0.1614
0.1274 0.1681 0.1572
0.1835 0.1593 0.1216
0.2199 0.1486 0.1024
0.2583 0.1385 0.0876
0.2895 0.1370 0.0807
0.3214 0.1388 0.0777
0.3556 0.1427 0.0766
0.3921 0.1480 0.0765
0.4305 0.1542 0.0772
0.4704 0.1615 0.0783
0.5108 0.1696 0.0801
0.5510 0.1787 0.0828
0.5901 0.1889 0.0863
0.6270 0.2002 0.0912
0.6607 0.2128 0.0973
0.1071 0.2002 0.1962
0.1145 0.2014 0.1956
0.1464 0.2070 0.1908
0.2053 0.2036 0.1598
0.2452 0.1873 0.1222
0.2846 0.1765 0.1071
0.3319 0.1628 0.0892
0.3688 0.1590 0.0790
0.4050 0.1592 0.0739
0.4413 0.1622 0.0721
0.4781 0.1672 0.0723
0.5153 0.1737 0.0739
0.5522 0.1814 0.0765
0.5883 0.1904 0.0801
0.6227 0.2007 0.0850
0.6546 0.2123 0.0911
0.6836 0.2252 0.0985
0.1322 0.2434 0.2328
0.1380 0.2445 0.2321
0.1661 0.2493 0.2267
0.2179 0.2564 0.1985
0.2733 0.2325 0.1623
0.3100 0.2193 0.1303
0.3559 0.2066 0.1133
0.4121 0.1899 0.0931
0.4525 0.1842 0.0803
0.4896 0.1833 0.0737
0.5253 0.1858 0.0716
0.5597 0.1908 0.0724
0.5929 0.1978 0.0752
0.6245 0.2064 0.0797
0.6538 0.2165 0.0856
0.6807 0.2281 0.0929
0.7056 0.2411 0.1015
0.1565 0.2903 0.2721
0.1616 0.2913 0.2712
0.1862 0.2959 0.2657
0.2279 0.3115 0.2364
0.3021 0.2830 0.2064
0.3432 0.2650 0.1641
0.3816 0.2542 0.1413
0.4330 0.2399 0.1224
0.4930 0.2211 0.1012
0.5334 0.2141 0.0872
0.5682 0.2125 0.0798
0.5999 0.2148 0.0776
0.6293 0.2201 0.0792
0.6562 0.2277 0.0836
0.6810 0.2373 0.0900
0.7040 0.2483 0.0979
0.7257 0.2610 0.1072
0.1806 0.3421 0.3149
0.1852 0.3431 0.3140
0.2068 0.3480 0.3084
0.2476 0.3615 0.2829
0.3237 0.3443 0.2522
0.3765 0.3213 0.2180
0.4178 0.3033 0.1745
0.4581 0.2936 0.1567
0.5103 0.2782 0.1369
0.5679 0.2584 0.1156
0.6056 0.2498 0.1013
0.6344 0.2481 0.0941
0.6595 0.2504 0.0923
0.6824 0.2559 0.0947
0.7037 0.2639 0.1001
0.7240 0.2740 0.1077
0.7437 0.2857 0.1169
0.2050 0.3998 0.3623
0.2092 0.4007 0.3613
0.2295 0.4054 0.3554
0.2676 0.4185 0.3315
0.3377 0.4164 0.2968
0.4132 0.3820 0.2696
0.4561 0.3640 0.2309
0.4942 0.3487 0.1960
0.5340 0.3386 0.1790
0.5824 0.3226 0.1592
0.6325 0.3023 0.1382
0.6640 0.2922 0.1244
0.6854 0.2903 0.1175
0.7048 0.2924 0.1160
0.7233 0.2979 0.1187
0.7417 0.3061 0.1247
0.7704 0.3401 0.1714
0.2299 0.4618 0.4140
0.2340 0.4627 0.4129
0.2532 0.4674 0.4070
0.2874 0.4814 0.3839
0.3472 0.4967 0.3426
0.4440 0.4536 0.3219
0.4964 0.4301 0.2917
0.5355 0.4103 0.2482
0.5683 0.3995 0.2259
0.6043 0.3893 0.2098
0.6448 0.3734 0.1907
0.6836 0.3533 0.1705
0.7097 0.3412 0.1566
0.7261 0.3388 0.1499
0.7439 0.3429 0.1524
0.7758 0.3775 0.2024
0.8009 0.4163 0.2549
0.2561 0.5265 0.4691
0.2600 0.5274 0.4681
0.2785 0.5320 0.4623
0.3115 0.5452 0.4410
0.3654 0.5630 0.3981
0.4673 0.5328 0.3749
0.5389 0.4984 0.3512
0.5778 0.4811 0.3179
0.6083 0.4613 0.2774
0.6359 0.4540 0.2639
0.6648 0.4440 0.2493
0.6951 0.4285 0.2313
0.7250 0.4089 0.2114
0.7505 0.3977 0.2011
0.7834 0.4272 0.2458
0.8095 0.4606 0.2937
0.8320 0.4964 0.3435
0.2843 0.5918 0.5263
0.2881 0.5927 0.5254
0.3061 0.5972 0.5200
0.3385 0.6094 0.5009
0.3890 0.6273 0.4617
0.4812 0.6174 0.4264
0.5760 0.5742 0.4092
0.6218 0.5509 0.3845
0.6523 0.5329 0.3493
0.6725 0.5171 0.3202
0.6935 0.5104 0.3094
0.7142 0.5008 0.2963
0.7368 0.4859 0.2791
0.7760 0.4841 0.2851
0.8202 0.5157 0.3436
0.8440 0.5462 0.3901
0.8647 0.5789 0.4389
0.3152 0.6556 0.5844
0.3189 0.6565 0.5836
0.3365 0.6608 0.5788
0.3684 0.6722 0.5619
0.4151 0.6899 0.5273
0.4892 0.7030 0.4795
0.6053 0.6532 0.4682
0.6661 0.6201 0.4480
0.6965 0.6035 0.4206
0.7145 0.5840 0.3866
0.7265 0.5730 0.3695
0.7411 0.5666 0.3603
0.7562 0.5573 0.3484
0.7992 0.5675 0.3653
0.8478 0.5998 0.4275
0.8785 0.6315 0.4912
0.8962 0.6607 0.5384
0.3496 0.7160 0.6420
0.3532 0.7168 0.6413
0.3705 0.7210 0.6373
0.4015 0.7315 0.6228
0.4469 0.7472 0.5938
0.5076 0.7663 0.5430
0.6249 0.7322 0.5251
0.7052 0.6931 0.5089
0.7401 0.6702 0.4879
0.7592 0.6536 0.4592
0.7632 0.6333 0.4300
0.7721 0.6267 0.4215
0.7837 0.6213 0.4144
0.8341 0.6478 0.4486
0.8770 0.6793 0.5100
0.9056 0.7096 0.5768
0.9240 0.7383 0.6371
0.3877 0.7705 0.6975
0.3911 0.7713 0.6969
0.4079 0.7752 0.6937
0.4373 0.7849 0.6817
0.4809 0.7988 0.6579
0.5348 0.8179 0.6135
0.6344 0.8069 0.5785
0.7356 0.7637 0.5689
0.7818 0.7335 0.5495
0.8015 0.7175 0.5263
0.8086 0.6991 0.4986
0.8050 0.6810 0.4782
0.8399 0.6987 0.4959
0.8797 0.7268 0.5411
0.9099 0.7545 0.5998
0.9313 0.7810 0.6626
0.9456 0.8057 0.7193
0.4291 0.8184 0.7494
0.4324 0.8191 0.7489
0.4486 0.8228 0.7466
0.4763 0.8316 0.7372
0.5325 0.8439 0.7233
0.6043 0.8590 0.7024
0.6819 0.8683 0.6767
0.7663 0.8324 0.6515
0.8175 0.7962 0.6081
0.8403 0.7743 0.5869
0.8559 0.7647 0.5713
0.8759 0.7667 0.5749
0.8992 0.7798 0.5987
0.9232 0.8028 0.6484
0.9413 0.8248 0.7015
0.9544 0.8457 0.7531
0.9639 0.8656 0.8000
0.0579 0.0651 0.0735
0.0578 0.0665 0.0763
0.0578 0.0724 0.0887
0.0603 0.0832 0.1170
0.1095 0.0994 0.1369
0.1515 0.1119 0.1346
0.1852 0.1168 0.1285
0.2233 0.1196 0.1211
0.2634 0.1223 0.1124
0.3043 0.1276 0.1071
0.3460 0.1356 0.1058
0.3908 0.1438 0.1047
0.4376 0.1523 0.1038
0.4851 0.1614 0.1034
0.5324 0.1712 0.1039
0.5779 0.1819 0.1055
0.6207 0.1939 0.1086
0.0577 0.0701 0.0811
0.0583 0.0713 0.0826
0.0593 0.0771 0.0940
0.0659 0.0875 0.1199
0.1147 0.1028 0.1384
0.1548 0.1137 0.1347
0.1886 0.1180 0.1280
0.2266 0.1204 0.1199
0.2662 0.1232 0.1113
0.3061 0.1293 0.1075
0.3478 0.1372 0.1063
0.3925 0.1452 0.1050
0.4392 0.1537 0.1041
0.4866 0.1626 0.1038
0.5337 0.1725 0.1043
0.5790 0.1832 0.1060
