assets/luts/LUTs/JD_Hollywood.CUBE
TITLE "ColorFinale Export"
# Created by Jeven Dovey on 2021-07-15 17:41:51 +0000
# Color Finale Plugin v.2.3.2 (520)
LUT_3D_SIZE 9
0.0588 0.0588 0.0588
0.0784 0.0596 0.0562
0.1357 0.0726 0.0551
0.1954 0.0904 0.0610
0.2629 0.1085 0.0670
0.3421 0.1263 0.0714
0.4325 0.1446 0.0747
0.5259 0.1647 0.0792
0.6130 0.1884 0.0872
0.0699 0.0876 0.0831
0.1107 0.0782 0.0561
0.1632 0.0797 0.0497
0.2172 0.0954 0.0572
0.2819 0.1122 0.0640
0.3599 0.1293 0.0688
0.4482 0.1473 0.0726
0.5387 0.1675 0.0779
0.6226 0.1914 0.0868
0.1140 0.1638 0.1509
0.1505 0.1667 0.1318
0.2268 0.1347 0.0661
0.2974 0.1209 0.0440
0.3624 0.1296 0.0486
0.4359 0.1439 0.0560
0.5146 0.1611 0.0635
0.5920 0.1817 0.0727
0.6608 0.2066 0.0860
0.1562 0.2460 0.2218
0.1802 0.2540 0.2087
0.2793 0.2237 0.1405
0.3600 0.1956 0.0857
0.4558 0.1720 0.0525
0.5265 0.1749 0.0474
0.5929 0.1887 0.0564
0.6526 0.2088 0.0707
0.7035 0.2343 0.0893
0.1987 0.3451 0.3040
0.2197 0.3515 0.2932
0.3372 0.3335 0.2382
0.4201 0.2962 0.1586
0.5103 0.2694 0.1171
0.6034 0.2406 0.0821
0.6541 0.2414 0.0738
0.6981 0.2559 0.0846
0.7388 0.2785 0.1040
0.2459 0.4648 0.4029
0.2631 0.4717 0.3926
0.3705 0.4822 0.3320
0.4999 0.4242 0.2804
0.5675 0.3935 0.2148
0.6404 0.3661 0.1772
0.7039 0.3335 0.1433
0.7376 0.3361 0.1408
0.7996 0.4123 0.2487
0.2991 0.5950 0.5164
0.3150 0.6011 0.5074
0.4010 0.6309 0.4420
0.5834 0.5662 0.4008
0.6519 0.5274 0.3401
0.6897 0.5054 0.3021
0.7299 0.4797 0.2704
0.8189 0.5121 0.3379
0.8642 0.5760 0.4341
0.3635 0.7191 0.6341
0.3787 0.7245 0.6272
0.4554 0.7517 0.5773
0.6404 0.7222 0.5188
0.7406 0.6660 0.4812
0.7592 0.6285 0.4247
0.7783 0.6167 0.4101
0.8756 0.6760 0.5037
0.9240 0.7364 0.6335
0.4420 0.8213 0.7440
0.4560 0.8257 0.7395
0.5431 0.8469 0.7136
0.6925 0.8610 0.6660
0.8201 0.7909 0.6020
0.8536 0.7602 0.5646
0.8977 0.7767 0.5930
0.9413 0.8228 0.6970
0.9643 0.8644 0.7975
0.0585 0.0605 0.0628
0.0584 0.0660 0.0838
0.1317 0.0847 0.0873
0.1962 0.0960 0.0805
0.2640 0.1127 0.0823
0.3435 0.1298 0.0838
0.4344 0.1474 0.0849
0.5282 0.1670 0.0877
0.6158 0.1903 0.0945
0.0561 0.0867 0.0950
0.0934 0.0959 0.0970
0.1517 0.0983 0.0860
0.2096 0.1090 0.0841
0.2757 0.1230 0.0851
0.3543 0.1383 0.0861
0.4438 0.1550 0.0872
0.5357 0.1742 0.0902
0.6213 0.1973 0.0974
0.0798 0.1600 0.1618
0.1274 0.1681 0.1572
0.2199 0.1486 0.1024
0.2895 0.1370 0.0807
0.3556 0.1427 0.0766
0.4305 0.1542 0.0772
0.5108 0.1696 0.0801
0.5901 0.1889 0.0863
0.6607 0.2128 0.0973
0.1322 0.2434 0.2328
0.1661 0.2493 0.2267
0.2733 0.2325 0.1623
0.3559 0.2066 0.1133
0.4525 0.1842 0.0803
0.5253 0.1858 0.0716
0.5929 0.1978 0.0752
0.6538 0.2165 0.0856
0.7056 0.2411 0.1015
0.1806 0.3421 0.3149
0.2068 0.3480 0.3084
0.3237 0.3443 0.2522
0.4178 0.3033 0.1745
0.5103 0.2782 0.1369
0.6056 0.2498 0.1013
0.6595 0.2504 0.0923
0.7037 0.2639 0.1001
0.7437 0.2857 0.1169
0.2299 0.4618 0.4140
0.2532 0.4674 0.4070
0.3472 0.4967 0.3426
0.4964 0.4301 0.2917
0.5683 0.3995 0.2259
0.6448 0.3734 0.1907
0.7097 0.3412 0.1566
0.7439 0.3429 0.1524
0.8009 0.4163 0.2549
0.2843 0.5918 0.5263
0.3061 0.5972 0.5200
0.3890 0.6273 0.4617
0.5760 0.5742 0.4092
0.6523 0.5329 0.3493
0.6935 0.5104 0.3094
0.7368 0.4859 0.2791
0.8202 0.5157 0.3436
0.8647 0.5789 0.4389
0.3496 0.7160 0.6420
0.3705 0.7210 0.6373
0.4469 0.7472 0.5938
0.6249 0.7322 0.5251
0.7401 0.6702 0.4879
0.7632 0.6333 0.4300
0.7837 0.6213 0.4144
0.8770 0.6793 0.5100
0.9240 0.7383 0.6371
0.4291 0.8184 0.7494
0.4486 0.8228 0.7466
0.5325 0.8439 0.7233
0.6819 0.8683 0.6767
0.8175 0.7962 0.6081
0.8559 0.7647 0.5713
0.8992 0.7798 0.5987
0.9413 0.8248 0.7015
0.9639 0.8656 0.8000
0.0573 0.0729 0.0862
0.0574 0.0795 0.0982
0.0658 0.1013 0.1521
0.1705 0.1345 0.1805
0.2457 0.1481 0.1690
0.3375 0.1531 0.1502
0.4422 0.1583 0.1291
0.5379 0.1765 0.1261
0.6273 0.1986 0.1281
0.0573 0.0942 0.1148
0.0679 0.1004 0.1214
0.0925 0.1197 0.1633
0.1902 0.1461 0.1867
0.2627 0.1531 0.1657
0.3544 0.1561 0.1439
0.4510 0.1665 0.1311
0.5451 0.1840 0.1284
0.6326 0.2058 0.1309
0.0549 0.1588 0.1831
0.0824 0.1652 0.1863
0.1808 0.1860 0.1889
0.2501 0.1834 0.1704
0.3200 0.1860 0.1581
0.4008 0.1929 0.1490
0.4887 0.2039 0.1430
0.5765 0.2194 0.1413
0.6560 0.2402 0.1455
0.0602 0.2357 0.2562
0.0909 0.2416 0.2591
0.2110 0.2640 0.2491
0.3327 0.2397 0.1876
0.4209 0.2266 0.1626
0.5013 0.2271 0.1501
0.5788 0.2348 0.1439
0.6494 0.2495 0.1447
0.7084 0.2707 0.1529
0.0909 0.3312 0.3498
0.1237 0.3370 0.3485
0.2462 0.3608 0.3286
0.3979 0.3352 0.2453
0.4974 0.3102 0.2051
0.5969 0.2865 0.1697
0.6623 0.2868 0.1591
0.7133 0.2981 0.1603
0.7559 0.3175 0.1703
0.1532 0.4508 0.4513
0.1775 0.4555 0.4491
0.2885 0.4795 0.4262
0.4680 0.4629 0.3436
0.5651 0.4247 0.2743
0.6511 0.4024 0.2451
0.7223 0.3734 0.2103
0.7614 0.3741 0.2030
0.8061 0.4350 0.2842
0.2147 0.5798 0.5616
0.2367 0.5844 0.5591
0.3401 0.6077 0.5375
0.5075 0.6243 0.4504
0.6485 0.5580 0.3933
0.7047 0.5326 0.3437
0.7579 0.5117 0.3184
0.8252 0.5326 0.3702
0.8666 0.5926 0.4615
0.2837 0.7032 0.6704
0.3046 0.7075 0.6685
0.4039 0.7298 0.6523
0.5330 0.7720 0.5650
0.7332 0.6929 0.5198
0.7774 0.6559 0.4594
0.8039 0.6416 0.4375
0.8819 0.6945 0.5389
0.9233 0.7467 0.6524
0.3668 0.8059 0.7681
0.3869 0.8099 0.7674
0.4806 0.8298 0.7587
0.6424 0.8614 0.7276
0.8013 0.8299 0.6677
0.8622 0.7842 0.6034
0.9044 0.7937 0.6259
0.9409 0.8336 0.7221
0.9621 0.8710 0.8115
0.0569 0.0900 0.1116
0.0571 0.0949 0.1206
0.0663 0.1151 0.1603
0.0798 0.1370 0.2239
0.1814 0.1688 0.2820
0.3019 0.2016 0.2754
0.4009 0.2115 0.2524
0.5194 0.2167 0.2279
0.6336 0.2224 0.2029
0.0575 0.1067 0.1353
0.0652 0.1118 0.1413
0.0776 0.1291 0.1767
0.0994 0.1505 0.2339
0.1991 0.1804 0.2847
0.3141 0.2081 0.2752
0.4156 0.2155 0.2499
0.5329 0.2197 0.2239
0.6434 0.2253 0.1986
0.0608 0.1636 0.2082
0.0769 0.1685 0.2119
0.1235 0.1859 0.2284
0.1698 0.2057 0.2663
0.2828 0.2290 0.2975
0.3755 0.2331 0.2622
0.4815 0.2331 0.2308
0.5873 0.2359 0.2037
0.6722 0.2535 0.1991
0.0621 0.2371 0.2835
0.0836 0.2423 0.2860
0.1454 0.2603 0.2928
0.2755 0.2855 0.2909
0.3663 0.2806 0.2651
0.4537 0.2799 0.2463
0.5437 0.2846 0.2324
0.6289 0.2956 0.2249
0.7021 0.3135 0.2255
0.0570 0.3290 0.3729
0.0821 0.3343 0.3755
0.1664 0.3526 0.3808
0.3102 0.3811 0.3622
0.4729 0.3468 0.2787
0.5660 0.3356 0.2555
0.6435 0.3376 0.2460
0.7088 0.3469 0.2419
0.7607 0.3639 0.2459
0.0755 0.4428 0.4836
0.0966 0.4472 0.4854
0.1830 0.4647 0.4879
0.3477 0.4988 0.4580
0.5439 0.4659 0.3569
0.6444 0.4401 0.3169
0.7239 0.4182 0.2836
0.7718 0.4213 0.2787
0.8118 0.4654 0.3329
0.1063 0.5656 0.5982
0.1315 0.5702 0.5982
0.2317 0.5894 0.5927
0.3978 0.6247 0.5662
0.6231 0.6007 0.4651
0.7094 0.5657 0.4017
0.7738 0.5470 0.3785
0.8305 0.5591 0.4128
0.8681 0.6142 0.4978
0.1831 0.6875 0.6980
0.2028 0.6912 0.6979
0.2977 0.7097 0.6960
0.4591 0.7439 0.6768
0.6711 0.7521 0.5817
0.7863 0.6913 0.5175
0.8250 0.6723 0.4823
0.8859 0.7166 0.5831
0.9216 0.7596 0.6753
0.2651 0.7885 0.7842
0.2851 0.7923 0.7851
0.3806 0.8104 0.7872
0.5758 0.8423 0.7862
0.7458 0.8759 0.7460
0.8613 0.8112 0.6542
0.9080 0.8160 0.6745
0.9390 0.8465 0.7525
0.9593 0.8790 0.8282
0.0576 0.1079 0.1391
0.0582 0.1121 0.1465
0.0647 0.1290 0.1789
0.0820 0.1517 0.2300
0.0945 0.1738 0.3061
0.1832 0.2053 0.3882
0.3487 0.2527 0.3912
0.4764 0.2730 0.3820
0.5996 0.2832 0.3539
0.0595 0.1218 0.1591
0.0657 0.1262 0.1646
0.0734 0.1414 0.1945
0.0923 0.1627 0.2430
0.1099 0.1848 0.3152
0.1978 0.2148 0.3961
0.3650 0.2603 0.3984
0.4893 0.2775 0.3815
0.6109 0.2872 0.3521
0.0714 0.1736 0.2296
0.0793 0.1772 0.2335
0.1119 0.1929 0.2510
0.1330 0.2101 0.2940
0.1714 0.2333 0.3492
0.2683 0.2602 0.4204
0.4366 0.2929 0.4184
0.5462 0.2994 0.3722
0.6598 0.3060 0.3404
0.0641 0.2402 0.3162
0.0792 0.2445 0.3192
0.1292 0.2612 0.3301
0.1833 0.2821 0.3527
0.2552 0.3066 0.3903
0.3962 0.3312 0.4331
0.5181 0.3342 0.3853
0.6258 0.3340 0.3445
0.7192 0.3381 0.3148
0.0687 0.3310 0.4081
0.0861 0.3355 0.4101
0.1450 0.3528 0.4164
0.2078 0.3761 0.4251
0.3894 0.4080 0.4178
0.5068 0.4022 0.3836
0.6013 0.4009 0.3615
0.6859 0.4071 0.3476
0.7611 0.4084 0.3250
0.0564 0.4421 0.5096
0.0773 0.4467 0.5121
0.1512 0.4640 0.5190
0.2523 0.4875 0.5243
0.4338 0.5240 0.5031
0.6252 0.4829 0.4007
0.7091 0.4726 0.3758
0.7694 0.4792 0.3755
0.8169 0.4993 0.3915
0.0692 0.5627 0.6181
0.0878 0.5666 0.6202
0.1618 0.5823 0.6273
0.2729 0.6054 0.6329
0.4788 0.6477 0.6061
0.6951 0.6134 0.4960
0.7796 0.5871 0.4541
0.8328 0.5940 0.4709
0.8694 0.6376 0.5384
0.0940 0.6759 0.7162
0.1105 0.6792 0.7182
0.1821 0.6934 0.7258
0.3230 0.7201 0.7282
0.5347 0.7630 0.7101
0.7697 0.7383 0.6026
0.8375 0.7129 0.5573
0.8860 0.7425 0.6365
0.9203 0.7733 0.6995
0.1364 0.7689 0.7959
0.1585 0.7729 0.7977
0.2534 0.7901 0.8042
0.3978 0.8169 0.8108
0.6663 0.8579 0.8159
0.8318 0.8655 0.7675
0.9044 0.8399 0.7285
0.9367 0.8591 0.7800
0.9573 0.8873 0.8443
0.0607 0.1270 0.1684
0.0615 0.1303 0.1744
0.0667 0.1449 0.2024
0.0792 0.1660 0.2472
0.0947 0.1894 0.3124
0.1099 0.2129 0.4011
0.1868 0.2485 0.4857
0.3728 0.3021 0.5198
0.5613 0.3434 0.5466
0.0631 0.1385 0.1853
0.0680 0.1423 0.1903
0.0735 0.1559 0.2170
0.0863 0.1758 0.2605
0.1040 0.1988 0.3239
0.1227 0.2226 0.4095
0.1998 0.2573 0.4932
0.3867 0.3104 0.5247
0.5714 0.3488 0.5479
0.0729 0.1853 0.2533
0.0792 0.1885 0.2572
0.1054 0.2031 0.2747
0.1190 0.2200 0.3146
0.1441 0.2414 0.3720
0.1773 0.2671 0.4436
0.2607 0.2988 0.5262
0.4560 0.3484 0.5475
0.6174 0.3742 0.5466
0.0780 0.2496 0.3437
0.0878 0.2532 0.3466
0.1245 0.2679 0.3595
0.1673 0.2883 0.3827
0.1969 0.3075 0.4375
0.2567 0.3374 0.4879
0.3653 0.3671 0.5698
0.5772 0.4053 0.5850
0.6893 0.4134 0.5298
0.0682 0.3330 0.4474
0.0816 0.3371 0.4499
0.1301 0.3533 0.4595
0.1877 0.3758 0.4735
0.2621 0.4021 0.4999
0.3633 0.4336 0.5364
0.5322 0.4621 0.5883
0.6713 0.4650 0.5394
0.7751 0.4570 0.4856
0.0759 0.4447 0.5464
0.0904 0.4486 0.5483
0.1448 0.4648 0.5550
0.2106 0.4873 0.5633
0.2991 0.5162 0.5735
0.5291 0.5551 0.5684
0.6575 0.5505 0.5321
0.7444 0.5492 0.5088
0.8237 0.5326 0.4615
0.0589 0.5625 0.6425
0.0765 0.5665 0.6448
0.1433 0.5822 0.6531
0.2339 0.6040 0.6625
0.3604 0.6326 0.6722
0.5794 0.6750 0.6570
0.7665 0.6388 0.5596
0.8273 0.6376 0.5473
0.8730 0.6581 0.5778
0.0667 0.6737 0.7302
0.0835 0.6772 0.7325
0.1520 0.6914 0.7414
0.2514 0.7120 0.7528
0.3953 0.7403 0.7655
0.6271 0.7860 0.7514
0.8280 0.7606 0.6589
0.8819 0.7690 0.6916
0.9218 0.7852 0.7209
0.0928 0.7634 0.8038
0.1081 0.7663 0.8059
0.1751 0.7793 0.8148
0.2797 0.7992 0.8276
0.4954 0.8353 0.8439
0.7318 0.8762 0.8433
0.8898 0.8625 0.7672
0.9352 0.8688 0.7956
0.9578 0.8942 0.8560
0.0648 0.1465 0.1991
0.0657 0.1494 0.2046
0.0698 0.1624 0.2298
0.0786 0.1817 0.2709
0.0966 0.2058 0.3283
0.1085 0.2301 0.4084
0.1279 0.2571 0.5002
0.1919 0.2975 0.5807
0.3921 0.3546 0.6532
0.0670 0.1567 0.2146
0.0711 0.1600 0.2190
0.0755 0.1723 0.2435
0.0844 0.1908 0.2838
0.1026 0.2143 0.3404
0.1170 0.2386 0.4185
0.1389 0.2661 0.5077
0.2036 0.3062 0.5874
0.4051 0.3633 0.6575
0.0756 0.1994 0.2799
0.0806 0.2024 0.2837
0.1024 0.2161 0.3012
0.1123 0.2323 0.3389
0.1307 0.2536 0.3925
0.1551 0.2786 0.4620
0.1882 0.3086 0.5398
0.2603 0.3476 0.6172
0.4677 0.4037 0.6770
0.0887 0.2618 0.3713
0.0943 0.2647 0.3745
0.1189 0.2776 0.3894
0.1554 0.2977 0.4127
0.1755 0.3175 0.4621
0.2108 0.3431 0.5226
0.2630 0.3770 0.5844
0.3549 0.4145 0.6615
0.5702 0.4664 0.7047
0.0828 0.3426 0.4791
0.0922 0.3460 0.4815
0.1297 0.3607 0.4922
0.1788 0.3823 0.5086
0.2324 0.4079 0.5362
0.2743 0.4310 0.5949
0.3639 0.4699 0.6361
0.4924 0.5043 0.7159
0.7193 0.5371 0.7481
0.0741 0.4462 0.5844
0.0861 0.4498 0.5866
0.1322 0.4651 0.5955
0.1909 0.4868 0.6078
0.2571 0.5136 0.6253
0.3878 0.5480 0.6480
0.5061 0.5837 0.6854
0.6764 0.6122 0.7406
0.8348 0.5955 0.7009
0.0844 0.5660 0.6743
0.0969 0.5694 0.6762
0.1474 0.5836 0.6835
0.2139 0.6042 0.6930
0.2885 0.6299 0.7049
0.4424 0.6658 0.7178
0.6767 0.7062 0.7207
0.7990 0.7011 0.6836
0.8707 0.6930 0.6518
0.0636 0.6743 0.7487
0.0789 0.6776 0.7510
0.1406 0.6913 0.7600
0.2264 0.7108 0.7718
0.3395 0.7363 0.7862
0.4951 0.7687 0.8029
0.7335 0.8110 0.7976
0.8726 0.7971 0.7497
0.9212 0.8020 0.7526
0.0698 0.7605 0.8146
0.0851 0.7636 0.8169
0.1493 0.7765 0.8262
0.3163 0.8043 0.8451
0.4834 0.8336 0.8637
0.5974 0.8587 0.8770
0.8026 0.8958 0.8733
0.9287 0.8844 0.8224
0.9575 0.9031 0.8712
0.0693 0.1670 0.2324
0.0700 0.1697 0.2375
0.0735 0.1814 0.2609
0.0803 0.1992 0.2993
0.0930 0.2220 0.3533
0.1161 0.2495 0.4223
0.1252 0.2763 0.5083
0.1494 0.3094 0.5935
0.2029 0.3560 0.6644
0.0712 0.1761 0.2469
0.0746 0.1791 0.2510
0.0783 0.1904 0.2740
0.0852 0.2077 0.3119
0.0982 0.2301 0.3653
0.1217 0.2572 0.4330
0.1331 0.2845 0.5170
0.1594 0.3182 0.6002
0.2125 0.3645 0.6702
0.0788 0.2158 0.3100
0.0830 0.2185 0.3137
0.1014 0.2313 0.3309
0.1093 0.2470 0.3671
0.1228 0.2680 0.4174
0.1476 0.2943 0.4799
0.1692 0.3236 0.5547
0.2045 0.3596 0.6294
0.2635 0.4051 0.6970
0.0904 0.2753 0.4019
0.0951 0.2780 0.4051
0.1161 0.2905 0.4199
0.1477 0.3101 0.4432
0.1631 0.3302 0.4887
0.1890 0.3560 0.5450
0.2246 0.3873 0.6082
0.2753 0.4259 0.6715
0.3515 0.4701 0.7375
0.0975 0.3560 0.5083
0.1044 0.3590 0.5108
0.1338 0.3725 0.5219
0.1701 0.3922 0.5408
0.2170 0.4179 0.5671
0.2462 0.4422 0.6175
0.2961 0.4730 0.6722
0.3733 0.5145 0.7216
0.4724 0.5534 0.7920
0.0888 0.4556 0.6143
0.0977 0.4588 0.6165
0.1346 0.4727 0.6258
0.1850 0.4932 0.6396
0.2455 0.5194 0.6583
0.3132 0.5486 0.6881
0.3719 0.5745 0.7417
0.4967 0.6197 0.7748
0.6406 0.6568 0.8386
0.0805 0.5675 0.7037
0.0914 0.5706 0.7057
0.1355 0.5842 0.7142
0.1948 0.6037 0.7260
0.2649 0.6285 0.7409
0.3431 0.6573 0.7610
0.4982 0.6935 0.7925
0.6600 0.7332 0.8195
0.8180 0.7558 0.8683
0.0937 0.6787 0.7737
0.1050 0.6815 0.7755
0.1526 0.6936 0.7830
0.2194 0.7114 0.7934
0.2988 0.7339 0.8060
0.3901 0.7607 0.8214
0.6094 0.8022 0.8409
0.8228 0.8382 0.8459
0.9085 0.8328 0.8173
0.1419 0.7708 0.8378
0.1657 0.7750 0.8406
0.2649 0.7923 0.8519
0.4030 0.8166 0.8671
0.5282 0.8409 0.8820
0.6145 0.8624 0.8951
0.7195 0.8873 0.9081
0.8703 0.9167 0.9051
0.9554 0.9147 0.8917
0.0738 0.1885 0.2687
0.0745 0.1909 0.2733
0.0774 0.2016 0.2955
0.0830 0.2183 0.3322
0.0930 0.2402 0.3832
0.1107 0.2673 0.4470
0.1332 0.2984 0.5215
0.1454 0.3312 0.6026
0.1740 0.3717 0.6750
0.0753 0.1968 0.2822
0.0786 0.1996 0.2863
0.0817 0.2100 0.3082
0.0874 0.2264 0.3444
0.0976 0.2480 0.3948
0.1154 0.2749 0.4575
0.1391 0.3062 0.5304
0.1528 0.3393 0.6097
0.1831 0.3802 0.6808
0.0824 0.2339 0.3437
0.0860 0.2366 0.3474
0.1019 0.2487 0.3644
0.1086 0.2641 0.3988
0.1195 0.2848 0.4458
0.1382 0.3112 0.5037
0.1667 0.3432 0.5698
0.1871 0.3777 0.6413
0.2251 0.4199 0.7066
0.0932 0.2916 0.4342
0.0972 0.2941 0.4373
0.1154 0.3062 0.4519
0.1432 0.3254 0.4748
0.1558 0.3458 0.5168
0.1756 0.3718 0.5683
0.2088 0.4036 0.6263
0.2413 0.4397 0.6871
0.2926 0.4830 0.7447
0.1089 0.3720 0.5375
0.1132 0.3746 0.5401
0.1330 0.3865 0.5522
0.1640 0.4055 0.5710
0.1974 0.4291 0.5997
0.2187 0.4533 0.6447
0.2543 0.4828 0.6947
0.3027 0.5185 0.7453
0.3753 0.5624 0.7948
0.1056 0.4693 0.6409
0.1124 0.4721 0.6429
0.1420 0.4848 0.6521
0.1849 0.5042 0.6662
0.2237 0.5266 0.6887
0.2540 0.5497 0.7231
0.2919 0.5748 0.7662
0.3759 0.6102 0.8103
0.5221 0.6641 0.8426
0.0942 0.5764 0.7272
0.1027 0.5791 0.7290
0.1392 0.5915 0.7373
0.1905 0.6100 0.7494
0.2397 0.6313 0.7662
0.2793 0.6533 0.7905
0.3691 0.6820 0.8246
0.5426 0.7239 0.8621
0.6789 0.7676 0.8858
0.0872 0.6789 0.7955
0.0973 0.6815 0.7974
0.1399 0.6930 0.8053
0.2002 0.7099 0.8165
0.2919 0.7335 0.8318
0.3982 0.7610 0.8515
0.5305 0.7934 0.8746
0.6896 0.8282 0.9011
0.8190 0.8598 0.9199
0.3455 0.7996 0.8719
0.3594 0.8023 0.8734
0.4218 0.8146 0.8804
0.5104 0.8326 0.8902
0.5952 0.8519 0.9011
0.6631 0.8707 0.9133
0.7380 0.8919 0.9263
0.8143 0.9142 0.9384
0.9334 0.9378 0.9400
