assets/luts/LUTs/JD_Hollywood.CUBE
TITLE "ColorFinale Export"
# Created by Jeven Dovey on 2021-07-15 17:41:51 +0000
# Color Finale Plugin v.2.3.2 (520)
LUT_3D_SIZE 5
0.0588 0.0588 0.0588
0.1357 0.0726 0.0551
0.2629 0.1085 0.0670
0.4325 0.1446 0.0747
0.6130 0.1884 0.0872
0.1140 0.1638 0.1509
0.2268 0.1347 0.0661
0.3624 0.1296 0.0486
0.5146 0.1611 0.0635
0.6608 0.2066 0.0860
0.1987 0.3451 0.3040
0.3372 0.3335 0.2382
0.5103 0.2694 0.1171
0.6541 0.2414 0.0738
0.7388 0.2785 0.1040
0.2991 0.5950 0.5164
0.4010 0.6309 0.4420
0.6519 0.5274 0.3401
0.7299 0.4797 0.2704
0.8642 0.5760 0.4341
0.4420 0.8213 0.7440
0.5431 0.8469 0.7136
0.8201 0.7909 0.6020
0.8977 0.7767 0.5930
0.9643 0.8644 0.7975
0.0573 0.0729 0.0862
0.0658 0.1013 0.1521
0.2457 0.1481 0.1690
0.4422 0.1583 0.1291
0.6273 0.1986 0.1281
0.0549 0.1588 0.1831
0.1808 0.1860 0.1889
0.3200 0.1860 0.1581
0.4887 0.2039 0.1430
0.6560 0.2402 0.1455
0.0909 0.3312 0.3498
0.2462 0.3608 0.3286
0.4974 0.3102 0.2051
0.6623 0.2868 0.1591
0.7559 0.3175 0.1703
0.2147 0.5798 0.5616
0.3401 0.6077 0.5375
0.6485 0.5580 0.3933
0.7579 0.5117 0.3184
0.8666 0.5926 0.4615
0.3668 0.8059 0.7681
0.4806 0.8298 0.7587
0.8013 0.8299 0.6677
0.9044 0.7937 0.6259
0.9621 0.8710 0.8115
0.0576 0.1079 0.1391
0.0647 0.1290 0.1789
0.0945 0.1738 0.3061
0.3487 0.2527 0.3912
0.5996 0.2832 0.3539
0.0714 0.1736 0.2296
0.1119 0.1929 0.2510
0.1714 0.2333 0.3492
0.4366 0.2929 0.4184
0.6598 0.3060 0.3404
0.0687 0.3310 0.4081
0.1450 0.3528 0.4164
0.3894 0.4080 0.4178
0.6013 0.4009 0.3615
0.7611 0.4084 0.3250
0.0692 0.5627 0.6181
0.1618 0.5823 0.6273
0.4788 0.6477 0.6061
0.7796 0.5871 0.4541
0.8694 0.6376 0.5384
0.1364 0.7689 0.7959
0.2534 0.7901 0.8042
0.6663 0.8579 0.8159
0.9044 0.8399 0.7285
0.9573 0.8873 0.8443
0.0648 0.1465 0.1991
0.0698 0.1624 0.2298
0.0966 0.2058 0.3283
0.1279 0.2571 0.5002
0.3921 0.3546 0.6532
0.0756 0.1994 0.2799
0.1024 0.2161 0.3012
0.1307 0.2536 0.3925
0.1882 0.3086 0.5398
0.4677 0.4037 0.6770
0.0828 0.3426 0.4791
0.1297 0.3607 0.4922
0.2324 0.4079 0.5362
0.3639 0.4699 0.6361
0.7193 0.5371 0.7481
0.0844 0.5660 0.6743
0.1474 0.5836 0.6835
0.2885 0.6299 0.7049
0.6767 0.7062 0.7207
0.8707 0.6930 0.6518
0.0698 0.7605 0.8146
0.1493 0.7765 0.8262
0.4834 0.8336 0.8637
0.8026 0.8958 0.8733
0.9575 0.9031 0.8712
0.0738 0.1885 0.2687
0.0774 0.2016 0.2955
0.0930 0.2402 0.3832
0.1332 0.2984 0.5215
0.1740 0.3717 0.6750
0.0824 0.2339 0.3437
0.1019 0.2487 0.3644
0.1195 0.2848 0.4458
0.1667 0.3432 0.5698
0.2251 0.4199 0.7066
0.1089 0.3720 0.5375
0.1330 0.3865 0.5522
0.1974 0.4291 0.5997
0.2543 0.4828 0.6947
0.3753 0.5624 0.7948
0.0942 0.5764 0.7272
0.1392 0.5915 0.7373
0.2397 0.6313 0.7662
0.3691 0.6820 0.8246
0.6789 0.7676 0.8858
0.3455 0.7996 0.8719
0.4218 0.8146 0.8804
0.5952 0.8519 0.9011
0.7380 0.8919 0.9263
0.9334 0.9378 0.9400
