assets/luts/LUTs/JD_INDIA.CUBE
TITLE "ColorFinale Export"
# Created by Jeven Dovey on 2022-12-23 13:57:17 +0000
# Color Finale Plugin v.2.6.0 (537)
LUT_3D_SIZE 5
0.0000 0.0000 0.0000
0.3036 0.0000 0.0167
0.6072 0.0000 0.0335
0.9108 0.0000 0.0502
1.0000 0.0000 0.0660
0.0000 0.2677 0.0000
0.2926 0.2332 0.0000
0.5981 0.1939 0.0000
0.8833 0.1598 0.0054
1.0000 0.1274 0.0332
0.0000 0.5353 0.0000
0.2575 0.4962 0.0000
0.5852 0.4664 0.0000
0.9005 0.4255 0.0000
1.0000 0.3907 0.0000
0.0000 0.8030 0.0000
0.2400 0.7540 0.0000
0.5414 0.7324 0.0000
0.8778 0.6996 0.0000
1.0000 0.6642 0.0000
0.0000 1.0000 0.0000
0.2257 1.0000 0.0000
0.5149 0.9924 0.0000
0.8305 0.9670 0.0000
1.0000 0.9397 0.0000
0.0000 0.0210 0.2977
0.3005 0.0000 0.2863
0.6408 0.0000 0.3120
0.9837 0.0000 0.3258
1.0000 0.0000 0.3414
0.0000 0.2510 0.3153
0.2594 0.2535 0.2484
0.5639 0.2126 0.2698
0.8689 0.1716 0.2903
1.0000 0.1330 0.3130
0.0000 0.5345 0.2723
0.2309 0.5207 0.2359
0.5514 0.4869 0.1974
0.8569 0.4476 0.2219
1.0000 0.4152 0.2562
0.0000 0.8236 0.2313
0.2037 0.7874 0.2231
0.5159 0.7502 0.2048
0.8440 0.7201 0.1458
1.0000 0.6832 0.1616
0.0000 1.0000 0.1891
0.1778 1.0000 0.2115
0.4981 1.0000 0.2118
0.8002 0.9862 0.1504
1.0000 0.9575 0.1092
0.0000 0.0420 0.5954
0.2593 0.0000 0.5803
0.6258 0.0000 0.5956
0.9807 0.0000 0.6236
1.0000 0.0000 0.6387
0.0000 0.2697 0.6563
0.2221 0.2749 0.5491
0.5594 0.2266 0.5367
0.8994 0.1686 0.5648
1.0000 0.1173 0.5847
0.0000 0.5019 0.6306
0.1950 0.5065 0.5623
0.5187 0.5071 0.4970
0.8222 0.4665 0.5193
1.0000 0.4277 0.5417
0.0000 0.7836 0.5808
0.1554 0.7897 0.5200
0.4901 0.7739 0.4857
0.8102 0.7406 0.4465
1.0000 0.7033 0.4713
0.0000 1.0000 0.5447
0.0999 1.0000 0.4826
0.4650 1.0000 0.4750
0.7743 1.0000 0.4532
1.0000 0.9770 0.4064
0.0000 0.0629 0.8931
0.2235 0.0152 0.8911
0.5727 0.0000 0.8951
0.9387 0.0000 0.8934
1.0000 0.0000 0.9112
0.0000 0.2882 0.9874
0.1851 0.2961 0.8497
0.5184 0.2492 0.8296
0.8862 0.1821 0.8469
1.0000 0.1248 0.8685
0.0000 0.5209 0.9764
0.1419 0.5256 0.9067
0.4814 0.5285 0.7975
0.8178 0.4802 0.7868
1.0000 0.4275 0.8125
0.0000 0.7529 0.9459
0.1313 0.7579 0.8778
0.4538 0.7617 0.8092
0.7779 0.7606 0.7457
1.0000 0.7219 0.7702
0.0000 1.0000 0.8918
0.0968 1.0000 0.8289
0.4134 1.0000 0.7675
0.7499 1.0000 0.7362
1.0000 0.9965 0.7038
0.0000 0.0844 1.0000
0.1859 0.0354 1.0000
0.5317 0.0000 1.0000
0.8885 0.0000 1.0000
1.0000 0.0000 1.0000
0.0000 0.3084 1.0000
0.1482 0.3178 1.0000
0.4824 0.2691 1.0000
0.8349 0.2071 1.0000
1.0000 0.1494 1.0000
0.0000 0.5411 1.0000
0.0959 0.5461 1.0000
0.4444 0.5501 1.0000
0.7772 0.5029 1.0000
1.0000 0.4377 1.0000
0.0000 0.7707 1.0000
0.0815 0.7769 1.0000
0.4024 0.7804 1.0000
0.7406 0.7823 1.0000
1.0000 0.7355 1.0000
0.0000 0.9994 1.0000
0.0840 1.0000 1.0000
0.4004 1.0000 1.0000
0.7167 1.0000 1.0000
1.0000 1.0000 0.9989
