assets/luts/LUTs/JD_INDIA.CUBE
TITLE "ColorFinale Export"
# Created by Jeven Dovey on 2022-12-23 13:57:17 +0000
# Color Finale Plugin v.2.6.0 (537)
LUT_3D_SIZE 9
0.0000 0.0000 0.0000
0.1518 0.0000 0.0084
0.3036 0.0000 0.0167
0.4554 0.0000 0.0251
0.6072 0.0000 0.0335
0.7590 0.0000 0.0418
0.9108 0.0000 0.0502
1.0000 0.0000 0.0586
1.0000 0.0000 0.0660
0.0000 0.1338 0.0000
0.1463 0.1166 0.0000
0.2991 0.0970 0.0000
0.4417 0.0799 0.0027
0.5856 0.0628 0.0157
0.7310 0.0453 0.0276
0.8774 0.0276 0.0391
1.0000 0.0100 0.0507
1.0000 0.0000 0.0637
0.0000 0.2677 0.0000
0.1287 0.2481 0.0000
0.2926 0.2332 0.0000
0.4502 0.2127 0.0000
0.5981 0.1939 0.0000
0.7408 0.1767 0.0000
0.8833 0.1598 0.0054
1.0000 0.1428 0.0188
1.0000 0.1274 0.0332
0.0000 0.4015 0.0000
0.1200 0.3770 0.0000
0.2707 0.3662 0.0000
0.4389 0.3498 0.0000
0.5971 0.3294 0.0000
0.7511 0.3092 0.0000
0.8972 0.2909 0.0000
1.0000 0.2735 0.0000
1.0000 0.2587 0.0000
0.0000 0.5353 0.0000
0.1128 0.5056 0.0000
0.2575 0.4962 0.0000
0.4152 0.4835 0.0000
0.5852 0.4664 0.0000
0.7435 0.4461 0.0000
0.9005 0.4255 0.0000
1.0000 0.4060 0.0000
1.0000 0.3907 0.0000
0.0000 0.6692 0.0000
0.1061 0.6341 0.0000
0.2480 0.6252 0.0000
0.3984 0.6146 0.0000
0.5607 0.6005 0.0000
0.7315 0.5830 0.0000
0.8897 0.5629 0.0000
1.0000 0.5421 0.0000
1.0000 0.5262 0.0000
0.0000 0.8030 0.0000
0.0994 0.7626 0.0000
0.2400 0.7540 0.0000
0.3862 0.7443 0.0000
0.5414 0.7324 0.0000
0.7066 0.7174 0.0000
0.8778 0.6996 0.0000
1.0000 0.6795 0.0000
1.0000 0.6642 0.0000
0.0000 0.9368 0.0000
0.0930 0.8911 0.0000
0.2328 0.8825 0.0000
0.3764 0.8734 0.0000
0.5267 0.8628 0.0000
0.6856 0.8498 0.0000
0.8527 0.8342 0.0000
1.0000 0.8162 0.0000
1.0000 0.8017 0.0000
0.0000 1.0000 0.0000
0.0866 1.0000 0.0000
0.2257 1.0000 0.0000
0.3678 1.0000 0.0000
0.5149 0.9924 0.0000
0.6689 0.9808 0.0000
0.8305 0.9670 0.0000
0.9989 0.9509 0.0000
1.0000 0.9397 0.0000
0.0000 0.0105 0.1489
0.1440 0.0000 0.1374
0.3052 0.0000 0.1517
0.4677 0.0000 0.1606
0.6296 0.0000 0.1679
0.7910 0.0000 0.1747
0.9521 0.0000 0.1813
1.0000 0.0000 0.1877
1.0000 0.0000 0.1987
0.0000 0.1228 0.1528
0.1297 0.1268 0.1242
0.2821 0.1062 0.1349
0.4348 0.0856 0.1451
0.5874 0.0651 0.1553
0.7400 0.0445 0.1656
0.8927 0.0239 0.1758
1.0000 0.0034 0.1860
1.0000 0.0000 0.1986
0.0000 0.2600 0.1375
0.1152 0.2605 0.1177
0.2757 0.2434 0.0987
0.4285 0.2238 0.1109
0.5711 0.2067 0.1274
0.7149 0.1896 0.1405
0.8603 0.1722 0.1524
1.0000 0.1545 0.1640
1.0000 0.1382 0.1769
0.0000 0.3999 0.1236
0.1013 0.3941 0.1110
0.2579 0.3751 0.1024
0.4220 0.3601 0.0729
0.5796 0.3396 0.0789
0.7275 0.3207 0.0972
0.8702 0.3035 0.1149
1.0000 0.2866 0.1301
1.0000 0.2714 0.1452
0.0000 0.5402 0.1079
0.0874 0.5276 0.1043
0.2491 0.5040 0.1059
0.4001 0.4931 0.0752
0.5683 0.4767 0.0471
0.7265 0.4563 0.0507
0.8805 0.4361 0.0644
1.0000 0.4177 0.0835
1.0000 0.4025 0.1025
0.0000 0.6808 0.0914
0.0735 0.6612 0.0976
0.2418 0.6326 0.1077
0.3867 0.6232 0.0806
0.5447 0.6104 0.0481
0.7146 0.5933 0.0213
0.8729 0.5730 0.0236
1.0000 0.5523 0.0333
1.0000 0.5362 0.0511
0.0000 0.8213 0.0747
0.0596 0.7947 0.0909
0.2351 0.7611 0.1088
0.3771 0.7522 0.0847
0.5277 0.7415 0.0536
0.6902 0.7274 0.0212
0.8609 0.7099 0.0000
1.0000 0.6897 0.0000
1.0000 0.6737 0.0103
0.0000 0.9619 0.0578
0.0457 0.9283 0.0843
0.2284 0.8897 0.1095
0.3691 0.8810 0.0875
0.5154 0.8713 0.0589
0.6708 0.8593 0.0262
0.8361 0.8443 0.0000
1.0000 0.8265 0.0000
1.0000 0.8114 0.0000
0.0000 1.0000 0.0433
0.0333 1.0000 0.0790
0.2221 1.0000 0.1103
0.3618 1.0000 0.0896
0.5055 1.0000 0.0631
0.6560 0.9897 0.0320
0.8150 0.9767 0.0000
0.9822 0.9610 0.0000
1.0000 0.9478 0.0000
0.0000 0.0210 0.2977
0.1257 0.0027 0.2756
0.3005 0.0000 0.2863
0.4692 0.0000 0.3015
0.6408 0.0000 0.3120
0.8124 0.0000 0.3196
0.9837 0.0000 0.3258
1.0000 0.0000 0.3324
1.0000 0.0000 0.3414
0.0000 0.1328 0.3139
0.1111 0.1374 0.2746
0.2733 0.1176 0.2627
0.4346 0.0925 0.2779
0.5972 0.0674 0.2888
0.7595 0.0425 0.2985
0.9216 0.0178 0.3076
1.0000 0.0000 0.3165
1.0000 0.0000 0.3286
0.0000 0.2510 0.3153
0.1052 0.2504 0.2764
0.2594 0.2535 0.2484
0.4114 0.2331 0.2596
0.5639 0.2126 0.2698
0.7164 0.1921 0.2801
0.8689 0.1716 0.2903
1.0000 0.1511 0.3006
1.0000 0.1330 0.3130
0.0000 0.3918 0.2904
0.0918 0.3873 0.2617
0.2445 0.3873 0.2423
0.4051 0.3703 0.2232
0.5578 0.3506 0.2356
0.7005 0.3335 0.2521
0.8442 0.3164 0.2652
0.9896 0.2990 0.2772
1.0000 0.2828 0.2902
0.0000 0.5345 0.2723
0.0702 0.5265 0.2489
0.2309 0.5207 0.2359
0.3871 0.5021 0.2266
0.5514 0.4869 0.1974
0.7090 0.4664 0.2036
0.8569 0.4476 0.2219
0.9996 0.4303 0.2396
1.0000 0.4152 0.2562
0.0000 0.6788 0.2525
0.0472 0.6663 0.2348
0.2173 0.6540 0.2295
0.3781 0.6310 0.2302
0.5295 0.6200 0.1993
0.6977 0.6035 0.1716
0.8559 0.5831 0.1753
1.0000 0.5629 0.1890
1.0000 0.5470 0.2084
0.0000 0.8236 0.2313
0.0240 0.8062 0.2202
0.2037 0.7874 0.2231
0.3708 0.7596 0.2321
0.5159 0.7502 0.2048
0.6742 0.7373 0.1722
0.8440 0.7201 0.1458
1.0000 0.6998 0.1482
1.0000 0.6832 0.1616
0.0000 0.9687 0.2091
0.0005 0.9461 0.2052
0.1901 0.9208 0.2167
0.3640 0.8881 0.2332
0.5062 0.8792 0.2089
0.6570 0.8685 0.1777
0.8197 0.8543 0.1454
0.9903 0.8367 0.1200
1.0000 0.8211 0.1305
0.0000 1.0000 0.1891
0.0000 1.0000 0.1918
0.1778 1.0000 0.2115
0.3575 1.0000 0.2341
0.4981 1.0000 0.2118
0.6446 0.9983 0.1830
0.8002 0.9862 0.1504
0.9656 0.9711 0.1187
1.0000 0.9575 0.1092
0.0000 0.0315 0.4466
0.1102 0.0129 0.4218
0.2771 0.0000 0.4292
0.4693 0.0000 0.4467
0.6458 0.0000 0.4617
0.8258 0.0000 0.4728
1.0000 0.0000 0.4808
1.0000 0.0000 0.4875
1.0000 0.0000 0.4945
0.0000 0.1426 0.4703
0.0925 0.1481 0.4250
0.2551 0.1295 0.4002
0.4301 0.0998 0.4118
0.5988 0.0709 0.4278
0.7702 0.0416 0.4400
0.9419 0.0125 0.4501
1.0000 0.0000 0.4592
1.0000 0.0000 0.4688
0.0000 0.2604 0.4882
0.0811 0.2605 0.4388
0.2407 0.2643 0.3988
0.4025 0.2443 0.3880
0.5638 0.2193 0.4029
0.7263 0.1943 0.4138
0.8884 0.1695 0.4233
1.0000 0.1449 0.4325
1.0000 0.1247 0.4442
0.0000 0.3765 0.4730
0.0656 0.3790 0.4389
0.2348 0.3778 0.3999
0.3891 0.3803 0.3727
0.5408 0.3600 0.3843
0.6931 0.3395 0.3946
0.8454 0.3191 0.4048
0.9977 0.2987 0.4151
1.0000 0.2804 0.4274
0.0000 0.5173 0.4456
0.0493 0.5198 0.4143
0.2212 0.5147 0.3858
0.3738 0.5142 0.3669
0.5345 0.4971 0.3478
0.6872 0.4774 0.3602
0.8299 0.4604 0.3768
0.9736 0.4433 0.3900
1.0000 0.4273 0.4034
0.0000 0.6585 0.4265
0.0264 0.6620 0.3962
0.1998 0.6537 0.3731
0.3605 0.6473 0.3608
0.5164 0.6290 0.3508
0.6808 0.6137 0.3220
0.8384 0.5932 0.3282
0.9863 0.5744 0.3465
1.0000 0.5589 0.3651
0.0000 0.8017 0.4084
0.0000 0.8057 0.3776
0.1771 0.7933 0.3593
0.3472 0.7805 0.3547
0.5071 0.7580 0.3545
0.6589 0.7470 0.3235
0.8271 0.7303 0.2961
0.9853 0.7099 0.2999
1.0000 0.6928 0.3147
0.0000 0.9459 0.3890
0.0000 0.9501 0.3577
0.1540 0.9330 0.3448
0.3339 0.9136 0.3485
0.4998 0.8866 0.3564
0.6451 0.8771 0.3290
0.8036 0.8642 0.2964
0.9734 0.8470 0.2703
1.0000 0.8307 0.2799
0.0000 1.0000 0.3697
0.0000 1.0000 0.3382
0.1328 1.0000 0.3316
0.3217 1.0000 0.3435
0.4932 1.0000 0.3578
0.6353 1.0000 0.3332
0.7863 0.9954 0.3019
0.9492 0.9812 0.2696
1.0000 0.9673 0.2578
0.0000 0.0420 0.5954
0.0937 0.0233 0.5696
0.2593 0.0000 0.5803
0.4410 0.0000 0.5944
0.6258 0.0000 0.5956
0.8017 0.0000 0.6111
0.9807 0.0000 0.6236
1.0000 0.0000 0.6320
1.0000 0.0000 0.6387
0.0000 0.1525 0.6256
0.0740 0.1587 0.5753
0.2396 0.1397 0.5464
0.4068 0.1123 0.5540
0.5996 0.0734 0.5725
0.7762 0.0408 0.5883
0.9557 0.0076 0.6010
1.0000 0.0000 0.6106
1.0000 0.0000 0.6174
0.0000 0.2697 0.6563
0.0610 0.2707 0.5969
0.2221 0.2749 0.5491
0.3845 0.2563 0.5249
0.5594 0.2266 0.5367
0.7281 0.1978 0.5526
0.8994 0.1686 0.5648
1.0000 0.1395 0.5748
1.0000 0.1173 0.5847
0.0000 0.3858 0.6468
0.0366 0.3887 0.6126
0.2107 0.3876 0.5625
0.3702 0.3911 0.5231
0.5318 0.3711 0.5132
0.6930 0.3461 0.5279
0.8553 0.3212 0.5387
1.0000 0.2965 0.5482
1.0000 0.2758 0.5596
0.0000 0.5019 0.6306
0.0337 0.5047 0.5967
0.1950 0.5065 0.5623
0.3644 0.5053 0.5235
0.5187 0.5071 0.4970
0.6700 0.4868 0.5090
0.8222 0.4665 0.5193
0.9744 0.4461 0.5296
1.0000 0.4277 0.5417
0.0000 0.6429 0.6017
0.0181 0.6455 0.5698
0.1786 0.6474 0.5380
0.3507 0.6420 0.5099
0.5031 0.6410 0.4915
0.6639 0.6240 0.4723
0.8166 0.6043 0.4848
0.9593 0.5872 0.5015
1.0000 0.5715 0.5161
0.0000 0.7836 0.5808
0.0000 0.7867 0.5502
0.1554 0.7897 0.5200
0.3294 0.7810 0.4974
0.4901 0.7739 0.4857
0.6456 0.7560 0.4749
0.8102 0.7406 0.4465
0.9678 0.7201 0.4528
1.0000 0.7033 0.4713
0.0000 0.9256 0.5628
0.0000 0.9292 0.5323
0.1276 0.9333 0.5013
0.3069 0.9204 0.4837
0.4771 0.9069 0.4799
0.6362 0.8850 0.4788
0.7883 0.8739 0.4476
0.9565 0.8572 0.4207
1.0000 0.8403 0.4296
0.0000 1.0000 0.5447
0.0000 1.0000 0.5141
0.0999 1.0000 0.4826
0.2857 1.0000 0.4708
0.4650 1.0000 0.4750
0.6290 1.0000 0.4809
0.7743 1.0000 0.4532
0.9331 0.9911 0.4204
1.0000 0.9770 0.4064
0.0000 0.0525 0.7443
0.0766 0.0338 0.7177
0.2417 0.0055 0.7349
0.4193 0.0000 0.7501
0.5966 0.0000 0.7422
0.7822 0.0000 0.7445
0.9577 0.0000 0.7602
1.0000 0.0000 0.7704
1.0000 0.0000 0.7768
0.0000 0.1626 0.7806
0.0555 0.1693 0.7256
0.2231 0.1501 0.6943
0.3888 0.1225 0.7049
0.5712 0.0871 0.7194
0.7566 0.0555 0.7219
0.9326 0.0230 0.7380
1.0000 0.0000 0.7497
1.0000 0.0000 0.7564
0.0000 0.2789 0.8223
0.0412 0.2808 0.7539
0.2036 0.2855 0.6994
0.3690 0.2665 0.6711
0.5366 0.2390 0.6788
0.7289 0.2003 0.6972
0.9054 0.1677 0.7129
1.0000 0.1360 0.7247
1.0000 0.1101 0.7321
0.0000 0.3953 0.8169
0.0123 0.3985 0.7829
0.1907 0.3977 0.7205
0.3518 0.4017 0.6733
0.5139 0.3831 0.6496
0.6886 0.3534 0.6617
0.8573 0.3246 0.6775
1.0000 0.2955 0.6896
1.0000 0.2724 0.6992
0.0000 0.5111 0.8049
0.0038 0.5143 0.7707
0.1662 0.5158 0.7364
0.3403 0.5147 0.6863
0.4998 0.5179 0.6473
0.6610 0.4979 0.6384
0.8223 0.4729 0.6529
0.9843 0.4481 0.6636
1.0000 0.4270 0.6747
0.0000 0.6274 0.7883
0.0019 0.6304 0.7544
0.1632 0.6322 0.7201
0.3244 0.6341 0.6858
0.4940 0.6327 0.6471
0.6483 0.6338 0.6213
0.7993 0.6137 0.6337
0.9514 0.5934 0.6440
1.0000 0.5748 0.6560
0.0000 0.7685 0.7584
0.0000 0.7714 0.7262
0.1475 0.7731 0.6934
0.3079 0.7750 0.6618
0.4801 0.7694 0.6341
0.6325 0.7678 0.6161
0.7933 0.7508 0.5968
0.9460 0.7311 0.6095
1.0000 0.7154 0.6272
0.0000 0.9090 0.7356
0.0000 0.9119 0.7047
0.1284 0.9143 0.6740
0.2844 0.9173 0.6437
0.4589 0.9082 0.6217
0.6197 0.9005 0.6107
0.7748 0.8830 0.5990
0.9396 0.8674 0.5710
1.0000 0.8498 0.5803
0.0000 1.0000 0.7169
0.0000 1.0000 0.6864
0.1038 1.0000 0.6561
0.2573 1.0000 0.6254
0.4379 1.0000 0.6091
0.6078 1.0000 0.6059
0.7654 1.0000 0.6030
0.9177 1.0000 0.5718
1.0000 0.9868 0.5551
0.0000 0.0629 0.8931
0.0593 0.0444 0.8659
0.2235 0.0152 0.8911
0.3996 0.0000 0.9104
0.5727 0.0000 0.8951
0.7527 0.0000 0.8904
0.9387 0.0000 0.8934
1.0000 0.0000 0.9049
1.0000 0.0000 0.9112
0.0000 0.1726 0.9355
0.0370 0.1800 0.8760
0.2061 0.1606 0.8425
0.3712 0.1322 0.8596
0.5489 0.0979 0.8742
0.7273 0.0697 0.8677
0.9133 0.0377 0.8711
1.0000 0.0075 0.8845
1.0000 0.0000 0.8912
0.0000 0.2882 0.9874
0.0213 0.2910 0.9105
0.1851 0.2961 0.8497
0.3525 0.2769 0.8190
0.5184 0.2492 0.8296
0.7010 0.2138 0.8439
0.8862 0.1821 0.8469
1.0000 0.1508 0.8616
1.0000 0.1248 0.8685
0.0000 0.4045 0.9844
0.0000 0.4081 0.9512
0.1709 0.4079 0.8773
0.3333 0.4123 0.8235
0.4984 0.3933 0.7957
0.6663 0.3657 0.8036
0.8581 0.3271 0.8220
1.0000 0.2947 0.8375
1.0000 0.2689 0.8446
0.0000 0.5209 0.9764
0.0000 0.5245 0.9428
0.1419 0.5256 0.9067
0.3204 0.5248 0.8441
0.4814 0.5285 0.7975
0.6433 0.5099 0.7743
0.8178 0.4802 0.7868
0.9865 0.4515 0.8024
1.0000 0.4275 0.8125
0.0000 0.6362 0.9629
0.0000 0.6396 0.9287
0.1335 0.6413 0.8945
0.2958 0.6429 0.8601
0.4700 0.6418 0.8101
0.6294 0.6447 0.7715
0.7902 0.6247 0.7637
0.9515 0.5998 0.7779
1.0000 0.5780 0.7892
0.0000 0.7529 0.9459
0.0000 0.7560 0.9122
0.1313 0.7579 0.8778
0.2926 0.7598 0.8435
0.4538 0.7617 0.8092
0.6236 0.7601 0.7707
0.7779 0.7606 0.7457
0.9286 0.7406 0.7584
1.0000 0.7219 0.7702
0.0000 0.8941 0.9153
0.0000 0.8970 0.8829
0.1158 0.8989 0.8498
0.2769 0.9006 0.8171
0.4372 0.9025 0.7856
0.6095 0.8967 0.7582
0.7618 0.8946 0.7407
0.9227 0.8776 0.7214
1.0000 0.8596 0.7342
0.0000 1.0000 0.8918
0.0000 1.0000 0.8605
0.0968 1.0000 0.8289
0.2563 1.0000 0.7978
0.4134 1.0000 0.7675
0.5893 1.0000 0.7465
0.7499 1.0000 0.7362
0.9044 1.0000 0.7232
1.0000 0.9965 0.7038
0.0000 0.0734 1.0000
0.0417 0.0550 1.0000
0.2048 0.0251 1.0000
0.3797 0.0000 1.0000
0.5522 0.0000 1.0000
0.7276 0.0000 1.0000
0.9106 0.0000 1.0000
1.0000 0.0000 1.0000
1.0000 0.0000 1.0000
0.0000 0.1829 1.0000
0.0184 0.1906 1.0000
0.1887 0.1711 0.9908
0.3531 0.1419 1.0000
0.5290 0.1075 1.0000
0.7027 0.0814 1.0000
0.8842 0.0520 1.0000
1.0000 0.0217 1.0000
1.0000 0.0000 1.0000
0.0000 0.2981 1.0000
0.0012 0.3014 1.0000
0.1666 0.3068 1.0000
0.3355 0.2873 0.9673
0.5008 0.2589 0.9842
0.6785 0.2247 0.9985
0.8572 0.1964 0.9922
1.0000 0.1652 0.9946
1.0000 0.1391 1.0000
0.0000 0.4143 1.0000
0.0000 0.4181 1.0000
0.1510 0.4181 1.0000
0.3148 0.4230 0.9737
0.4820 0.4036 0.9437
0.6480 0.3759 0.9542
0.8309 0.3405 0.9684
1.0000 0.3088 0.9720
1.0000 0.2827 0.9788
0.0000 0.5308 1.0000
0.0000 0.5345 1.0000
0.1190 0.5354 1.0000
0.3006 0.5350 1.0000
0.4629 0.5392 0.9476
0.6278 0.5201 0.9204
0.7960 0.4923 0.9284
0.9873 0.4540 0.9468
1.0000 0.4272 0.9553
0.0000 0.6465 1.0000
0.0000 0.6502 1.0000
0.1074 0.6517 1.0000
0.2715 0.6527 1.0000
0.4500 0.6519 0.9677
0.6110 0.6553 0.9216
0.7727 0.6367 0.8990
0.9470 0.6071 0.9118
1.0000 0.5824 0.9237
0.0000 0.7607 1.0000
0.0000 0.7643 1.0000
0.1026 0.7666 1.0000
0.2631 0.7684 1.0000
0.4255 0.7700 0.9838
0.5996 0.7689 0.9339
0.7590 0.7715 0.8957
0.9195 0.7514 0.8889
1.0000 0.7291 0.9023
0.0000 0.8771 1.0000
0.0000 0.8807 1.0000
0.1011 0.8833 1.0000
0.2607 0.8855 1.0000
0.4219 0.8874 0.9670
0.5833 0.8892 0.9327
0.7531 0.8876 0.8944
0.9075 0.8874 0.8701
1.0000 0.8688 0.8844
0.0000 1.0000 1.0000
0.0000 1.0000 1.0000
0.0825 1.0000 1.0000
0.2437 1.0000 0.9742
0.4047 1.0000 0.9414
0.5652 1.0000 0.9095
0.7391 1.0000 0.8825
0.8916 1.0000 0.8658
1.0000 1.0000 0.8525
0.0000 0.0844 1.0000
0.0244 0.0660 1.0000
0.1859 0.0354 1.0000
0.3592 0.0000 1.0000
0.5317 0.0000 1.0000
0.7064 0.0000 1.0000
0.8885 0.0000 1.0000
1.0000 0.0000 1.0000
1.0000 0.0000 1.0000
0.0000 0.1936 1.0000
0.0000 0.2017 1.0000
0.1714 0.1821 1.0000
0.3344 0.1522 1.0000
0.5086 0.1174 1.0000
0.6818 0.0916 1.0000
0.8620 0.0626 1.0000
1.0000 0.0318 1.0000
1.0000 0.0053 1.0000
0.0000 0.3084 1.0000
0.0000 0.3124 1.0000
0.1482 0.3178 1.0000
0.3184 0.2981 1.0000
0.4824 0.2691 1.0000
0.6580 0.2347 1.0000
0.8349 0.2071 1.0000
1.0000 0.1759 1.0000
1.0000 0.1494 1.0000
0.0000 0.4247 1.0000
0.0000 0.4284 1.0000
0.1306 0.4292 1.0000
0.2963 0.4339 1.0000
0.4651 0.4143 1.0000
0.6299 0.3861 1.0000
0.8087 0.3512 1.0000
0.9933 0.3207 1.0000
1.0000 0.2936 1.0000
0.0000 0.5411 1.0000
0.0000 0.5448 1.0000
0.0959 0.5461 1.0000
0.2803 0.5459 1.0000
0.4444 0.5501 1.0000
0.6115 0.5306 1.0000
0.7772 0.5029 1.0000
0.9648 0.4655 1.0000
1.0000 0.4377 1.0000
0.0000 0.6567 1.0000
0.0000 0.6604 1.0000
0.0852 0.6623 1.0000
0.2486 0.6634 1.0000
0.4299 0.6627 1.0000
0.5925 0.6662 1.0000
0.7571 0.6471 1.0000
0.9270 0.6184 1.0000
1.0000 0.5829 1.0000
0.0000 0.7707 1.0000
0.0000 0.7744 1.0000
0.0815 0.7769 1.0000
0.2413 0.7788 1.0000
0.4024 0.7804 1.0000
0.5794 0.7795 1.0000
0.7406 0.7823 1.0000
0.9020 0.7636 1.0000
1.0000 0.7355 1.0000
0.0000 0.8834 1.0000
0.0000 0.8870 1.0000
0.0831 0.8897 1.0000
0.2417 0.8921 1.0000
0.4003 0.8945 1.0000
0.5593 0.8967 1.0000
0.7296 0.8962 1.0000
0.8886 0.8984 1.0000
1.0000 0.8796 1.0000
0.0000 0.9994 1.0000
0.0000 1.0000 1.0000
0.0840 1.0000 1.0000
0.2422 1.0000 1.0000
0.4004 1.0000 1.0000
0.5585 1.0000 1.0000
0.7167 1.0000 1.0000
0.8834 1.0000 1.0000
1.0000 1.0000 0.9989
