assets/luts/LUTs/JD_INDIA.CUBE
TITLE "ColorFinale Export"
# Created by Jeven Dovey on 2022-12-23 13:57:17 +0000
# Color Finale Plugin v.2.6.0 (537)
LUT_3D_SIZE 17
0.0000 0.0000 0.0000
0.0779 0.0000 0.0037
0.1518 0.0000 0.0084
0.2277 0.0000 0.0126
0.3036 0.0000 0.0167
0.3795 0.0000 0.0209
0.4554 0.0000 0.0251
0.5313 0.0000 0.0293
0.6072 0.0000 0.0335
0.6831 0.0000 0.0377
0.7590 0.0000 0.0418
0.8349 0.0000 0.0460
0.9108 0.0000 0.0502
0.9867 0.0000 0.0544
1.0000 0.0000 0.0586
1.0000 0.0000 0.0632
1.0000 0.0000 0.0660
0.0000 0.0676 0.0000
0.0742 0.0584 0.0000
0.1513 0.0480 0.0000
0.2239 0.0389 0.0000
0.2971 0.0297 0.0056
0.3712 0.0204 0.0114
0.4457 0.0110 0.0169
0.5201 0.0016 0.0224
0.5945 0.0000 0.0279
0.6688 0.0000 0.0335
0.7428 0.0000 0.0386
0.8165 0.0000 0.0434
0.8901 0.0000 0.0481
0.9638 0.0000 0.0528
1.0000 0.0000 0.0575
1.0000 0.0000 0.0622
1.0000 0.0000 0.0688
0.0000 0.1338 0.0000
0.0634 0.1251 0.0000
0.1463 0.1166 0.0000
0.2251 0.1064 0.0000
0.2991 0.0970 0.0000
0.3704 0.0883 0.0000
0.4417 0.0799 0.0027
0.5134 0.0714 0.0094
0.5856 0.0628 0.0157
0.6581 0.0541 0.0217
0.7310 0.0453 0.0276
0.8041 0.0365 0.0334
0.8774 0.0276 0.0391
0.9506 0.0188 0.0449
1.0000 0.0100 0.0507
1.0000 0.0011 0.0565
1.0000 0.0000 0.0637
0.0000 0.2007 0.0000
0.0577 0.1905 0.0000
0.1354 0.1831 0.0000
0.2195 0.1749 0.0000
0.2986 0.1647 0.0000
0.3756 0.1546 0.0000
0.4486 0.1454 0.0000
0.5201 0.1368 0.0000
0.5912 0.1283 0.0000
0.6625 0.1198 0.0040
0.7342 0.1113 0.0109
0.8061 0.1028 0.0173
0.8783 0.0942 0.0236
0.9509 0.0855 0.0296
1.0000 0.0768 0.0356
1.0000 0.0680 0.0414
1.0000 0.0608 0.0488
0.0000 0.2677 0.0000
0.0527 0.2557 0.0000
0.1287 0.2481 0.0000
0.2076 0.2417 0.0000
0.2926 0.2332 0.0000
0.3717 0.2231 0.0000
0.4502 0.2127 0.0000
0.5255 0.2030 0.0000
0.5981 0.1939 0.0000
0.6697 0.1852 0.0000
0.7408 0.1767 0.0000
0.8120 0.1682 0.0000
0.8833 0.1598 0.0054
0.9549 0.1513 0.0122
1.0000 0.1428 0.0188
1.0000 0.1342 0.0252
1.0000 0.1274 0.0332
0.0000 0.3346 0.0000
0.0480 0.3209 0.0000
0.1240 0.3126 0.0000
0.1992 0.3073 0.0000
0.2803 0.3003 0.0000
0.3658 0.2915 0.0000
0.4449 0.2814 0.0000
0.5238 0.2711 0.0000
0.6009 0.2609 0.0000
0.6751 0.2514 0.0000
0.7476 0.2424 0.0000
0.8192 0.2337 0.0000
0.8904 0.2251 0.0000
0.9616 0.2166 0.0000
1.0000 0.2082 0.0000
1.0000 0.1997 0.0067
1.0000 0.1932 0.0153
0.0000 0.4015 0.0000
0.0432 0.3861 0.0000
0.1200 0.3770 0.0000
0.1931 0.3722 0.0000
0.2707 0.3662 0.0000
0.3533 0.3587 0.0000
0.4389 0.3498 0.0000
0.5180 0.3398 0.0000
0.5971 0.3294 0.0000
0.6753 0.3191 0.0000
0.7511 0.3092 0.0000
0.8248 0.2999 0.0000
0.8972 0.2909 0.0000
0.9688 0.2821 0.0000
1.0000 0.2735 0.0000
1.0000 0.2650 0.0000
1.0000 0.2587 0.0000
0.0000 0.4684 0.0000
0.0386 0.4513 0.0000
0.1164 0.4413 0.0000
0.1882 0.4367 0.0000
0.2634 0.4314 0.0000
0.3428 0.4249 0.0000
0.4263 0.4171 0.0000
0.5121 0.4081 0.0000
0.5911 0.3981 0.0000
0.6703 0.3878 0.0000
0.7490 0.3774 0.0000
0.8262 0.3673 0.0000
0.9011 0.3576 0.0000
0.9744 0.3483 0.0000
1.0000 0.3394 0.0000
1.0000 0.3308 0.0000
1.0000 0.3244 0.0000
0.0000 0.5353 0.0000
0.0340 0.5165 0.0000
0.1128 0.5056 0.0000
0.1839 0.5011 0.0000
0.2575 0.4962 0.0000
0.3344 0.4904 0.0000
0.4152 0.4835 0.0000
0.4994 0.4754 0.0000
0.5852 0.4664 0.0000
0.6642 0.4564 0.0000
0.7435 0.4461 0.0000
0.8224 0.4358 0.0000
0.9005 0.4255 0.0000
0.9766 0.4156 0.0000
1.0000 0.4060 0.0000
1.0000 0.3972 0.0000
1.0000 0.3907 0.0000
0.0000 0.6022 0.0000
0.0293 0.5817 0.0000
0.1095 0.5698 0.0000
0.1800 0.5655 0.0000
0.2525 0.5608 0.0000
0.3276 0.5555 0.0000
0.4061 0.5493 0.0000
0.4879 0.5420 0.0000
0.5726 0.5338 0.0000
0.6584 0.5247 0.0000
0.7374 0.5148 0.0000
0.8166 0.5045 0.0000
0.8957 0.4941 0.0000
0.9742 0.4838 0.0000
1.0000 0.4736 0.0000
1.0000 0.4646 0.0000
1.0000 0.4579 0.0000
0.0000 0.6692 0.0000
0.0247 0.6469 0.0000
0.1061 0.6341 0.0000
0.1764 0.6298 0.0000
0.2480 0.6252 0.0000
0.3218 0.6203 0.0000
0.3984 0.6146 0.0000
0.4781 0.6080 0.0000
0.5607 0.6005 0.0000
0.6458 0.5921 0.0000
0.7315 0.5830 0.0000
0.8105 0.5731 0.0000
0.8897 0.5629 0.0000
0.9689 0.5525 0.0000
1.0000 0.5421 0.0000
1.0000 0.5330 0.0000
1.0000 0.5262 0.0000
0.0000 0.7361 0.0000
0.0201 0.7121 0.0000
0.1028 0.6984 0.0000
0.1728 0.6941 0.0000
0.2440 0.6896 0.0000
0.3168 0.6848 0.0000
0.3919 0.6796 0.0000
0.4697 0.6735 0.0000
0.5504 0.6667 0.0000
0.6336 0.6590 0.0000
0.7190 0.6505 0.0000
0.8047 0.6413 0.0000
0.8836 0.6314 0.0000
0.9629 0.6212 0.0000
1.0000 0.6109 0.0000
1.0000 0.6020 0.0000
1.0000 0.5951 0.0000
0.0000 0.8030 0.0000
0.0154 0.7773 0.0000
0.0994 0.7626 0.0000
0.1693 0.7584 0.0000
0.2400 0.7540 0.0000
0.3122 0.7493 0.0000
0.3862 0.7443 0.0000
0.4625 0.7387 0.0000
0.5414 0.7324 0.0000
0.6228 0.7252 0.0000
0.7066 0.7174 0.0000
0.7922 0.7088 0.0000
0.8778 0.6996 0.0000
0.9568 0.6897 0.0000
1.0000 0.6795 0.0000
1.0000 0.6710 0.0000
1.0000 0.6642 0.0000
0.0000 0.8699 0.0000
0.0110 0.8424 0.0000
0.0963 0.8268 0.0000
0.1660 0.8226 0.0000
0.2363 0.8183 0.0000
0.3079 0.8138 0.0000
0.3811 0.8089 0.0000
0.4563 0.8036 0.0000
0.5336 0.7977 0.0000
0.6134 0.7911 0.0000
0.6955 0.7838 0.0000
0.7796 0.7758 0.0000
0.8654 0.7671 0.0000
0.9510 0.7579 0.0000
1.0000 0.7480 0.0000
1.0000 0.7399 0.0000
1.0000 0.7331 0.0000
0.0000 0.9368 0.0000
0.0064 0.9076 0.0000
0.0930 0.8911 0.0000
0.1625 0.8869 0.0000
0.2328 0.8825 0.0000
0.3040 0.8781 0.0000
0.3764 0.8734 0.0000
0.4506 0.8684 0.0000
0.5267 0.8628 0.0000
0.6051 0.8566 0.0000
0.6856 0.8498 0.0000
0.7682 0.8423 0.0000
0.8527 0.8342 0.0000
0.9386 0.8255 0.0000
1.0000 0.8162 0.0000
1.0000 0.8085 0.0000
1.0000 0.8017 0.0000
0.0000 1.0000 0.0000
0.0018 0.9728 0.0000
0.0897 0.9554 0.0000
0.1592 0.9511 0.0000
0.2292 0.9468 0.0000
0.3001 0.9424 0.0000
0.3720 0.9379 0.0000
0.4454 0.9329 0.0000
0.5206 0.9276 0.0000
0.5976 0.9219 0.0000
0.6768 0.9155 0.0000
0.7579 0.9084 0.0000
0.8410 0.9008 0.0000
0.9258 0.8925 0.0000
1.0000 0.8838 0.0000
1.0000 0.8768 0.0000
1.0000 0.8700 0.0000
0.0000 1.0000 0.0000
0.0000 1.0000 0.0000
0.0866 1.0000 0.0000
0.1559 1.0000 0.0000
0.2257 1.0000 0.0000
0.2963 1.0000 0.0000
0.3678 1.0000 0.0000
0.4406 0.9975 0.0000
0.5149 0.9924 0.0000
0.5909 0.9869 0.0000
0.6689 0.9808 0.0000
0.7487 0.9742 0.0000
0.8305 0.9670 0.0000
0.9139 0.9592 0.0000
0.9989 0.9509 0.0000
1.0000 0.9441 0.0000
1.0000 0.9397 0.0000
0.0000 0.0052 0.0744
0.0719 0.0000 0.0686
0.1488 0.0000 0.0748
0.2278 0.0000 0.0797
0.3065 0.0000 0.0839
0.3851 0.0000 0.0878
0.4634 0.0000 0.0916
0.5418 0.0000 0.0954
0.6200 0.0000 0.0991
0.6982 0.0000 0.1028
0.7764 0.0000 0.1065
0.8546 0.0000 0.1102
0.9327 0.0000 0.1138
1.0000 0.0000 0.1175
1.0000 0.0000 0.1212
1.0000 0.0000 0.1262
1.0000 0.0000 0.1323
0.0000 0.0608 0.0754
0.0649 0.0634 0.0621
0.1431 0.0522 0.0670
0.2175 0.0428 0.0725
0.2938 0.0325 0.0776
0.3702 0.0222 0.0827
0.4465 0.0119 0.0878
0.5229 0.0016 0.0930
0.5992 0.0000 0.0981
0.6756 0.0000 0.1032
0.7517 0.0000 0.1076
0.8276 0.0000 0.1118
0.9035 0.0000 0.1160
0.9795 0.0000 0.1202
1.0000 0.0000 0.1244
1.0000 0.0000 0.1289
1.0000 0.0000 0.1354
0.0000 0.1275 0.0692
0.0566 0.1310 0.0578
0.1389 0.1219 0.0455
0.2160 0.1114 0.0537
0.2885 0.1023 0.0617
0.3617 0.0932 0.0681
0.4356 0.0839 0.0738
0.5101 0.0745 0.0793
0.5845 0.0651 0.0849
0.6588 0.0557 0.0904
0.7331 0.0464 0.0960
0.8073 0.0370 0.1015
0.8815 0.0277 0.1071
0.9557 0.0184 0.1126
1.0000 0.0091 0.1181
1.0000 0.0000 0.1237
1.0000 0.0000 0.1310
0.0000 0.1957 0.0646
0.0505 0.1971 0.0554
0.1281 0.1886 0.0478
0.2110 0.1800 0.0365
0.2898 0.1698 0.0395
0.3638 0.1604 0.0486
0.4351 0.1518 0.0575
0.5064 0.1433 0.0650
0.5781 0.1348 0.0718
0.6502 0.1262 0.0781
0.7228 0.1175 0.0841
0.7957 0.1087 0.0900
0.8688 0.0999 0.0958
0.9420 0.0911 0.1015
1.0000 0.0822 0.1073
1.0000 0.0734 0.1131
1.0000 0.0660 0.1203
0.0000 0.2642 0.0591
0.0435 0.2640 0.0520
0.1223 0.2539 0.0484
0.2000 0.2466 0.0376
0.2842 0.2383 0.0236
0.3633 0.2281 0.0254
0.4403 0.2180 0.0322
0.5133 0.2089 0.0418
0.5848 0.2002 0.0508
0.6559 0.1917 0.0590
0.7272 0.1832 0.0664
0.7988 0.1748 0.0732
0.8708 0.1662 0.0797
0.9430 0.1576 0.0859
1.0000 0.1489 0.0920
1.0000 0.1402 0.0980
1.0000 0.1330 0.1054
0.0000 0.3328 0.0533
0.0365 0.3308 0.0485
0.1174 0.3191 0.0482
0.1933 0.3116 0.0403
0.2723 0.3052 0.0240
0.3573 0.2966 0.0107
0.4364 0.2865 0.0118
0.5149 0.2762 0.0166
0.5901 0.2664 0.0253
0.6628 0.2573 0.0349
0.7344 0.2486 0.0441
0.8055 0.2401 0.0526
0.8767 0.2317 0.0604
0.9480 0.2232 0.0677
1.0000 0.2147 0.0746
1.0000 0.2062 0.0812
1.0000 0.1994 0.0893
0.0000 0.4014 0.0473
0.0295 0.3976 0.0451
0.1127 0.3842 0.0475
0.1886 0.3761 0.0423
0.2639 0.3708 0.0268
0.3451 0.3637 0.0106
0.4305 0.3549 0.0000
0.5096 0.3448 0.0000
0.5885 0.3345 0.0023
0.6656 0.3244 0.0091
0.7398 0.3148 0.0184
0.8123 0.3058 0.0281
0.8839 0.2971 0.0373
0.9551 0.2885 0.0461
1.0000 0.2801 0.0542
1.0000 0.2716 0.0618
1.0000 0.2651 0.0706
0.0000 0.4700 0.0412
0.0224 0.4644 0.0417
0.1081 0.4494 0.0467
0.1845 0.4405 0.0437
0.2577 0.4356 0.0294
0.3354 0.4296 0.0131
0.4181 0.4221 0.0000
0.5036 0.4132 0.0000
0.5827 0.4032 0.0000
0.6618 0.3928 0.0000
0.7400 0.3825 0.0000
0.8158 0.3727 0.0020
0.8895 0.3633 0.0116
0.9619 0.3543 0.0212
1.0000 0.3455 0.0305
1.0000 0.3369 0.0394
1.0000 0.3306 0.0488
0.0000 0.5387 0.0351
0.0154 0.5313 0.0383
0.1035 0.5145 0.0459
0.1809 0.5048 0.0448
0.2527 0.5002 0.0315
0.3280 0.4949 0.0160
0.4075 0.4884 0.0000
0.4911 0.4805 0.0000
0.5768 0.4715 0.0000
0.6558 0.4615 0.0000
0.7350 0.4512 0.0000
0.8137 0.4408 0.0000
0.8908 0.4307 0.0000
0.9658 0.4210 0.0000
1.0000 0.4117 0.0047
1.0000 0.4030 0.0144
1.0000 0.3965 0.0242
0.0000 0.6073 0.0290
0.0084 0.5981 0.0349
0.0990 0.5796 0.0449
0.1773 0.5691 0.0455
0.2484 0.5646 0.0332
0.3221 0.5597 0.0185
0.3991 0.5539 0.0024
0.4800 0.5470 0.0000
0.5642 0.5389 0.0000
0.6499 0.5298 0.0000
0.7289 0.5199 0.0000
0.8082 0.5096 0.0000
0.8871 0.4992 0.0000
0.9652 0.4889 0.0000
1.0000 0.4790 0.0000
1.0000 0.4699 0.0000
1.0000 0.4633 0.0000
0.0000 0.6760 0.0227
0.0014 0.6649 0.0315
0.0944 0.6448 0.0438
0.1740 0.6333 0.0461
0.2445 0.6290 0.0345
0.3170 0.6243 0.0207
0.3922 0.6190 0.0051
0.4707 0.6127 0.0000
0.5526 0.6055 0.0000
0.6374 0.5972 0.0000
0.7231 0.5881 0.0000
0.8021 0.5782 0.0000
0.8813 0.5679 0.0000
0.9604 0.5576 0.0000
1.0000 0.5472 0.0000
1.0000 0.5379 0.0000
1.0000 0.5311 0.0000
0.0000 0.7446 0.0165
0.0000 0.7317 0.0281
0.0898 0.7099 0.0428
0.1706 0.6976 0.0466
0.2408 0.6933 0.0356
0.3126 0.6887 0.0226
0.3864 0.6837 0.0077
0.4631 0.6781 0.0000
0.5428 0.6715 0.0000
0.6254 0.6640 0.0000
0.7106 0.6556 0.0000
0.7962 0.6465 0.0000
0.8752 0.6365 0.0000
0.9544 0.6263 0.0000
1.0000 0.6159 0.0000
1.0000 0.6067 0.0000
1.0000 0.5999 0.0000
0.0000 0.8132 0.0103
0.0000 0.7986 0.0247
0.0853 0.7751 0.0417
0.1672 0.7619 0.0469
0.2373 0.7576 0.0365
0.3085 0.7531 0.0242
0.3813 0.7483 0.0099
0.4565 0.7430 0.0000
0.5344 0.7370 0.0000
0.6151 0.7301 0.0000
0.6984 0.7224 0.0000
0.7837 0.7139 0.0000
0.8694 0.7048 0.0000
0.9483 0.6948 0.0000
1.0000 0.6846 0.0000
1.0000 0.6758 0.0000
1.0000 0.6689 0.0000
0.0000 0.8819 0.0041
0.0000 0.8654 0.0213
0.0807 0.8402 0.0407
0.1639 0.8262 0.0472
0.2338 0.8219 0.0371
0.3046 0.8175 0.0253
0.3768 0.8128 0.0119
0.4508 0.8078 0.0000
0.5272 0.8021 0.0000
0.6061 0.7958 0.0000
0.6876 0.7887 0.0000
0.7713 0.7808 0.0000
0.8569 0.7722 0.0000
0.9425 0.7631 0.0000
1.0000 0.7531 0.0000
1.0000 0.7447 0.0000
1.0000 0.7379 0.0000
0.0000 0.9505 0.0000
0.0000 0.9323 0.0176
0.0762 0.9054 0.0397
0.1608 0.8904 0.0477
0.2304 0.8861 0.0378
0.3008 0.8818 0.0263
0.3724 0.8773 0.0134
0.4457 0.8724 0.0000
0.5209 0.8671 0.0000
0.5983 0.8612 0.0000
0.6781 0.8546 0.0000
0.7602 0.8473 0.0000
0.8444 0.8392 0.0000
0.9302 0.8306 0.0000
1.0000 0.8214 0.0000
1.0000 0.8134 0.0000
1.0000 0.8066 0.0000
0.0000 1.0000 0.0000
0.0000 0.9992 0.0139
0.0718 0.9705 0.0386
0.1575 0.9546 0.0479
0.2270 0.9504 0.0383
0.2973 0.9461 0.0274
0.3685 0.9416 0.0150
0.4410 0.9369 0.0010
0.5152 0.9318 0.0000
0.5914 0.9263 0.0000
0.6697 0.9201 0.0000
0.7503 0.9133 0.0000
0.8330 0.9057 0.0000
0.9174 0.8976 0.0000
1.0000 0.8889 0.0000
1.0000 0.8817 0.0000
1.0000 0.8749 0.0000
0.0000 1.0000 0.0000
0.0000 1.0000 0.0117
0.0679 1.0000 0.0382
0.1544 1.0000 0.0483
0.2237 1.0000 0.0388
0.2937 1.0000 0.0281
0.3646 1.0000 0.0161
0.4366 1.0000 0.0028
0.5100 0.9964 0.0000
0.5852 0.9911 0.0000
0.6623 0.9853 0.0000
0.7414 0.9789 0.0000
0.8227 0.9719 0.0000
0.9058 0.9642 0.0000
0.9905 0.9560 0.0000
1.0000 0.9490 0.0000
1.0000 0.9429 0.0000
0.0000 0.0105 0.1489
0.0628 0.0015 0.1375
0.1440 0.0000 0.1374
0.2239 0.0000 0.1456
0.3052 0.0000 0.1517
0.3865 0.0000 0.1565
0.4677 0.0000 0.1606
0.5487 0.0000 0.1644
0.6296 0.0000 0.1679
0.7103 0.0000 0.1714
0.7910 0.0000 0.1747
0.8715 0.0000 0.1780
0.9521 0.0000 0.1813
1.0000 0.0000 0.1845
1.0000 0.0000 0.1877
1.0000 0.0000 0.1931
1.0000 0.0000 0.1987
0.0000 0.0660 0.1540
0.0555 0.0687 0.1373
0.1366 0.0588 0.1313
0.2135 0.0483 0.1379
0.2926 0.0367 0.1437
0.3716 0.0253 0.1489
0.4504 0.0139 0.1538
0.5292 0.0025 0.1587
0.6079 0.0000 0.1635
0.6866 0.0000 0.1683
0.7650 0.0000 0.1722
0.8434 0.0000 0.1760
0.9217 0.0000 0.1798
1.0000 0.0000 0.1836
1.0000 0.0000 0.1873
1.0000 0.0000 0.1922
1.0000 0.0000 0.1982
0.0000 0.1228 0.1528
0.0539 0.1247 0.1373
0.1297 0.1268 0.1242
0.2077 0.1157 0.1293
0.2821 0.1062 0.1349
0.3584 0.0959 0.1400
0.4348 0.0856 0.1451
0.5111 0.0754 0.1502
0.5874 0.0651 0.1553
0.6637 0.0548 0.1604
0.7400 0.0445 0.1656
0.8163 0.0342 0.1707
0.8927 0.0239 0.1758
0.9690 0.0137 0.1809
1.0000 0.0034 0.1860
1.0000 0.0000 0.1913
1.0000 0.0000 0.1986
0.0000 0.1910 0.1436
0.0505 0.1912 0.1314
0.1212 0.1944 0.1201
0.2036 0.1853 0.1079
0.2807 0.1748 0.1160
0.3532 0.1657 0.1241
0.4262 0.1567 0.1305
0.5001 0.1474 0.1363
0.5745 0.1380 0.1418
0.6489 0.1286 0.1473
0.7232 0.1193 0.1529
0.7974 0.1099 0.1584
0.8716 0.1006 0.1640
0.9458 0.0913 0.1696
1.0000 0.0820 0.1751
1.0000 0.0727 0.1807
1.0000 0.0652 0.1879
0.0000 0.2600 0.1375
0.0420 0.2593 0.1271
0.1152 0.2605 0.1177
0.1928 0.2520 0.1101
0.2757 0.2434 0.0987
0.3545 0.2332 0.1018
0.4285 0.2238 0.1109
0.4998 0.2152 0.1198
0.5711 0.2067 0.1274
0.6428 0.1982 0.1342
0.7149 0.1896 0.1405
0.7874 0.1809 0.1465
0.8603 0.1722 0.1524
0.9334 0.1633 0.1582
1.0000 0.1545 0.1640
1.0000 0.1456 0.1697
1.0000 0.1382 0.1769
0.0000 0.3298 0.1309
0.0328 0.3276 0.1221
0.1082 0.3273 0.1143
0.1870 0.3173 0.1108
0.2647 0.3100 0.0997
0.3489 0.3018 0.0858
0.4280 0.2915 0.0877
0.5049 0.2815 0.0945
0.5780 0.2723 0.1041
0.6495 0.2636 0.1132
0.7206 0.2551 0.1213
0.7919 0.2467 0.1287
0.8635 0.2382 0.1356
0.9355 0.2296 0.1421
1.0000 0.2210 0.1483
1.0000 0.2123 0.1544
1.0000 0.2052 0.1620
0.0000 0.3999 0.1236
0.0236 0.3959 0.1170
0.1013 0.3941 0.1110
0.1821 0.3824 0.1106
0.2579 0.3751 0.1024
0.3371 0.3687 0.0861
0.4220 0.3601 0.0729
0.5011 0.3499 0.0741
0.5796 0.3396 0.0789
0.6548 0.3298 0.0876
0.7275 0.3207 0.0972
0.7991 0.3120 0.1064
0.8702 0.3035 0.1149
0.9414 0.2951 0.1228
1.0000 0.2866 0.1301
1.0000 0.2781 0.1370
1.0000 0.2714 0.1452
0.0000 0.4700 0.1159
0.0142 0.4643 0.1116
0.0943 0.4609 0.1077
0.1775 0.4475 0.1101
0.2531 0.4396 0.1045
0.3285 0.4342 0.0889
0.4098 0.4271 0.0727
0.4952 0.4184 0.0600
0.5743 0.4083 0.0608
0.6532 0.3979 0.0646
0.7303 0.3878 0.0714
0.8045 0.3783 0.0807
0.8770 0.3692 0.0904
0.9487 0.3605 0.0997
1.0000 0.3519 0.1084
1.0000 0.3435 0.1165
1.0000 0.3369 0.1255
0.0000 0.5402 0.1079
0.0048 0.5328 0.1062
0.0874 0.5276 0.1043
0.1729 0.5126 0.1093
0.2491 0.5040 0.1059
0.3223 0.4991 0.0915
0.4001 0.4931 0.0752
0.4828 0.4856 0.0593
0.5683 0.4767 0.0471
0.6474 0.4666 0.0475
0.7265 0.4563 0.0507
0.8047 0.4459 0.0561
0.8805 0.4361 0.0644
0.9542 0.4267 0.0739
1.0000 0.4177 0.0835
1.0000 0.4090 0.0928
1.0000 0.4025 0.1025
0.0000 0.6105 0.0998
0.0000 0.6012 0.1007
0.0805 0.5944 0.1010
0.1684 0.5777 0.1086
0.2454 0.5683 0.1070
0.3173 0.5637 0.0936
0.3926 0.5583 0.0781
0.4722 0.5518 0.0615
0.5559 0.5440 0.0461
0.6415 0.5350 0.0342
0.7205 0.5249 0.0345
0.7997 0.5146 0.0371
0.8784 0.5043 0.0416
0.9555 0.4941 0.0485
1.0000 0.4844 0.0574
1.0000 0.4754 0.0671
1.0000 0.4688 0.0769
0.0000 0.6808 0.0914
0.0000 0.6697 0.0951
0.0735 0.6612 0.0976
0.1639 0.6428 0.1077
0.2418 0.6326 0.1077
0.3130 0.6281 0.0953
0.3867 0.6232 0.0806
0.4638 0.6173 0.0644
0.5447 0.6104 0.0481
0.6290 0.6023 0.0329
0.7146 0.5933 0.0213
0.7936 0.5833 0.0214
0.8729 0.5730 0.0236
0.9518 0.5626 0.0276
1.0000 0.5523 0.0333
1.0000 0.5429 0.0414
1.0000 0.5362 0.0511
0.0000 0.7510 0.0831
0.0000 0.7382 0.0891
0.0666 0.7280 0.0943
0.1594 0.7079 0.1067
0.2385 0.6968 0.1084
0.3091 0.6925 0.0967
0.3816 0.6878 0.0828
0.4569 0.6824 0.0672
0.5354 0.6762 0.0507
0.6174 0.6689 0.0345
0.7022 0.6607 0.0198
0.7878 0.6516 0.0084
0.8668 0.6416 0.0084
0.9460 0.6313 0.0102
1.0000 0.6210 0.0138
1.0000 0.6115 0.0196
1.0000 0.6047 0.0285
0.0000 0.8213 0.0747
0.0000 0.8068 0.0831
0.0596 0.7947 0.0909
0.1549 0.7730 0.1057
0.2351 0.7611 0.1088
0.3053 0.7568 0.0977
0.3771 0.7522 0.0847
0.4510 0.7472 0.0697
0.5277 0.7415 0.0536
0.6075 0.7349 0.0371
0.6902 0.7274 0.0212
0.7753 0.7190 0.0067
0.8609 0.7099 0.0000
0.9399 0.6999 0.0000
1.0000 0.6897 0.0000
1.0000 0.6805 0.0017
1.0000 0.6737 0.0103
0.0000 0.8916 0.0663
0.0000 0.8754 0.0771
0.0527 0.8615 0.0876
0.1505 0.8381 0.1047
0.2317 0.8254 0.1092
0.3018 0.8211 0.0986
0.3730 0.8166 0.0863
0.4459 0.8118 0.0720
0.5211 0.8065 0.0563
0.5991 0.8004 0.0400
0.6798 0.7936 0.0235
0.7631 0.7859 0.0077
0.8485 0.7773 0.0000
0.9341 0.7682 0.0000
1.0000 0.7582 0.0000
1.0000 0.7495 0.0000
1.0000 0.7427 0.0000
0.0000 0.9619 0.0578
0.0000 0.9439 0.0711
0.0457 0.9283 0.0843
0.1460 0.9032 0.1037
0.2284 0.8897 0.1095
0.2982 0.8854 0.0993
0.3691 0.8810 0.0875
0.4413 0.8763 0.0740
0.5154 0.8713 0.0589
0.5918 0.8656 0.0429
0.6708 0.8593 0.0262
0.7523 0.8522 0.0100
0.8361 0.8443 0.0000
0.9217 0.8357 0.0000
1.0000 0.8265 0.0000
1.0000 0.8182 0.0000
1.0000 0.8114 0.0000
0.0000 1.0000 0.0499
0.0000 1.0000 0.0652
0.0388 0.9951 0.0809
0.1415 0.9683 0.1027
0.2252 0.9539 0.1099
0.2948 0.9496 0.1000
0.3653 0.9453 0.0885
0.4370 0.9408 0.0755
0.5103 0.9359 0.0612
0.5855 0.9306 0.0456
0.6629 0.9246 0.0291
0.7428 0.9180 0.0127
0.8249 0.9107 0.0000
0.9091 0.9027 0.0000
0.9949 0.8940 0.0000
1.0000 0.8865 0.0000
1.0000 0.8798 0.0000
0.0000 1.0000 0.0433
0.0000 1.0000 0.0610
0.0333 1.0000 0.0790
0.1378 1.0000 0.1025
0.2221 1.0000 0.1103
0.2915 1.0000 0.1006
0.3618 1.0000 0.0896
0.4330 1.0000 0.0771
0.5055 1.0000 0.0631
0.5798 0.9953 0.0480
0.6560 0.9897 0.0320
0.7344 0.9835 0.0156
0.8150 0.9767 0.0000
0.8977 0.9692 0.0000
0.9822 0.9610 0.0000
1.0000 0.9539 0.0000
1.0000 0.9478 0.0000
0.0000 0.0157 0.2233
0.0551 0.0066 0.2105
0.1335 0.0000 0.2044
0.2207 0.0000 0.2104
0.3024 0.0000 0.2188
0.3856 0.0000 0.2255
0.4692 0.0000 0.2308
0.5528 0.0000 0.2352
0.6363 0.0000 0.2391
0.7197 0.0000 0.2426
0.8029 0.0000 0.2459
0.8860 0.0000 0.2490
0.9690 0.0000 0.2520
1.0000 0.0000 0.2550
1.0000 0.0000 0.2584
1.0000 0.0000 0.2635
1.0000 0.0000 0.2685
0.0000 0.0710 0.2303
0.0463 0.0740 0.2125
0.1274 0.0649 0.1997
0.2087 0.0542 0.2001
0.2887 0.0417 0.2087
0.3700 0.0291 0.2154
0.4513 0.0165 0.2212
0.5327 0.0039 0.2264
0.6139 0.0000 0.2313
0.6951 0.0000 0.2359
0.7760 0.0000 0.2397
0.8569 0.0000 0.2433
0.9377 0.0000 0.2469
1.0000 0.0000 0.2503
1.0000 0.0000 0.2537
1.0000 0.0000 0.2588
