assets/luts/LUTs/JD_LAGUNA.CUBE
TITLE "ColorFinale Export"
# Created by Jeven Dovey on 2022-09-27 16:57:52 +0000
# Color Finale Plugin v.2.6.0 (537)
LUT_3D_SIZE 9
0.0000 0.0000 0.0000
0.0768 0.0000 0.0065
0.1572 0.0000 0.0136
0.2451 0.0000 0.0218
0.3650 0.0000 0.0342
0.5526 0.0000 0.0563
0.7535 0.0000 0.0831
0.8802 0.0000 0.1011
0.9161 0.0000 0.1063
0.0000 0.0600 0.0000
0.0674 0.0682 0.0000
0.1570 0.0632 0.0000
0.2457 0.0570 0.0095
0.3649 0.0496 0.0241
0.5518 0.0413 0.0481
0.7525 0.0361 0.0763
0.8792 0.0341 0.0949
0.9152 0.0337 0.1003
0.0000 0.1240 0.0000
0.0364 0.1369 0.0000
0.1383 0.1400 0.0000
0.2405 0.1359 0.0000
0.3658 0.1292 0.0046
0.5541 0.1214 0.0329
0.7547 0.1169 0.0638
0.8814 0.1155 0.0839
0.9173 0.1152 0.0896
0.0000 0.1967 0.0000
0.0071 0.2096 0.0000
0.1058 0.2183 0.0000
0.2171 0.2197 0.0000
0.3570 0.2154 0.0000
0.5546 0.2083 0.0104
0.7578 0.2044 0.0453
0.8851 0.2035 0.0674
0.9211 0.2033 0.0736
0.0000 0.3011 0.0000
0.0000 0.3121 0.0000
0.0682 0.3222 0.0000
0.1766 0.3291 0.0000
0.3268 0.3307 0.0000
0.5442 0.3264 0.0000
0.7576 0.3229 0.0145
0.8881 0.3223 0.0392
0.9247 0.3222 0.0461
0.0000 0.4762 0.0000
0.0000 0.4839 0.0000
0.0279 0.4920 0.0000
0.1286 0.5001 0.0000
0.2731 0.5075 0.0000
0.5043 0.5102 0.0000
0.7390 0.5087 0.0000
0.8792 0.5082 0.0000
0.9181 0.5081 0.0000
0.0000 0.6744 0.0000
0.0000 0.6796 0.0000
0.0027 0.6855 0.0000
0.0982 0.6921 0.0000
0.2337 0.6999 0.0000
0.4573 0.7072 0.0000
0.7011 0.7090 0.0000
0.8507 0.7090 0.0000
0.8923 0.7089 0.0000
0.0000 0.8026 0.0000
0.0000 0.8068 0.0000
0.0000 0.8118 0.0000
0.0862 0.8173 0.0000
0.2175 0.8245 0.0000
0.4340 0.8328 0.0000
0.6754 0.8363 0.0000
0.8275 0.8368 0.0000
0.8702 0.8368 0.0000
0.0000 0.8392 0.0000
0.0000 0.8433 0.0000
0.0000 0.8480 0.0000
0.0835 0.8533 0.0000
0.2139 0.8603 0.0000
0.4284 0.8686 0.0000
0.6686 0.8726 0.0000
0.8208 0.8732 0.0000
0.8637 0.8732 0.0000
0.0000 0.0000 0.0729
0.0714 0.0000 0.0910
0.1589 0.0000 0.1001
0.2500 0.0000 0.1083
0.3714 0.0000 0.1198
0.5594 0.0000 0.1401
0.7597 0.0000 0.1649
0.8860 0.0000 0.1819
0.9218 0.0000 0.1868
0.0000 0.0676 0.0551
0.0868 0.0868 0.0868
0.1669 0.0799 0.0936
0.2543 0.0726 0.1013
0.3732 0.0639 0.1127
0.5592 0.0535 0.1333
0.7589 0.0463 0.1588
0.8850 0.0434 0.1762
0.9208 0.0427 0.1813
0.0000 0.1325 0.0385
0.0580 0.1494 0.0674
0.1570 0.1579 0.0735
0.2543 0.1525 0.0852
0.3737 0.1444 0.1007
0.5588 0.1345 0.1239
0.7579 0.1280 0.1510
0.8841 0.1255 0.1692
0.9199 0.1249 0.1745
0.0000 0.2042 0.0227
0.0283 0.2192 0.0481
0.1235 0.2327 0.0585
0.2343 0.2361 0.0599
0.3704 0.2304 0.0759
0.5610 0.2213 0.1050
0.7606 0.2155 0.1359
0.8866 0.2135 0.1558
0.9224 0.2131 0.1616
0.0000 0.3066 0.0061
0.0000 0.3188 0.0274
0.0856 0.3316 0.0405
0.1914 0.3416 0.0419
0.3413 0.3444 0.0444
0.5546 0.3383 0.0712
0.7626 0.3332 0.1072
0.8906 0.3316 0.1301
0.9268 0.3315 0.1366
0.0000 0.4785 0.0000
0.0000 0.4867 0.0102
0.0427 0.4961 0.0222
0.1414 0.5060 0.0271
0.2836 0.5158 0.0247
0.5144 0.5195 0.0289
0.7470 0.5169 0.0577
0.8848 0.5157 0.0817
0.9231 0.5155 0.0889
0.0000 0.6746 0.0000
0.0000 0.6799 0.0085
0.0152 0.6862 0.0186
0.1093 0.6936 0.0241
0.2423 0.7030 0.0233
0.4638 0.7123 0.0159
0.7074 0.7145 0.0234
0.8566 0.7143 0.0393
0.8980 0.7141 0.0449
0.0000 0.8020 0.0019
0.0000 0.8062 0.0132
0.0046 0.8112 0.0224
0.0966 0.8173 0.0279
0.2257 0.8255 0.0281
0.4393 0.8356 0.0190
0.6801 0.8401 0.0161
0.8323 0.8407 0.0244
0.8750 0.8407 0.0281
0.0000 0.8384 0.0040
0.0000 0.8424 0.0151
0.0022 0.8472 0.0241
0.0938 0.8529 0.0296
0.2220 0.8608 0.0300
0.4336 0.8708 0.0208
0.6728 0.8759 0.0158
0.8252 0.8768 0.0220
0.8680 0.8768 0.0251
0.0000 0.0000 0.1493
0.0513 0.0000 0.1713
0.1460 0.0000 0.1861
0.2431 0.0000 0.1972
0.3692 0.0000 0.2098
0.5603 0.0000 0.2296
0.7618 0.0000 0.2531
0.8882 0.0000 0.2691
0.9241 0.0000 0.2738
0.0000 0.0674 0.1330
0.0633 0.0803 0.1628
0.1612 0.0838 0.1817
0.2563 0.0807 0.1915
0.3788 0.0738 0.2027
0.5662 0.0636 0.2215
0.7655 0.0555 0.2449
0.8912 0.0518 0.2611
0.9269 0.0510 0.2659
0.0000 0.1389 0.1134
0.0654 0.1573 0.1443
0.1773 0.1773 0.1773
0.2644 0.1698 0.1847
0.3825 0.1602 0.1953
0.5669 0.1481 0.2142
0.7649 0.1394 0.2381
0.8904 0.1358 0.2548
0.9260 0.1349 0.2598
0.0000 0.2117 0.0967
0.0457 0.2279 0.1264
0.1460 0.2454 0.1563
0.2537 0.2547 0.1629
0.3829 0.2472 0.1789
0.5670 0.2359 0.2026
0.7642 0.2278 0.2286
0.8895 0.2247 0.2464
0.9251 0.2239 0.2515
0.0000 0.3129 0.0800
0.0125 0.3259 0.1061
0.1071 0.3406 0.1312
0.2096 0.3552 0.1433
0.3585 0.3607 0.1451
0.5658 0.3525 0.1716
0.7676 0.3452 0.2042
0.8933 0.3427 0.2249
0.9290 0.3422 0.2308
0.0000 0.4821 0.0670
0.0000 0.4904 0.0871
0.0606 0.5006 0.1061
0.1579 0.5125 0.1196
0.2969 0.5257 0.1222
0.5269 0.5311 0.1250
0.7564 0.5271 0.1537
0.8913 0.5249 0.1773
0.9288 0.5246 0.1843
0.0000 0.6757 0.0678
0.0000 0.6809 0.0835
0.0300 0.6874 0.0981
0.1230 0.6956 0.1096
0.2536 0.7068 0.1147
0.4721 0.7190 0.1089
0.7155 0.7217 0.1150
0.8640 0.7210 0.1310
0.9051 0.7209 0.1367
0.0000 0.8021 0.0734
0.0000 0.8061 0.0874
0.0181 0.8112 0.1002
0.1093 0.8176 0.1106
0.2362 0.8269 0.1162
0.4463 0.8392 0.1103
0.6861 0.8452 0.1062
0.8383 0.8458 0.1139
0.8809 0.8458 0.1177
0.0000 0.8384 0.0756
0.0000 0.8421 0.0891
0.0154 0.8468 0.1015
0.1062 0.8529 0.1117
0.2323 0.8617 0.1173
0.4403 0.8738 0.1116
0.6783 0.8804 0.1056
0.8308 0.8814 0.1111
0.8736 0.8814 0.1142
0.0000 0.0000 0.2333
0.0276 0.0000 0.2564
0.1257 0.0000 0.2751
0.2278 0.0000 0.2901
0.3596 0.0000 0.3058
0.5559 0.0000 0.3270
0.7600 0.0000 0.3501
0.8873 0.0000 0.3655
0.9233 0.0000 0.3700
0.0000 0.0634 0.2181
0.0383 0.0738 0.2460
0.1393 0.0797 0.2690
0.2425 0.0808 0.2851
0.3728 0.0779 0.2998
0.5656 0.0704 0.3193
0.7670 0.0629 0.3416
0.8932 0.0592 0.3569
0.9290 0.0583 0.3614
0.0000 0.1411 0.1983
0.0455 0.1570 0.2291
0.1518 0.1703 0.2600
0.2582 0.1740 0.2805
0.3857 0.1695 0.2934
0.5737 0.1590 0.3112
0.7721 0.1497 0.3329
0.8972 0.1454 0.3483
0.9327 0.1443 0.3528
0.0000 0.2183 0.1785
0.0431 0.2350 0.2077
0.1540 0.2540 0.2398
0.2757 0.2757 0.2757
0.3933 0.2656 0.2858
0.5760 0.2519 0.3031
0.7722 0.2414 0.3251
0.8967 0.2368 0.3409
0.9321 0.2357 0.3456
0.0000 0.3203 0.1595
0.0229 0.3338 0.1864
0.1265 0.3497 0.2164
0.2339 0.3680 0.2477
0.3790 0.3802 0.2564
0.5769 0.3694 0.2819
0.7728 0.3598 0.3091
0.8968 0.3558 0.3267
0.9321 0.3549 0.3319
0.0000 0.4872 0.1448
0.0000 0.4957 0.1668
0.0797 0.5063 0.1905
0.1791 0.5197 0.2144
0.3148 0.5374 0.2295
0.5429 0.5461 0.2318
0.7677 0.5401 0.2603
0.8986 0.5368 0.2829
0.9352 0.5361 0.2895
0.0000 0.6781 0.1444
0.0000 0.6831 0.1620
0.0464 0.6896 0.1803
0.1404 0.6983 0.1981
0.2689 0.7115 0.2131
0.4833 0.7277 0.2122
0.7263 0.7315 0.2166
0.8737 0.7303 0.2326
0.9143 0.7298 0.2384
0.0000 0.8033 0.1498
0.0000 0.8070 0.1654
0.0331 0.8118 0.1812
0.1249 0.8184 0.1966
0.2501 0.8288 0.2103
0.4561 0.8442 0.2108
0.6941 0.8522 0.2058
0.8464 0.8529 0.2128
0.8889 0.8529 0.2166
0.0000 0.8393 0.1518
0.0000 0.8427 0.1670
0.0302 0.8472 0.1823
0.1214 0.8533 0.1971
0.2458 0.8630 0.2104
0.4498 0.8779 0.2114
0.6857 0.8866 0.2047
0.8382 0.8879 0.2094
0.8810 0.8879 0.2124
0.0000 0.0000 0.3484
0.0000 0.0000 0.3716
0.0962 0.0000 0.3926
0.2017 0.0000 0.4115
0.3394 0.0000 0.4316
0.5431 0.0000 0.4566
0.7521 0.0000 0.4808
0.8812 0.0000 0.4961
0.9177 0.0000 0.5005
0.0000 0.0580 0.3336
0.0061 0.0665 0.3596
0.1076 0.0730 0.3838
0.2148 0.0768 0.4049
0.3531 0.0779 0.4257
0.5553 0.0748 0.4496
0.7619 0.0696 0.4726
0.8899 0.0664 0.4875
0.9260 0.0656 0.4918
0.0000 0.1396 0.3153
0.0142 0.1515 0.3439
0.1183 0.1618 0.3724
0.2284 0.1684 0.3978
0.3680 0.1702 0.4202
0.5679 0.1657 0.4426
0.7714 0.1587 0.4642
0.8980 0.1547 0.4786
0.9338 0.1536 0.4829
0.0000 0.2228 0.2941
0.0192 0.2374 0.3228
0.1265 0.2529 0.3544
0.2414 0.2664 0.3873
0.3849 0.2714 0.4149
0.5807 0.2645 0.4350
0.7799 0.2548 0.4550
0.9047 0.2497 0.4690
0.9400 0.2484 0.4733
0.0000 0.3293 0.2705
0.0163 0.3429 0.2966
0.1246 0.3593 0.3260
0.2446 0.3794 0.3602
0.4085 0.4085 0.4085
0.5897 0.3932 0.4242
0.7834 0.3801 0.4437
0.9064 0.3740 0.4580
0.9414 0.3726 0.4623
0.0000 0.4957 0.2506
0.0000 0.5044 0.2727
0.0954 0.5156 0.2979
0.2042 0.5299 0.3277
0.3456 0.5521 0.3670
0.5682 0.5701 0.3796
0.7834 0.5608 0.4075
0.9083 0.5555 0.4270
0.9435 0.5543 0.4326
0.0000 0.6835 0.2472
0.0000 0.6883 0.2656
0.0647 0.6947 0.2861
0.1635 0.7036 0.3092
0.2947 0.7185 0.3386
0.5030 0.7418 0.3550
0.7444 0.7484 0.3573
0.8897 0.7459 0.3732
0.9292 0.7451 0.3790
0.0000 0.8069 0.2515
0.0000 0.8101 0.2682
0.0511 0.8146 0.2862
0.1461 0.8211 0.3061
0.2729 0.8324 0.3308
0.4737 0.8523 0.3478
0.7082 0.8647 0.3435
0.8603 0.8656 0.3493
0.9026 0.8654 0.3530
0.0000 0.8424 0.2533
0.0000 0.8453 0.2696
0.0480 0.8494 0.2871
0.1421 0.8553 0.3062
0.2680 0.8657 0.3298
0.4670 0.8846 0.3467
0.6988 0.8978 0.3418
0.8511 0.8996 0.3450
0.8939 0.8995 0.3478
0.0000 0.0000 0.5306
0.0000 0.0000 0.5528
0.0525 0.0000 0.5745
0.1597 0.0000 0.5959
0.3016 0.0000 0.6208
0.5138 0.0000 0.6522
0.7304 0.0000 0.6801
0.8632 0.0000 0.6965
0.9005 0.0000 0.7010
0.0000 0.0538 0.5155
0.0000 0.0600 0.5393
0.0618 0.0657 0.5629
0.1701 0.0704 0.5862
0.3133 0.0744 0.6129
0.5261 0.0762 0.6450
0.7419 0.0748 0.6723
0.8740 0.0732 0.6882
0.9111 0.0727 0.6926
0.0000 0.1371 0.4983
0.0000 0.1451 0.5236
0.0708 0.1527 0.5495
0.1807 0.1592 0.5755
0.3258 0.1648 0.6049
0.5395 0.1670 0.6379
0.7543 0.1649 0.6644
0.8853 0.1628 0.6798
0.9221 0.1621 0.6841
0.0000 0.2251 0.4781
0.0000 0.2350 0.5044
0.0795 0.2452 0.5324
0.1914 0.2548 0.5619
0.3394 0.2633 0.5959
0.5549 0.2666 0.6310
0.7679 0.2634 0.6563
0.8974 0.2603 0.6708
0.9337 0.2595 0.6749
0.0000 0.3391 0.4514
0.0000 0.3502 0.4766
0.0877 0.3631 0.5049
0.2024 0.3778 0.5376
0.3561 0.3945 0.5807
0.5769 0.4021 0.6230
0.7860 0.3966 0.6459
0.9126 0.3918 0.6589
0.9482 0.3904 0.6627
0.0000 0.5102 0.4219
0.0000 0.5187 0.4430
0.0876 0.5299 0.4671
0.2024 0.5447 0.4961
0.3614 0.5689 0.5395
0.6128 0.6128 0.6128
0.8036 0.5968 0.6294
0.9241 0.5883 0.6413
0.9585 0.5861 0.6449
0.0000 0.6957 0.4101
0.0000 0.7004 0.4278
0.0747 0.7068 0.4480
0.1816 0.7159 0.4723
0.3276 0.7320 0.5091
0.5469 0.7643 0.5694
0.7811 0.7831 0.5826
0.9199 0.7778 0.5987
0.9565 0.7760 0.6042
0.0000 0.8166 0.4107
0.0000 0.8195 0.4270
0.0661 0.8236 0.4453
0.1680 0.8298 0.4670
0.3056 0.8414 0.4992
0.5134 0.8664 0.5500
0.7384 0.8910 0.5647
0.8901 0.8934 0.5677
0.9319 0.8927 0.5711
0.0000 0.8514 0.4118
0.0000 0.8539 0.4278
0.0639 0.8576 0.4456
0.1646 0.8631 0.4666
0.3003 0.8735 0.4976
0.5054 0.8967 0.5459
0.7275 0.9212 0.5615
0.8791 0.9256 0.5619
0.9217 0.9254 0.5643
0.0000 0.0000 0.7278
0.0000 0.0000 0.7488
0.0111 0.0000 0.7700
0.1181 0.0000 0.7918
0.2611 0.0000 0.8189
0.4776 0.0000 0.8549
0.7001 0.0000 0.8871
0.8364 0.0000 0.9052
0.8746 0.0000 0.9102
0.0000 0.0548 0.7125
0.0000 0.0592 0.7345
0.0191 0.0635 0.7568
0.1268 0.0677 0.7800
0.2709 0.0721 0.8087
0.4886 0.0761 0.8463
0.7114 0.0775 0.8788
0.8476 0.0773 0.8969
0.8858 0.0772 0.9018
0.0000 0.1387 0.6956
0.0000 0.1440 0.7185
0.0271 0.1494 0.7422
0.1356 0.1547 0.7670
0.2810 0.1604 0.7979
0.5003 0.1655 0.8376
0.7236 0.1671 0.8706
0.8596 0.1668 0.8885
0.8977 0.1666 0.8933
0.0000 0.2285 0.6763
0.0000 0.2349 0.6999
0.0354 0.2417 0.7248
0.1448 0.2486 0.7517
0.2918 0.2562 0.7855
0.5134 0.2632 0.8284
0.7374 0.2651 0.8621
0.8730 0.2646 0.8797
0.9109 0.2643 0.8844
0.0000 0.3470 0.6498
0.0000 0.3546 0.6733
0.0453 0.3631 0.6991
0.1560 0.3727 0.7280
0.3055 0.3843 0.7665
0.5315 0.3956 0.8163
0.7571 0.3983 0.8518
0.8918 0.3972 0.8687
0.9293 0.3967 0.8732
0.0000 0.5246 0.6142
0.0000 0.5317 0.6347
0.0564 0.5408 0.6581
0.1679 0.5527 0.6860
0.3210 0.5714 0.7276
0.5578 0.5982 0.7941
0.7901 0.6061 0.8387
0.9224 0.6035 0.8538
0.9588 0.6023 0.8576
0.0000 0.7114 0.5922
0.0000 0.7159 0.6091
0.0614 0.7221 0.6284
0.1703 0.7310 0.6515
0.3212 0.7472 0.6867
0.5634 0.7819 0.7509
0.8278 0.8278 0.8278
0.9467 0.8176 0.8380
0.9804 0.8149 0.8410
0.0000 0.8309 0.5871
0.0000 0.8337 0.6025
0.0617 0.8378 0.6198
0.1674 0.8439 0.6404
0.3131 0.8557 0.6719
0.5447 0.8828 0.7300
0.7855 0.9211 0.7995
0.9322 0.9335 0.8083
0.9727 0.9321 0.8120
0.0000 0.8652 0.5866
0.0000 0.8676 0.6017
0.0615 0.8711 0.6186
0.1663 0.8765 0.6387
0.3103 0.8871 0.6692
0.5382 0.9120 0.7255
0.7742 0.9482 0.7922
0.9194 0.9638 0.8017
0.9621 0.9637 0.8032
0.0000 0.0000 0.8530
0.0000 0.0000 0.8734
0.0000 0.0000 0.8941
0.0940 0.0000 0.9157
0.2370 0.0000 0.9432
0.4545 0.0000 0.9809
0.6792 0.0000 1.0000
0.8172 0.0000 1.0000
0.8559 0.0000 1.0000
0.0000 0.0576 0.8376
0.0000 0.0611 0.8587
0.0000 0.0647 0.8804
0.1020 0.0683 0.9031
0.2459 0.0724 0.9320
0.4647 0.0767 0.9714
0.6901 0.0790 1.0000
0.8282 0.0794 1.0000
0.8669 0.0794 1.0000
0.0000 0.1416 0.8209
0.0000 0.1459 0.8427
0.0027 0.1502 0.8653
0.1103 0.1546 0.8893
0.2550 0.1597 0.9200
0.4753 0.1652 0.9615
0.7016 0.1680 0.9976
0.8399 0.1685 1.0000
0.8786 0.1686 1.0000
0.0000 0.2321 0.8020
0.0000 0.2371 0.8243
0.0107 0.2423 0.8478
0.1189 0.2478 0.8733
0.2648 0.2545 0.9062
0.4869 0.2617 0.9507
0.7146 0.2652 0.9883
0.8530 0.2658 1.0000
0.8917 0.2658 1.0000
0.0000 0.3522 0.7760
0.0000 0.3580 0.7983
0.0209 0.3645 0.8225
0.1297 0.3719 0.8495
0.2772 0.3813 0.8857
0.5027 0.3921 0.9360
0.7327 0.3972 0.9765
0.8714 0.3978 0.9965
0.9100 0.3978 1.0000
0.0000 0.5330 0.7387
0.0000 0.5389 0.7590
0.0346 0.5464 0.7818
0.1438 0.5558 0.8086
0.2935 0.5702 0.8478
0.5256 0.5913 0.9096
0.7626 0.6024 0.9603
0.9022 0.6034 0.9811
0.9406 0.6032 0.9861
0.0000 0.7217 0.7115
0.0000 0.7258 0.7284
0.0457 0.7315 0.7474
0.1536 0.7396 0.7701
0.3026 0.7542 0.8046
0.5401 0.7850 0.8674
0.7931 0.8184 0.9407
0.9383 0.8234 0.9686
0.9761 0.8228 0.9731
0.0000 0.8411 0.7025
0.0000 0.8438 0.7177
0.0507 0.8477 0.7347
0.1566 0.8537 0.7548
0.3028 0.8651 0.7853
0.5372 0.8920 0.8417
0.7963 0.9326 0.9133
0.9621 0.9621 0.9621
0.9956 0.9591 0.9649
0.0000 0.8752 0.7010
0.0000 0.8775 0.7158
0.0518 0.8810 0.7323
0.1571 0.8863 0.7519
0.3022 0.8966 0.7814
0.5346 0.9217 0.8360
0.7912 0.9604 0.9061
0.9499 0.9882 0.9539
0.9915 0.9918 0.9565
0.0000 0.0000 0.8886
0.0000 0.0000 0.9088
0.0000 0.0000 0.9294
0.0874 0.0000 0.9510
0.2303 0.0000 0.9784
0.4480 0.0000 1.0000
0.6732 0.0000 1.0000
0.8116 0.0000 1.0000
0.8504 0.0000 1.0000
0.0000 0.0586 0.8732
0.0000 0.0619 0.8941
0.0000 0.0653 0.9156
0.0953 0.0687 0.9382
0.2390 0.0727 0.9671
0.4579 0.0770 1.0000
0.6839 0.0794 1.0000
0.8225 0.0800 1.0000
0.8613 0.0801 1.0000
0.0000 0.1427 0.8565
0.0000 0.1467 0.8781
0.0000 0.1507 0.9004
0.1034 0.1549 0.9242
0.2480 0.1598 0.9547
0.4683 0.1653 0.9966
0.6953 0.1683 1.0000
0.8341 0.1690 1.0000
0.8729 0.1691 1.0000
0.0000 0.2333 0.8377
0.0000 0.2379 0.8597
0.0041 0.2428 0.8829
0.1119 0.2480 0.9080
0.2575 0.2544 0.9407
0.4796 0.2615 0.9854
0.7079 0.2653 1.0000
0.8470 0.2662 1.0000
0.8858 0.2662 1.0000
0.0000 0.3538 0.8118
0.0000 0.3592 0.8339
0.0143 0.3652 0.8577
0.1227 0.3720 0.8842
0.2697 0.3808 0.9199
0.4949 0.3914 0.9700
0.7256 0.3968 1.0000
0.8651 0.3979 1.0000
0.9040 0.3979 1.0000
0.0000 0.5354 0.7744
0.0000 0.5409 0.7945
0.0284 0.5479 0.8171
0.1372 0.5567 0.8436
0.2860 0.5701 0.8820
0.5170 0.5898 0.9426
0.7544 0.6012 0.9942
0.8954 0.6030 1.0000
0.9342 0.6029 1.0000
0.0000 0.7246 0.7460
0.0000 0.7286 0.7628
0.0408 0.7341 0.7817
0.1483 0.7419 0.8043
0.2966 0.7559 0.8387
0.5324 0.7850 0.9010
0.7835 0.8159 0.9728
0.9307 0.8224 1.0000
0.9696 0.8223 1.0000
0.0000 0.8441 0.7359
0.0000 0.8467 0.7510
0.0468 0.8506 0.7679
0.1526 0.8564 0.7880
0.2986 0.8676 0.8184
0.5323 0.8940 0.8743
0.7903 0.9338 0.9457
0.9522 0.9593 0.9939
0.9932 0.9608 1.0000
0.0000 0.8782 0.7341
0.0000 0.8804 0.7489
0.0483 0.8838 0.7653
0.1535 0.8891 0.7847
0.2985 0.8993 0.8141
0.5307 0.9240 0.8682
0.7878 0.9626 0.9378
0.9530 0.9916 0.9861
1.0000 1.0000 1.0000
