assets/luts/LUTs/JD_LA PAZ.CUBE
TITLE "Generated by 3D LUT Creator Pro (c) Oleg Sharonov"
LUT_3D_SIZE 4
#INPUTGAMMA Display v.2.10
#IMAGEPROFILE Display v.2.10
#OUTPUTGAMMA Display v.2.10
0.000000 0.000000 0.000000
0.307058 0.051020 0.000000
0.620764 0.143408 0.000000
0.930588 0.234257 0.000000
0.254593 0.294272 0.229943
0.449861 0.282520 0.135683
0.743578 0.267502 0.000000
1.000000 0.330234 0.117744
0.522700 0.596638 0.476781
0.604576 0.597532 0.472274
0.887267 0.575072 0.300745
1.000000 0.648779 0.541950
0.824217 0.880031 0.792022
0.856851 0.884180 0.799816
0.931532 0.903907 0.861311
0.994912 0.961457 0.945568
0.000000 0.081950 0.135389
0.293514 0.101867 0.243727
0.689358 0.000000 0.067852
0.977725 0.167967 0.000000
0.000000 0.326359 0.387307
0.332533 0.332533 0.332533
0.717923 0.300745 0.251284
1.000000 0.340699 0.233929
0.467712 0.614517 0.508943
0.556815 0.614770 0.522263
0.831173 0.601145 0.459372
1.000000 0.654001 0.564287
0.807263 0.888492 0.801147
0.842141 0.891778 0.813776
0.929170 0.909040 0.862943
0.995371 0.965010 0.950665
0.000000 0.200901 0.300253
0.000000 0.256378 0.410632
0.595477 0.237354 0.502508
1.000000 0.194352 0.337611
0.000000 0.365930 0.493695
0.179596 0.388302 0.537039
0.628954 0.379973 0.555143
1.000000 0.373980 0.433058
0.000000 0.656895 0.770554
0.346878 0.658103 0.745279
0.668353 0.668353 0.668353
1.000000 0.670578 0.645506
0.746424 0.910652 0.894955
0.794462 0.913591 0.884464
0.900772 0.931001 0.883928
0.996962 0.977255 0.968041
0.000000 0.318323 0.463167
0.000000 0.354749 0.529992
0.000000 0.446457 0.753788
0.893742 0.371511 0.758170
0.000000 0.434555 0.606849
0.000000 0.459666 0.659448
0.000000 0.527103 0.858757
0.944093 0.443327 0.809075
0.000000 0.686773 0.881047
0.000000 0.701889 0.909071
0.317403 0.735317 1.000000
0.963856 0.703680 0.881174
0.736481 0.931355 1.000000
0.765349 0.937840 1.000000
0.855995 0.959901 1.000000
1.000000 1.000000 1.000000
