assets/luts/LUTs/JD_LA PAZ.CUBE
TITLE "Generated by 3D LUT Creator Pro (c) Oleg Sharonov"
LUT_3D_SIZE 64
#INPUTGAMMA Display v.2.10
#IMAGEPROFILE Display v.2.10
#OUTPUTGAMMA Display v.2.10
0.000000 0.000000 0.000000
0.012617 0.000789 0.000000
0.025234 0.001577 0.000000
0.040994 0.002366 0.000000
0.054934 0.003154 0.000000
0.068934 0.003943 0.000000
0.084717 0.005520 0.000000
0.098330 0.006309 0.000000
0.113270 0.008674 0.000000
0.129049 0.010251 0.000000
0.143129 0.012617 0.000000
0.157963 0.014983 0.000000
0.173085 0.017349 0.000000
0.187972 0.019714 0.000000
0.202454 0.022869 0.000000
0.218025 0.026812 0.000000
0.232443 0.029966 0.000000
0.247770 0.033909 0.000000
0.262657 0.037852 0.000000
0.277169 0.042516 0.000000
0.292373 0.046892 0.000000
0.307058 0.051020 0.000000
0.321975 0.055568 0.000000
0.336968 0.059868 0.000000
0.351606 0.064521 0.000000
0.366706 0.068934 0.000000
0.381823 0.073137 0.000000
0.396505 0.077646 0.000000
0.411642 0.081950 0.000000
0.426443 0.086072 0.000000
0.441251 0.090463 0.000000
0.456279 0.095088 0.000000
0.471352 0.099522 0.000000
0.486118 0.103784 0.000000
0.501129 0.108258 0.000000
0.516038 0.112567 0.000000
0.530971 0.117066 0.000000
0.545862 0.121406 0.000000
0.560937 0.125602 0.000000
0.575899 0.129973 0.000000
0.590861 0.134501 0.000000
0.605765 0.138882 0.000000
0.620764 0.143408 0.000000
0.635748 0.147794 0.000000
0.650620 0.152050 0.000000
0.665661 0.156443 0.000000
0.680630 0.160958 0.000000
0.695660 0.165345 0.000000
0.710659 0.169613 0.000000
0.725543 0.173999 0.000000
0.740559 0.178491 0.000000
0.755615 0.182866 0.000000
0.770629 0.187342 0.000000
0.785529 0.191704 0.000000
0.800536 0.195961 0.000000
0.815570 0.200511 0.000000
0.830557 0.204759 0.000000
0.845565 0.209285 0.000000
0.860526 0.213705 0.000000
0.875505 0.218025 0.000000
0.890559 0.222426 0.000000
0.905500 0.226902 0.000000
0.920482 0.231280 0.000000
0.930588 0.234257 0.000000
0.008674 0.011829 0.007097
0.029177 0.011040 0.003154
0.048294 0.009463 0.000000
0.063382 0.009463 0.000000
0.075168 0.010251 0.000000
0.087409 0.010251 0.000000
0.101090 0.011829 0.000000
0.113270 0.012617 0.000000
0.126866 0.014194 0.000000
0.141164 0.015771 0.000000
0.154133 0.018137 0.000000
0.167967 0.020503 0.000000
0.182434 0.022869 0.000000
0.196561 0.026023 0.000000
0.210585 0.028389 0.000000
0.224849 0.031543 0.000000
0.239446 0.035486 0.000000
0.253696 0.039429 0.000000
0.268066 0.043264 0.000000
0.282785 0.047596 0.000000
0.297654 0.051686 0.000000
0.312164 0.055568 0.000000
0.326804 0.059868 0.000000
0.341544 0.063953 0.000000
0.355957 0.067852 0.000000
0.370843 0.072104 0.000000
0.385307 0.076662 0.000000
0.400269 0.081010 0.000000
0.414905 0.085170 0.000000
0.429886 0.089165 0.000000
0.444552 0.093429 0.000000
0.459446 0.097930 0.000000
0.474112 0.101867 0.000000
0.489044 0.106415 0.000000
0.503947 0.110791 0.000000
0.518754 0.115010 0.000000
0.533591 0.119088 0.000000
0.548392 0.123360 0.000000
0.563381 0.127806 0.000000
0.578263 0.132105 0.000000
0.593148 0.136563 0.000000
0.607981 0.140880 0.000000
0.622912 0.145068 0.000000
0.637831 0.149404 0.000000
0.652642 0.153875 0.000000
0.667624 0.158215 0.000000
0.682538 0.162434 0.000000
0.697515 0.166781 0.000000
0.712463 0.171243 0.000000
0.727300 0.175585 0.000000
0.742269 0.179816 0.000000
0.757126 0.184157 0.000000
0.772102 0.188599 0.000000
0.787150 0.192931 0.000000
0.802081 0.197358 0.000000
0.817078 0.201679 0.000000
0.832029 0.206090 0.000000
0.847004 0.210585 0.000000
0.861932 0.214794 0.000000
0.876879 0.219268 0.000000
0.891903 0.223641 0.000000
0.906814 0.227921 0.000000
0.921798 0.232277 0.000000
0.931856 0.235240 0.000000
0.018137 0.023657 0.014983
0.033120 0.023657 0.015771
0.055568 0.022080 0.005520
0.073137 0.020503 0.000000
0.086965 0.019714 0.000000
0.099522 0.018926 0.000000
0.112919 0.019714 0.000000
0.124646 0.019714 0.000000
0.137437 0.021292 0.000000
0.151261 0.022869 0.000000
0.163654 0.024446 0.000000
0.176933 0.026812 0.000000
0.190882 0.029177 0.000000
0.204377 0.031543 0.000000
0.217847 0.034697 0.000000
0.231613 0.037852 0.000000
0.245758 0.040994 0.000000
0.260341 0.044738 0.000000
0.274448 0.048985 0.000000
0.288272 0.052347 0.000000
0.302826 0.056196 0.000000
0.317057 0.059868 0.000000
0.331441 0.063953 0.000000
0.345944 0.067852 0.000000
0.360145 0.072104 0.000000
0.374830 0.076167 0.000000
0.389204 0.080060 0.000000
0.403989 0.084261 0.000000
0.418383 0.088291 0.000000
0.433216 0.092168 0.000000
0.447747 0.096315 0.000000
0.462586 0.100700 0.000000
0.477411 0.104919 0.000000
0.491882 0.108987 0.000000
0.506680 0.112919 0.000000
0.521451 0.117405 0.000000
0.536194 0.121406 0.000000
0.550848 0.125602 0.000000
0.565755 0.129973 0.000000
0.580614 0.134204 0.000000
0.595425 0.138595 0.000000
0.610136 0.142850 0.000000
0.625050 0.146981 0.000000
0.639857 0.151261 0.000000
0.654656 0.155677 0.000000
0.669580 0.159966 0.000000
0.684395 0.164139 0.000000
0.699363 0.168439 0.000000
0.714261 0.172856 0.000000
0.729051 0.177156 0.000000
0.743974 0.181348 0.000000
0.758942 0.185863 0.000000
0.773872 0.190055 0.000000
0.788693 0.194352 0.000000
0.803622 0.198744 0.000000
0.818582 0.203033 0.000000
0.833498 0.207412 0.000000
0.848439 0.211692 0.000000
0.863334 0.216057 0.000000
0.878250 0.220502 0.000000
0.893244 0.224849 0.000000
0.908126 0.229103 0.000000
0.923052 0.233435 0.000000
0.933122 0.236381 0.000000
0.026812 0.036274 0.022080
0.042516 0.037063 0.022869
0.058662 0.036274 0.019714
0.077155 0.033909 0.008674
0.093429 0.031543 0.000000
0.108623 0.029966 0.000000
0.121406 0.029177 0.000000
0.134501 0.029177 0.000000
0.147253 0.029966 0.000000
0.159717 0.030754 0.000000
0.172627 0.032332 0.000000
0.185438 0.033909 0.000000
0.198151 0.036274 0.000000
0.211508 0.038640 0.000000
0.225192 0.040994 0.000000
0.238644 0.044005 0.000000
0.252342 0.047596 0.000000
0.265946 0.050348 0.000000
0.279726 0.053651 0.000000
0.293893 0.057439 0.000000
0.307657 0.061056 0.000000
0.321634 0.064521 0.000000
0.335893 0.068394 0.000000
0.350175 0.072104 0.000000
0.364567 0.075669 0.000000
0.379045 0.079582 0.000000
0.393231 0.083343 0.000000
0.407838 0.087409 0.000000
0.422152 0.091319 0.000000
0.436515 0.095088 0.000000
0.451214 0.099522 0.000000
0.465627 0.103403 0.000000
0.480266 0.107524 0.000000
0.494966 0.111504 0.000000
0.509652 0.115699 0.000000
0.524069 0.119755 0.000000
0.538962 0.124005 0.000000
0.553523 0.128118 0.000000
0.568341 0.132105 0.000000
0.582899 0.136270 0.000000
0.597637 0.140597 0.000000
0.612484 0.144793 0.000000
0.627129 0.148869 0.000000
0.642115 0.153095 0.000000
0.656802 0.157458 0.000000
0.671664 0.161698 0.000000
0.686465 0.165825 0.000000
0.701163 0.170081 0.000000
0.716012 0.174454 0.000000
0.730918 0.178713 0.000000
0.745793 0.183082 0.000000
0.760560 0.187342 0.000000
0.775450 0.191499 0.000000
0.790414 0.195761 0.000000
0.805267 0.200120 0.000000
0.820083 0.204377 0.000000
0.834930 0.208725 0.000000
0.849871 0.212975 0.000000
0.864831 0.217312 0.000000
0.879713 0.221729 0.000000
0.894551 0.226049 0.000000
0.909527 0.230278 0.000000
0.924452 0.234585 0.000000
0.934473 0.237515 0.000000
0.038640 0.050348 0.031543
0.052347 0.050348 0.030754
0.063382 0.050348 0.033909
0.079582 0.049669 0.026023
0.097930 0.046892 0.011829
0.113969 0.044738 0.000000
0.129666 0.042516 0.000000
0.143408 0.041759 0.000000
0.156443 0.040994 0.000000
0.168910 0.040994 0.000000
0.181130 0.041759 0.000000
0.194554 0.043264 0.000000
0.206847 0.044738 0.000000
0.219797 0.046892 0.000000
0.233105 0.048985 0.000000
0.246224 0.051686 0.000000
0.259174 0.054295 0.000000
0.272937 0.057439 0.000000
0.286457 0.060464 0.000000
0.299760 0.063382 0.000000
0.313805 0.066756 0.000000
0.327472 0.070003 0.000000
0.341439 0.073137 0.000000
0.355454 0.076662 0.000000
0.369694 0.080536 0.000000
0.383570 0.083803 0.000000
0.397911 0.087851 0.000000
0.411978 0.091319 0.000000
0.426443 0.095088 0.000000
0.440710 0.099126 0.000000
0.455242 0.103021 0.000000
0.469501 0.106786 0.000000
0.484062 0.110791 0.000000
0.498358 0.114664 0.000000
0.512857 0.118753 0.000000
0.527411 0.122712 0.000000
0.541950 0.126551 0.000000
0.556700 0.130891 0.000000
0.571191 0.134798 0.000000
0.585874 0.138882 0.000000
0.600467 0.143129 0.000000
0.615277 0.147253 0.000000
0.629839 0.151261 0.000000
0.644553 0.155421 0.000000
0.659170 0.159717 0.000000
0.673965 0.163897 0.000000
0.688702 0.167967 0.000000
0.703510 0.172167 0.000000
0.718296 0.176485 0.000000
0.733142 0.180693 0.000000
0.747802 0.184799 0.000000
0.762710 0.189016 0.000000
0.777509 0.193338 0.000000
0.792277 0.197557 0.000000
0.807085 0.201873 0.000000
0.821997 0.206090 0.000000
0.836800 0.210400 0.000000
0.851697 0.214613 0.000000
0.866487 0.218913 0.000000
0.881364 0.223121 0.000000
0.896259 0.227412 0.000000
0.911107 0.231779 0.000000
0.925969 0.236056 0.000000
0.935998 0.238965 0.000000
0.051686 0.065085 0.043264
0.063382 0.065085 0.041759
0.073137 0.065085 0.044005
0.083343 0.064521 0.044738
0.099522 0.063382 0.033909
0.118753 0.061056 0.016560
0.135389 0.058662 0.000000
0.150468 0.056196 0.000000
0.164623 0.054934 0.000000
0.177603 0.054295 0.000000
0.190675 0.054295 0.000000
0.203418 0.054295 0.000000
0.215697 0.055568 0.000000
0.228428 0.056820 0.000000
0.241360 0.058662 0.000000
0.254294 0.060464 0.000000
0.267502 0.062806 0.000000
0.280394 0.065085 0.000000
0.293640 0.067305 0.000000
0.307178 0.070003 0.000000
0.320383 0.073137 0.000000
0.333947 0.076167 0.000000
0.347603 0.079102 0.000000
0.361331 0.082416 0.000000
0.375301 0.085622 0.000000
0.389384 0.089165 0.000000
0.403128 0.092590 0.000000
0.417393 0.096315 0.000000
0.431317 0.099916 0.000000
0.445696 0.103403 0.000000
0.459739 0.107156 0.000000
0.474112 0.110791 0.000000
0.488230 0.114664 0.000000
0.502639 0.118418 0.000000
0.517051 0.122387 0.000000
0.531460 0.126235 0.000000
0.545862 0.129973 0.000000
0.560253 0.133906 0.000000
0.574851 0.138017 0.000000
0.589204 0.142009 0.000000
0.603746 0.145891 0.000000
0.618456 0.150203 0.000000
0.632925 0.154133 0.000000
0.647691 0.158215 0.000000
0.662265 0.162189 0.000000
0.676973 0.166304 0.000000
0.691627 0.170547 0.000000
0.706186 0.174681 0.000000
0.720901 0.178713 0.000000
0.735719 0.182866 0.000000
0.750431 0.187131 0.000000
0.765120 0.191293 0.000000
0.779860 0.195560 0.000000
0.794716 0.199728 0.000000
0.809501 0.203802 0.000000
0.824182 0.208164 0.000000
0.838968 0.212243 0.000000
0.853784 0.216596 0.000000
0.868688 0.220853 0.000000
0.883485 0.225021 0.000000
0.898241 0.229271 0.000000
0.913137 0.233599 0.000000
0.927986 0.237839 0.000000
0.937957 0.240724 0.000000
0.063953 0.079102 0.054934
0.074664 0.079102 0.054295
0.083343 0.079582 0.054295
0.091319 0.079102 0.056820
0.103784 0.079102 0.054934
0.120418 0.077155 0.041759
0.138882 0.074664 0.021292
0.156951 0.072104 0.000000
0.171474 0.070003 0.000000
0.185650 0.068394 0.000000
0.199335 0.067305 0.000000
0.212243 0.066756 0.000000
0.225192 0.067305 0.000000
0.237839 0.067852 0.000000
0.250220 0.068934 0.000000
0.262945 0.070003 0.000000
0.275948 0.071584 0.000000
0.288660 0.073649 0.000000
0.301604 0.075669 0.000000
0.314854 0.078134 0.000000
0.327915 0.080536 0.000000
0.341544 0.083343 0.000000
0.354850 0.086072 0.000000
0.368444 0.089165 0.000000
0.381823 0.092168 0.000000
0.395624 0.095088 0.000000
0.409195 0.098330 0.000000
0.423209 0.101867 0.000000
0.436983 0.104919 0.000000
0.451064 0.108623 0.000000
0.464977 0.111859 0.000000
0.479154 0.115699 0.000000
0.493159 0.119088 0.000000
0.507392 0.122712 0.000000
0.521701 0.126551 0.000000
0.535953 0.130280 0.000000
0.550206 0.134204 0.000000
0.564457 0.137728 0.000000
0.578920 0.141728 0.000000
0.593360 0.145618 0.000000
0.607775 0.149671 0.000000
0.622164 0.153356 0.000000
0.636718 0.157458 0.000000
0.651232 0.161452 0.000000
0.665707 0.165345 0.000000
0.680319 0.169379 0.000000
0.694882 0.173543 0.000000
0.709523 0.177603 0.000000
0.724151 0.181566 0.000000
0.738724 0.185650 0.000000
0.753360 0.189848 0.000000
0.767976 0.193744 0.000000
0.782683 0.197953 0.000000
0.797434 0.202067 0.000000
0.812154 0.206280 0.000000
0.826809 0.210400 0.000000
0.841636 0.214613 0.000000
0.856292 0.218736 0.000000
0.871108 0.222948 0.000000
0.885883 0.227242 0.000000
0.900679 0.231447 0.000000
0.915433 0.235567 0.000000
0.930204 0.239766 0.000000
0.940173 0.242626 0.000000
0.076662 0.093429 0.066202
0.086072 0.093429 0.066202
0.093846 0.093429 0.064521
0.101479 0.093846 0.067305
0.110432 0.093846 0.069470
0.124005 0.092590 0.064521
0.140880 0.091319 0.050348
0.159966 0.088729 0.027600
0.177825 0.085622 0.002366
0.192523 0.084261 0.000000
0.206847 0.081950 0.000000
0.221029 0.081010 0.000000
0.233929 0.080060 0.000000
0.246844 0.080060 0.000000
0.259758 0.080536 0.000000
0.272386 0.081010 0.000000
0.284759 0.081950 0.000000
0.297778 0.083803 0.000000
0.310512 0.085170 0.000000
0.323106 0.086965 0.000000
0.336323 0.089165 0.000000
0.349252 0.091319 0.000000
0.362512 0.093846 0.000000
0.375771 0.096315 0.000000
0.389204 0.099126 0.000000
0.402523 0.101867 0.000000
0.416151 0.104919 0.000000
0.429647 0.107892 0.000000
0.443480 0.111148 0.000000
0.457165 0.114317 0.000000
0.471139 0.117744 0.000000
0.484886 0.121078 0.000000
0.498953 0.124326 0.000000
0.512793 0.127806 0.000000
0.526856 0.131499 0.000000
0.540996 0.135093 0.000000
0.555085 0.138595 0.000000
0.569237 0.142290 0.000000
0.583550 0.145891 0.000000
0.597847 0.149671 0.000000
0.612127 0.153615 0.000000
0.626437 0.157458 0.000000
0.640867 0.161205 0.000000
0.655263 0.165105 0.000000
0.669626 0.168910 0.000000
0.684130 0.172856 0.000000
0.698591 0.176709 0.000000
0.713175 0.180912 0.000000
0.727667 0.184799 0.000000
0.742150 0.188808 0.000000
0.756739 0.192727 0.000000
0.771423 0.196761 0.000000
0.786045 0.200901 0.000000
0.800572 0.204950 0.000000
0.815218 0.209098 0.000000
0.829939 0.213158 0.000000
0.844560 0.217312 0.000000
0.859282 0.221379 0.000000
0.873935 0.225535 0.000000
0.888617 0.229607 0.000000
0.903386 0.233764 0.000000
0.918052 0.238000 0.000000
0.932798 0.242152 0.000000
0.942731 0.244979 0.000000
0.089600 0.107892 0.078134
0.097930 0.107892 0.078134
0.105295 0.107892 0.076662
0.111504 0.107892 0.077155
0.119755 0.108258 0.080060
0.129357 0.107892 0.081950
0.144241 0.106415 0.073649
0.161205 0.104919 0.058662
0.180255 0.102253 0.033909
0.198744 0.099522 0.004731
0.213158 0.097930 0.000000
0.228090 0.095499 0.000000
0.242310 0.094262 0.000000
0.255636 0.093429 0.000000
0.268487 0.093011 0.000000
0.281193 0.093011 0.000000
0.294019 0.093429 0.000000
0.306578 0.094262 0.000000
0.319241 0.095499 0.000000
0.332097 0.097126 0.000000
0.344694 0.098729 0.000000
0.357859 0.100700 0.000000
0.370843 0.102637 0.000000
0.383662 0.104542 0.000000
0.396857 0.107156 0.000000
0.410210 0.109712 0.000000
0.423372 0.112214 0.000000
0.436983 0.115010 0.000000
0.450312 0.117744 0.000000
0.464037 0.121078 0.000000
0.477551 0.124005 0.000000
0.491410 0.127180 0.000000
0.504990 0.130280 0.000000
0.518879 0.133608 0.000000
0.532800 0.136855 0.000000
0.546746 0.140312 0.000000
0.560709 0.143686 0.000000
0.574685 0.147253 0.000000
0.588883 0.150998 0.000000
0.603020 0.154392 0.000000
0.617197 0.158215 0.000000
0.631311 0.161698 0.000000
0.645649 0.165586 0.000000
0.659911 0.169379 0.000000
0.674146 0.173085 0.000000
0.688571 0.176933 0.000000
0.702913 0.180693 0.000000
0.717218 0.184585 0.000000
0.731808 0.188390 0.000000
0.746187 0.192319 0.000000
0.760675 0.196362 0.000000
0.775112 0.200315 0.000000
0.789646 0.204185 0.000000
0.804231 0.208164 0.000000
0.818791 0.212243 0.000000
0.833293 0.216237 0.000000
0.848005 0.220326 0.000000
0.862519 0.224332 0.000000
0.877198 0.228428 0.000000
0.891840 0.232443 0.000000
0.906539 0.236543 0.000000
0.921140 0.240724 0.000000
0.935822 0.244823 0.000000
0.945713 0.247461 0.000000
0.102253 0.122061 0.089600
0.109712 0.122061 0.089600
0.116385 0.122061 0.088729
0.122712 0.122061 0.087409
0.129973 0.122387 0.090463
0.138306 0.122387 0.092590
0.148601 0.121734 0.093011
0.164623 0.120748 0.082881
0.181783 0.118753 0.067305
0.200901 0.116042 0.041759
0.219621 0.113270 0.008674
0.233929 0.111859 0.000000
0.249458 0.109712 0.000000
0.263663 0.107892 0.000000
0.276898 0.106786 0.000000
0.290075 0.106043 0.000000
0.303070 0.106043 0.000000
0.315668 0.106043 0.000000
0.328359 0.106786 0.000000
0.341122 0.107892 0.000000
0.353739 0.108987 0.000000
0.366706 0.110432 0.000000
0.379509 0.112214 0.000000
0.392162 0.113969 0.000000
0.405191 0.115699 0.000000
0.418383 0.118081 0.000000
0.431317 0.120418 0.000000
0.444705 0.123036 0.000000
0.457902 0.125284 0.000000
0.471423 0.128118 0.000000
0.484680 0.130891 0.000000
0.498358 0.133906 0.000000
0.511770 0.136855 0.000000
0.525496 0.140028 0.000000
0.539262 0.143129 0.000000
0.553001 0.146165 0.000000
0.566825 0.149671 0.000000
0.580614 0.152835 0.000000
0.594632 0.156188 0.000000
0.608649 0.159717 0.000000
0.622663 0.163167 0.000000
0.636670 0.166781 0.000000
0.650856 0.170314 0.000000
0.665020 0.173999 0.000000
0.679117 0.177603 0.000000
0.693409 0.181348 0.000000
0.707625 0.185012 0.000000
0.721850 0.188808 0.000000
0.736321 0.192523 0.000000
0.750588 0.196362 0.000000
0.764968 0.200120 0.000000
0.779301 0.203994 0.000000
0.793734 0.207976 0.000000
0.808259 0.211876 0.000000
0.822726 0.215697 0.000000
0.837139 0.219621 0.000000
0.851764 0.223641 0.000000
0.866195 0.227582 0.000000
0.880825 0.231613 0.000000
0.895390 0.235567 0.000000
0.909983 0.239606 0.000000
0.924542 0.243727 0.000000
0.939154 0.247770 0.000000
0.948999 0.250525 0.000000
0.114664 0.136270 0.101090
0.121406 0.136270 0.101090
0.127493 0.136270 0.100700
0.133906 0.136563 0.099916
0.140028 0.136563 0.100309
0.147794 0.136563 0.102637
0.156697 0.136563 0.104919
0.169145 0.135977 0.103021
0.185225 0.134798 0.092168
0.202454 0.132708 0.075669
0.221903 0.130280 0.049669
0.240724 0.127180 0.013406
0.254743 0.125919 0.000000
0.270305 0.123360 0.000000
0.284890 0.121406 0.000000
0.298523 0.120087 0.000000
0.311575 0.119088 0.000000
0.324793 0.119088 0.000000
0.337611 0.119088 0.000000
0.350073 0.119422 0.000000
0.363002 0.120087 0.000000
0.375583 0.121078 0.000000
0.388302 0.122387 0.000000
0.401138 0.123683 0.000000
0.414071 0.125602 0.000000
0.426765 0.127180 0.000000
0.439860 0.129357 0.000000
0.452785 0.131499 0.000000
0.465987 0.133608 0.000000
0.479085 0.135977 0.000000
0.492487 0.138595 0.000000
0.505706 0.141164 0.000000
0.519194 0.143964 0.000000
0.532496 0.146710 0.000000
0.546098 0.149671 0.000000
0.559682 0.152835 0.000000
0.573302 0.155933 0.000000
0.587166 0.158968 0.000000
0.600832 0.162189 0.000000
0.614720 0.165586 0.000000
0.628560 0.168910 0.000000
0.642594 0.172167 0.000000
0.656476 0.175585 0.000000
0.670487 0.179155 0.000000
0.684660 0.182650 0.000000
0.698634 0.186287 0.000000
0.712714 0.189848 0.000000
0.726973 0.193338 0.000000
0.741196 0.197159 0.000000
0.755498 0.200901 0.000000
0.769645 0.204568 0.000000
0.784015 0.208351 0.000000
0.798337 0.212059 0.000000
0.812648 0.215877 0.000000
0.827016 0.219621 0.000000
0.841467 0.223468 0.000000
0.855863 0.227412 0.000000
0.870335 0.231280 0.000000
0.884748 0.235240 0.000000
0.899230 0.239126 0.000000
0.913772 0.243098 0.000000
0.928253 0.246998 0.000000
0.942789 0.250981 0.000000
0.952584 0.253696 0.000000
0.127493 0.150733 0.112919
0.133608 0.150733 0.113270
0.139456 0.150733 0.112919
0.144793 0.150733 0.111859
0.150998 0.150733 0.110432
0.157963 0.150998 0.113270
0.166065 0.150998 0.115355
0.175585 0.150998 0.117405
0.189225 0.149937 0.112919
0.205521 0.148601 0.101090
0.223121 0.146710 0.083803
0.242468 0.143964 0.057439
0.261502 0.141164 0.018926
0.275676 0.140028 0.000000
0.291226 0.137147 0.000000
0.305856 0.135093 0.000000
0.319927 0.133608 0.000000
0.333295 0.132708 0.000000
0.346360 0.132105 0.000000
0.359352 0.132105 0.000000
0.371987 0.132105 0.000000
0.384942 0.132708 0.000000
0.397648 0.133608 0.000000
0.410126 0.134501 0.000000
0.422884 0.135683 0.000000
0.435810 0.137147 0.000000
0.448503 0.138882 0.000000
0.461493 0.140597 0.000000
0.474323 0.142571 0.000000
0.487482 0.144793 0.000000
0.500471 0.146981 0.000000
0.513750 0.149404 0.000000
0.526856 0.151788 0.000000
0.540219 0.154392 0.000000
0.553639 0.157205 0.000000
0.567106 0.159966 0.000000
0.580560 0.162923 0.000000
0.594050 0.165825 0.000000
0.607724 0.168910 0.000000
0.621465 0.171936 0.000000
0.634971 0.174907 0.000000
0.648874 0.178270 0.000000
0.662771 0.181566 0.000000
0.676660 0.184799 0.000000
0.690494 0.188181 0.000000
0.704531 0.191704 0.000000
0.718504 0.195158 0.000000
0.732455 0.198547 0.000000
0.746542 0.202067 0.000000
0.760752 0.205711 0.000000
0.774925 0.209285 0.000000
0.789023 0.212975 0.000000
0.803264 0.216596 0.000000
0.817603 0.220326 0.000000
0.831858 0.223987 0.000000
0.846101 0.227751 0.000000
0.860526 0.231613 0.000000
0.874768 0.235403 0.000000
0.889244 0.239286 0.000000
0.903631 0.243098 0.000000
0.917962 0.246998 0.000000
0.932474 0.250829 0.000000
0.946925 0.254743 0.000000
0.956665 0.257412 0.000000
0.140028 0.165105 0.124646
0.145891 0.164864 0.124965
0.150998 0.164864 0.124646
0.156188 0.164864 0.124005
0.162189 0.165345 0.123036
0.168675 0.165345 0.123360
0.176036 0.165345 0.125919
0.184585 0.165345 0.128118
0.194352 0.165105 0.129973
0.209471 0.163897 0.122387
0.226049 0.162434 0.109712
0.243727 0.160463 0.092168
0.263233 0.157710 0.065085
0.282255 0.154907 0.025234
0.296156 0.153875 0.000000
0.312164 0.150998 0.000000
0.327138 0.148869 0.000000
0.341122 0.146981 0.000000
0.354749 0.145891 0.000000
0.368059 0.145343 0.000000
0.380900 0.145068 0.000000
0.394031 0.145068 0.000000
0.406730 0.145343 0.000000
0.419534 0.145891 0.000000
0.432030 0.146710 0.000000
0.444781 0.147794 0.000000
0.457387 0.149137 0.000000
0.470356 0.150733 0.000000
0.483031 0.152312 0.000000
0.496100 0.154133 0.000000
0.508943 0.155933 0.000000
0.522076 0.158215 0.000000
0.534985 0.160463 0.000000
0.548216 0.162679 0.000000
0.561450 0.165105 0.000000
0.574741 0.167731 0.000000
0.588079 0.170314 0.000000
0.601406 0.173085 0.000000
0.614922 0.175811 0.000000
0.628511 0.178713 0.000000
0.642067 0.181783 0.000000
0.655637 0.184799 0.000000
0.669353 0.187972 0.000000
0.683114 0.191088 0.000000
0.696826 0.194149 0.000000
0.710701 0.197557 0.000000
0.724561 0.200901 0.000000
0.738404 0.204185 0.000000
0.752502 0.207600 0.000000
0.766455 0.210954 0.000000
0.780492 0.214432 0.000000
0.794498 0.218025 0.000000
0.808614 0.221554 0.000000
0.822830 0.225192 0.000000
0.837003 0.228766 0.000000
0.851133 0.232443 0.000000
0.865481 0.236218 0.000000
0.879618 0.239766 0.000000
0.893991 0.243570 0.000000
0.908279 0.247307 0.000000
0.922664 0.251132 0.000000
0.936963 0.254892 0.000000
0.951324 0.258735 0.000000
0.961005 0.261357 0.000000
0.152835 0.179376 0.136270
0.157963 0.179155 0.136563
0.162923 0.179155 0.136270
0.167967 0.179376 0.135977
0.173543 0.179376 0.135093
0.179596 0.179596 0.133608
0.186498 0.179816 0.136270
0.194149 0.179596 0.138595
0.203225 0.179596 0.140597
0.214069 0.179376 0.141446
0.229775 0.177825 0.131803
0.246534 0.176260 0.118418
0.264522 0.174454 0.100309
0.283971 0.171706 0.073137
0.302826 0.168675 0.032332
0.317518 0.167494 0.000000
0.333078 0.164864 0.000000
0.348429 0.162679 0.000000
0.362708 0.160958 0.000000
0.376241 0.159468 0.000000
0.389744 0.158717 0.000000
0.402782 0.158215 0.000000
0.415736 0.157963 0.000000
0.428529 0.158215 0.000000
0.441096 0.158466 0.000000
0.453904 0.159218 0.000000
0.466491 0.160215 0.000000
0.479363 0.161205 0.000000
0.492017 0.162679 0.000000
0.504925 0.164139 0.000000
0.517619 0.165825 0.000000
0.530604 0.167494 0.000000
0.543673 0.169613 0.000000
0.556527 0.171474 0.000000
0.569628 0.173771 0.000000
0.582791 0.176036 0.000000
0.595952 0.178491 0.000000
0.609111 0.180912 0.000000
0.622513 0.183513 0.000000
0.635942 0.186287 0.000000
0.649347 0.189016 0.000000
0.662771 0.191909 0.000000
0.676391 0.194755 0.000000
0.689970 0.197755 0.000000
0.703552 0.200706 0.000000
0.717301 0.203802 0.000000
0.731039 0.207036 0.000000
0.744884 0.210214 0.000000
0.758749 0.213523 0.000000
0.772555 0.216775 0.000000
0.786487 0.220150 0.000000
