assets/luts/LUTs/JD_LA PAZ.CUBE
TITLE "Generated by 3D LUT Creator Pro (c) Oleg Sharonov"
LUT_3D_SIZE 8
#INPUTGAMMA Display v.2.10
#IMAGEPROFILE Display v.2.10
#OUTPUTGAMMA Display v.2.10
0.000000 0.000000 0.000000
0.129049 0.010251 0.000000
0.262657 0.037852 0.000000
0.396505 0.077646 0.000000
0.530971 0.117066 0.000000
0.665661 0.156443 0.000000
0.800536 0.195961 0.000000
0.930588 0.234257 0.000000
0.102253 0.122061 0.089600
0.200901 0.116042 0.041759
0.328359 0.106786 0.000000
0.444705 0.123036 0.000000
0.566825 0.149671 0.000000
0.693409 0.181348 0.000000
0.822726 0.215697 0.000000
0.948999 0.250525 0.000000
0.216237 0.250981 0.194755
0.261213 0.251587 0.194957
0.387579 0.241042 0.112214
0.524007 0.223987 0.000000
0.639616 0.227242 0.000000
0.755809 0.242941 0.000000
0.875696 0.265946 0.000000
0.994453 0.292500 0.000000
0.331112 0.380437 0.300376
0.361823 0.380344 0.299513
0.427488 0.380992 0.309088
0.574685 0.366027 0.182650
0.717342 0.346360 0.000000
0.836935 0.340910 0.000000
0.951926 0.348325 0.000000
1.000000 0.420436 0.269328
0.446077 0.510102 0.406218
0.468214 0.509845 0.406645
0.518565 0.510873 0.402869
0.603020 0.509201 0.413654
0.762174 0.491410 0.253546
0.908705 0.470997 0.000000
1.000000 0.481927 0.216596
1.000000 0.557275 0.437529
0.561165 0.640002 0.512218
0.578153 0.639761 0.512921
0.619411 0.640002 0.509330
0.681474 0.641059 0.518376
0.787113 0.636136 0.500866
0.949976 0.616995 0.324456
1.000000 0.642498 0.431396
1.000000 0.694579 0.593997
0.676436 0.769986 0.618305
0.689927 0.769797 0.619009
0.724028 0.769683 0.618003
0.777023 0.771121 0.611311
0.842410 0.771989 0.649677
0.912925 0.778667 0.678716
0.975787 0.796674 0.693452
1.000000 0.831482 0.754683
0.824217 0.880031 0.792022
0.831037 0.880762 0.793953
0.848472 0.882916 0.798157
0.877038 0.887801 0.802583
0.910773 0.895359 0.832474
0.941250 0.909588 0.875217
0.974622 0.931296 0.905163
0.994912 0.961457 0.945568
0.000000 0.018926 0.041759
0.122061 0.026023 0.096721
0.296281 0.000000 0.023657
0.424345 0.034697 0.000000
0.549914 0.092590 0.000000
0.679741 0.139456 0.000000
0.811554 0.183082 0.000000
0.939620 0.223814 0.000000
0.000000 0.138595 0.169379
0.141446 0.141446 0.141446
0.304527 0.130586 0.112567
0.469073 0.098330 0.000000
0.583821 0.131803 0.000000
0.706101 0.167967 0.000000
0.832747 0.205140 0.000000
0.957091 0.241994 0.000000
0.186709 0.260050 0.219974
0.235567 0.261213 0.220326
0.356859 0.255190 0.196162
0.540936 0.214613 0.000000
0.653346 0.217312 0.000000
0.766912 0.233764 0.000000
0.884811 0.257854 0.000000
1.000000 0.288143 0.021292
0.301849 0.389834 0.302216
0.342914 0.386854 0.316132
0.414321 0.386944 0.321861
0.553813 0.375865 0.248231
0.727544 0.341755 0.000000
0.845934 0.335569 0.000000
0.959759 0.342808 0.000000
1.000000 0.422070 0.281990
0.426604 0.516481 0.408093
0.454276 0.514514 0.417227
0.509394 0.514769 0.412566
0.589739 0.514451 0.431872
0.747172 0.498490 0.304285
0.915765 0.468142 0.000000
1.000000 0.483100 0.236056
1.000000 0.558480 0.443863
0.547040 0.644744 0.513942
0.567331 0.643359 0.520575
0.611005 0.642977 0.519634
0.674910 0.644076 0.524504
0.777771 0.639953 0.516734
0.938599 0.622413 0.364665
1.000000 0.643359 0.439937
1.000000 0.695531 0.597637
0.665478 0.773722 0.619812
0.681297 0.772668 0.624901
0.716678 0.772253 0.625348
0.771800 0.773421 0.616036
0.837953 0.774211 0.653908
0.908126 0.780827 0.686465
0.971311 0.798807 0.701205
1.000000 0.832303 0.756816
0.820884 0.881681 0.794243
0.827774 0.882346 0.796348
0.845632 0.884370 0.801040
0.874801 0.889056 0.806159
0.909831 0.896569 0.832166
0.941075 0.910500 0.875792
0.974539 0.932062 0.906326
0.995020 0.962135 0.946550
0.000000 0.065085 0.111859
0.000000 0.095499 0.174226
0.250677 0.082416 0.207036
0.451514 0.000000 0.113270
0.590807 0.000000 0.056820
0.719869 0.062227 0.000000
0.842444 0.136563 0.000000
0.964644 0.189640 0.000000
0.000000 0.154133 0.214794
0.078619 0.164623 0.231280
0.268206 0.159966 0.235403
0.518691 0.000000 0.110072
0.641491 0.000000 0.003154
0.747133 0.103784 0.000000
0.864051 0.162434 0.000000
0.982409 0.209471 0.000000
0.000000 0.279324 0.332642
0.150203 0.279859 0.317979
0.284759 0.284759 0.284759
0.444475 0.278383 0.265235
0.614365 0.258295 0.216954
0.790085 0.213523 0.079582
0.912865 0.227921 0.000000
1.000000 0.294650 0.146710
0.245758 0.399833 0.392697
0.289561 0.400703 0.378206
0.374358 0.402782 0.357859
0.503359 0.398086 0.345216
0.687651 0.369310 0.253396
0.863725 0.325241 0.086520
0.983644 0.323782 0.000000
1.000000 0.426443 0.314038
0.397648 0.525806 0.435183
0.414238 0.527658 0.434162
0.476361 0.526177 0.446685
0.565022 0.525744 0.456870
0.712421 0.514514 0.393498
0.898828 0.480335 0.230445
1.000000 0.486391 0.283049
1.000000 0.561735 0.460836
0.512218 0.655777 0.523136
0.526547 0.656616 0.523198
0.583983 0.652220 0.542545
0.656709 0.652454 0.537580
0.752346 0.650196 0.554507
0.910348 0.635505 0.445391
0.989163 0.650149 0.480127
1.000000 0.698118 0.607673
0.632680 0.784237 0.621465
0.650149 0.782979 0.627870
0.694493 0.779748 0.642306
0.755343 0.779413 0.639424
0.825670 0.780381 0.663782
0.895421 0.786635 0.705677
0.959957 0.804302 0.720489
1.000000 0.834487 0.762672
0.811837 0.886166 0.799167
0.818791 0.886827 0.801794
0.837309 0.888586 0.807903
0.868333 0.892620 0.815218
0.906875 0.900063 0.830660
0.940435 0.912956 0.877262
0.974289 0.934179 0.909466
0.995263 0.964053 0.949286
0.000000 0.116042 0.182650
0.000000 0.136855 0.221029
0.000000 0.177156 0.324007
0.379695 0.140312 0.317633
0.608084 0.000000 0.200315
0.746187 0.000000 0.158466
0.886733 0.000000 0.088729
1.000000 0.126866 0.086072
0.000000 0.181130 0.262081
0.000000 0.194352 0.293893
0.022080 0.222078 0.377926
0.393142 0.194352 0.337397
0.655030 0.000000 0.208351
0.783904 0.000000 0.151261
0.917361 0.000000 0.054295
1.000000 0.193744 0.152835
0.000000 0.291864 0.381177
0.007886 0.299760 0.399659
0.225707 0.306337 0.382468
0.413068 0.299513 0.376522
0.674865 0.214432 0.274174
0.877006 0.000000 0.090463
0.977227 0.106043 0.000000
1.000000 0.305615 0.255487
0.000000 0.420682 0.496699
0.133906 0.421989 0.490533
0.300253 0.421744 0.462440
0.428369 0.428369 0.428369
0.587166 0.423453 0.411978
0.753399 0.410632 0.379323
0.925494 0.385672 0.319698
1.000000 0.433925 0.367190
0.299018 0.540757 0.556181
0.331331 0.541711 0.549856
0.408348 0.543554 0.529011
0.515658 0.545744 0.498159
0.646979 0.542188 0.492890
0.834589 0.517493 0.419206
0.962982 0.514387 0.405620
1.000000 0.567387 0.491343
0.472770 0.663415 0.609111
0.493360 0.664333 0.597059
0.536255 0.668216 0.569964
0.614162 0.667533 0.582302
0.713384 0.666758 0.595530
0.867297 0.655077 0.540399
0.956351 0.667533 0.556239
1.000000 0.702785 0.625992
0.607981 0.792277 0.656662
0.617802 0.793370 0.656150
0.643359 0.796566 0.652642
0.718338 0.792058 0.674415
0.802942 0.791693 0.677376
0.873647 0.796710 0.736241
0.942237 0.813354 0.750274
1.000000 0.838427 0.773308
0.801291 0.892464 0.810882
0.805981 0.893804 0.811801
0.821232 0.896693 0.816482
0.854379 0.899847 0.828531
0.898426 0.906448 0.837071
0.938716 0.917661 0.879364
0.973650 0.938074 0.915252
0.995695 0.967509 0.954213
0.000000 0.167019 0.253245
0.000000 0.182000 0.280260
0.000000 0.216057 0.351198
0.000000 0.253396 0.508814
0.509136 0.198547 0.428529
0.765158 0.000000 0.287626
0.902556 0.000000 0.248845
1.000000 0.166304 0.257559
0.000000 0.216596 0.315203
0.000000 0.227921 0.339106
0.000000 0.254743 0.401658
0.000000 0.288272 0.532618
0.519257 0.238322 0.442867
0.800320 0.000000 0.296781
0.931827 0.000000 0.249152
1.000000 0.221029 0.285936
0.000000 0.312868 0.423696
0.000000 0.320041 0.442329
0.154392 0.332206 0.460471
0.210770 0.356559 0.537400
0.538602 0.324793 0.475027
0.887927 0.000000 0.313337
1.000000 0.052347 0.249763
1.000000 0.322314 0.349663
0.000000 0.431872 0.547805
0.000000 0.436983 0.558881
0.202454 0.442483 0.558881
0.370747 0.449334 0.530053
0.557792 0.441482 0.519383
0.803873 0.389204 0.434476
0.969440 0.357759 0.381084
1.000000 0.444552 0.438696
0.000000 0.562303 0.660881
0.092590 0.564740 0.660743
0.297654 0.563381 0.638266
0.446837 0.564683 0.606488
0.572247 0.572247 0.572247
0.730593 0.568005 0.557390
0.887864 0.561735 0.535409
1.000000 0.575513 0.538302
0.346878 0.682317 0.720158
0.376429 0.682715 0.715429
0.442175 0.684218 0.702615
0.537460 0.687168 0.677554
0.658196 0.689315 0.639953
0.790853 0.686553 0.639327
0.907272 0.692410 0.637831
1.000000 0.709607 0.654609
0.529808 0.804338 0.780343
0.548274 0.804731 0.774662
0.595266 0.805909 0.756041
0.670895 0.808614 0.711918
0.761521 0.806622 0.735558
0.844594 0.811200 0.766912
0.917361 0.826395 0.786598
1.000000 0.844325 0.790048
0.788032 0.899384 0.846603
0.795587 0.900433 0.843553
0.812507 0.903815 0.838495
0.835780 0.910226 0.844292
0.879491 0.916608 0.858626
0.933474 0.925850 0.879396
0.972064 0.944122 0.924214
0.996369 0.972732 0.961627
0.000000 0.218025 0.323894
0.000000 0.229607 0.344590
0.000000 0.257559 0.398524
0.000000 0.297902 0.494365
0.151788 0.303678 0.744963
0.638700 0.256822 0.539561
0.922485 0.000000 0.375489
1.000000 0.208725 0.374830
0.000000 0.257117 0.373412
0.000000 0.266513 0.392073
0.000000 0.290075 0.440942
0.000000 0.325353 0.531093
0.184371 0.337075 0.727544
0.646742 0.287496 0.550673
0.950205 0.000000 0.384211
1.000000 0.253696 0.393676
0.000000 0.339744 0.471352
0.000000 0.346464 0.486732
0.054934 0.362217 0.524007
0.086072 0.388212 0.598635
0.248385 0.407753 0.702402
0.663828 0.358855 0.577110
1.000000 0.121078 0.411978
1.000000 0.344381 0.439860
0.000000 0.449560 0.589686
0.000000 0.454425 0.600728
0.106786 0.464399 0.623808
0.305373 0.473547 0.615176
0.366609 0.495700 0.688264
0.684130 0.462440 0.615378
0.965150 0.377552 0.493159
1.000000 0.459592 0.511129
0.000000 0.572581 0.714261
0.000000 0.576285 0.721644
0.129049 0.583496 0.733787
0.361035 0.585766 0.708300
0.515531 0.592830 0.676391
0.702444 0.584470 0.662955
0.899322 0.566431 0.598635
1.000000 0.586143 0.600205
0.000000 0.704191 0.825428
0.000000 0.707413 0.829081
0.282388 0.706059 0.811589
0.451364 0.705380 0.784126
0.592458 0.708216 0.750705
0.716428 0.716428 0.716428
0.874576 0.712547 0.702188
1.000000 0.718255 0.698032
0.387850 0.824425 0.885095
0.415154 0.824598 0.881237
0.478109 0.825324 0.870915
0.567050 0.827326 0.853056
0.692497 0.826878 0.821267
0.804767 0.831653 0.789463
0.901511 0.839543 0.813354
1.000000 0.852261 0.814550
0.716844 0.918142 0.919523
0.724971 0.919103 0.918202
0.754061 0.920152 0.912865
0.801794 0.922544 0.903201
0.860264 0.928549 0.884906
0.912714 0.939154 0.898086
0.968377 0.952928 0.935206
0.997312 0.979878 0.971729
0.000000 0.269048 0.394740
0.000000 0.278249 0.411137
0.000000 0.301359 0.454202
0.000000 0.337182 0.529686
0.000000 0.380066 0.646362
0.347706 0.333186 0.959334
0.768508 0.315203 0.650856
1.000000 0.252342 0.483719
0.000000 0.300622 0.435105
0.000000 0.308731 0.450538
0.000000 0.329022 0.490195
0.000000 0.361429 0.561735
0.000000 0.400616 0.674505
0.349970 0.364860 0.952470
0.774962 0.339744 0.659633
1.000000 0.289690 0.497297
0.000000 0.371987 0.522014
0.000000 0.378113 0.534864
0.000000 0.393676 0.571413
0.000000 0.419534 0.635748
0.000000 0.451439 0.741116
0.375677 0.441405 0.900895
0.789902 0.399310 0.681696
1.000000 0.370364 0.532313
0.000000 0.472203 0.633656
0.000000 0.476711 0.644601
0.000000 0.488230 0.675494
0.229607 0.500537 0.690058
0.271278 0.525124 0.764050
0.422559 0.537219 0.857279
0.809784 0.490263 0.715429
1.000000 0.478319 0.589418
0.000000 0.588401 0.757049
0.000000 0.591926 0.764700
0.000000 0.601041 0.787113
0.285283 0.607003 0.783867
0.452636 0.616086 0.766455
0.516734 0.637057 0.836596
0.829699 0.602916 0.757319
1.000000 0.600049 0.665112
0.000000 0.713844 0.880539
0.000000 0.716719 0.886009
0.000000 0.724356 0.901542
0.325241 0.726157 0.889777
0.512793 0.729295 0.855764
0.634582 0.739682 0.851166
0.847304 0.727993 0.806693
1.000000 0.728807 0.754760
0.000000 0.846268 0.990170
0.000000 0.848739 0.992992
0.294524 0.847070 0.977310
0.521889 0.839510 0.935646
0.674640 0.836800 0.895017
0.757551 0.848372 0.883485
0.860788 0.860788 0.860788
1.000000 0.861573 0.852990
0.714804 0.925226 0.969580
0.721314 0.926444 0.969273
0.738564 0.929761 0.968349
0.768660 0.935734 0.966499
0.811766 0.944817 0.963236
0.868009 0.957148 0.955782
0.953728 0.967453 0.946232
0.998550 0.989082 0.984713
0.000000 0.318323 0.463167
0.000000 0.325912 0.476641
0.000000 0.345320 0.512154
0.000000 0.376991 0.574962
0.000000 0.417475 0.668853
0.000000 0.460471 0.805695
0.545567 0.420518 0.941337
0.893742 0.371511 0.758170
0.000000 0.344799 0.496965
0.000000 0.351606 0.509394
0.000000 0.369406 0.543020
0.000000 0.398524 0.602916
0.000000 0.436280 0.693843
0.000000 0.476641 0.828118
0.548333 0.441636 0.944527
0.911137 0.379323 0.773082
0.000000 0.406816 0.573745
0.000000 0.412482 0.584524
0.000000 0.427006 0.614162
0.000000 0.451214 0.668626
0.000000 0.483237 0.753671
0.000000 0.517871 0.882916
0.556412 0.493092 0.953242
0.942528 0.413821 0.803049
0.000000 0.498027 0.679607
0.000000 0.502377 0.688571
0.000000 0.513750 0.713175
0.000000 0.532861 0.761021
0.000000 0.558136 0.840320
0.000000 0.585442 0.964363
0.573468 0.571636 0.969273
0.948107 0.509845 0.824252
0.000000 0.607673 0.797217
0.000000 0.611158 0.803658
0.000000 0.620364 0.822309
0.000000 0.635651 0.861442
0.000000 0.655730 0.931591
0.278518 0.671619 1.000000
0.597952 0.670079 0.992585
0.956551 0.622812 0.855204
0.000000 0.727789 0.922962
0.000000 0.730553 0.927809
0.000000 0.738164 0.941366
0.000000 0.751448 0.967172
0.160958 0.767672 1.000000
0.468715 0.771498 1.000000
0.654048 0.779003 1.000000
0.968041 0.745279 0.895700
0.376429 0.841871 1.000000
0.390552 0.843251 1.000000
0.426121 0.846937 1.000000
0.483100 0.853552 1.000000
0.557792 0.863237 1.000000
0.647833 0.875633 1.000000
0.771310 0.885095 1.000000
0.982739 0.873326 0.945019
0.736481 0.931355 1.000000
0.742190 0.932622 1.000000
0.757590 0.936085 1.000000
0.784717 0.942325 1.000000
0.823697 0.951725 1.000000
0.873903 0.964531 1.000000
0.934062 0.980869 1.000000
1.000000 1.000000 1.000000
