assets/luts/LUTs/JD_LAGUNA.CUBE
TITLE "ColorFinale Export"
# Created by Jeven Dovey on 2022-09-27 16:57:52 +0000
# Color Finale Plugin v.2.6.0 (537)
LUT_3D_SIZE 17
0.0000 0.0000 0.0000
0.0382 0.0000 0.0032
0.0768 0.0000 0.0065
0.1163 0.0000 0.0099
0.1572 0.0000 0.0136
0.1998 0.0000 0.0175
0.2451 0.0000 0.0218
0.2980 0.0000 0.0271
0.3650 0.0000 0.0342
0.4516 0.0000 0.0440
0.5526 0.0000 0.0563
0.6569 0.0000 0.0699
0.7535 0.0000 0.0831
0.8312 0.0000 0.0941
0.8802 0.0000 0.1011
0.9044 0.0000 0.1046
0.9161 0.0000 0.1063
0.0000 0.0298 0.0000
0.0335 0.0339 0.0000
0.0767 0.0314 0.0000
0.1166 0.0283 0.0037
0.1573 0.0251 0.0083
0.1996 0.0219 0.0127
0.2447 0.0186 0.0174
0.2973 0.0150 0.0231
0.3642 0.0110 0.0305
0.4506 0.0065 0.0405
0.5515 0.0024 0.0531
0.6558 0.0000 0.0669
0.7525 0.0000 0.0804
0.8303 0.0000 0.0915
0.8793 0.0000 0.0987
0.9035 0.0000 0.1022
0.9152 0.0000 0.1039
0.0000 0.0600 0.0000
0.0182 0.0667 0.0000
0.0674 0.0682 0.0000
0.1136 0.0661 0.0000
0.1570 0.0632 0.0000
0.2003 0.0602 0.0038
0.2457 0.0570 0.0095
0.2983 0.0536 0.0160
0.3649 0.0496 0.0241
0.4512 0.0453 0.0350
0.5518 0.0413 0.0481
0.6559 0.0382 0.0625
0.7525 0.0361 0.0763
0.8302 0.0348 0.0876
0.8792 0.0341 0.0949
0.9034 0.0338 0.0985
0.9152 0.0337 0.1003
0.0000 0.0913 0.0000
0.0037 0.0985 0.0000
0.0518 0.1029 0.0000
0.1022 0.1034 0.0000
0.1508 0.1016 0.0000
0.1977 0.0989 0.0000
0.2451 0.0960 0.0000
0.2988 0.0927 0.0062
0.3660 0.0889 0.0155
0.4523 0.0846 0.0273
0.5528 0.0808 0.0414
0.6568 0.0779 0.0564
0.7533 0.0760 0.0707
0.8311 0.0749 0.0826
0.8800 0.0743 0.0900
0.9042 0.0740 0.0937
0.9159 0.0739 0.0956
0.0000 0.1240 0.0000
0.0000 0.1313 0.0000
0.0364 0.1369 0.0000
0.0865 0.1399 0.0000
0.1383 0.1400 0.0000
0.1895 0.1384 0.0000
0.2405 0.1359 0.0000
0.2969 0.1328 0.0000
0.3658 0.1292 0.0046
0.4532 0.1251 0.0177
0.5541 0.1214 0.0329
0.6582 0.1187 0.0488
0.7547 0.1169 0.0638
0.8324 0.1159 0.0761
0.8814 0.1155 0.0839
0.9056 0.1153 0.0878
0.9173 0.1152 0.0896
0.0000 0.1589 0.0000
0.0000 0.1659 0.0000
0.0216 0.1720 0.0000
0.0704 0.1764 0.0000
0.1225 0.1785 0.0000
0.1763 0.1784 0.0000
0.2310 0.1769 0.0000
0.2911 0.1744 0.0000
0.3632 0.1710 0.0000
0.4528 0.1671 0.0061
0.5549 0.1635 0.0225
0.6596 0.1610 0.0396
0.7564 0.1594 0.0555
0.8341 0.1586 0.0683
0.8832 0.1582 0.0764
0.9074 0.1581 0.0805
0.9192 0.1581 0.0825
0.0000 0.1967 0.0000
0.0000 0.2034 0.0000
0.0071 0.2096 0.0000
0.0548 0.2147 0.0000
0.1058 0.2183 0.0000
0.1600 0.2199 0.0000
0.2171 0.2197 0.0000
0.2807 0.2181 0.0000
0.3570 0.2154 0.0000
0.4502 0.2118 0.0000
0.5546 0.2083 0.0104
0.6605 0.2058 0.0285
0.7578 0.2044 0.0453
0.8359 0.2037 0.0588
0.8851 0.2035 0.0674
0.9094 0.2034 0.0716
0.9211 0.2033 0.0736
0.0000 0.2420 0.0000
0.0000 0.2481 0.0000
0.0000 0.2541 0.0000
0.0383 0.2595 0.0000
0.0880 0.2639 0.0000
0.1413 0.2670 0.0000
0.1989 0.2684 0.0000
0.2651 0.2683 0.0000
0.3455 0.2666 0.0000
0.4435 0.2636 0.0000
0.5518 0.2604 0.0000
0.6601 0.2581 0.0144
0.7587 0.2567 0.0322
0.8374 0.2561 0.0465
0.8869 0.2559 0.0555
0.9113 0.2559 0.0600
0.9232 0.2558 0.0621
0.0000 0.3011 0.0000
0.0000 0.3066 0.0000
0.0000 0.3121 0.0000
0.0200 0.3174 0.0000
0.0682 0.3222 0.0000
0.1200 0.3262 0.0000
0.1766 0.3291 0.0000
0.2432 0.3307 0.0000
0.3268 0.3307 0.0000
0.4303 0.3289 0.0000
0.5442 0.3264 0.0000
0.6565 0.3242 0.0000
0.7576 0.3229 0.0145
0.8379 0.3224 0.0297
0.8881 0.3223 0.0392
0.9128 0.3223 0.0439
0.9247 0.3222 0.0461
0.0000 0.3804 0.0000
0.0000 0.3850 0.0000
0.0000 0.3898 0.0000
0.0004 0.3946 0.0000
0.0471 0.3992 0.0000
0.0971 0.4036 0.0000
0.1516 0.4073 0.0000
0.2168 0.4105 0.0000
0.3006 0.4125 0.0000
0.4079 0.4127 0.0000
0.5281 0.4114 0.0000
0.6464 0.4098 0.0000
0.7519 0.4087 0.0000
0.8348 0.4081 0.0069
0.8863 0.4080 0.0168
0.9116 0.4080 0.0217
0.9239 0.4081 0.0242
0.0000 0.4762 0.0000
0.0000 0.4799 0.0000
0.0000 0.4839 0.0000
0.0000 0.4879 0.0000
0.0279 0.4920 0.0000
0.0761 0.4962 0.0000
0.1286 0.5001 0.0000
0.1914 0.5040 0.0000
0.2731 0.5075 0.0000
0.3804 0.5098 0.0000
0.5043 0.5102 0.0000
0.6284 0.5095 0.0000
0.7390 0.5087 0.0000
0.8256 0.5083 0.0000
0.8792 0.5082 0.0000
0.9054 0.5082 0.0000
0.9181 0.5081 0.0000
0.0000 0.5781 0.0000
0.0000 0.5811 0.0000
0.0000 0.5843 0.0000
0.0000 0.5877 0.0000
0.0130 0.5913 0.0000
0.0599 0.5949 0.0000
0.1107 0.5986 0.0000
0.1713 0.6025 0.0000
0.2502 0.6066 0.0000
0.3549 0.6102 0.0000
0.4788 0.6123 0.0000
0.6058 0.6127 0.0000
0.7205 0.6125 0.0000
0.8106 0.6122 0.0000
0.8663 0.6122 0.0000
0.8936 0.6121 0.0000
0.9067 0.6121 0.0000
0.0000 0.6744 0.0000
0.0000 0.6769 0.0000
0.0000 0.6796 0.0000
0.0000 0.6825 0.0000
0.0027 0.6855 0.0000
0.0486 0.6887 0.0000
0.0982 0.6921 0.0000
0.1571 0.6957 0.0000
0.2337 0.6999 0.0000
0.3355 0.7041 0.0000
0.4573 0.7072 0.0000
0.5843 0.7087 0.0000
0.7011 0.7090 0.0000
0.7934 0.7090 0.0000
0.8507 0.7090 0.0000
0.8788 0.7090 0.0000
0.8923 0.7089 0.0000
0.0000 0.7528 0.0000
0.0000 0.7550 0.0000
0.0000 0.7574 0.0000
0.0000 0.7600 0.0000
0.0000 0.7627 0.0000
0.0415 0.7656 0.0000
0.0903 0.7686 0.0000
0.1482 0.7720 0.0000
0.2231 0.7761 0.0000
0.3228 0.7804 0.0000
0.4424 0.7840 0.0000
0.5682 0.7862 0.0000
0.6852 0.7870 0.0000
0.7785 0.7872 0.0000
0.8367 0.7873 0.0000
0.8652 0.7873 0.0000
0.8791 0.7873 0.0000
0.0000 0.8026 0.0000
0.0000 0.8046 0.0000
0.0000 0.8068 0.0000
0.0000 0.8092 0.0000
0.0000 0.8118 0.0000
0.0378 0.8145 0.0000
0.0862 0.8173 0.0000
0.1435 0.8206 0.0000
0.2175 0.8245 0.0000
0.3159 0.8289 0.0000
0.4340 0.8328 0.0000
0.5588 0.8352 0.0000
0.6754 0.8363 0.0000
0.7690 0.8367 0.0000
0.8275 0.8368 0.0000
0.8564 0.8368 0.0000
0.8702 0.8368 0.0000
0.0000 0.8272 0.0000
0.0000 0.8292 0.0000
0.0000 0.8314 0.0000
0.0000 0.8337 0.0000
0.0000 0.8361 0.0000
0.0361 0.8387 0.0000
0.0843 0.8416 0.0000
0.1413 0.8448 0.0000
0.2151 0.8486 0.0000
0.3129 0.8530 0.0000
0.4302 0.8568 0.0000
0.5545 0.8595 0.0000
0.6708 0.8607 0.0000
0.7644 0.8612 0.0000
0.8230 0.8613 0.0000
0.8519 0.8613 0.0000
0.8659 0.8614 0.0000
0.0000 0.8392 0.0000
0.0000 0.8412 0.0000
0.0000 0.8433 0.0000
0.0000 0.8455 0.0000
0.0000 0.8480 0.0000
0.0353 0.8505 0.0000
0.0835 0.8533 0.0000
0.1404 0.8565 0.0000
0.2139 0.8603 0.0000
0.3114 0.8646 0.0000
0.4284 0.8686 0.0000
0.5523 0.8712 0.0000
0.6686 0.8726 0.0000
0.7622 0.8731 0.0000
0.8208 0.8732 0.0000
0.8497 0.8732 0.0000
0.8637 0.8732 0.0000
0.0000 0.0000 0.0362
0.0355 0.0000 0.0452
0.0777 0.0000 0.0496
0.1188 0.0000 0.0532
0.1605 0.0000 0.0567
0.2037 0.0000 0.0605
0.2493 0.0000 0.0646
0.3024 0.0000 0.0696
0.3695 0.0000 0.0763
0.4561 0.0000 0.0857
0.5568 0.0000 0.0974
0.6609 0.0000 0.1105
0.7572 0.0000 0.1232
0.8347 0.0000 0.1338
0.8836 0.0000 0.1407
0.9077 0.0000 0.1441
0.9194 0.0000 0.1458
0.0000 0.0336 0.0273
0.0432 0.0432 0.0432
0.0818 0.0398 0.0464
0.1212 0.0364 0.0498
0.1619 0.0330 0.0533
0.2044 0.0295 0.0571
0.2496 0.0260 0.0613
0.3023 0.0221 0.0663
0.3690 0.0177 0.0732
0.4553 0.0128 0.0826
0.5558 0.0081 0.0945
0.6598 0.0043 0.1078
0.7561 0.0016 0.1207
0.8337 0.0000 0.1315
0.8826 0.0000 0.1384
0.9067 0.0000 0.1419
0.9184 0.0000 0.1436
0.0000 0.0645 0.0190
0.0292 0.0733 0.0337
0.0770 0.0774 0.0367
0.1211 0.0749 0.0419
0.1623 0.0717 0.0471
0.2046 0.0684 0.0518
0.2495 0.0650 0.0565
0.3018 0.0612 0.0620
0.3683 0.0569 0.0692
0.4544 0.0520 0.0790
0.5548 0.0475 0.0912
0.6587 0.0438 0.1046
0.7550 0.0412 0.1178
0.8327 0.0397 0.1288
0.8816 0.0388 0.1359
0.9058 0.0385 0.1394
0.9175 0.0383 0.1411
0.0000 0.0958 0.0106
0.0150 0.1042 0.0243
0.0614 0.1110 0.0295
0.1116 0.1125 0.0302
0.1593 0.1103 0.0352
0.2043 0.1073 0.0413
0.2502 0.1041 0.0475
0.3028 0.1005 0.0542
0.3692 0.0963 0.0623
0.4550 0.0916 0.0730
0.5551 0.0871 0.0858
0.6588 0.0837 0.0998
0.7551 0.0813 0.1134
0.8327 0.0799 0.1247
0.8816 0.0791 0.1319
0.9057 0.0788 0.1355
0.9174 0.0786 0.1372
0.0000 0.1284 0.0022
0.0009 0.1364 0.0149
0.0465 0.1437 0.0220
0.0956 0.1482 0.0225
0.1475 0.1488 0.0237
0.1981 0.1469 0.0285
0.2477 0.1441 0.0352
0.3025 0.1407 0.0431
0.3700 0.1366 0.0526
0.4562 0.1321 0.0645
0.5563 0.1278 0.0785
0.6599 0.1245 0.0933
0.7561 0.1224 0.1075
0.8335 0.1210 0.1191
0.8825 0.1204 0.1266
0.9066 0.1201 0.1303
0.9183 0.1200 0.1321
0.0000 0.1629 0.0000
0.0000 0.1705 0.0057
0.0319 0.1778 0.0136
0.0796 0.1836 0.0159
0.1312 0.1867 0.0156
0.1851 0.1869 0.0172
0.2394 0.1852 0.0222
0.2982 0.1822 0.0300
0.3687 0.1784 0.0404
0.4566 0.1740 0.0538
0.5575 0.1700 0.0691
0.6614 0.1669 0.0850
0.7575 0.1648 0.0999
0.8350 0.1637 0.1121
0.8839 0.1631 0.1199
0.9081 0.1630 0.1238
0.9198 0.1629 0.1257
0.0000 0.2004 0.0000
0.0000 0.2076 0.0000
0.0173 0.2146 0.0050
0.0640 0.2209 0.0087
0.1143 0.2255 0.0090
0.1684 0.2277 0.0087
0.2254 0.2277 0.0108
0.2887 0.2259 0.0166
0.3637 0.2227 0.0266
0.4551 0.2186 0.0408
0.5578 0.2146 0.0574
0.6626 0.2117 0.0745
0.7591 0.2098 0.0904
0.8368 0.2088 0.1034
0.8858 0.2084 0.1115
0.9099 0.2081 0.1155
0.9217 0.2081 0.1175
0.0000 0.2452 0.0000
0.0000 0.2517 0.0000
0.0016 0.2583 0.0000
0.0475 0.2646 0.0006
0.0964 0.2700 0.0020
0.1492 0.2738 0.0015
0.2067 0.2757 0.0014
0.2729 0.2757 0.0040
0.3528 0.2737 0.0116
0.4495 0.2702 0.0252
0.5560 0.2665 0.0425
0.6628 0.2636 0.0609
0.7604 0.2619 0.0779
0.8386 0.2610 0.0916
0.8878 0.2607 0.1003
0.9121 0.2606 0.1046
0.9238 0.2605 0.1066
0.0000 0.3037 0.0000
0.0000 0.3095 0.0000
0.0000 0.3154 0.0000
0.0289 0.3213 0.0000
0.0764 0.3269 0.0000
0.1276 0.3316 0.0000
0.1837 0.3352 0.0000
0.2502 0.3372 0.0000
0.3338 0.3373 0.0000
0.4367 0.3352 0.0069
0.5493 0.3321 0.0234
0.6602 0.3295 0.0424
0.7602 0.3279 0.0605
0.8396 0.3271 0.0752
0.8893 0.3268 0.0843
0.9138 0.3267 0.0889
0.9257 0.3267 0.0911
0.0000 0.3823 0.0000
0.0000 0.3871 0.0000
0.0000 0.3921 0.0000
0.0086 0.3973 0.0000
0.0548 0.4025 0.0000
0.1042 0.4074 0.0000
0.1582 0.4118 0.0000
0.2229 0.4156 0.0000
0.3066 0.4180 0.0000
0.4139 0.4183 0.0000
0.5336 0.4167 0.0015
0.6509 0.4146 0.0189
0.7552 0.4131 0.0371
0.8373 0.4124 0.0524
0.8884 0.4122 0.0621
0.9135 0.4121 0.0669
0.9256 0.4121 0.0692
0.0000 0.4772 0.0000
0.0000 0.4811 0.0000
0.0000 0.4852 0.0000
0.0000 0.4895 0.0000
0.0349 0.4940 0.0000
0.0827 0.4985 0.0000
0.1347 0.5030 0.0000
0.1969 0.5074 0.0000
0.2780 0.5115 0.0000
0.3852 0.5142 0.0000
0.5091 0.5146 0.0000
0.6328 0.5137 0.0000
0.7429 0.5126 0.0121
0.8287 0.5120 0.0266
0.8819 0.5118 0.0363
0.9079 0.5117 0.0410
0.9205 0.5117 0.0434
0.0000 0.5785 0.0000
0.0000 0.5816 0.0000
0.0000 0.5849 0.0000
0.0000 0.5884 0.0000
0.0194 0.5922 0.0000
0.0659 0.5961 0.0000
0.1163 0.6002 0.0000
0.1763 0.6045 0.0000
0.2545 0.6091 0.0000
0.3589 0.6133 0.0000
0.4826 0.6157 0.0000
0.6096 0.6161 0.0000
0.7241 0.6157 0.0000
0.8138 0.6154 0.0041
0.8692 0.6151 0.0126
0.8964 0.6150 0.0170
0.9095 0.6151 0.0193
0.0000 0.6744 0.0000
0.0000 0.6769 0.0000
0.0000 0.6797 0.0000
0.0000 0.6826 0.0000
0.0087 0.6858 0.0000
0.0542 0.6892 0.0000
0.1034 0.6928 0.0000
0.1618 0.6968 0.0000
0.2377 0.7014 0.0000
0.3390 0.7061 0.0000
0.4604 0.7096 0.0000
0.5873 0.7113 0.0000
0.7041 0.7116 0.0000
0.7963 0.7115 0.0000
0.8535 0.7115 0.0000
0.8815 0.7114 0.0000
0.8950 0.7114 0.0012
0.0000 0.7526 0.0000
0.0000 0.7548 0.0000
0.0000 0.7572 0.0000
0.0000 0.7598 0.0000
0.0020 0.7626 0.0000
0.0470 0.7656 0.0000
0.0954 0.7688 0.0000
0.1527 0.7725 0.0000
0.2270 0.7769 0.0000
0.3260 0.7817 0.0000
0.4450 0.7858 0.0000
0.5707 0.7882 0.0000
0.6876 0.7891 0.0000
0.7810 0.7893 0.0000
0.8391 0.7894 0.0000
0.8677 0.7893 0.0000
0.8815 0.7893 0.0000
0.0000 0.8022 0.0000
0.0000 0.8042 0.0000
0.0000 0.8065 0.0000
0.0000 0.8089 0.0000
0.0000 0.8115 0.0000
0.0431 0.8143 0.0000
0.0912 0.8173 0.0000
0.1479 0.8208 0.0000
0.2214 0.8250 0.0000
0.3191 0.8298 0.0000
0.4365 0.8340 0.0000
0.5610 0.8368 0.0000
0.6776 0.8381 0.0000
0.7712 0.8385 0.0000
0.8298 0.8386 0.0000
0.8586 0.8386 0.0000
0.8725 0.8387 0.0000
0.0000 0.8268 0.0000
0.0000 0.8288 0.0000
0.0000 0.8309 0.0000
0.0000 0.8332 0.0000
0.0000 0.8358 0.0000
0.0414 0.8385 0.0000
0.0893 0.8414 0.0000
0.1458 0.8448 0.0000
0.2189 0.8489 0.0000
0.3159 0.8537 0.0000
0.4326 0.8580 0.0000
0.5565 0.8609 0.0000
0.6728 0.8624 0.0000
0.7665 0.8629 0.0000
0.8251 0.8630 0.0000
0.8540 0.8630 0.0000
0.8680 0.8631 0.0000
0.0000 0.8387 0.0000
0.0000 0.8407 0.0000
0.0000 0.8428 0.0000
0.0000 0.8451 0.0000
0.0000 0.8476 0.0000
0.0406 0.8502 0.0000
0.0884 0.8531 0.0000
0.1448 0.8564 0.0000
0.2177 0.8605 0.0000
0.3145 0.8653 0.0000
0.4308 0.8696 0.0000
0.5544 0.8726 0.0000
0.6706 0.8741 0.0000
0.7642 0.8747 0.0000
0.8229 0.8749 0.0000
0.8518 0.8749 0.0000
0.8657 0.8749 0.0000
0.0000 0.0000 0.0729
0.0257 0.0000 0.0839
0.0714 0.0000 0.0910
0.1153 0.0000 0.0959
0.1589 0.0000 0.1001
0.2034 0.0000 0.1041
0.2500 0.0000 0.1083
0.3038 0.0000 0.1133
0.3714 0.0000 0.1198
0.4584 0.0000 0.1288
0.5594 0.0000 0.1401
0.6634 0.0000 0.1526
0.7597 0.0000 0.1649
0.8372 0.0000 0.1752
0.8860 0.0000 0.1819
0.9101 0.0000 0.1852
0.9218 0.0000 0.1868
0.0000 0.0334 0.0648
0.0318 0.0400 0.0798
0.0790 0.0417 0.0889
0.1221 0.0403 0.0933
0.1645 0.0378 0.0970
0.2079 0.0348 0.1007
0.2536 0.0316 0.1047
0.3066 0.0279 0.1095
0.3735 0.0234 0.1159
0.4598 0.0183 0.1249
0.5601 0.0133 0.1362
0.6639 0.0092 0.1489
0.7600 0.0061 0.1614
0.8373 0.0042 0.1718
0.8860 0.0031 0.1786
0.9101 0.0026 0.1819
0.9218 0.0024 0.1836
0.0000 0.0676 0.0551
0.0328 0.0771 0.0708
0.0868 0.0868 0.0868
0.1262 0.0834 0.0901
0.1669 0.0799 0.0936
0.2093 0.0763 0.0973
0.2543 0.0726 0.1013
0.3068 0.0686 0.1062
0.3732 0.0639 0.1127
0.4591 0.0586 0.1218
0.5592 0.0535 0.1333
0.6628 0.0493 0.1461
0.7589 0.0463 0.1588
0.8362 0.0444 0.1694
0.8850 0.0434 0.1762
0.9091 0.0429 0.1796
0.9208 0.0427 0.1813
0.0000 0.0997 0.0466
0.0236 0.1087 0.0623
0.0725 0.1175 0.0772
0.1213 0.1218 0.0802
0.1668 0.1192 0.0856
0.2096 0.1159 0.0909
0.2544 0.1124 0.0959
0.3065 0.1084 0.1014
0.3726 0.1038 0.1084
0.4583 0.0986 0.1179
0.5582 0.0936 0.1297
0.6617 0.0896 0.1429
0.7577 0.0867 0.1557
0.8351 0.0849 0.1665
0.8840 0.0840 0.1735
0.9082 0.0836 0.1770
0.9198 0.0834 0.1787
0.0000 0.1325 0.0385
0.0108 0.1409 0.0537
0.0580 0.1494 0.0674
0.1053 0.1563 0.0728
0.1570 0.1579 0.0735
0.2066 0.1557 0.0787
0.2543 0.1525 0.0852
0.3074 0.1488 0.0923
0.3737 0.1444 0.1007
0.4591 0.1393 0.1112
0.5588 0.1345 0.1239
0.6620 0.1306 0.1376
0.7579 0.1280 0.1510
0.8352 0.1262 0.1620
0.8841 0.1255 0.1692
0.9082 0.1251 0.1728
0.9199 0.1249 0.1745
0.0000 0.1669 0.0305
0.0000 0.1749 0.0449
0.0432 0.1830 0.0577
0.0898 0.1904 0.0649
0.1404 0.1951 0.0656
0.1944 0.1957 0.0668
0.2480 0.1937 0.0719
0.3052 0.1904 0.0797
0.3738 0.1862 0.0896
0.4602 0.1813 0.1018
0.5600 0.1767 0.1157
0.6632 0.1730 0.1304
0.7590 0.1705 0.1444
0.8363 0.1691 0.1560
0.8849 0.1683 0.1634
0.9090 0.1679 0.1670
0.9208 0.1678 0.1689
0.0000 0.2042 0.0227
0.0000 0.2116 0.0361
0.0283 0.2192 0.0481
0.0744 0.2266 0.0561
0.1235 0.2327 0.0585
0.1772 0.2359 0.0582
0.2343 0.2361 0.0599
0.2970 0.2341 0.0659
0.3704 0.2304 0.0759
0.4598 0.2258 0.0895
0.5610 0.2213 0.1050
0.6646 0.2178 0.1209
0.7606 0.2155 0.1359
0.8378 0.2141 0.1481
0.8866 0.2135 0.1558
0.9107 0.2132 0.1597
0.9224 0.2131 0.1616
0.0000 0.2486 0.0145
0.0000 0.2554 0.0269
0.0121 0.2624 0.0380
0.0577 0.2695 0.0463
0.1057 0.2759 0.0503
0.1577 0.2809 0.0507
0.2149 0.2835 0.0503
0.2812 0.2836 0.0526
0.3605 0.2813 0.0603
0.4556 0.2773 0.0738
0.5602 0.2730 0.0906
0.6655 0.2696 0.1080
0.7621 0.2675 0.1241
0.8397 0.2663 0.1371
0.8887 0.2658 0.1454
0.9128 0.2655 0.1495
0.9246 0.2655 0.1515
0.0000 0.3066 0.0061
0.0000 0.3125 0.0172
0.0000 0.3188 0.0274
0.0386 0.3252 0.0355
0.0856 0.3316 0.0405
0.1359 0.3372 0.0423
0.1914 0.3416 0.0419
0.2578 0.3443 0.0414
0.3413 0.3444 0.0444
0.4436 0.3420 0.0547
0.5546 0.3383 0.0712
0.6639 0.3352 0.0897
0.7626 0.3332 0.1072
0.8412 0.3321 0.1212
0.8906 0.3316 0.1301
0.9150 0.3315 0.1345
0.9268 0.3315 0.1366
0.0000 0.3843 0.0000
0.0000 0.3893 0.0083
0.0000 0.3946 0.0172
0.0175 0.4001 0.0248
0.0634 0.4058 0.0301
0.1121 0.4114 0.0331
0.1655 0.4165 0.0337
0.2296 0.4210 0.0326
0.3131 0.4240 0.0318
0.4204 0.4244 0.0359
0.5395 0.4224 0.0482
0.6556 0.4199 0.0657
0.7587 0.4180 0.0836
0.8399 0.4171 0.0986
0.8905 0.4166 0.1081
0.9154 0.4165 0.1128
0.9274 0.4165 0.1151
0.0000 0.4785 0.0000
0.0000 0.4825 0.0024
0.0000 0.4867 0.0102
0.0000 0.4913 0.0170
0.0427 0.4961 0.0222
0.0900 0.5010 0.0256
0.1414 0.5060 0.0271
0.2030 0.5110 0.0267
0.2836 0.5158 0.0247
0.3905 0.5190 0.0237
0.5144 0.5195 0.0289
0.6377 0.5182 0.0417
0.7470 0.5169 0.0577
0.8321 0.5161 0.0722
0.8848 0.5157 0.0817
0.9107 0.5156 0.0866
0.9231 0.5155 0.0889
0.0000 0.5792 0.0000
0.0000 0.5823 0.0008
0.0000 0.5856 0.0076
0.0000 0.5893 0.0137
0.0265 0.5933 0.0186
0.0726 0.5975 0.0221
0.1225 0.6019 0.0240
0.1819 0.6067 0.0242
0.2595 0.6119 0.0223
0.3632 0.6167 0.0191
0.4868 0.6195 0.0186
0.6138 0.6199 0.0248
0.7281 0.6194 0.0364
0.8174 0.6188 0.0486
0.8726 0.6185 0.0572
0.8995 0.6184 0.0617
0.9125 0.6183 0.0639
0.0000 0.6746 0.0000
0.0000 0.6771 0.0025
0.0000 0.6799 0.0085
0.0000 0.6829 0.0141
0.0152 0.6862 0.0186
0.0605 0.6898 0.0220
0.1093 0.6936 0.0241
0.1671 0.6979 0.0248
0.2423 0.7030 0.0233
0.3428 0.7083 0.0195
0.4638 0.7123 0.0159
0.5907 0.7142 0.0169
0.7074 0.7145 0.0234
0.7996 0.7144 0.0323
0.8566 0.7143 0.0393
0.8845 0.7142 0.0430
0.8980 0.7141 0.0449
0.0000 0.7525 0.0000
0.0000 0.7547 0.0054
0.0000 0.7571 0.0110
0.0000 0.7597 0.0162
0.0083 0.7626 0.0205
0.0529 0.7657 0.0239
0.1010 0.7691 0.0261
0.1578 0.7730 0.0269
0.2314 0.7778 0.0258
0.3296 0.7831 0.0220
0.4480 0.7877 0.0171
0.5735 0.7904 0.0150
0.6904 0.7915 0.0178
0.7838 0.7917 0.0237
0.8419 0.7917 0.0290
0.8705 0.7917 0.0320
0.8842 0.7917 0.0335
0.0000 0.8020 0.0019
0.0000 0.8040 0.0078
0.0000 0.8062 0.0132
0.0000 0.8086 0.0182
0.0046 0.8112 0.0224
0.0489 0.8141 0.0257
0.0966 0.8173 0.0279
0.1529 0.8210 0.0289
0.2257 0.8255 0.0281
0.3226 0.8308 0.0244
0.4393 0.8356 0.0190
0.5635 0.8387 0.0154
0.6801 0.8401 0.0161
0.7737 0.8406 0.0203
0.8323 0.8407 0.0244
0.8611 0.8407 0.0269
0.8750 0.8407 0.0281
0.0000 0.8265 0.0033
0.0000 0.8284 0.0091
0.0000 0.8306 0.0144
0.0000 0.8329 0.0193
0.0029 0.8354 0.0236
0.0471 0.8382 0.0268
0.0947 0.8413 0.0290
0.1507 0.8449 0.0301
0.2232 0.8493 0.0293
0.3194 0.8545 0.0257
0.4354 0.8593 0.0202
0.5589 0.8626 0.0160
0.6752 0.8642 0.0159
0.7688 0.8648 0.0191
0.8275 0.8650 0.0227
0.8564 0.8650 0.0248
0.8704 0.8650 0.0261
0.0000 0.8384 0.0040
0.0000 0.8403 0.0098
0.0000 0.8424 0.0151
0.0000 0.8447 0.0199
0.0022 0.8472 0.0241
0.0463 0.8499 0.0274
0.0938 0.8529 0.0296
0.1497 0.8565 0.0307
0.2220 0.8608 0.0300
0.3179 0.8660 0.0265
0.4336 0.8708 0.0208
0.5568 0.8742 0.0164
0.6728 0.8759 0.0158
0.7664 0.8765 0.0186
0.8252 0.8768 0.0220
0.8541 0.8768 0.0240
0.8680 0.8768 0.0251
0.0000 0.0000 0.1104
0.0147 0.0000 0.1221
0.0620 0.0000 0.1311
0.1081 0.0000 0.1378
0.1537 0.0000 0.1431
0.1998 0.0000 0.1478
0.2478 0.0000 0.1525
0.3027 0.0000 0.1577
0.3713 0.0000 0.1643
0.4591 0.0000 0.1731
0.5605 0.0000 0.1841
0.6648 0.0000 0.1962
0.7612 0.0000 0.2081
0.8387 0.0000 0.2182
0.8875 0.0000 0.2246
0.9116 0.0000 0.2278
0.9233 0.0000 0.2294
0.0000 0.0313 0.1030
0.0203 0.0369 0.1172
0.0690 0.0398 0.1284
0.1157 0.0402 0.1356
0.1609 0.0392 0.1407
0.2063 0.0373 0.1450
0.2534 0.0348 0.1493
0.3074 0.0317 0.1542
0.3751 0.0277 0.1605
0.4620 0.0228 0.1692
0.5627 0.0178 0.1800
0.6665 0.0136 0.1922
0.7625 0.0103 0.2042
0.8398 0.0082 0.2143
0.8885 0.0070 0.2208
0.9126 0.0065 0.2241
