assets/luts/LUTs/JD_LAGUNA.CUBE
TITLE "ColorFinale Export"
# Created by Jeven Dovey on 2022-09-27 16:57:52 +0000
# Color Finale Plugin v.2.6.0 (537)
LUT_3D_SIZE 5
0.0000 0.0000 0.0000
0.1572 0.0000 0.0136
0.3650 0.0000 0.0342
0.7535 0.0000 0.0831
0.9161 0.0000 0.1063
0.0000 0.1240 0.0000
0.1383 0.1400 0.0000
0.3658 0.1292 0.0046
0.7547 0.1169 0.0638
0.9173 0.1152 0.0896
0.0000 0.3011 0.0000
0.0682 0.3222 0.0000
0.3268 0.3307 0.0000
0.7576 0.3229 0.0145
0.9247 0.3222 0.0461
0.0000 0.6744 0.0000
0.0027 0.6855 0.0000
0.2337 0.6999 0.0000
0.7011 0.7090 0.0000
0.8923 0.7089 0.0000
0.0000 0.8392 0.0000
0.0000 0.8480 0.0000
0.2139 0.8603 0.0000
0.6686 0.8726 0.0000
0.8637 0.8732 0.0000
0.0000 0.0000 0.1493
0.1460 0.0000 0.1861
0.3692 0.0000 0.2098
0.7618 0.0000 0.2531
0.9241 0.0000 0.2738
0.0000 0.1389 0.1134
0.1773 0.1773 0.1773
0.3825 0.1602 0.1953
0.7649 0.1394 0.2381
0.9260 0.1349 0.2598
0.0000 0.3129 0.0800
0.1071 0.3406 0.1312
0.3585 0.3607 0.1451
0.7676 0.3452 0.2042
0.9290 0.3422 0.2308
0.0000 0.6757 0.0678
0.0300 0.6874 0.0981
0.2536 0.7068 0.1147
0.7155 0.7217 0.1150
0.9051 0.7209 0.1367
0.0000 0.8384 0.0756
0.0154 0.8468 0.1015
0.2323 0.8617 0.1173
0.6783 0.8804 0.1056
0.8736 0.8814 0.1142
0.0000 0.0000 0.3484
0.0962 0.0000 0.3926
0.3394 0.0000 0.4316
0.7521 0.0000 0.4808
0.9177 0.0000 0.5005
0.0000 0.1396 0.3153
0.1183 0.1618 0.3724
0.3680 0.1702 0.4202
0.7714 0.1587 0.4642
0.9338 0.1536 0.4829
0.0000 0.3293 0.2705
0.1246 0.3593 0.3260
0.4085 0.4085 0.4085
0.7834 0.3801 0.4437
0.9414 0.3726 0.4623
0.0000 0.6835 0.2472
0.0647 0.6947 0.2861
0.2947 0.7185 0.3386
0.7444 0.7484 0.3573
0.9292 0.7451 0.3790
0.0000 0.8424 0.2533
0.0480 0.8494 0.2871
0.2680 0.8657 0.3298
0.6988 0.8978 0.3418
0.8939 0.8995 0.3478
0.0000 0.0000 0.7278
0.0111 0.0000 0.7700
0.2611 0.0000 0.8189
0.7001 0.0000 0.8871
0.8746 0.0000 0.9102
0.0000 0.1387 0.6956
0.0271 0.1494 0.7422
0.2810 0.1604 0.7979
0.7236 0.1671 0.8706
0.8977 0.1666 0.8933
0.0000 0.3470 0.6498
0.0453 0.3631 0.6991
0.3055 0.3843 0.7665
0.7571 0.3983 0.8518
0.9293 0.3967 0.8732
0.0000 0.7114 0.5922
0.0614 0.7221 0.6284
0.3212 0.7472 0.6867
0.8278 0.8278 0.8278
0.9804 0.8149 0.8410
0.0000 0.8652 0.5866
0.0615 0.8711 0.6186
0.3103 0.8871 0.6692
0.7742 0.9482 0.7922
0.9621 0.9637 0.8032
0.0000 0.0000 0.8886
0.0000 0.0000 0.9294
0.2303 0.0000 0.9784
0.6732 0.0000 1.0000
0.8504 0.0000 1.0000
0.0000 0.1427 0.8565
0.0000 0.1507 0.9004
0.2480 0.1598 0.9547
0.6953 0.1683 1.0000
0.8729 0.1691 1.0000
0.0000 0.3538 0.8118
0.0143 0.3652 0.8577
0.2697 0.3808 0.9199
0.7256 0.3968 1.0000
0.9040 0.3979 1.0000
0.0000 0.7246 0.7460
0.0408 0.7341 0.7817
0.2966 0.7559 0.8387
0.7835 0.8159 0.9728
0.9696 0.8223 1.0000
0.0000 0.8782 0.7341
0.0483 0.8838 0.7653
0.2985 0.8993 0.8141
0.7878 0.9626 0.9378
1.0000 1.0000 1.0000
