assets/luts/LUTs/JD_Mammoth.CUBE
TITLE "ColorFinale Export"
# Created by Jeven Dovey on 2021-07-15 17:41:18 +0000
# Color Finale Plugin v.2.3.2 (520)
LUT_3D_SIZE 17
0.0000 0.0000 0.0275
0.0381 0.0000 0.0275
0.0822 0.0000 0.0275
0.1264 0.0000 0.0298
0.1677 0.0000 0.0344
0.2056 0.0000 0.0410
0.2398 0.0089 0.0494
0.2703 0.0197 0.0598
0.2969 0.0323 0.0720
0.3194 0.0468 0.0862
0.3379 0.0630 0.1022
0.3523 0.0811 0.1201
0.3625 0.1010 0.1398
0.3685 0.1227 0.1615
0.3703 0.1462 0.1849
0.3869 0.1630 0.2018
0.4153 0.1744 0.2133
0.0000 0.0543 0.0275
0.0350 0.0579 0.0275
0.0837 0.0559 0.0311
0.1284 0.0575 0.0380
0.1714 0.0608 0.0447
0.2110 0.0659 0.0533
0.2471 0.0730 0.0637
0.2795 0.0819 0.0760
0.3080 0.0927 0.0902
0.3326 0.1054 0.1063
0.3531 0.1199 0.1242
0.3696 0.1363 0.1440
0.3819 0.1545 0.1656
0.3901 0.1744 0.1890
0.3941 0.1962 0.2143
0.3940 0.2198 0.2414
0.4085 0.2372 0.2603
0.0000 0.1242 0.0275
0.0269 0.1218 0.0275
0.0838 0.1258 0.0292
0.1329 0.1239 0.0407
0.1773 0.1254 0.0525
0.2195 0.1287 0.0627
0.2583 0.1340 0.0748
0.2934 0.1411 0.0886
0.3247 0.1500 0.1044
0.3521 0.1608 0.1220
0.3755 0.1733 0.1414
0.3948 0.1878 0.1626
0.4101 0.2040 0.1856
0.4213 0.2220 0.2105
0.4283 0.2418 0.2372
0.4312 0.2635 0.2657
0.4299 0.2869 0.2960
0.0000 0.1956 0.0275
0.0139 0.1894 0.0275
0.0771 0.1885 0.0275
0.1347 0.1932 0.0318
0.1847 0.1905 0.0489
0.2295 0.1914 0.0651
0.2721 0.1943 0.0782
0.3111 0.1991 0.0931
0.3463 0.2057 0.1098
0.3777 0.2141 0.1283
0.4052 0.2244 0.1486
0.4287 0.2364 0.1707
0.4482 0.2502 0.1946
0.4635 0.2658 0.2204
0.4748 0.2832 0.2479
0.4819 0.3024 0.2772
0.4849 0.3234 0.3083
0.0000 0.2693 0.0275
0.0001 0.2579 0.0275
0.0652 0.2546 0.0275
0.1283 0.2561 0.0275
0.1869 0.2598 0.0356
0.2374 0.2564 0.0582
0.2825 0.2566 0.0787
0.3253 0.2592 0.0945
0.3644 0.2636 0.1122
0.3998 0.2698 0.1316
0.4313 0.2777 0.1528
0.4588 0.2874 0.1758
0.4824 0.2989 0.2006
0.5019 0.3122 0.2272
0.5174 0.3273 0.2555
0.5287 0.3441 0.2856
0.5360 0.3626 0.3175
0.0000 0.3409 0.0275
0.0000 0.3287 0.0275
0.0514 0.3214 0.0275
0.1164 0.3224 0.0275
0.1808 0.3231 0.0275
0.2401 0.3259 0.0406
0.2908 0.3217 0.0686
0.3362 0.3213 0.0932
0.3791 0.3235 0.1117
0.4183 0.3275 0.1321
0.4537 0.3333 0.1542
0.4853 0.3408 0.1781
0.5129 0.3500 0.2037
0.5365 0.3611 0.2311
0.5561 0.3738 0.2602
0.5716 0.3883 0.2911
0.5830 0.4046 0.3238
0.0000 0.4099 0.0275
0.0000 0.3972 0.0275
0.0348 0.3903 0.0275
0.1025 0.3889 0.0275
0.1692 0.3895 0.0275
0.2343 0.3895 0.0275
0.2941 0.3914 0.0468
0.3450 0.3865 0.0800
0.3904 0.3855 0.1086
0.4334 0.3874 0.1299
0.4726 0.3910 0.1528
0.5081 0.3964 0.1776
0.5396 0.4035 0.2040
0.5673 0.4123 0.2322
0.5909 0.4228 0.2622
0.6105 0.4351 0.2938
0.6261 0.4491 0.3272
0.0000 0.4787 0.0275
0.0000 0.4632 0.0275
0.0203 0.4569 0.0275
0.0855 0.4577 0.0275
0.1554 0.4559 0.0275
0.2230 0.4561 0.0275
0.2887 0.4555 0.0275
0.3487 0.4564 0.0542
0.3996 0.4508 0.0924
0.4451 0.4493 0.1250
0.4881 0.4509 0.1488
0.5273 0.4541 0.1744
0.5628 0.4591 0.2017
0.5943 0.4658 0.2307
0.6220 0.4741 0.2614
0.6456 0.4842 0.2938
0.6653 0.4960 0.3279
0.0000 0.5473 0.0275
0.0000 0.5291 0.0275
0.0085 0.5209 0.0275
0.0704 0.5239 0.0275
0.1384 0.5246 0.0275
0.2094 0.5224 0.0275
0.2777 0.5223 0.0275
0.3437 0.5209 0.0275
0.4038 0.5210 0.0627
0.4547 0.5147 0.1059
0.5002 0.5127 0.1423
0.5432 0.5139 0.1687
0.5824 0.5168 0.1968
0.6178 0.5214 0.2266
0.6494 0.5277 0.2580
0.6770 0.5357 0.2912
0.7007 0.5454 0.3260
0.0000 0.6156 0.0275
0.0000 0.5947 0.0275
0.0000 0.5848 0.0275
0.0578 0.5874 0.0275
0.1233 0.5904 0.0275
0.1927 0.5910 0.0275
0.2644 0.5885 0.0275
0.3331 0.5880 0.0275
0.3992 0.5859 0.0275
0.4594 0.5852 0.0724
0.5103 0.5783 0.1204
0.5557 0.5757 0.1606
0.5986 0.5767 0.1895
0.6378 0.5792 0.2200
0.6732 0.5835 0.2522
0.7047 0.5894 0.2860
0.7323 0.5970 0.3216
0.0000 0.6838 0.0275
0.0000 0.6602 0.0275
0.0000 0.6485 0.0275
0.0454 0.6508 0.0275
0.1106 0.6534 0.0275
0.1777 0.6564 0.0275
0.2479 0.6570 0.0275
0.3202 0.6541 0.0275
0.3891 0.6532 0.0275
0.4553 0.6506 0.0275
0.5155 0.6490 0.0833
0.5663 0.6415 0.1360
0.6116 0.6384 0.1798
0.6544 0.6391 0.2111
0.6935 0.6413 0.2440
0.7288 0.6452 0.2786
0.7603 0.6508 0.3148
0.0000 0.7518 0.0275
0.0000 0.7255 0.0275
0.0000 0.7121 0.0275
0.0331 0.7140 0.0275
0.0980 0.7163 0.0275
0.1651 0.7190 0.0275
0.2332 0.7221 0.0275
0.3040 0.7225 0.0275
0.3765 0.7194 0.0275
0.4456 0.7181 0.0275
0.5118 0.7148 0.0275
0.5719 0.7125 0.0954
0.6226 0.7043 0.1526
0.6677 0.7008 0.2000
0.7105 0.7012 0.2336
0.7495 0.7031 0.2689
0.7847 0.7067 0.3057
0.0000 0.8197 0.0275
0.0000 0.7906 0.0275
0.0000 0.7755 0.0275
0.0212 0.7771 0.0275
0.0855 0.7791 0.0275
0.1526 0.7814 0.0275
0.2208 0.7842 0.0275
0.2896 0.7873 0.0275
0.3608 0.7877 0.0275
0.4334 0.7842 0.0275
0.5025 0.7826 0.0275
0.5687 0.7787 0.0323
0.6287 0.7756 0.1086
0.6792 0.7668 0.1703
0.7242 0.7629 0.2211
0.7669 0.7630 0.2570
0.8058 0.7646 0.2945
0.0000 0.8874 0.0275
0.0000 0.8557 0.0275
0.0000 0.8389 0.0275
0.0097 0.8401 0.0275
0.0731 0.8417 0.0275
0.1402 0.8437 0.0275
0.2085 0.8461 0.0275
0.2775 0.8489 0.0275
0.3466 0.8521 0.0275
0.4181 0.8524 0.0275
0.4908 0.8486 0.0275
0.5599 0.8467 0.0275
0.6259 0.8422 0.0415
0.6858 0.8384 0.1229
0.7361 0.8291 0.1889
0.7810 0.8247 0.2431
0.8235 0.8245 0.2813
0.0000 0.9550 0.0275
0.0000 0.9206 0.0275
0.0000 0.9021 0.0275
0.0000 0.9030 0.0275
0.0609 0.9042 0.0275
0.1278 0.9059 0.0275
0.1963 0.9080 0.0275
0.2655 0.9105 0.0275
0.3349 0.9133 0.0275
0.4043 0.9166 0.0275
0.4759 0.9168 0.0275
0.5486 0.9126 0.0275
0.6176 0.9104 0.0275
0.6835 0.9054 0.0519
0.7432 0.9009 0.1385
0.7932 0.8910 0.2086
0.8380 0.8862 0.2661
0.0000 1.0000 0.0275
0.0000 0.9854 0.0275
0.0000 0.9652 0.0275
0.0000 0.9657 0.0275
0.0488 0.9667 0.0275
0.1155 0.9680 0.0275
0.1841 0.9698 0.0275
0.2534 0.9719 0.0275
0.3232 0.9744 0.0275
0.3929 0.9773 0.0275
0.4625 0.9806 0.0275
0.5341 0.9808 0.0275
0.6068 0.9763 0.0275
0.6756 0.9738 0.0275
0.7414 0.9682 0.0636
0.8009 0.9640 0.1498
0.8510 0.9534 0.2245
0.0000 1.0000 0.0275
0.0000 1.0000 0.0275
0.0000 1.0000 0.0275
0.0000 1.0000 0.0275
0.0369 1.0000 0.0275
0.1033 1.0000 0.0275
0.1719 1.0000 0.0275
0.2415 1.0000 0.0275
0.3115 1.0000 0.0275
0.3815 1.0000 0.0275
0.4515 1.0000 0.0275
0.5212 1.0000 0.0275
0.5928 1.0000 0.0275
0.6653 1.0000 0.0275
0.7340 1.0000 0.0275
0.7993 1.0000 0.0705
0.8590 1.0000 0.1579
0.0000 0.0000 0.0652
0.0412 0.0000 0.0944
0.0917 0.0000 0.0905
0.1418 0.0000 0.0886
0.1880 0.0000 0.0882
0.2309 0.0000 0.0898
0.2701 0.0000 0.0933
0.3054 0.0092 0.0988
0.3369 0.0203 0.1061
0.3643 0.0332 0.1154
0.3875 0.0479 0.1266
0.4066 0.0645 0.1397
0.4215 0.0830 0.1547
0.4321 0.1033 0.1716
0.4384 0.1253 0.1904
0.4405 0.1493 0.2111
0.4586 0.1656 0.2262
0.0000 0.0279 0.0982
0.0403 0.0541 0.0934
0.0928 0.0518 0.0911
0.1390 0.0537 0.0930
0.1845 0.0564 0.0956
0.2267 0.0610 0.1002
0.2653 0.0675 0.1067
0.3001 0.0760 0.1150
0.3310 0.0863 0.1253
0.3579 0.0986 0.1374
0.3807 0.1127 0.1515
0.3994 0.1286 0.1674
0.4139 0.1464 0.1852
0.4242 0.1660 0.2049
0.4303 0.1875 0.2264
0.4321 0.2108 0.2498
0.4489 0.2274 0.2666
0.0000 0.0982 0.0836
0.0287 0.1200 0.0789
0.0896 0.1236 0.0900
0.1405 0.1216 0.0969
0.1865 0.1232 0.1037
0.2304 0.1264 0.1103
0.2708 0.1315 0.1188
0.3075 0.1384 0.1292
0.3403 0.1472 0.1414
0.3692 0.1579 0.1555
0.3940 0.1704 0.1715
0.4148 0.1848 0.1893
0.4314 0.2010 0.2090
0.4439 0.2190 0.2305
0.4521 0.2388 0.2539
0.4562 0.2605 0.2791
0.4560 0.2839 0.3061
0.0000 0.1712 0.0624
0.0131 0.1890 0.0587
0.0809 0.1866 0.0746
0.1406 0.1906 0.0950
0.1911 0.1887 0.1064
0.2365 0.1902 0.1181
0.2794 0.1935 0.1282
0.3188 0.1987 0.1402
0.3543 0.2057 0.1540
0.3860 0.2146 0.1696
0.4137 0.2253 0.1871
0.4373 0.2378 0.2064
0.4569 0.2521 0.2275
0.4723 0.2682 0.2505
0.4836 0.2861 0.2753
0.4907 0.3058 0.3019
0.4936 0.3273 0.3303
0.0000 0.2459 0.0365
0.0000 0.2599 0.0349
0.0668 0.2537 0.0526
0.1337 0.2528 0.0752
0.1930 0.2575 0.0976
0.2440 0.2548 0.1145
0.2896 0.2556 0.1306
0.3328 0.2586 0.1436
0.3722 0.2633 0.1583
0.4079 0.2699 0.1749
0.4396 0.2783 0.1933
0.4674 0.2884 0.2136
0.4911 0.3004 0.2356
0.5107 0.3141 0.2595
0.5262 0.3297 0.2851
0.5376 0.3470 0.3125
0.5448 0.3661 0.3418
0.0000 0.3232 0.0275
0.0000 0.3331 0.0275
0.0506 0.3218 0.0299
0.1214 0.3185 0.0512
0.1864 0.3200 0.0725
0.2463 0.3237 0.1014
0.2976 0.3203 0.1237
0.3433 0.3205 0.1440
0.3866 0.3231 0.1598
0.4262 0.3274 0.1773
0.4619 0.3336 0.1967
0.4937 0.3415 0.2178
0.5215 0.3512 0.2407
0.5452 0.3626 0.2654
0.5649 0.3758 0.2919
0.5805 0.3908 0.3202
0.5919 0.4076 0.3502
0.0000 0.3978 0.0275
0.0000 0.4044 0.0275
0.0317 0.3922 0.0275
0.1069 0.3849 0.0285
0.1743 0.3859 0.0443
0.2400 0.3867 0.0712
0.3003 0.3894 0.1063
0.3518 0.3853 0.1340
0.3976 0.3849 0.1584
0.4410 0.3871 0.1769
0.4806 0.3911 0.1972
0.5163 0.3968 0.2192
0.5481 0.4043 0.2430
0.5759 0.4135 0.2685
0.5997 0.4245 0.2958
0.6194 0.4372 0.3249
0.6351 0.4516 0.3557
0.0000 0.4694 0.0275
0.0000 0.4732 0.0275
0.0151 0.4605 0.0275
0.0894 0.4536 0.0275
0.1599 0.4522 0.0275
0.2282 0.4528 0.0388
0.2945 0.4529 0.0711
0.3550 0.4547 0.1124
0.4065 0.4498 0.1453
0.4524 0.4489 0.1738
0.4958 0.4507 0.1949
0.5354 0.4543 0.2178
0.5711 0.4597 0.2425
0.6029 0.4667 0.2688
0.6307 0.4755 0.2969
0.6545 0.4860 0.3268
0.6743 0.4982 0.3584
0.0000 0.5408 0.0275
0.0000 0.5418 0.0275
0.0019 0.5263 0.0275
0.0738 0.5200 0.0275
0.1424 0.5208 0.0275
0.2141 0.5190 0.0275
0.2830 0.5192 0.0348
0.3496 0.5186 0.0724
0.4102 0.5195 0.1197
0.4617 0.5139 0.1577
0.5076 0.5124 0.1901
0.5509 0.5140 0.2138
0.5905 0.5172 0.2393
0.6262 0.5222 0.2665
0.6580 0.5288 0.2954
0.6858 0.5372 0.3260
0.7096 0.5473 0.3583
0.0000 0.6120 0.0275
0.0000 0.6101 0.0275
0.0000 0.5920 0.0275
0.0607 0.5838 0.0275
0.1268 0.5868 0.0275
0.1968 0.5875 0.0275
0.2692 0.5854 0.0275
0.3385 0.5852 0.0321
0.4052 0.5838 0.0749
0.4659 0.5839 0.1282
0.5173 0.5777 0.1711
0.5632 0.5756 0.2073
0.6065 0.5769 0.2336
0.6460 0.5798 0.2616
0.6816 0.5844 0.2913
0.7134 0.5906 0.3226
0.7412 0.5986 0.3557
0.0000 0.6830 0.0275
0.0000 0.6783 0.0275
0.0000 0.6574 0.0275
0.0478 0.6476 0.0275
0.1136 0.6501 0.0275
0.1813 0.6531 0.0275
0.2521 0.6537 0.0275
0.3250 0.6513 0.0275
0.3945 0.6507 0.0309
0.4613 0.6487 0.0788
0.5221 0.6479 0.1379
0.5734 0.6410 0.1855
0.6191 0.6385 0.2255
0.6623 0.6394 0.2543
0.7017 0.6420 0.2847
0.7373 0.6463 0.3168
0.7690 0.6522 0.3506
0.0000 0.7538 0.0275
0.0000 0.7463 0.0275
0.0000 0.7227 0.0275
0.0351 0.7111 0.0275
0.1006 0.7134 0.0275
0.1682 0.7160 0.0275
0.2369 0.7190 0.0275
0.3083 0.7196 0.0275
0.3815 0.7167 0.0275
0.4511 0.7158 0.0310
0.5179 0.7132 0.0839
0.5785 0.7116 0.1487
0.6297 0.7041 0.2010
0.6753 0.7011 0.2447
0.7184 0.7017 0.2759
0.7578 0.7040 0.3087
0.7933 0.7079 0.3432
0.0000 0.8245 0.0275
0.0000 0.8142 0.0275
0.0000 0.7879 0.0275
0.0227 0.7746 0.0275
0.0876 0.7765 0.0275
0.1553 0.7788 0.0275
0.2241 0.7815 0.0275
0.2933 0.7845 0.0275
0.3651 0.7850 0.0275
0.4384 0.7818 0.0275
0.5081 0.7806 0.0326
0.5749 0.7773 0.0904
0.6354 0.7749 0.1606
0.6864 0.7668 0.2176
0.7318 0.7633 0.2648
0.7749 0.7637 0.2983
0.8141 0.7656 0.3335
0.0000 0.8950 0.0275
0.0000 0.8820 0.0275
0.0000 0.8530 0.0275
0.0108 0.8379 0.0275
0.0748 0.8395 0.0275
0.1424 0.8414 0.0275
0.2113 0.8438 0.0275
0.2808 0.8465 0.0275
0.3505 0.8496 0.0275
0.4225 0.8500 0.0275
0.4959 0.8465 0.0275
0.5655 0.8449 0.0356
0.6322 0.8410 0.0981
0.6925 0.8379 0.1738
0.7433 0.8292 0.2352
0.7886 0.8253 0.2858
0.8315 0.8253 0.3216
0.0000 0.9654 0.0275
0.0000 0.9496 0.0275
0.0000 0.9179 0.0275
0.0000 0.9011 0.0275
0.0621 0.9023 0.0275
0.1295 0.9039 0.0275
0.1986 0.9060 0.0275
0.2683 0.9084 0.0275
0.3382 0.9112 0.0275
0.4082 0.9144 0.0275
0.4803 0.9146 0.0275
0.5537 0.9108 0.0275
0.6233 0.9089 0.0401
0.6898 0.9045 0.1072
0.7500 0.9006 0.1880
0.8006 0.8913 0.2538
0.8457 0.8869 0.3078
0.0000 1.0000 0.0275
0.0000 1.0000 0.0275
0.0000 0.9827 0.0275
0.0000 0.9642 0.0275
0.0496 0.9651 0.0275
0.1168 0.9664 0.0275
0.1859 0.9681 0.0275
0.2558 0.9701 0.0275
0.3260 0.9726 0.0275
0.3963 0.9754 0.0275
0.4665 0.9787 0.0275
0.5386 0.9789 0.0275
0.6119 0.9748 0.0275
0.6814 0.9725 0.0459
0.7477 0.9675 0.1175
0.8077 0.9630 0.2035
0.8581 0.9531 0.2734
0.0000 1.0000 0.0275
0.0000 1.0000 0.0275
0.0000 1.0000 0.0275
0.0000 1.0000 0.0275
0.0373 1.0000 0.0275
0.1042 1.0000 0.0275
0.1733 1.0000 0.0275
0.2434 1.0000 0.0275
0.3139 1.0000 0.0275
0.3845 1.0000 0.0275
0.4550 1.0000 0.0275
0.5252 1.0000 0.0275
0.5973 1.0000 0.0275
0.6705 1.0000 0.0275
0.7398 1.0000 0.0531
0.8059 1.0000 0.1291
0.8658 1.0000 0.2148
0.0000 0.0000 0.0967
0.0145 0.0000 0.1245
0.0927 0.0000 0.1557
0.1488 0.0000 0.1554
0.2068 0.0000 0.1538
0.2545 0.0000 0.1505
0.2986 0.0000 0.1491
0.3390 0.0000 0.1497
0.3753 0.0066 0.1522
0.4076 0.0181 0.1566
0.4357 0.0314 0.1629
0.4597 0.0465 0.1712
0.4793 0.0635 0.1814
0.4947 0.0823 0.1935
0.5057 0.1030 0.2075
0.5124 0.1255 0.2234
0.5148 0.1498 0.2412
0.0000 0.0000 0.1370
0.0146 0.0204 0.1307
0.0962 0.0533 0.1597
0.1488 0.0526 0.1558
0.2003 0.0529 0.1539
0.2474 0.0558 0.1535
0.2909 0.0607 0.1551
0.3307 0.0675 0.1586
0.3665 0.0762 0.1640
0.3983 0.0868 0.1713
0.4260 0.0994 0.1805
0.4495 0.1138 0.1917
0.4688 0.1301 0.2047
0.4838 0.1483 0.2197
0.4945 0.1683 0.2365
0.5009 0.1902 0.2552
0.5029 0.2139 0.2758
0.0000 0.0708 0.1745
0.0202 0.0943 0.1635
0.0953 0.1198 0.1586
0.1500 0.1176 0.1564
0.1974 0.1194 0.1582
0.2438 0.1221 0.1609
0.2867 0.1266 0.1654
0.3258 0.1331 0.1719
0.3611 0.1414 0.1802
0.3924 0.1516 0.1904
0.4196 0.1637 0.2025
0.4426 0.1776 0.2165
0.4615 0.1934 0.2323
0.4761 0.2110 0.2501
0.4865 0.2305 0.2697
0.4927 0.2518 0.2911
0.4945 0.2749 0.3145
0.0000 0.1438 0.1604
0.0041 0.1633 0.1489
0.0829 0.1849 0.1443
0.1466 0.1884 0.1553
0.1989 0.1865 0.1622
0.2459 0.1880 0.1689
0.2905 0.1912 0.1755
0.3315 0.1962 0.1840
0.3686 0.2031 0.1943
0.4018 0.2119 0.2065
0.4310 0.2224 0.2205
0.4561 0.2349 0.2364
0.4770 0.2491 0.2542
0.4938 0.2652 0.2738
0.5064 0.2831 0.2952
0.5147 0.3028 0.3185
0.5188 0.3243 0.3436
0.0000 0.2202 0.1390
0.0000 0.2357 0.1279
0.0659 0.2533 0.1243
0.1376 0.2510 0.1400
0.1991 0.2549 0.1603
0.2506 0.2530 0.1716
0.2966 0.2545 0.1832
0.3402 0.2578 0.1933
0.3800 0.2629 0.2052
0.4160 0.2699 0.2189
0.4480 0.2787 0.2345
0.4759 0.2893 0.2519
0.4998 0.3017 0.2712
0.5195 0.3160 0.2922
0.5350 0.3320 0.3151
0.5464 0.3498 0.3399
0.5536 0.3695 0.3664
0.0000 0.2981 0.1119
0.0000 0.3099 0.1023
0.0463 0.3237 0.1007
0.1229 0.3176 0.1182
0.1920 0.3167 0.1406
0.2525 0.3213 0.1628
0.3043 0.3187 0.1797
0.3505 0.3195 0.1957
0.3942 0.3225 0.2086
0.4341 0.3272 0.2233
0.4701 0.3337 0.2398
0.5021 0.3421 0.2582
0.5301 0.3522 0.2783
0.5540 0.3641 0.3003
0.5738 0.3778 0.3241
0.5894 0.3932 0.3497
0.6008 0.4105 0.3770
0.0000 0.3789 0.0798
0.0000 0.3867 0.0720
0.0239 0.3967 0.0728
0.1061 0.3854 0.0958
0.1793 0.3821 0.1168
0.2457 0.3836 0.1380
0.3066 0.3873 0.1666
0.3586 0.3839 0.1888
0.4049 0.3841 0.2091
0.4486 0.3867 0.2247
0.4885 0.3910 0.2422
0.5246 0.3971 0.2615
0.5566 0.4050 0.2826
0.5846 0.4146 0.3054
0.6085 0.4260 0.3300
0.6283 0.4392 0.3565
0.6440 0.4541 0.3847
0.0000 0.4565 0.0473
0.0000 0.4611 0.0428
0.0047 0.4677 0.0471
0.0861 0.4555 0.0693
0.1644 0.4483 0.0943
0.2334 0.4493 0.1100
0.3003 0.4500 0.1366
0.3614 0.4527 0.1715
0.4134 0.4486 0.1991
0.4597 0.4482 0.2234
0.5035 0.4504 0.2418
0.5434 0.4544 0.2620
0.5794 0.4601 0.2839
0.6114 0.4676 0.3076
0.6394 0.4767 0.3331
0.6634 0.4877 0.3604
0.6832 0.5003 0.3894
0.0000 0.5306 0.0275
0.0000 0.5325 0.0275
0.0000 0.5362 0.0275
0.0682 0.5236 0.0469
0.1464 0.5167 0.0681
0.2187 0.5153 0.0852
0.2883 0.5159 0.1046
0.3554 0.5160 0.1365
0.4167 0.5178 0.1776
0.4687 0.5129 0.2103
0.5150 0.5120 0.2387
0.5587 0.5138 0.2597
0.5986 0.5174 0.2826
0.6346 0.5228 0.3071
0.6666 0.5298 0.3334
0.6946 0.5385 0.3615
0.7185 0.5490 0.3913
0.0000 0.6045 0.0275
0.0000 0.6037 0.0275
0.0000 0.6046 0.0275
0.0530 0.5892 0.0285
0.1302 0.5829 0.0474
0.2009 0.5837 0.0567
0.2739 0.5819 0.0776
0.3438 0.5821 0.1005
0.4112 0.5815 0.1378
0.4724 0.5824 0.1849
0.5244 0.5769 0.2226
0.5706 0.5754 0.2549
0.6143 0.5769 0.2786
0.6541 0.5801 0.3040
0.6901 0.5851 0.3311
0.7220 0.5917 0.3599
0.7500 0.6001 0.3905
0.0000 0.6782 0.0275
0.0000 0.6747 0.0275
0.0000 0.6728 0.0275
0.0381 0.6547 0.0275
0.1166 0.6466 0.0317
0.1848 0.6495 0.0354
0.2563 0.6502 0.0468
0.3298 0.6481 0.0714
0.4000 0.6479 0.0979
0.4674 0.6466 0.1403
0.5286 0.6467 0.1933
0.5804 0.6404 0.2360
0.6266 0.6384 0.2721
0.6702 0.6396 0.2983
0.7100 0.6425 0.3262
0.7458 0.6471 0.3558
0.7777 0.6534 0.3871
0.0000 0.7517 0.0275
0.0000 0.7455 0.0275
0.0000 0.7409 0.0275
0.0236 0.7200 0.0275
0.1031 0.7102 0.0275
0.1714 0.7127 0.0275
0.2405 0.7157 0.0275
0.3125 0.7163 0.0384
0.3863 0.7139 0.0666
0.4566 0.7133 0.0967
0.5240 0.7113 0.1441
0.5852 0.7105 0.2029
0.6369 0.7037 0.2504
0.6829 0.7011 0.2903
0.7264 0.7021 0.3189
0.7660 0.7046 0.3493
0.8018 0.7089 0.3813
0.0000 0.8251 0.0275
0.0000 0.8162 0.0275
0.0000 0.8087 0.0275
0.0096 0.7852 0.0275
0.0897 0.7736 0.0275
0.1579 0.7758 0.0275
0.2272 0.7785 0.0275
0.2971 0.7815 0.0275
0.3694 0.7820 0.0315
0.4434 0.7792 0.0633
0.5137 0.7783 0.0969
0.5810 0.7756 0.1493
0.6421 0.7741 0.2137
0.6936 0.7666 0.2658
0.7395 0.7635 0.3094
0.7828 0.7642 0.3405
0.8224 0.7664 0.3732
0.0000 0.8982 0.0275
0.0000 0.8867 0.0275
0.0000 0.8765 0.0275
0.0000 0.8503 0.0275
0.0765 0.8369 0.0275
0.1446 0.8388 0.0275
0.2140 0.8411 0.0275
0.2840 0.8438 0.0275
0.3543 0.8469 0.0275
0.4269 0.8473 0.0275
0.5009 0.8442 0.0615
0.5711 0.8429 0.0984
0.6384 0.8396 0.1557
0.6993 0.8373 0.2256
0.7506 0.8292 0.2823
0.7963 0.8257 0.3294
0.8396 0.8260 0.3628
0.0000 0.9713 0.0275
0.0000 0.9571 0.0275
0.0000 0.9441 0.0275
0.0000 0.9152 0.0275
0.0633 0.9001 0.0275
0.1313 0.9017 0.0275
0.2008 0.9036 0.0275
0.2711 0.9060 0.0275
0.3416 0.9087 0.0275
0.4121 0.9119 0.0275
0.4848 0.9122 0.0275
0.5588 0.9087 0.0611
0.6290 0.9071 0.1014
0.6960 0.9033 0.1634
0.7568 0.9002 0.2387
0.8079 0.8915 0.2999
0.8534 0.8875 0.3504
0.0000 1.0000 0.0275
0.0000 1.0000 0.0275
0.0000 1.0000 0.0275
0.0000 0.9800 0.0275
0.0504 0.9632 0.0275
0.1181 0.9645 0.0275
0.1877 0.9661 0.0275
0.2581 0.9681 0.0275
0.3289 0.9705 0.0275
0.3997 0.9733 0.0275
0.4704 0.9765 0.0275
0.5431 0.9767 0.0275
0.6171 0.9729 0.0623
0.6871 0.9710 0.1058
0.7540 0.9666 0.1724
0.8146 0.9628 0.2529
0.8654 0.9535 0.3184
0.0000 1.0000 0.0275
0.0000 1.0000 0.0275
0.0000 1.0000 0.0275
0.0000 1.0000 0.0275
0.0377 1.0000 0.0275
0.1050 1.0000 0.0275
0.1746 1.0000 0.0275
0.2452 1.0000 0.0275
0.3163 1.0000 0.0275
0.3874 1.0000 0.0275
0.4584 1.0000 0.0275
0.5292 1.0000 0.0275
0.6019 1.0000 0.0275
0.6757 1.0000 0.0648
0.7456 1.0000 0.1115
0.8123 1.0000 0.1826
0.8726 1.0000 0.2683
0.0000 0.0000 0.1263
0.0000 0.0000 0.1525
0.0643 0.0000 0.1833
0.1485 0.0000 0.2192
0.2069 0.0000 0.2198
0.2665 0.0000 0.2188
0.3248 0.0000 0.2164
0.3700 0.0000 0.2122
0.4112 0.0000 0.2099
0.4483 0.0017 0.2095
0.4813 0.0138 0.2111
0.5101 0.0275 0.2145
0.5346 0.0431 0.2199
0.5549 0.0604 0.2272
0.5707 0.0797 0.2365
0.5822 0.1007 0.2476
0.5893 0.1236 0.2606
0.0000 0.0000 0.1691
0.0000 0.0000 0.1619
0.0674 0.0217 0.1896
0.1498 0.0562 0.2206
0.2074 0.0527 0.2204
0.2665 0.0491 0.2188
0.3150 0.0524 0.2155
0.3597 0.0575 0.2141
0.4004 0.0647 0.2147
0.4372 0.0737 0.2172
0.4698 0.0847 0.2216
0.4982 0.0976 0.2279
0.5223 0.1124 0.2361
0.5421 0.1291 0.2462
0.5576 0.1476 0.2583
0.5687 0.1680 0.2723
