assets/luts/LUTs/JD_Mammoth.CUBE
TITLE "ColorFinale Export"
# Created by Jeven Dovey on 2021-07-15 17:41:18 +0000
# Color Finale Plugin v.2.3.2 (520)
LUT_3D_SIZE 5
0.0000 0.0000 0.0275
0.1677 0.0000 0.0344
0.2969 0.0323 0.0720
0.3625 0.1010 0.1398
0.4153 0.1744 0.2133
0.0000 0.2693 0.0275
0.1869 0.2598 0.0356
0.3644 0.2636 0.1122
0.4824 0.2989 0.2006
0.5360 0.3626 0.3175
0.0000 0.5473 0.0275
0.1384 0.5246 0.0275
0.4038 0.5210 0.0627
0.5824 0.5168 0.1968
0.7007 0.5454 0.3260
0.0000 0.8197 0.0275
0.0855 0.7791 0.0275
0.3608 0.7877 0.0275
0.6287 0.7756 0.1086
0.8058 0.7646 0.2945
0.0000 1.0000 0.0275
0.0369 1.0000 0.0275
0.3115 1.0000 0.0275
0.5928 1.0000 0.0275
0.8590 1.0000 0.1579
0.0000 0.0000 0.1528
0.2058 0.0000 0.2824
0.4458 0.0000 0.2788
0.5889 0.0209 0.2698
0.6631 0.0958 0.2914
0.0000 0.1547 0.3258
0.2112 0.2490 0.2883
0.4091 0.2557 0.2951
0.5447 0.2922 0.3319
0.6127 0.3582 0.3987
0.0000 0.4734 0.2488
0.1343 0.5230 0.2032
0.4295 0.5137 0.2962
0.6148 0.5174 0.3714
0.7364 0.5522 0.4588
0.0000 0.7773 0.1203
0.0551 0.7978 0.1114
0.3780 0.7753 0.1776
0.6554 0.7717 0.3228
0.8390 0.7676 0.4550
0.0000 1.0000 0.0275
0.0000 1.0000 0.0275
0.3210 1.0000 0.1126
0.6109 1.0000 0.1536
0.8864 1.0000 0.3679
0.0000 0.0000 0.2269
0.0832 0.0000 0.3679
0.4437 0.0000 0.5341
0.6988 0.0000 0.5363
0.9483 0.0000 0.5268
0.0000 0.0084 0.4513
0.0985 0.1225 0.4115
0.4494 0.2531 0.5399
0.6988 0.2395 0.5363
0.8457 0.2814 0.5274
0.0000 0.3175 0.6201
0.1042 0.4105 0.5830
0.4551 0.5031 0.5458
0.6610 0.5097 0.5525
0.8003 0.5456 0.5891
0.0000 0.6487 0.5906
0.0000 0.7246 0.5066
0.3737 0.7738 0.4614
0.6820 0.7645 0.5536
0.8721 0.7682 0.6283
0.0000 0.9520 0.4673
0.0000 1.0000 0.3794
0.2876 1.0000 0.3706
0.6288 1.0000 0.4360
0.9137 1.0000 0.5800
0.0000 0.0000 0.2512
0.0000 0.0000 0.4090
0.2991 0.0000 0.6045
0.6907 0.0000 0.7843
0.9580 0.0000 0.7924
0.0000 0.0000 0.5339
0.0009 0.0000 0.4849
0.3184 0.1402 0.6249
0.6966 0.2572 0.7902
0.9580 0.2395 0.7924
0.0000 0.1639 0.7114
0.0246 0.2697 0.7078
0.3352 0.3792 0.6682
0.7024 0.5071 0.7960
0.9580 0.4938 0.7924
0.0000 0.4783 0.9128
0.0056 0.5705 0.8758
0.3413 0.6624 0.8388
0.7083 0.7540 0.8018
0.9194 0.7605 0.8085
0.0000 0.8229 0.9300
0.0000 0.8984 0.8464
0.1797 0.9738 0.7628
0.6243 1.0000 0.7178
0.9408 1.0000 0.8096
0.0000 0.0000 0.2654
0.0000 0.0000 0.4057
0.1641 0.0000 0.6307
0.5269 0.0000 0.8399
0.9438 0.0037 1.0000
0.0000 0.0000 0.5591
0.0000 0.0000 0.5089
0.1961 0.0307 0.6657
0.5470 0.1547 0.8602
0.9498 0.2613 1.0000
0.0000 0.0248 0.7750
0.0000 0.1399 0.7900
0.2238 0.2608 0.7412
0.5671 0.3964 0.8805
0.9557 0.5112 1.0000
0.0000 0.3151 0.9703
0.0000 0.4196 0.9667
0.2529 0.5235 0.9631
0.5844 0.6315 0.9237
0.9617 0.7580 1.0000
0.0000 0.6378 1.0000
0.0000 0.7295 1.0000
0.2299 0.8208 1.0000
0.5908 0.9120 1.0000
0.9677 1.0000 1.0000
