assets/luts/LUTs/JD_Mammoth.CUBE
TITLE "ColorFinale Export"
# Created by Jeven Dovey on 2021-07-15 17:41:18 +0000
# Color Finale Plugin v.2.3.2 (520)
LUT_3D_SIZE 9
0.0000 0.0000 0.0275
0.0822 0.0000 0.0275
0.1677 0.0000 0.0344
0.2398 0.0089 0.0494
0.2969 0.0323 0.0720
0.3379 0.0630 0.1022
0.3625 0.1010 0.1398
0.3703 0.1462 0.1849
0.4153 0.1744 0.2133
0.0000 0.1242 0.0275
0.0838 0.1258 0.0292
0.1773 0.1254 0.0525
0.2583 0.1340 0.0748
0.3247 0.1500 0.1044
0.3755 0.1733 0.1414
0.4101 0.2040 0.1856
0.4283 0.2418 0.2372
0.4299 0.2869 0.2960
0.0000 0.2693 0.0275
0.0652 0.2546 0.0275
0.1869 0.2598 0.0356
0.2825 0.2566 0.0787
0.3644 0.2636 0.1122
0.4313 0.2777 0.1528
0.4824 0.2989 0.2006
0.5174 0.3273 0.2555
0.5360 0.3626 0.3175
0.0000 0.4099 0.0275
0.0348 0.3903 0.0275
0.1692 0.3895 0.0275
0.2941 0.3914 0.0468
0.3904 0.3855 0.1086
0.4726 0.3910 0.1528
0.5396 0.4035 0.2040
0.5909 0.4228 0.2622
0.6261 0.4491 0.3272
0.0000 0.5473 0.0275
0.0085 0.5209 0.0275
0.1384 0.5246 0.0275
0.2777 0.5223 0.0275
0.4038 0.5210 0.0627
0.5002 0.5127 0.1423
0.5824 0.5168 0.1968
0.6494 0.5277 0.2580
0.7007 0.5454 0.3260
0.0000 0.6838 0.0275
0.0000 0.6485 0.0275
0.1106 0.6534 0.0275
0.2479 0.6570 0.0275
0.3891 0.6532 0.0275
0.5155 0.6490 0.0833
0.6116 0.6384 0.1798
0.6935 0.6413 0.2440
0.7603 0.6508 0.3148
0.0000 0.8197 0.0275
0.0000 0.7755 0.0275
0.0855 0.7791 0.0275
0.2208 0.7842 0.0275
0.3608 0.7877 0.0275
0.5025 0.7826 0.0275
0.6287 0.7756 0.1086
0.7242 0.7629 0.2211
0.8058 0.7646 0.2945
0.0000 0.9550 0.0275
0.0000 0.9021 0.0275
0.0609 0.9042 0.0275
0.1963 0.9080 0.0275
0.3349 0.9133 0.0275
0.4759 0.9168 0.0275
0.6176 0.9104 0.0275
0.7432 0.9009 0.1385
0.8380 0.8862 0.2661
0.0000 1.0000 0.0275
0.0000 1.0000 0.0275
0.0369 1.0000 0.0275
0.1719 1.0000 0.0275
0.3115 1.0000 0.0275
0.4515 1.0000 0.0275
0.5928 1.0000 0.0275
0.7340 1.0000 0.0275
0.8590 1.0000 0.1579
0.0000 0.0000 0.0967
0.0927 0.0000 0.1557
0.2068 0.0000 0.1538
0.2986 0.0000 0.1491
0.3753 0.0066 0.1522
0.4357 0.0314 0.1629
0.4793 0.0635 0.1814
0.5057 0.1030 0.2075
0.5148 0.1498 0.2412
0.0000 0.0708 0.1745
0.0953 0.1198 0.1586
0.1974 0.1194 0.1582
0.2867 0.1266 0.1654
0.3611 0.1414 0.1802
0.4196 0.1637 0.2025
0.4615 0.1934 0.2323
0.4865 0.2305 0.2697
0.4945 0.2749 0.3145
0.0000 0.2202 0.1390
0.0659 0.2533 0.1243
0.1991 0.2549 0.1603
0.2966 0.2545 0.1832
0.3800 0.2629 0.2052
0.4480 0.2787 0.2345
0.4998 0.3017 0.2712
0.5350 0.3320 0.3151
0.5536 0.3695 0.3664
0.0000 0.3789 0.0798
0.0239 0.3967 0.0728
0.1793 0.3821 0.1168
0.3066 0.3873 0.1666
0.4049 0.3841 0.2091
0.4885 0.3910 0.2422
0.5566 0.4050 0.2826
0.6085 0.4260 0.3300
0.6440 0.4541 0.3847
0.0000 0.5306 0.0275
0.0000 0.5362 0.0275
0.1464 0.5167 0.0681
0.2883 0.5159 0.1046
0.4167 0.5178 0.1776
0.5150 0.5120 0.2387
0.5986 0.5174 0.2826
0.6666 0.5298 0.3334
0.7185 0.5490 0.3913
0.0000 0.6782 0.0275
0.0000 0.6728 0.0275
0.1166 0.6466 0.0317
0.2563 0.6502 0.0468
0.4000 0.6479 0.0979
0.5286 0.6467 0.1933
0.6266 0.6384 0.2721
0.7100 0.6425 0.3262
0.7777 0.6534 0.3871
0.0000 0.8251 0.0275
0.0000 0.8087 0.0275
0.0897 0.7736 0.0275
0.2272 0.7785 0.0275
0.3694 0.7820 0.0315
0.5137 0.7783 0.0969
0.6421 0.7741 0.2137
0.7395 0.7635 0.3094
0.8224 0.7664 0.3732
0.0000 0.9713 0.0275
0.0000 0.9441 0.0275
0.0633 0.9001 0.0275
0.2008 0.9036 0.0275
0.3416 0.9087 0.0275
0.4848 0.9122 0.0275
0.6290 0.9071 0.1014
0.7568 0.9002 0.2387
0.8534 0.8875 0.3504
0.0000 1.0000 0.0275
0.0000 1.0000 0.0275
0.0377 1.0000 0.0275
0.1746 1.0000 0.0275
0.3163 1.0000 0.0275
0.4584 1.0000 0.0275
0.6019 1.0000 0.0275
0.7456 1.0000 0.1115
0.8726 1.0000 0.2683
0.0000 0.0000 0.1528
0.0371 0.0000 0.2080
0.2058 0.0000 0.2824
0.3271 0.0000 0.2835
0.4458 0.0000 0.2788
0.5258 0.0000 0.2704
0.5889 0.0209 0.2698
0.6348 0.0547 0.2767
0.6631 0.0958 0.2914
0.0000 0.0000 0.2461
0.0413 0.0546 0.2269
0.2085 0.1219 0.2854
0.3271 0.1150 0.2835
0.4214 0.1232 0.2789
0.4996 0.1392 0.2819
0.5611 0.1627 0.2926
0.6054 0.1938 0.3109
0.6322 0.2325 0.3369
0.0000 0.1547 0.3258
0.0471 0.2010 0.3041
0.2112 0.2490 0.2883
0.3174 0.2486 0.2879
0.4091 0.2557 0.2951
0.4851 0.2702 0.3097
0.5447 0.2922 0.3319
0.5873 0.3215 0.3616
0.6127 0.3582 0.3987
0.0000 0.3095 0.3013
0.0000 0.3480 0.2688
0.1801 0.3808 0.2542
0.3191 0.3823 0.2899
0.4193 0.3820 0.3128
0.5044 0.3904 0.3346
0.5735 0.4060 0.3637
0.6262 0.4288 0.4002
0.6619 0.4588 0.4440
0.0000 0.4734 0.2488
0.0000 0.5054 0.2101
0.1343 0.5230 0.2032
0.2987 0.5086 0.2468
0.4295 0.5137 0.2962
0.5297 0.5106 0.3384
0.6148 0.5174 0.3714
0.6838 0.5313 0.4116
0.7364 0.5522 0.4588
0.0000 0.6277 0.1847
0.0000 0.6562 0.1478
0.0928 0.6618 0.1558
0.2646 0.6424 0.1986
0.4107 0.6416 0.2347
0.5417 0.6435 0.3072
0.6416 0.6377 0.3679
0.7263 0.6431 0.4116
0.7952 0.6554 0.4622
0.0000 0.7773 0.1203
0.0000 0.8032 0.0870
0.0551 0.7978 0.1114
0.2336 0.7717 0.1628
0.3780 0.7753 0.1776
0.5247 0.7730 0.2281
0.6554 0.7717 0.3228
0.7547 0.7635 0.4012
0.8390 0.7676 0.4550
0.0000 0.9262 0.0555
0.0000 0.9495 0.0275
0.0192 0.9332 0.0667
0.2053 0.8982 0.1318
0.3482 0.9031 0.1417
0.4936 0.9066 0.1626
0.6402 0.9029 0.2270
0.7704 0.8987 0.3430
0.8688 0.8882 0.4382
0.0000 1.0000 0.0275
0.0000 1.0000 0.0275
0.0000 1.0000 0.0275
0.1773 1.0000 0.1007
0.3210 1.0000 0.1126
0.4652 1.0000 0.1267
0.6109 1.0000 0.1536
0.7571 1.0000 0.2315
0.8864 1.0000 0.3679
0.0000 0.0000 0.1961
0.0000 0.0000 0.2491
0.1430 0.0000 0.3308
0.3233 0.0000 0.4085
0.4504 0.0000 0.4125
0.5714 0.0000 0.4078
0.6940 0.0000 0.4030
0.7597 0.0000 0.3910
0.8078 0.0349 0.3867
0.0000 0.0000 0.3107
0.0000 0.0000 0.2825
0.1489 0.0610 0.3374
0.3261 0.1240 0.4114
0.4504 0.1150 0.4125
0.5714 0.1102 0.4078
0.6525 0.1276 0.3995
0.7165 0.1527 0.3988
0.7630 0.1853 0.4058
0.0000 0.0789 0.3883
0.0052 0.1307 0.3753
0.1535 0.1852 0.3561
0.3288 0.2511 0.4144
0.4504 0.2443 0.4125
0.5465 0.2524 0.4079
0.6260 0.2680 0.4109
0.6884 0.2913 0.4215
0.7332 0.3220 0.4398
0.0000 0.2364 0.4732
0.0000 0.2833 0.4546
0.1599 0.3290 0.4330
0.3316 0.3766 0.4173
0.4405 0.3762 0.4169
0.5341 0.3832 0.4240
0.6113 0.3976 0.4386
0.6717 0.4193 0.4607
0.7149 0.4485 0.4903
0.0000 0.3949 0.4626
0.0000 0.4366 0.4302
0.1039 0.4747 0.3979
0.2995 0.5073 0.3833
0.4423 0.5088 0.4189
0.5444 0.5084 0.4416
0.6309 0.5168 0.4634
0.7010 0.5323 0.4924
0.7542 0.5550 0.5288
0.0000 0.5612 0.4202
0.0000 0.5993 0.3780
0.0375 0.6312 0.3395
0.2521 0.6487 0.3326
0.4215 0.6343 0.3760
0.5548 0.6394 0.4252
0.6565 0.6363 0.4672
0.7427 0.6431 0.5001
0.8126 0.6569 0.5401
0.0000 0.7156 0.3582
0.0000 0.7528 0.3142
0.0000 0.7813 0.2776
0.2086 0.7869 0.2855
0.3865 0.7675 0.3280
0.5357 0.7667 0.3639
0.6687 0.7686 0.4361
0.7699 0.7628 0.4966
0.8556 0.7682 0.5401
0.0000 0.8648 0.2945
0.0000 0.9019 0.2503
0.0000 0.9277 0.2173
0.1685 0.9223 0.2414
0.3547 0.8963 0.2924
0.5024 0.8999 0.3071
0.6515 0.8976 0.3574
0.7839 0.8964 0.4516
0.8842 0.8882 0.5297
0.0000 1.0000 0.2305
0.0000 1.0000 0.1862
0.0000 1.0000 0.1568
0.1290 1.0000 0.1972
0.3256 1.0000 0.2616
0.4719 1.0000 0.2715
0.6199 1.0000 0.2922
0.7685 1.0000 0.3563
0.9001 1.0000 0.4717
0.0000 0.0000 0.2269
0.0000 0.0000 0.2789
0.0832 0.0000 0.3679
0.2549 0.0000 0.4530
0.4437 0.0000 0.5341
0.5761 0.0000 0.5410
0.6988 0.0000 0.5363
0.8229 0.0000 0.5316
0.9483 0.0000 0.5268
0.0000 0.0000 0.3612
0.0000 0.0000 0.3256
0.0921 0.0000 0.3782
0.2611 0.0658 0.4596
0.4465 0.1261 0.5370
0.5761 0.1150 0.5410
0.6988 0.1102 0.5363
0.8229 0.1053 0.5316
0.8893 0.1320 0.5196
0.0000 0.0084 0.4513
0.0000 0.0639 0.4396
0.0985 0.1225 0.4115
0.2672 0.1915 0.4661
0.4494 0.2531 0.5399
0.5761 0.2443 0.5410
0.6988 0.2395 0.5363
0.7810 0.2567 0.5280
0.8457 0.2814 0.5274
0.0000 0.1574 0.5234
0.0000 0.2089 0.5169
0.1127 0.2597 0.5039
0.2720 0.3135 0.4849
0.4522 0.3786 0.5429
0.5761 0.3719 0.5410
0.6736 0.3799 0.5364
0.7541 0.3954 0.5394
0.8172 0.4184 0.5500
0.0000 0.3175 0.6201
0.0000 0.3641 0.6016
0.1042 0.4105 0.5830
0.2786 0.4559 0.5615
0.4551 0.5031 0.5458
0.5660 0.5027 0.5454
0.6610 0.5097 0.5525
0.7392 0.5240 0.5670
0.8003 0.5456 0.5891
0.0000 0.4797 0.6233
0.0000 0.5213 0.5910
0.0350 0.5627 0.5587
0.2203 0.6006 0.5264
0.4223 0.6331 0.5119
0.5678 0.6346 0.5474
0.6715 0.6342 0.5701
0.7590 0.6425 0.5917
0.8299 0.6579 0.6207
0.0000 0.6487 0.5906
0.0000 0.6867 0.5486
0.0000 0.7246 0.5066
0.1494 0.7563 0.4683
0.3737 0.7738 0.4614
0.5466 0.7595 0.5046
0.6820 0.7645 0.5536
0.7850 0.7614 0.5955
0.8721 0.7682 0.6283
0.0000 0.8032 0.5308
0.0000 0.8404 0.4870
0.0000 0.8775 0.4431
0.0914 0.9059 0.4066
0.3289 0.9114 0.4145
0.5110 0.8921 0.4568
0.6626 0.8914 0.4926
0.7973 0.8932 0.5645
0.8996 0.8875 0.6248
0.0000 0.9520 0.4673
0.0000 0.9891 0.4234
0.0000 1.0000 0.3794
0.0404 1.0000 0.3466
0.2876 1.0000 0.3706
0.4786 1.0000 0.4214
0.6288 1.0000 0.4360
0.7799 1.0000 0.4861
0.9137 1.0000 0.5800
0.0000 0.0000 0.2453
0.0000 0.0000 0.2976
0.0274 0.0000 0.3940
0.1890 0.0000 0.4864
0.3703 0.0000 0.5748
0.5663 0.0000 0.6594
0.7035 0.0000 0.6692
0.8277 0.0000 0.6645
0.9532 0.0000 0.6597
0.0000 0.0000 0.3976
0.0000 0.0000 0.3562
0.0388 0.0000 0.4079
0.1984 0.0076 0.4966
0.3766 0.0706 0.5814
0.5692 0.1282 0.6623
0.7035 0.1150 0.6692
0.8277 0.1102 0.6645
0.9532 0.1053 0.6597
0.0000 0.0000 0.4998
0.0000 0.0000 0.4899
0.0469 0.0607 0.4544
0.2078 0.1329 0.5068
0.3829 0.1961 0.5879
0.5721 0.2552 0.6652
0.7035 0.2443 0.6692
0.8277 0.2395 0.6645
0.9532 0.2348 0.6597
0.0000 0.0872 0.5815
0.0000 0.1409 0.5797
0.0618 0.1943 0.5680
0.2146 0.2517 0.5400
0.3892 0.3196 0.5945
0.5750 0.3806 0.6681
0.7035 0.3719 0.6692
0.8277 0.3672 0.6645
0.9108 0.3841 0.6562
0.0000 0.2349 0.6581
0.0000 0.2860 0.6516
0.0695 0.3368 0.6451
0.2295 0.3871 0.6322
0.3941 0.4405 0.6132
0.5779 0.5051 0.6710
0.7035 0.4984 0.6692
0.8022 0.5064 0.6646
0.8836 0.5218 0.6676
0.0000 0.3981 0.7666
0.0000 0.4444 0.7481
0.0531 0.4907 0.7296
0.2205 0.5368 0.7110
0.4009 0.5819 0.6896
0.5807 0.6288 0.6739
0.6933 0.6285 0.6735
0.7895 0.6354 0.6806
0.8686 0.6496 0.6951
0.0000 0.5643 0.7834
0.0000 0.6056 0.7512
0.0000 0.6469 0.7190
0.1466 0.6882 0.6868
0.3410 0.7259 0.6546
0.5474 0.7582 0.6402
0.6951 0.7597 0.6755
0.8001 0.7593 0.6981
0.8886 0.7676 0.7198
0.0000 0.7359 0.7605
0.0000 0.7738 0.7187
0.0000 0.8116 0.6768
0.0656 0.8494 0.6349
0.2677 0.8810 0.5966
0.4979 0.8984 0.5898
0.6737 0.8841 0.6329
0.8107 0.8892 0.6818
0.9148 0.8861 0.7236
0.0000 0.8906 0.7027
0.0000 0.9277 0.6590
0.0000 0.9648 0.6152
0.0077 1.0000 0.5715
0.2071 1.0000 0.5351
0.4523 1.0000 0.5430
0.6376 1.0000 0.5852
0.7911 1.0000 0.6209
0.9273 1.0000 0.6926
0.0000 0.0000 0.2512
0.0000 0.0000 0.3052
0.0000 0.0000 0.4090
0.1258 0.0000 0.5087
0.2991 0.0000 0.6045
0.4881 0.0000 0.6963
0.6907 0.0000 0.7843
0.8325 0.0000 0.7971
0.9580 0.0000 0.7924
0.0000 0.0000 0.4200
0.0000 0.0000 0.3744
0.0000 0.0000 0.4266
0.1383 0.0000 0.5226
0.3088 0.0154 0.6147
0.4945 0.0753 0.7029
0.6937 0.1303 0.7872
0.8325 0.1150 0.7971
0.9580 0.1102 0.7924
0.0000 0.0000 0.5339
0.0000 0.0000 0.5261
0.0009 0.0000 0.4849
0.1508 0.0751 0.5365
0.3184 0.1402 0.6249
0.5009 0.2008 0.7094
0.6966 0.2572 0.7902
0.8325 0.2443 0.7971
0.9580 0.2395 0.7924
0.0000 0.0174 0.6252
0.0000 0.0740 0.6281
0.0152 0.1301 0.6182
0.1596 0.1912 0.5828
0.3282 0.2619 0.6351
0.5073 0.3242 0.7160
0.6995 0.3827 0.7931
0.8325 0.3719 0.7971
0.9580 0.3672 0.7924
0.0000 0.1639 0.7114
0.0000 0.2170 0.7096
0.0246 0.2697 0.7078
0.1757 0.3224 0.6961
0.3352 0.3792 0.6682
0.5138 0.4466 0.7225
0.7024 0.5071 0.7960
0.8325 0.4984 0.7971
0.9580 0.4938 0.7924
0.0000 0.3119 0.7924
0.0000 0.3626 0.7860
0.0307 0.4132 0.7795
0.1839 0.4636 0.7730
0.3505 0.5136 0.7601
0.5187 0.5666 0.7411
0.7053 0.6308 0.7989
0.8325 0.6242 0.7971
0.9322 0.6321 0.7925
0.0000 0.4783 0.9128
0.0000 0.5245 0.8943
0.0056 0.5705 0.8758
0.1663 0.6165 0.8573
0.3413 0.6624 0.8388
0.5256 0.7073 0.8174
0.7083 0.7540 0.8018
0.8222 0.7536 0.8014
0.9194 0.7605 0.8085
0.0000 0.6485 0.9432
0.0000 0.6897 0.9111
0.0000 0.7309 0.8789
0.0814 0.7720 0.8468
0.2649 0.8131 0.8146
0.4646 0.8507 0.7825
0.6745 0.8829 0.7681
0.8240 0.8843 0.8034
0.9301 0.8840 0.8260
0.0000 0.8229 0.9300
0.0000 0.8607 0.8882
0.0000 0.8984 0.8464
0.0000 0.9361 0.8046
0.1797 0.9738 0.7628
0.3897 1.0000 0.7247
0.6243 1.0000 0.7178
0.8023 1.0000 0.7608
0.9408 1.0000 0.8096
0.0000 0.0000 0.2446
0.0000 0.0000 0.3017
0.0000 0.0000 0.4129
0.0659 0.0000 0.5200
0.2303 0.0000 0.6231
0.4119 0.0000 0.7223
0.6078 0.0000 0.8176
0.8166 0.0014 0.9091
0.9628 0.0000 0.9247
0.0000 0.0000 0.4284
0.0000 0.0000 0.3803
0.0000 0.0000 0.4341
0.0810 0.0000 0.5375
0.2432 0.0000 0.6369
0.4218 0.0230 0.7325
0.6143 0.0801 0.8241
0.8196 0.1323 0.9120
0.9628 0.1150 0.9247
0.0000 0.0000 0.5537
0.0000 0.0000 0.5485
0.0000 0.0000 0.5031
0.0963 0.0177 0.5550
0.2562 0.0851 0.6508
0.4317 0.1474 0.7427
0.6208 0.2054 0.8307
0.8225 0.2593 0.9149
0.9628 0.2443 0.9247
0.0000 0.0000 0.6546
0.0000 0.0073 0.6621
0.0000 0.0671 0.6543
0.1073 0.1318 0.6132
0.2692 0.2052 0.6646
0.4416 0.2690 0.7528
0.6273 0.3288 0.8372
0.8255 0.3847 0.9178
0.9628 0.3719 0.9247
0.0000 0.0941 0.7503
0.0000 0.1494 0.7532
0.0000 0.2041 0.7560
0.1245 0.2591 0.7461
0.2784 0.3193 0.7108
0.4515 0.3893 0.7630
0.6338 0.4511 0.8438
0.8284 0.5091 0.9207
0.9628 0.4984 0.9247
0.0000 0.2398 0.8410
0.0000 0.2925 0.8392
0.0000 0.3449 0.8374
0.1351 0.3971 0.8355
0.2950 0.4493 0.8239
0.4587 0.5057 0.7960
0.6404 0.5726 0.8503
0.8314 0.6329 0.9236
0.9628 0.6242 0.9247
0.0000 0.3884 0.9265
0.0000 0.4389 0.9201
0.0000 0.4892 0.9136
0.1418 0.5395 0.9072
0.3034 0.5896 0.9007
0.4743 0.6393 0.8878
0.6454 0.6920 0.8689
0.8344 0.7560 0.9265
0.9628 0.7494 0.9247
0.0000 0.5582 1.0000
0.0000 0.6042 1.0000
0.0000 0.6501 1.0000
0.1132 0.6960 1.0000
0.2852 0.7417 0.9849
0.4649 0.7874 0.9664
0.6524 0.8321 0.9450
0.8373 0.8787 0.9294
0.9524 0.8783 0.9290
0.0000 0.7324 1.0000
0.0000 0.7736 1.0000
0.0000 0.8146 1.0000
0.0197 0.8556 1.0000
0.1965 0.8966 0.9743
0.3868 0.9375 0.9422
0.5904 0.9750 0.9102
0.8031 1.0000 0.8958
0.9543 1.0000 0.9310
0.0000 0.0000 0.2654
0.0000 0.0000 0.2871
0.0000 0.0000 0.4057
0.0110 0.0000 0.5202
0.1641 0.0000 0.6307
0.3380 0.0000 0.7372
0.5269 0.0000 0.8399
0.7290 0.0000 0.9387
0.9438 0.0037 1.0000
0.0000 0.0000 0.4228
0.0000 0.0000 0.3738
0.0000 0.0000 0.4306
0.0277 0.0000 0.5414
0.1801 0.0000 0.6482
0.3513 0.0000 0.7510
0.5369 0.0306 0.8500
0.7356 0.0848 0.9452
0.9468 0.1344 1.0000
0.0000 0.0000 0.5591
0.0000 0.0000 0.5568
0.0000 0.0000 0.5089
0.0451 0.0000 0.5626
0.1961 0.0307 0.6657
0.3645 0.0951 0.7649
0.5470 0.1547 0.8602
0.7422 0.2100 0.9517
0.9498 0.2613 1.0000
0.0000 0.0000 0.6696
0.0000 0.0000 0.6818
0.0000 0.0041 0.6766
0.0579 0.0734 0.6313
0.2123 0.1496 0.6832
0.3779 0.2150 0.7787
0.5570 0.2762 0.8704
0.7488 0.3334 0.9583
0.9528 0.3867 1.0000
0.0000 0.0248 0.7750
0.0000 0.0829 0.7825
0.0000 0.1399 0.7900
0.0762 0.1973 0.7822
0.2238 0.2608 0.7412
0.3912 0.3332 0.7925
0.5671 0.3964 0.8805
0.7554 0.4557 0.9648
0.9557 0.5112 1.0000
0.0000 0.1691 0.8752
0.0000 0.2238 0.8780
0.0000 0.2781 0.8809
0.0891 0.3322 0.8837
0.2418 0.3866 0.8739
0.4006 0.4463 0.8386
0.5772 0.5157 0.8907
0.7620 0.5772 0.9713
0.9587 0.6349 1.0000
0.0000 0.3151 0.9703
0.0000 0.3675 0.9685
0.0000 0.4196 0.9667
0.0984 0.4716 0.9649
0.2529 0.5235 0.9631
0.4176 0.5754 0.9515
0.5844 0.6315 0.9237
0.7686 0.6981 0.9778
0.9617 0.7580 1.0000
0.0000 0.4645 1.0000
0.0000 0.5148 1.0000
0.0000 0.5650 1.0000
0.1006 0.6151 1.0000
0.2599 0.6651 1.0000
0.4263 0.7150 1.0000
0.6003 0.7644 1.0000
0.7737 0.8169 0.9964
0.9647 0.8807 1.0000
0.0000 0.6378 1.0000
0.0000 0.6837 1.0000
0.0000 0.7295 1.0000
0.0617 0.7752 1.0000
0.2299 0.8208 1.0000
0.4077 0.8664 1.0000
0.5908 0.9120 1.0000
0.7808 0.9565 1.0000
0.9677 1.0000 1.0000
