assets/luts/LUTs/JD_ORANGE TEAL.CUBE
TITLE "Generated by 3D LUT Creator Pro (c) Oleg Sharonov"
LUT_3D_SIZE 8
#INPUTGAMMA Display v.2.10
#IMAGEPROFILE Display v.2.10
#OUTPUTGAMMA Display v.2.10
0.000000 0.000000 0.000000
0.048294 0.006309 0.000000
0.208164 0.057439 0.000000
0.352420 0.119422 0.000000
0.493896 0.180036 0.000000
0.634922 0.240405 0.000000
0.774850 0.300376 0.000000
0.851432 0.333078 0.000000
0.012617 0.050348 0.056196
0.080060 0.051686 0.012617
0.228766 0.080536 0.000000
0.364567 0.132407 0.000000
0.502114 0.188599 0.000000
0.640915 0.246689 0.000000
0.779413 0.305132 0.000000
0.855567 0.337397 0.000000
0.100700 0.220150 0.235403
0.122712 0.221729 0.234093
0.294019 0.222600 0.107156
0.437139 0.230111 0.000000
0.561621 0.259174 0.000000
0.688527 0.300130 0.000000
0.818232 0.347396 0.000000
0.890528 0.375112 0.000000
0.187131 0.372937 0.396681
0.198941 0.373696 0.396065
0.298771 0.378206 0.381546
0.485776 0.376522 0.200901
0.633754 0.379416 0.000000
0.759636 0.397384 0.000000
0.882663 0.427488 0.000000
0.950865 0.447595 0.000000
0.272247 0.523696 0.555720
0.280260 0.524256 0.555432
0.346048 0.528396 0.550265
0.520826 0.523759 0.472558
0.674415 0.528335 0.294901
0.820396 0.532252 0.099522
0.955725 0.541056 0.000000
1.000000 0.564004 0.206090
0.359054 0.677062 0.717633
0.364762 0.677465 0.717342
0.412817 0.680719 0.714470
0.508878 0.685277 0.702017
0.721932 0.673920 0.582193
0.863367 0.682450 0.395800
0.987501 0.694233 0.292373
0.997608 0.719952 0.481996
0.448276 0.834759 0.884085
0.452636 0.835066 0.883864
0.489519 0.837682 0.881966
0.575127 0.840253 0.872395
0.717176 0.838461 0.843452
0.882600 0.835780 0.765769
0.956721 0.860035 0.745635
0.982464 0.879809 0.762634
0.666118 0.902986 0.938629
0.669989 0.903017 0.938103
0.701975 0.903723 0.934033
0.758479 0.905989 0.927275
0.829596 0.911714 0.920392
0.919043 0.920901 0.900340
0.970251 0.945279 0.916669
0.987610 0.964278 0.939853
0.001577 0.005520 0.007886
0.046181 0.012617 0.011040
0.215156 0.056820 0.000000
0.356258 0.119088 0.000000
0.496433 0.179816 0.000000
0.636573 0.240086 0.000000
0.776125 0.300130 0.000000
0.852692 0.332969 0.000000
0.000000 0.056820 0.073649
0.063382 0.058662 0.058662
0.226049 0.085170 0.037063
0.369118 0.130280 0.011040
0.507392 0.185650 0.000000
0.644648 0.244354 0.000000
0.782386 0.303435 0.000000
0.858068 0.335893 0.000000
0.080060 0.223641 0.241518
0.124005 0.222600 0.236218
0.287366 0.225364 0.134204
0.436983 0.230947 0.037063
0.566037 0.256969 0.000000
0.692149 0.298275 0.000000
0.821058 0.345840 0.000000
0.893057 0.373601 0.000000
0.176260 0.374735 0.400007
0.200511 0.374358 0.397121
0.296031 0.379230 0.384668
0.482134 0.378019 0.216596
0.630821 0.380992 0.068394
0.762442 0.396329 0.000000
0.885064 0.426363 0.000000
0.953071 0.446457 0.000000
0.265377 0.524938 0.558021
0.281327 0.524566 0.556008
0.345632 0.528888 0.551373
0.513814 0.525558 0.481651
0.672026 0.529318 0.305373
0.818512 0.533165 0.132105
0.957546 0.540399 0.000000
1.000000 0.564344 0.214069
0.354042 0.677912 0.719208
0.365541 0.677733 0.717840
0.412901 0.681030 0.715096
0.507975 0.685717 0.703126
0.720200 0.674595 0.585550
0.861703 0.683158 0.403300
0.985206 0.695099 0.308135
0.997797 0.720117 0.483925
0.444475 0.835440 0.885284
0.453233 0.835270 0.884243
0.489790 0.837919 0.882410
0.575458 0.840455 0.872812
0.716802 0.838799 0.844392
0.881871 0.836154 0.767406
0.955867 0.860461 0.747841
0.982602 0.879999 0.762940
0.664562 0.903447 0.939474
0.668535 0.903539 0.938949
0.700778 0.904214 0.934855
0.757551 0.906387 0.927957
0.829115 0.912047 0.920960
0.918383 0.921230 0.901634
0.970307 0.945510 0.917060
0.987665 0.964447 0.940173
0.016560 0.053002 0.072104
0.028389 0.065085 0.082881
0.204377 0.095908 0.087409
0.388121 0.110432 0.000000
0.516924 0.175585 0.000000
0.651515 0.237515 0.000000
0.787517 0.298151 0.000000
0.862748 0.331331 0.000000
0.022080 0.086965 0.114664
0.046181 0.093846 0.116385
0.214432 0.116385 0.109350
0.394385 0.127806 0.034697
0.527781 0.181130 0.000000
0.659494 0.241677 0.000000
0.793734 0.301481 0.000000
0.868236 0.334164 0.000000
0.000000 0.237515 0.281327
0.070533 0.237515 0.276491
0.250068 0.242468 0.241994
0.400790 0.253846 0.222774
0.540996 0.277844 0.204759
0.679741 0.311811 0.185225
0.818372 0.352217 0.161205
0.915494 0.359947 0.000000
0.074664 0.387760 0.426524
0.117405 0.387579 0.423453
0.291099 0.385763 0.400443
0.454871 0.389474 0.308493
0.606900 0.393853 0.252794
0.746108 0.408008 0.218381
0.879713 0.432742 0.184585
0.973761 0.435575 0.000000
0.197953 0.534985 0.575899
0.219621 0.534743 0.574077
0.348222 0.532374 0.558480
0.463892 0.538181 0.537400
0.652595 0.537400 0.377646
0.802763 0.540996 0.280127
0.946348 0.547863 0.223121
1.000000 0.566488 0.271833
0.308373 0.685365 0.732536
0.321861 0.685145 0.731161
0.416814 0.683335 0.719621
0.502377 0.689315 0.711667
0.703510 0.680941 0.613146
0.847104 0.689140 0.459226
0.966527 0.702572 0.410294
0.999275 0.721520 0.501327
0.410548 0.841164 0.895607
0.420191 0.840961 0.894520
0.493628 0.839543 0.885600
0.579850 0.841871 0.876144
0.713760 0.841332 0.851498
0.875920 0.839374 0.781236
0.948912 0.863790 0.765197
0.983836 0.881776 0.765693
0.650997 0.907699 0.946723
0.654937 0.907760 0.946232
0.688702 0.908309 0.941918
0.749373 0.909983 0.934062
0.824771 0.914981 0.925939
0.909862 0.925077 0.911016
0.970697 0.947271 0.920272
0.988237 0.966162 0.943079
0.046181 0.112214 0.141446
0.054934 0.118753 0.147523
0.130891 0.163167 0.180255
0.346464 0.178713 0.165105
0.551431 0.171474 0.055568
0.682981 0.229607 0.000000
0.811554 0.293134 0.000000
0.883864 0.327138 0.000000
0.053651 0.132708 0.167019
0.067305 0.137728 0.170081
0.140880 0.176933 0.196162
0.352319 0.190469 0.177603
0.553175 0.185225 0.086965
0.690886 0.233435 0.000000
0.817708 0.296281 0.000000
0.889338 0.329904 0.000000
0.032332 0.254743 0.322654
0.069470 0.256378 0.321748
0.208912 0.269747 0.302826
0.387035 0.278114 0.271278
0.563891 0.281193 0.230445
0.705126 0.309326 0.196162
0.841568 0.347810 0.162434
0.936408 0.354749 0.000000
0.000000 0.399659 0.467210
0.067305 0.399833 0.464905
0.264236 0.400530 0.442098
0.417227 0.407072 0.406560
0.567893 0.415653 0.387669
0.709312 0.432979 0.369694
0.847838 0.457755 0.351810
1.000000 0.422233 0.162189
0.059868 0.548567 0.609931
0.108987 0.548392 0.607878
0.283049 0.548098 0.591766
0.453978 0.547393 0.562644
0.619009 0.551722 0.473689
0.772517 0.555951 0.427327
0.914920 0.566431 0.397735
1.000000 0.570856 0.363492
0.203225 0.698548 0.757977
0.222426 0.698505 0.756545
0.344590 0.697558 0.745121
0.504925 0.694449 0.722878
0.633803 0.700092 0.694059
0.820570 0.700264 0.545330
0.933856 0.715929 0.535651
1.000000 0.725011 0.540876
0.331987 0.852394 0.915463
0.344381 0.852228 0.914467
0.433768 0.850868 0.905928
0.596690 0.843654 0.879904
0.712212 0.845900 0.862421
0.863888 0.846034 0.806373
0.936934 0.870238 0.795369
0.986600 0.885379 0.771007
0.622363 0.916217 0.961203
0.626635 0.916277 0.960750
0.661804 0.916909 0.956665
0.728156 0.918082 0.947963
0.813706 0.921439 0.936846
0.900310 0.930765 0.928342
0.971423 0.950923 0.926949
0.989435 0.969636 0.949027
0.080536 0.169847 0.209285
0.086965 0.174454 0.213705
0.137437 0.208164 0.243256
0.249916 0.256969 0.247924
0.485844 0.259758 0.241518
0.705720 0.240883 0.142009
0.851963 0.280527 0.000000
0.918833 0.317633 0.000000
0.086072 0.184157 0.226732
0.095499 0.187972 0.229607
0.145068 0.219091 0.255933
0.251587 0.265946 0.265946
0.489790 0.267502 0.249916
0.707160 0.250373 0.157710
0.857936 0.283444 0.000000
0.924244 0.320155 0.000000
0.099126 0.281459 0.351504
0.114317 0.283444 0.351198
0.201679 0.299389 0.348016
0.295027 0.331769 0.351708
0.518565 0.331222 0.318323
0.717965 0.323557 0.260632
0.865059 0.350073 0.204568
0.971228 0.343648 0.000000
0.013406 0.415154 0.512282
0.063953 0.415736 0.511001
0.224849 0.421091 0.501129
0.368541 0.434162 0.472062
0.553175 0.437997 0.431000
0.730025 0.438774 0.397121
0.873486 0.458050 0.367963
1.000000 0.438074 0.262801
0.000000 0.559739 0.650432
0.061643 0.560025 0.649252
0.271001 0.559682 0.632729
0.433058 0.562076 0.605403
0.581595 0.569573 0.569013
0.733222 0.576780 0.550265
0.909436 0.575789 0.502180
1.000000 0.577495 0.472062
0.028389 0.711625 0.795623
0.092168 0.711499 0.794098
0.281193 0.711037 0.782015
0.449786 0.711331 0.759597
0.617197 0.711625 0.727463
0.783608 0.716220 0.640338
0.918833 0.726157 0.620063
1.000000 0.730674 0.604057
0.213158 0.865676 0.946406
0.231613 0.865611 0.945308
0.346775 0.865286 0.936144
0.528027 0.860690 0.910287
0.700478 0.855171 0.880127
0.824598 0.861082 0.856489
0.931502 0.877931 0.819490
0.990496 0.890278 0.791073
0.592989 0.926771 0.980759
0.595952 0.927067 0.980511
0.621664 0.929525 0.978443
0.688045 0.931561 0.971144
0.786340 0.933504 0.957574
0.888680 0.939795 0.944961
0.972287 0.956835 0.937869
0.991338 0.975177 0.958426
0.115699 0.227582 0.277034
0.120087 0.230947 0.280394
0.157205 0.257265 0.304527
0.231779 0.300745 0.336860
0.397560 0.338466 0.328911
0.624703 0.340593 0.317748
0.856357 0.312399 0.223295
0.946232 0.323444 0.156443
0.119755 0.238000 0.289946
0.126235 0.241042 0.292118
0.163167 0.266088 0.314854
0.236868 0.307896 0.345111
0.401745 0.344485 0.334921
0.627574 0.346256 0.323782
0.857575 0.319470 0.233105
0.952012 0.325241 0.155677
0.140312 0.316941 0.389384
0.148869 0.318668 0.389744
0.209285 0.334272 0.393587
0.278383 0.366124 0.412062
0.432426 0.395800 0.385307
0.650715 0.394474 0.375865
0.867492 0.376429 0.308135
0.992124 0.352827 0.183298
0.107892 0.435889 0.546039
0.124965 0.436749 0.545744
0.230780 0.444399 0.536194
0.348429 0.460690 0.520011
0.453755 0.489248 0.506939
0.684616 0.481996 0.468858
0.881776 0.473971 0.423453
0.997124 0.461566 0.358755
0.000000 0.574298 0.697386
0.025234 0.575072 0.698032
0.228259 0.577714 0.688965
0.384211 0.583929 0.672658
0.528458 0.596901 0.637251
0.718172 0.598110 0.591340
0.906295 0.592617 0.552420
1.000000 0.592883 0.523759
0.000000 0.722343 0.835610
0.061643 0.722549 0.834759
0.275404 0.721932 0.822240
0.447140 0.722302 0.799420
0.599839 0.726239 0.770327
0.745753 0.734351 0.733827
0.908583 0.737003 0.708427
1.000000 0.738004 0.689140
0.000000 0.878727 0.985014
0.067305 0.878791 0.984165
0.293640 0.877325 0.972537
0.539681 0.867945 0.934473
0.670079 0.870302 0.911865
0.793771 0.877485 0.891934
0.927453 0.888147 0.846837
0.996854 0.896383 0.824875
0.615024 0.932121 0.995587
0.617600 0.932474 0.995506
0.639231 0.935353 0.994588
0.681785 0.941104 0.992396
0.746975 0.949803 0.987365
0.860853 0.954984 0.971144
0.971897 0.965572 0.954670
0.994074 0.983013 0.971674
0.150203 0.285021 0.344485
0.153615 0.287496 0.346878
0.182434 0.308373 0.366706
0.240724 0.345736 0.398086
0.333621 0.393676 0.425638
0.531704 0.422559 0.410210
0.762519 0.420846 0.393231
0.908157 0.395800 0.348841
0.153615 0.293134 0.354446
0.158466 0.295404 0.356157
0.187131 0.315668 0.375112
0.244979 0.352013 0.405277
0.337397 0.398873 0.431634
0.535046 0.427006 0.414738
0.764777 0.425234 0.397998
0.913531 0.397823 0.350482
0.173999 0.357958 0.435497
0.180036 0.359649 0.436358
0.225707 0.373885 0.442713
0.280527 0.403214 0.464327
0.369118 0.442790 0.482479
0.562587 0.465627 0.453755
0.783571 0.463457 0.439240
0.952040 0.421826 0.374169
0.176260 0.463022 0.571970
0.185438 0.464037 0.571691
0.250981 0.472699 0.568677
0.343019 0.490195 0.564004
0.424183 0.520575 0.573025
0.604990 0.538842 0.527842
0.814586 0.535590 0.516608
0.960269 0.511386 0.478179
0.110791 0.592458 0.732819
0.130280 0.592989 0.732415
0.238965 0.597374 0.728522
0.370077 0.606281 0.715596
0.479919 0.625199 0.702274
0.611924 0.648874 0.664516
0.859839 0.632925 0.618657
0.972788 0.625348 0.602552
0.000000 0.735799 0.883359
0.000000 0.736722 0.884685
0.221379 0.738644 0.878632
0.391984 0.742071 0.863855
0.492890 0.755459 0.868915
0.650715 0.767976 0.834759
0.882251 0.761214 0.754372
0.988673 0.757087 0.738524
0.315436 0.879650 0.999812
0.336216 0.879014 0.997178
0.465122 0.874512 0.976757
0.611974 0.869690 0.944874
0.703808 0.876240 0.931532
0.791036 0.889902 0.924839
0.909497 0.903048 0.902741
1.000000 0.903999 0.889558
0.678537 0.934033 1.000000
0.680497 0.934385 1.000000
0.697773 0.937548 1.000000
0.731727 0.944006 1.000000
0.782275 0.954328 1.000000
0.848539 0.968713 0.999436
0.947905 0.982437 0.988646
0.997635 0.993317 0.988891
0.169145 0.316363 0.381362
0.172167 0.318668 0.383662
0.197755 0.337289 0.401311
0.249458 0.371511 0.431079
0.331112 0.417227 0.462513
0.490398 0.458491 0.443863
0.701291 0.473194 0.454202
0.838088 0.464833 0.434712
0.172167 0.323557 0.390193
0.175134 0.325689 0.392252
0.200706 0.343962 0.409449
0.252342 0.377365 0.438230
0.334164 0.422152 0.468429
0.492823 0.462876 0.447898
0.705210 0.476361 0.457313
0.842444 0.467354 0.437139
0.191704 0.382284 0.463384
0.194755 0.384120 0.465049
0.220678 0.398961 0.477900
0.274174 0.426604 0.499020
0.357759 0.464544 0.520073
0.506874 0.503293 0.482272
0.739123 0.504469 0.484749
0.880888 0.489722 0.458197
0.202261 0.480474 0.589686
0.205521 0.481789 0.590807
0.233270 0.492823 0.599368
0.293640 0.513495 0.611464
0.388753 0.542069 0.618708
0.524380 0.574298 0.597637
0.800428 0.559053 0.538422
0.916307 0.553407 0.526238
0.153356 0.604368 0.751214
0.155933 0.605403 0.752697
0.181348 0.613806 0.763706
0.258295 0.629348 0.771876
0.384851 0.649771 0.768963
0.553465 0.670850 0.733101
0.855665 0.648732 0.630625
0.931090 0.657685 0.639809
0.000000 0.745358 0.907150
0.000000 0.746187 0.908431
0.028389 0.753204 0.919073
0.103403 0.766721 0.940232
0.212609 0.785492 0.972927
0.539082 0.793407 0.916879
0.869044 0.776686 0.766112
0.952269 0.780604 0.770629
0.438852 0.877198 1.000000
0.442406 0.877549 1.000000
0.472699 0.880825 1.000000
0.528704 0.887487 1.000000
0.606591 0.897931 1.000000
0.702871 0.911865 1.000000
0.854511 0.921917 0.963574
0.980622 0.917571 0.914256
0.721273 0.934708 0.999195
0.723084 0.935060 0.999195
0.739083 0.938220 0.999222
0.770705 0.944672 0.999302
0.818267 0.954927 0.999436
0.880603 0.969357 0.999597
0.954841 0.987965 0.999839
1.000000 1.000000 1.000000
