assets/luts/LUTs/JD_ORANGE TEAL.CUBE
TITLE "Generated by 3D LUT Creator Pro (c) Oleg Sharonov"
LUT_3D_SIZE 4
#INPUTGAMMA Display v.2.10
#IMAGEPROFILE Display v.2.10
#OUTPUTGAMMA Display v.2.10
0.000000 0.000000 0.000000
0.257265 0.078619 0.000000
0.588025 0.220326 0.000000
0.851432 0.333078 0.000000
0.129973 0.271833 0.289946
0.358954 0.274721 0.138882
0.669399 0.315900 0.000000
0.908370 0.395535 0.000000
0.329904 0.625496 0.663231
0.418218 0.631115 0.656569
0.800356 0.630723 0.361133
1.000000 0.667032 0.397296
0.666118 0.902986 0.938629
0.718587 0.904244 0.932003
0.882505 0.918232 0.915132
0.987610 0.964278 0.939853
0.024446 0.073137 0.095499
0.252493 0.124005 0.113620
0.615682 0.214975 0.000000
0.868495 0.330234 0.000000
0.000000 0.292500 0.344276
0.306578 0.298027 0.297654
0.643789 0.338466 0.254593
0.946002 0.372748 0.000000
0.240564 0.639086 0.687344
0.420682 0.635845 0.666438
0.774173 0.641539 0.458491
1.000000 0.670306 0.442713
0.643216 0.910013 0.950722
0.699707 0.910986 0.943572
0.875185 0.923141 0.924452
0.988564 0.967116 0.944701
0.104163 0.208538 0.254593
0.172397 0.254444 0.295278
0.578592 0.313805 0.292373
0.945337 0.312046 0.066756
0.124965 0.342703 0.425960
0.249458 0.363786 0.420764
0.617802 0.399920 0.385034
1.000000 0.370556 0.176485
0.000000 0.667761 0.773572
0.332969 0.667396 0.751878
0.691017 0.679028 0.678448
1.000000 0.683909 0.619812
0.604213 0.930529 0.991202
0.642546 0.935118 0.988973
0.834419 0.947127 0.966162
0.993073 0.980153 0.966836
0.169145 0.316363 0.381362
0.211876 0.347293 0.410379
0.408432 0.450538 0.470712
0.838088 0.464833 0.434712
0.198151 0.411558 0.500537
0.242626 0.433847 0.518691
0.446989 0.513240 0.548039
0.901695 0.501852 0.469572
0.083343 0.696869 0.855105
0.126866 0.709102 0.873422
0.454648 0.747999 0.881301
0.944440 0.737884 0.725462
0.721273 0.934708 0.999195
0.747920 0.939999 0.999248
0.858265 0.964053 0.999544
1.000000 1.000000 1.000000
