assets/luts/LUTs/JD_ORANGE TEAL.CUBE
TITLE "Generated by 3D LUT Creator Pro (c) Oleg Sharonov"
LUT_3D_SIZE 64
#INPUTGAMMA Display v.2.10
#IMAGEPROFILE Display v.2.10
#OUTPUTGAMMA Display v.2.10
0.000000 0.000000 0.000000
0.000000 0.000000 0.000000
0.000000 0.000000 0.000000
0.002366 0.000000 0.000000
0.002366 0.000000 0.000000
0.007886 0.000789 0.000000
0.012617 0.001577 0.000000
0.020503 0.002366 0.000000
0.030754 0.003943 0.000000
0.048294 0.006309 0.000000
0.064521 0.009463 0.000000
0.084261 0.013406 0.000000
0.103403 0.018137 0.000000
0.121734 0.022869 0.000000
0.139742 0.029177 0.000000
0.158215 0.036274 0.000000
0.175360 0.043264 0.000000
0.192114 0.051020 0.000000
0.208164 0.057439 0.000000
0.224504 0.064521 0.000000
0.240883 0.071584 0.000000
0.257265 0.078619 0.000000
0.273075 0.085622 0.000000
0.289175 0.092590 0.000000
0.305132 0.099126 0.000000
0.320839 0.106043 0.000000
0.336753 0.112567 0.000000
0.352420 0.119422 0.000000
0.368252 0.126235 0.000000
0.383936 0.133009 0.000000
0.399659 0.139742 0.000000
0.415487 0.146437 0.000000
0.431158 0.153095 0.000000
0.446913 0.159966 0.000000
0.462658 0.166781 0.000000
0.478249 0.173314 0.000000
0.493896 0.180036 0.000000
0.509780 0.186920 0.000000
0.525434 0.193541 0.000000
0.541115 0.200315 0.000000
0.556642 0.206847 0.000000
0.572358 0.213705 0.000000
0.588025 0.220326 0.000000
0.603746 0.227072 0.000000
0.619260 0.233764 0.000000
0.634922 0.240405 0.000000
0.650526 0.247153 0.000000
0.666027 0.253696 0.000000
0.681607 0.260487 0.000000
0.697171 0.267079 0.000000
0.712714 0.273762 0.000000
0.728237 0.280394 0.000000
0.743855 0.287107 0.000000
0.759328 0.293640 0.000000
0.774850 0.300376 0.000000
0.790341 0.306938 0.000000
0.805802 0.313571 0.000000
0.821371 0.320269 0.000000
0.836867 0.326916 0.000000
0.851432 0.333078 0.000000
0.851432 0.333078 0.000000
0.851432 0.333078 0.000000
0.851432 0.333078 0.000000
0.851432 0.333078 0.000000
0.000000 0.000000 0.000000
0.000000 0.000000 0.000000
0.000000 0.000000 0.000000
0.002366 0.000000 0.000000
0.002366 0.000000 0.000000
0.007886 0.000789 0.000000
0.012617 0.001577 0.000000
0.020503 0.002366 0.000000
0.030754 0.003943 0.000000
0.048294 0.006309 0.000000
0.064521 0.009463 0.000000
0.084261 0.013406 0.000000
0.103403 0.018137 0.000000
0.121734 0.022869 0.000000
0.140597 0.029966 0.000000
0.158215 0.036274 0.000000
0.175360 0.044005 0.000000
0.192114 0.051020 0.000000
0.208725 0.058053 0.000000
0.225192 0.065085 0.000000
0.241360 0.072104 0.000000
0.257265 0.078619 0.000000
0.273075 0.085622 0.000000
0.289175 0.092590 0.000000
0.305132 0.099126 0.000000
0.320839 0.106043 0.000000
0.336646 0.112919 0.000000
0.352420 0.119422 0.000000
0.368252 0.126235 0.000000
0.383936 0.133009 0.000000
0.399659 0.139742 0.000000
0.415487 0.146437 0.000000
0.431158 0.153095 0.000000
0.446913 0.159966 0.000000
0.462658 0.166781 0.000000
0.478249 0.173314 0.000000
0.493896 0.180036 0.000000
0.509780 0.186920 0.000000
0.525434 0.193541 0.000000
0.541115 0.200315 0.000000
0.556642 0.206847 0.000000
0.572358 0.213705 0.000000
0.588025 0.220326 0.000000
0.603746 0.227072 0.000000
0.619411 0.233764 0.000000
0.634922 0.240405 0.000000
0.650526 0.247153 0.000000
0.666164 0.253846 0.000000
0.681607 0.260487 0.000000
0.697171 0.267079 0.000000
0.712714 0.273762 0.000000
0.728237 0.280394 0.000000
0.743855 0.287107 0.000000
0.759289 0.293640 0.000000
0.774850 0.300376 0.000000
0.790341 0.306938 0.000000
0.805802 0.313571 0.000000
0.821336 0.320269 0.000000
0.836833 0.326916 0.000000
0.851432 0.333186 0.000000
0.851432 0.333186 0.000000
0.851432 0.333186 0.000000
0.851432 0.333186 0.000000
0.851432 0.333186 0.000000
0.000000 0.000789 0.000789
0.000789 0.000789 0.000789
0.001577 0.000789 0.000000
0.001577 0.000789 0.000000
0.004731 0.000789 0.000000
0.007097 0.001577 0.000000
0.012617 0.001577 0.000000
0.019714 0.003154 0.000000
0.033120 0.004731 0.000000
0.047596 0.006309 0.000000
0.066202 0.009463 0.000000
0.084261 0.013406 0.000000
0.103021 0.018137 0.000000
0.122712 0.023657 0.000000
0.140597 0.029966 0.000000
0.157963 0.036274 0.000000
0.175134 0.044005 0.000000
0.192114 0.051020 0.000000
0.208725 0.058053 0.000000
0.225021 0.065085 0.000000
0.241201 0.072104 0.000000
0.257265 0.078619 0.000000
0.273488 0.085622 0.000000
0.289561 0.092590 0.000000
0.305373 0.099522 0.000000
0.321066 0.106043 0.000000
0.336968 0.112919 0.000000
0.352624 0.119755 0.000000
0.368541 0.126551 0.000000
0.384120 0.133009 0.000000
0.399920 0.139742 0.000000
0.415487 0.146437 0.000000
0.431396 0.153356 0.000000
0.447064 0.159966 0.000000
0.462658 0.166781 0.000000
0.478458 0.173543 0.000000
0.494097 0.180255 0.000000
0.509716 0.186920 0.000000
0.525372 0.193541 0.000000
0.541115 0.200315 0.000000
0.556815 0.207036 0.000000
0.572470 0.213705 0.000000
0.588025 0.220326 0.000000
0.603694 0.227072 0.000000
0.619361 0.233764 0.000000
0.635019 0.240564 0.000000
0.650526 0.247153 0.000000
0.666118 0.253846 0.000000
0.681740 0.260487 0.000000
0.697300 0.267220 0.000000
0.712840 0.273762 0.000000
0.728359 0.280527 0.000000
0.743816 0.287107 0.000000
0.759405 0.293767 0.000000
0.774812 0.300376 0.000000
0.790341 0.307058 0.000000
0.805909 0.313688 0.000000
0.821441 0.320269 0.000000
0.836935 0.326916 0.000000
0.851532 0.333186 0.000000
0.851532 0.333186 0.000000
0.851532 0.333186 0.000000
0.851532 0.333186 0.000000
0.851532 0.333186 0.000000
0.000789 0.001577 0.002366
0.000789 0.001577 0.002366
0.001577 0.001577 0.001577
0.002366 0.001577 0.000000
0.005520 0.001577 0.000000
0.008674 0.001577 0.000000
0.014194 0.002366 0.000000
0.021292 0.003154 0.000000
0.034697 0.005520 0.000000
0.048985 0.007097 0.000000
0.067305 0.010251 0.000000
0.085170 0.014194 0.000000
0.104163 0.018926 0.000000
0.123360 0.024446 0.000000
0.141164 0.030754 0.000000
0.158466 0.037063 0.000000
0.175585 0.044005 0.000000
0.192523 0.051686 0.000000
0.209098 0.058662 0.000000
0.225364 0.065646 0.000000
0.241518 0.072622 0.000000
0.258001 0.079582 0.000000
0.273762 0.086072 0.000000
0.289818 0.093011 0.000000
0.305735 0.099916 0.000000
0.321407 0.106415 0.000000
0.337182 0.113270 0.000000
0.352928 0.119755 0.000000
0.368733 0.126551 0.000000
0.384303 0.133308 0.000000
0.400095 0.140028 0.000000
0.415902 0.146981 0.000000
0.431555 0.153615 0.000000
0.447292 0.160215 0.000000
0.463022 0.167019 0.000000
0.478597 0.173771 0.000000
0.494231 0.180255 0.000000
0.510102 0.187131 0.000000
0.525744 0.193744 0.000000
0.541234 0.200511 0.000000
0.556930 0.207224 0.000000
0.572636 0.213887 0.000000
0.588294 0.220678 0.000000
0.603798 0.227242 0.000000
0.619461 0.233929 0.000000
0.635117 0.240564 0.000000
0.650762 0.247307 0.000000
0.666255 0.253995 0.000000
0.681829 0.260632 0.000000
0.697386 0.267220 0.000000
0.712924 0.273899 0.000000
0.728441 0.280527 0.000000
0.743935 0.287237 0.000000
0.759482 0.293893 0.000000
0.774925 0.300499 0.000000
0.790524 0.307178 0.000000
0.805981 0.313805 0.000000
0.821510 0.320383 0.000000
0.837003 0.327027 0.000000
0.851598 0.333295 0.000000
0.851598 0.333295 0.000000
0.851598 0.333295 0.000000
0.851598 0.333295 0.000000
0.851598 0.333295 0.000000
0.000789 0.003943 0.003943
0.000789 0.003943 0.003943
0.001577 0.003943 0.003943
0.003943 0.003943 0.003154
0.006309 0.003943 0.000789
0.010251 0.003154 0.000000
0.016560 0.003943 0.000000
0.026812 0.005520 0.000000
0.037852 0.006309 0.000000
0.054295 0.008674 0.000000
0.069470 0.011040 0.000000
0.086965 0.014983 0.000000
0.105669 0.019714 0.000000
0.124965 0.025234 0.000000
0.142290 0.031543 0.000000
0.159717 0.038640 0.000000
0.176709 0.045463 0.000000
0.193338 0.052347 0.000000
0.209843 0.059267 0.000000
0.226220 0.066202 0.000000
0.242310 0.073137 0.000000
0.258735 0.080060 0.000000
0.274448 0.086965 0.000000
0.290459 0.093429 0.000000
0.306217 0.100309 0.000000
0.321861 0.107156 0.000000
0.337718 0.113620 0.000000
0.353334 0.120418 0.000000
0.369118 0.127180 0.000000
0.384760 0.133906 0.000000
0.400443 0.140597 0.000000
0.416317 0.147253 0.000000
0.431951 0.153875 0.000000
0.447595 0.160711 0.000000
0.463384 0.167256 0.000000
0.478876 0.173999 0.000000
0.494499 0.180693 0.000000
0.510359 0.187342 0.000000
0.525991 0.194149 0.000000
0.541473 0.200706 0.000000
0.557160 0.207412 0.000000
0.572858 0.214069 0.000000
0.588562 0.220853 0.000000
0.604213 0.227582 0.000000
0.619712 0.234093 0.000000
0.635360 0.240883 0.000000
0.650997 0.247616 0.000000
0.666438 0.254145 0.000000
0.682006 0.260777 0.000000
0.697601 0.267502 0.000000
0.713133 0.274174 0.000000
0.728644 0.280794 0.000000
0.744093 0.287366 0.000000
0.759674 0.294019 0.000000
0.775075 0.300622 0.000000
0.790707 0.307297 0.000000
0.806159 0.313922 0.000000
0.821684 0.320611 0.000000
0.837173 0.327249 0.000000
0.851731 0.333404 0.000000
0.851731 0.333404 0.000000
0.851731 0.333404 0.000000
0.851731 0.333404 0.000000
0.851731 0.333404 0.000000
0.001577 0.006309 0.007097
0.002366 0.007097 0.008674
0.002366 0.007097 0.007886
0.003154 0.007097 0.007097
0.007886 0.007097 0.005520
0.012617 0.007097 0.001577
0.020503 0.007097 0.000000
0.029966 0.007886 0.000000
0.043264 0.009463 0.000000
0.057439 0.011040 0.000000
0.074158 0.014194 0.000000
0.090892 0.017349 0.000000
0.108987 0.022080 0.000000
0.126866 0.027600 0.000000
0.145068 0.033909 0.000000
0.161944 0.040217 0.000000
0.178713 0.047596 0.000000
0.195359 0.054295 0.000000
0.211692 0.061056 0.000000
0.227751 0.067852 0.000000
0.243727 0.074664 0.000000
0.259613 0.081010 0.000000
0.275676 0.087851 0.000000
0.291226 0.094676 0.000000
0.306938 0.101090 0.000000
0.322993 0.107892 0.000000
0.338359 0.114664 0.000000
0.354345 0.121406 0.000000
0.370077 0.128118 0.000000
0.385581 0.134501 0.000000
0.401311 0.141164 0.000000
0.416814 0.147794 0.000000
0.432663 0.154650 0.000000
0.448049 0.161205 0.000000
0.463820 0.167967 0.000000
0.479572 0.174681 0.000000
0.495167 0.181348 0.000000
0.510744 0.187972 0.000000
0.526424 0.194554 0.000000
0.542069 0.201291 0.000000
0.557734 0.207976 0.000000
0.573413 0.214613 0.000000
0.588883 0.221204 0.000000
0.604524 0.227921 0.000000
0.620163 0.234585 0.000000
0.635651 0.241201 0.000000
0.651280 0.247924 0.000000
0.666895 0.254593 0.000000
0.682450 0.261213 0.000000
0.697989 0.267925 0.000000
0.713509 0.274448 0.000000
0.729010 0.281193 0.000000
0.744489 0.287755 0.000000
0.760021 0.294398 0.000000
0.775450 0.300991 0.000000
0.790926 0.307537 0.000000
0.806480 0.314272 0.000000
0.821997 0.320839 0.000000
0.837478 0.327472 0.000000
0.852062 0.333730 0.000000
0.852062 0.333730 0.000000
0.852062 0.333730 0.000000
0.852062 0.333730 0.000000
0.852062 0.333730 0.000000
0.003154 0.011829 0.013406
0.003154 0.011829 0.013406
0.003943 0.012617 0.014194
0.004731 0.012617 0.014194
0.007097 0.012617 0.013406
0.014983 0.012617 0.008674
0.022869 0.012617 0.003154
0.034697 0.012617 0.000000
0.049669 0.013406 0.000000
0.063382 0.014983 0.000000
0.079582 0.018137 0.000000
0.095908 0.021292 0.000000
0.113270 0.026023 0.000000
0.130586 0.030754 0.000000
0.148601 0.037063 0.000000
0.165105 0.044005 0.000000
0.181566 0.050348 0.000000
0.197953 0.056820 0.000000
0.214069 0.063382 0.000000
0.230111 0.070003 0.000000
0.245913 0.076662 0.000000
0.261502 0.083343 0.000000
0.277034 0.089600 0.000000
0.292881 0.096315 0.000000
0.308612 0.103021 0.000000
0.324456 0.109712 0.000000
0.339850 0.116042 0.000000
0.355655 0.122712 0.000000
0.371034 0.129357 0.000000
0.386854 0.135977 0.000000
0.402523 0.142571 0.000000
0.417971 0.149137 0.000000
0.433453 0.155677 0.000000
0.449107 0.162189 0.000000
0.464833 0.168910 0.000000
0.480266 0.175585 0.000000
0.496100 0.182217 0.000000
0.511642 0.188808 0.000000
0.527226 0.195359 0.000000
0.542901 0.202067 0.000000
0.558537 0.208725 0.000000
0.573966 0.215336 0.000000
0.589632 0.222078 0.000000
0.605248 0.228597 0.000000
0.620864 0.235403 0.000000
0.636330 0.241994 0.000000
0.651938 0.248539 0.000000
0.667488 0.255190 0.000000
0.683069 0.261792 0.000000
0.698591 0.268487 0.000000
0.714094 0.275131 0.000000
0.729579 0.281725 0.000000
0.745003 0.288272 0.000000
0.760445 0.294901 0.000000
0.775937 0.301481 0.000000
0.791438 0.308135 0.000000
0.806978 0.314738 0.000000
0.822379 0.321294 0.000000
0.837953 0.328026 0.000000
0.852526 0.334164 0.000000
0.852526 0.334164 0.000000
0.852526 0.334164 0.000000
0.852526 0.334164 0.000000
0.852526 0.334164 0.000000
0.005520 0.020503 0.022869
0.005520 0.021292 0.024446
0.006309 0.021292 0.023657
0.007097 0.021292 0.023657
0.008674 0.021292 0.023657
0.013406 0.021292 0.022080
0.026023 0.020503 0.013406
0.037852 0.021292 0.004731
0.054295 0.022080 0.000789
0.070003 0.022080 0.000000
0.086072 0.024446 0.000000
0.102253 0.027600 0.000000
0.119088 0.031543 0.000000
0.135977 0.037063 0.000000
0.153356 0.043264 0.000000
0.169613 0.048985 0.000000
0.185650 0.054934 0.000000
0.201679 0.061056 0.000000
0.217490 0.067305 0.000000
0.233270 0.073649 0.000000
0.248845 0.080060 0.000000
0.264379 0.086520 0.000000
0.280127 0.092590 0.000000
0.295404 0.099126 0.000000
0.310985 0.105295 0.000000
0.326693 0.111859 0.000000
0.341966 0.118418 0.000000
0.357659 0.124965 0.000000
0.373317 0.131499 0.000000
0.388663 0.137728 0.000000
0.404247 0.144241 0.000000
0.419616 0.150733 0.000000
0.435340 0.157458 0.000000
0.450613 0.163897 0.000000
0.466275 0.170547 0.000000
0.481927 0.177156 0.000000
0.497430 0.183513 0.000000
0.512921 0.190262 0.000000
0.528519 0.196761 0.000000
0.544088 0.203418 0.000000
0.559682 0.210029 0.000000
0.575293 0.216596 0.000000
0.590701 0.223121 0.000000
0.606281 0.229775 0.000000
0.621914 0.236381 0.000000
0.637299 0.242941 0.000000
0.652877 0.249610 0.000000
0.668444 0.256230 0.000000
0.683953 0.262801 0.000000
0.699449 0.269328 0.000000
0.714929 0.275948 0.000000
0.730391 0.282520 0.000000
0.745832 0.289175 0.000000
0.761329 0.295780 0.000000
0.776724 0.302338 0.000000
0.792168 0.308850 0.000000
0.807690 0.315552 0.000000
0.823212 0.322088 0.000000
0.838664 0.328690 0.000000
0.853188 0.334921 0.000000
0.853188 0.334921 0.000000
0.853188 0.334921 0.000000
0.853188 0.334921 0.000000
0.853188 0.334921 0.000000
0.008674 0.033120 0.037852
0.008674 0.033120 0.037852
0.008674 0.033120 0.037852
0.010251 0.033909 0.037852
0.011829 0.033909 0.037063
0.015771 0.033909 0.036274
0.022869 0.033909 0.033120
0.044005 0.033120 0.020503
0.058053 0.033909 0.007886
0.075669 0.034697 0.001577
0.093011 0.034697 0.000000
0.109350 0.037063 0.000000
0.126235 0.040994 0.000000
0.143408 0.046181 0.000000
0.159468 0.051020 0.000000
0.175360 0.056196 0.000000
0.191088 0.061643 0.000000
0.206658 0.067305 0.000000
0.222252 0.073137 0.000000
0.237677 0.078619 0.000000
0.253095 0.084717 0.000000
0.268768 0.090892 0.000000
0.283839 0.096721 0.000000
0.299266 0.103021 0.000000
0.314622 0.109350 0.000000
0.329794 0.115355 0.000000
0.345216 0.121734 0.000000
0.360541 0.127806 0.000000
0.375959 0.134204 0.000000
0.391269 0.140597 0.000000
0.406645 0.146981 0.000000
0.422233 0.153356 0.000000
0.437607 0.159717 0.000000
0.453009 0.166304 0.000000
0.468572 0.172856 0.000000
0.483925 0.179155 0.000000
0.499350 0.185650 0.000000
0.514959 0.192319 0.000000
0.530482 0.198744 0.000000
0.545980 0.205331 0.000000
0.561336 0.211692 0.000000
0.576890 0.218381 0.000000
0.592405 0.224849 0.000000
0.607981 0.231447 0.000000
0.623360 0.238000 0.000000
0.638893 0.244510 0.000000
0.654376 0.251132 0.000000
0.669762 0.257559 0.000000
0.685233 0.264093 0.000000
0.700692 0.270723 0.000000
0.716137 0.277304 0.000000
0.731565 0.283839 0.000000
0.746975 0.290331 0.000000
0.762480 0.296906 0.000000
0.777808 0.303435 0.000000
0.793334 0.310038 0.000000
0.808720 0.316595 0.000000
0.824217 0.323218 0.000000
0.839645 0.329794 0.000000
0.854147 0.335893 0.000000
0.854147 0.335893 0.000000
0.854147 0.335893 0.000000
0.854147 0.335893 0.000000
0.854147 0.335893 0.000000
0.012617 0.050348 0.056196
0.013406 0.050348 0.055568
0.013406 0.049669 0.055568
0.014983 0.050348 0.056196
0.016560 0.050348 0.055568
0.019714 0.050348 0.054934
0.026023 0.051020 0.053651
0.040994 0.051020 0.048294
0.063953 0.049669 0.029966
0.080060 0.051686 0.012617
0.098330 0.051686 0.003154
0.117405 0.051686 0.000000
0.134501 0.053651 0.000000
0.151525 0.057439 0.000000
0.167494 0.061056 0.000000
0.182866 0.065646 0.000000
0.198349 0.070533 0.000000
0.213523 0.075168 0.000000
0.228766 0.080536 0.000000
0.243727 0.085622 0.000000
0.258881 0.091319 0.000000
0.274174 0.097126 0.000000
0.289046 0.102637 0.000000
0.304285 0.108623 0.000000
0.319355 0.114317 0.000000
0.334272 0.120418 0.000000
0.349457 0.126235 0.000000
0.364567 0.132407 0.000000
0.379788 0.138595 0.000000
0.394917 0.144517 0.000000
0.410210 0.150733 0.000000
0.425638 0.156951 0.000000
0.440865 0.163411 0.000000
0.456131 0.169613 0.000000
0.471565 0.176036 0.000000
0.486800 0.182217 0.000000
0.502114 0.188599 0.000000
0.517682 0.195158 0.000000
0.533044 0.201485 0.000000
0.548509 0.207976 0.000000
0.563721 0.214250 0.000000
0.579194 0.220678 0.000000
0.594685 0.227242 0.000000
0.610136 0.233764 0.000000
0.625447 0.240246 0.000000
0.640915 0.246689 0.000000
0.656383 0.253245 0.000000
0.671710 0.259613 0.000000
0.687124 0.266088 0.000000
0.702530 0.272662 0.000000
0.717923 0.279190 0.000000
0.733303 0.285675 0.000000
0.748667 0.292118 0.000000
0.764127 0.298647 0.000000
0.779413 0.305132 0.000000
0.794897 0.311693 0.000000
0.810280 0.318209 0.000000
0.825704 0.324793 0.000000
0.841096 0.331222 0.000000
0.855567 0.337397 0.000000
0.855567 0.337397 0.000000
0.855567 0.337397 0.000000
0.855567 0.337397 0.000000
0.855567 0.337397 0.000000
0.018926 0.068394 0.075168
0.018926 0.068394 0.075168
0.019714 0.068394 0.075168
0.020503 0.068394 0.074664
0.022080 0.068394 0.074664
0.025234 0.068934 0.074664
0.031543 0.068934 0.073649
0.041759 0.069470 0.072104
0.065085 0.068394 0.059267
0.086072 0.067852 0.041759
0.103403 0.069470 0.018137
0.122061 0.070003 0.005520
0.142850 0.070003 0.000000
0.160463 0.072104 0.000000
0.176485 0.074664 0.000000
0.191909 0.078134 0.000000
0.207036 0.081950 0.000000
0.221903 0.086072 0.000000
0.236706 0.090463 0.000000
0.251435 0.095088 0.000000
0.266088 0.099916 0.000000
0.281193 0.105295 0.000000
0.295780 0.110432 0.000000
0.310631 0.115699 0.000000
0.325465 0.121406 0.000000
0.340169 0.126866 0.000000
0.355051 0.132407 0.000000
0.369886 0.138306 0.000000
0.384942 0.143964 0.000000
0.399833 0.149937 0.000000
0.414905 0.155933 0.000000
0.430125 0.161944 0.000000
0.445162 0.167967 0.000000
0.460325 0.173999 0.000000
0.475589 0.180255 0.000000
0.490668 0.186498 0.000000
0.505836 0.192523 0.000000
0.521076 0.198744 0.000000
0.536375 0.205140 0.000000
0.551664 0.211323 0.000000
0.566994 0.217669 0.000000
0.582356 0.224160 0.000000
0.597742 0.230445 0.000000
0.612942 0.236706 0.000000
0.628363 0.243256 0.000000
0.643741 0.249610 0.000000
0.659124 0.256081 0.000000
0.674325 0.262369 0.000000
0.689708 0.268768 0.000000
0.705041 0.275267 0.000000
0.720365 0.281725 0.000000
0.735678 0.288143 0.000000
0.750940 0.294524 0.000000
0.766340 0.300991 0.000000
0.781607 0.307417 0.000000
0.797036 0.313922 0.000000
0.812331 0.320383 0.000000
0.827739 0.326804 0.000000
0.843083 0.333295 0.000000
0.857509 0.339425 0.000000
0.857509 0.339425 0.000000
0.857509 0.339425 0.000000
0.857509 0.339425 0.000000
0.857509 0.339425 0.000000
0.026812 0.087851 0.095908
0.027600 0.087851 0.095908
0.027600 0.087851 0.095499
0.028389 0.087851 0.095499
0.029966 0.087851 0.095499
0.033120 0.088291 0.095088
0.038640 0.088291 0.094676
0.047596 0.088729 0.093429
0.061056 0.089600 0.091319
0.090463 0.086965 0.073137
0.110072 0.087851 0.054934
0.127806 0.089165 0.026023
0.146981 0.090032 0.009463
0.167967 0.089600 0.002366
0.185863 0.090892 0.000000
0.201485 0.093011 0.000000
0.216596 0.095908 0.000000
0.231280 0.099126 0.000000
0.245913 0.102637 0.000000
0.260487 0.106786 0.000000
0.274858 0.110791 0.000000
0.289175 0.115355 0.000000
0.303799 0.120087 0.000000
0.317979 0.124646 0.000000
0.332533 0.129666 0.000000
0.347293 0.135093 0.000000
0.361626 0.140312 0.000000
0.376522 0.145618 0.000000
0.391358 0.151261 0.000000
0.406047 0.156697 0.000000
0.420846 0.162434 0.000000
0.435575 0.168203 0.000000
0.450688 0.173999 0.000000
0.465410 0.179816 0.000000
0.480474 0.185650 0.000000
0.495634 0.191704 0.000000
0.510616 0.197755 0.000000
0.525682 0.203802 0.000000
0.540817 0.209843 0.000000
0.556008 0.216057 0.000000
0.571191 0.222252 0.000000
0.586413 0.228428 0.000000
0.601510 0.234585 0.000000
0.616793 0.240883 0.000000
0.632045 0.247153 0.000000
0.647169 0.253396 0.000000
0.662449 0.259613 0.000000
0.677733 0.265946 0.000000
0.693018 0.272247 0.000000
0.708258 0.278652 0.000000
0.723494 0.284890 0.000000
0.738724 0.291226 0.000000
0.753944 0.297654 0.000000
0.769266 0.304042 0.000000
0.784422 0.310394 0.000000
0.799672 0.316710 0.000000
0.815043 0.323218 0.000000
0.830351 0.329573 0.000000
0.845632 0.336000 0.000000
0.860035 0.342072 0.000000
0.860035 0.342072 0.000000
0.860035 0.342072 0.000000
0.860035 0.342072 0.000000
0.860035 0.342072 0.000000
0.037063 0.107524 0.116726
0.037063 0.107524 0.116726
0.037852 0.107524 0.116385
0.038640 0.107524 0.116385
0.040217 0.107892 0.116385
0.043264 0.107892 0.116042
0.048294 0.108258 0.115699
0.055568 0.108623 0.115010
0.066202 0.109350 0.113969
0.081950 0.109350 0.109712
0.115699 0.106786 0.087851
0.134501 0.107524 0.067852
0.153095 0.109350 0.037063
0.171706 0.110791 0.014983
0.192319 0.110072 0.005520
0.210400 0.110432 0.000000
0.226049 0.111859 0.000000
0.241042 0.114317 0.000000
0.255636 0.117066 0.000000
0.270027 0.120087 0.000000
0.284234 0.123683 0.000000
0.298399 0.127493 0.000000
0.312751 0.131499 0.000000
0.327027 0.135977 0.000000
0.341333 0.140312 0.000000
0.355454 0.145068 0.000000
0.369886 0.149937 0.000000
0.384211 0.154650 0.000000
0.398699 0.159966 0.000000
0.413152 0.165105 0.000000
0.427808 0.170314 0.000000
0.442559 0.175811 0.000000
0.457165 0.181348 0.000000
0.471920 0.186920 0.000000
0.486527 0.192523 0.000000
0.501524 0.198349 0.000000
0.516291 0.203994 0.000000
0.531215 0.209843 0.000000
0.546157 0.215697 0.000000
0.561165 0.221729 0.000000
0.576230 0.227582 0.000000
0.591287 0.233764 0.000000
0.606230 0.239606 0.000000
0.621365 0.245758 0.000000
0.636524 0.251889 0.000000
0.651656 0.258001 0.000000
0.666667 0.264236 0.000000
0.681829 0.270305 0.000000
0.696998 0.276491 0.000000
0.712128 0.282785 0.000000
0.727300 0.289046 0.000000
0.742428 0.295278 0.000000
0.757551 0.301481 0.000000
0.772781 0.307776 0.000000
0.787848 0.314038 0.000000
0.803049 0.320269 0.000000
0.818302 0.326693 0.000000
0.833566 0.332969 0.000000
0.848772 0.339319 0.000000
0.863106 0.345320 0.000000
0.863106 0.345320 0.000000
0.863106 0.345320 0.000000
0.863106 0.345320 0.000000
0.863106 0.345320 0.000000
0.048294 0.127493 0.137728
0.048294 0.127493 0.137728
0.048985 0.127806 0.138017
0.049669 0.127806 0.137728
0.051020 0.128118 0.137728
0.053651 0.128118 0.137437
0.058053 0.128429 0.137437
0.064521 0.128739 0.136855
0.073649 0.129357 0.135977
0.086520 0.129666 0.133608
0.106415 0.129666 0.127493
0.140880 0.126866 0.102253
0.160215 0.127806 0.080536
0.178270 0.129357 0.048985
0.195359 0.131196 0.022080
0.215877 0.130586 0.011040
0.234421 0.130280 0.002366
0.250525 0.131499 0.000000
0.265377 0.133308 0.000000
0.279993 0.135683 0.000000
0.294145 0.138306 0.000000
0.308254 0.141446 0.000000
0.322201 0.144793 0.000000
0.336323 0.148601 0.000000
0.350380 0.152312 0.000000
0.364665 0.156697 0.000000
0.378486 0.160711 0.000000
0.392875 0.165345 0.000000
0.406901 0.169847 0.000000
0.421418 0.174907 0.000000
0.435732 0.179816 0.000000
0.450012 0.184799 0.000000
0.464471 0.189848 0.000000
0.479015 0.195158 0.000000
0.493628 0.200511 0.000000
0.508168 0.205901 0.000000
0.523012 0.211508 0.000000
0.537701 0.217133 0.000000
0.552478 0.222774 0.000000
0.567275 0.228428 0.000000
0.582139 0.234257 0.000000
0.596901 0.239926 0.000000
0.611872 0.245758 0.000000
0.626833 0.251738 0.000000
0.641827 0.257707 0.000000
0.656709 0.263520 0.000000
0.671710 0.269608 0.000000
0.686729 0.275676 0.000000
0.701761 0.281725 0.000000
0.716802 0.287755 0.000000
0.731849 0.293893 0.000000
