assets/luts/LUTs/JD_Orizaba.CUBE
TITLE "ColorFinale Export"
# Created by Jeven Dovey on 2021-07-15 17:50:29 +0000
# Color Finale Plugin v.2.3.2 (520)
LUT_3D_SIZE 17
0.0592 0.0592 0.0592
0.0902 0.0692 0.0717
0.1229 0.0793 0.0844
0.1582 0.0896 0.0973
0.1968 0.1000 0.1105
0.2396 0.1107 0.1239
0.2877 0.1216 0.1375
0.3422 0.1328 0.1514
0.4039 0.1443 0.1656
0.4729 0.1561 0.1800
0.5472 0.1682 0.1947
0.6235 0.1808 0.2095
0.6994 0.1937 0.2246
0.7726 0.2071 0.2398
0.8417 0.2210 0.2553
0.9069 0.2354 0.2711
0.9678 0.2503 0.2873
0.0682 0.0896 0.0732
0.0890 0.0909 0.0748
0.1237 0.0936 0.0854
0.1588 0.0997 0.0981
0.1973 0.1075 0.1111
0.2400 0.1166 0.1243
0.2881 0.1264 0.1379
0.3425 0.1368 0.1517
0.4042 0.1477 0.1658
0.4731 0.1591 0.1802
0.5474 0.1709 0.1948
0.6237 0.1832 0.2097
0.6996 0.1960 0.2247
0.7728 0.2092 0.2399
0.8418 0.2229 0.2554
0.9070 0.2372 0.2713
0.9679 0.2521 0.2874
0.0773 0.1218 0.0874
0.0911 0.1225 0.0880
0.1204 0.1244 0.0908
0.1589 0.1263 0.0994
0.1988 0.1303 0.1125
0.2415 0.1362 0.1258
0.2895 0.1435 0.1392
0.3438 0.1518 0.1529
0.4054 0.1610 0.1669
0.4743 0.1711 0.1811
0.5485 0.1818 0.1956
0.6247 0.1932 0.2104
0.7004 0.2052 0.2253
0.7734 0.2178 0.2405
0.8424 0.2310 0.2560
0.9075 0.2449 0.2718
0.9683 0.2594 0.2879
0.0866 0.1563 0.1019
0.0962 0.1568 0.1023
0.1215 0.1583 0.1037
0.1541 0.1606 0.1072
0.1956 0.1625 0.1146
0.2427 0.1653 0.1267
0.2915 0.1703 0.1407
0.3460 0.1765 0.1546
0.4077 0.1839 0.1685
0.4765 0.1923 0.1827
0.5506 0.2016 0.1971
0.6265 0.2117 0.2117
0.7021 0.2226 0.2266
0.7749 0.2343 0.2417
0.8436 0.2467 0.2570
0.9086 0.2599 0.2727
0.9692 0.2737 0.2888
0.0960 0.1941 0.1167
0.1030 0.1944 0.1172
0.1250 0.1957 0.1179
0.1547 0.1978 0.1200
0.1908 0.2004 0.1239
0.2361 0.2025 0.1307
0.2897 0.2049 0.1420
0.3478 0.2090 0.1555
0.4103 0.2147 0.1700
0.4795 0.2216 0.1844
0.5535 0.2295 0.1989
0.6292 0.2384 0.2135
0.7045 0.2482 0.2283
0.7770 0.2588 0.2433
0.8454 0.2703 0.2586
0.9102 0.2826 0.2742
0.9705 0.2958 0.2902
0.1056 0.2359 0.1319
0.1110 0.2362 0.1324
0.1299 0.2373 0.1328
0.1574 0.2392 0.1342
0.1910 0.2418 0.1369
0.2313 0.2447 0.1409
0.2814 0.2472 0.1475
0.3418 0.2495 0.1580
0.4099 0.2530 0.1708
0.4818 0.2582 0.1854
0.5565 0.2649 0.2003
0.6324 0.2726 0.2152
0.7076 0.2814 0.2301
0.7797 0.2911 0.2451
0.8478 0.3017 0.2604
0.9123 0.3132 0.2761
0.9723 0.3256 0.2921
0.1153 0.2827 0.1473
0.1197 0.2829 0.1477
0.1360 0.2840 0.1482
0.1615 0.2857 0.1491
0.1934 0.2882 0.1511
0.2313 0.2913 0.1541
0.2765 0.2946 0.1584
0.3324 0.2975 0.1648
0.4003 0.3000 0.1746
0.4769 0.3033 0.1871
0.5575 0.3080 0.2008
0.6348 0.3145 0.2163
0.7104 0.3222 0.2315
0.7826 0.3310 0.2468
0.8506 0.3408 0.2623
0.9148 0.3516 0.2780
0.9745 0.3633 0.2941
0.1253 0.3354 0.1631
0.1289 0.3357 0.1634
0.1430 0.3367 0.1640
0.1666 0.3384 0.1645
0.1970 0.3408 0.1660
0.2334 0.3439 0.1685
0.2762 0.3475 0.1718
0.3273 0.3512 0.1763
0.3900 0.3545 0.1826
0.4653 0.3574 0.1918
0.5482 0.3607 0.2039
0.6320 0.3652 0.2174
0.7118 0.3713 0.2321
0.7849 0.3791 0.2480
0.8531 0.3881 0.2638
0.9173 0.3981 0.2797
0.9768 0.4092 0.2960
0.1355 0.3952 0.1791
0.1386 0.3954 0.1794
0.1509 0.3964 0.1802
0.1727 0.3980 0.1805
0.2017 0.4004 0.1816
0.2368 0.4035 0.1835
0.2781 0.4072 0.1863
0.3268 0.4114 0.1899
0.3847 0.4156 0.1946
0.4546 0.4194 0.2008
0.5355 0.4227 0.2096
0.6209 0.4262 0.2211
0.7051 0.4306 0.2345
0.7840 0.4363 0.2486
0.8546 0.4439 0.2645
0.9194 0.4529 0.2809
0.9790 0.4631 0.2975
0.1459 0.4621 0.1955
0.1486 0.4623 0.1958
0.1595 0.4633 0.1967
0.1797 0.4648 0.1969
0.2073 0.4672 0.1976
0.2412 0.4702 0.1992
0.2814 0.4739 0.2015
0.3285 0.4781 0.2045
0.3839 0.4827 0.2084
0.4491 0.4874 0.2132
0.5248 0.4915 0.2194
0.6080 0.4952 0.2278
0.6932 0.4988 0.2388
0.7750 0.5032 0.2519
0.8504 0.5087 0.2662
0.9198 0.5156 0.2812
0.9803 0.5243 0.2983
0.1566 0.5346 0.2121
0.1590 0.5348 0.2124
0.1688 0.5357 0.2133
0.1874 0.5372 0.2136
0.2137 0.5394 0.2141
0.2465 0.5422 0.2153
0.2857 0.5457 0.2172
0.3317 0.5498 0.2198
0.3855 0.5544 0.2231
0.4480 0.5592 0.2272
0.5192 0.5640 0.2321
0.5977 0.5684 0.2383
0.6806 0.5722 0.2465
0.7631 0.5759 0.2571
0.8408 0.5800 0.2700
0.9128 0.5851 0.2843
0.9782 0.5913 0.2995
0.1676 0.6094 0.2290
0.1698 0.6096 0.2292
0.1787 0.6104 0.2300
0.1959 0.6118 0.2306
0.2209 0.6138 0.2309
0.2527 0.6164 0.2318
0.2910 0.6196 0.2334
0.3360 0.6234 0.2356
0.3886 0.6277 0.2385
0.4494 0.6324 0.2420
0.5179 0.6373 0.2463
0.5922 0.6421 0.2513
0.6710 0.6465 0.2576
0.7514 0.6504 0.2657
0.8293 0.6541 0.2761
0.9030 0.6580 0.2887
0.9708 0.6626 0.3031
0.1789 0.6843 0.2461
0.1809 0.6845 0.2463
0.1891 0.6852 0.2471
0.2050 0.6865 0.2479
0.2289 0.6883 0.2481
0.2597 0.6906 0.2487
0.2971 0.6935 0.2501
0.3413 0.6969 0.2520
0.3930 0.7009 0.2545
0.4524 0.7052 0.2576
0.5191 0.7098 0.2613
0.5907 0.7145 0.2658
0.6658 0.7192 0.2710
0.7426 0.7236 0.2774
0.8186 0.7274 0.2855
0.8921 0.7309 0.2957
0.9614 0.7346 0.3082
0.1905 0.7570 0.2636
0.1923 0.7572 0.2638
0.2000 0.7578 0.2645
0.2148 0.7589 0.2655
0.2376 0.7605 0.2656
0.2674 0.7625 0.2662
0.3040 0.7650 0.2672
0.3475 0.7681 0.2689
0.3984 0.7715 0.2711
0.4568 0.7754 0.2739
0.5220 0.7796 0.2773
0.5916 0.7840 0.2813
0.6642 0.7885 0.2859
0.7378 0.7929 0.2913
0.8107 0.7970 0.2979
0.8823 0.8006 0.3060
0.9512 0.8040 0.3162
0.2025 0.8258 0.2816
0.2042 0.8260 0.2817
0.2114 0.8265 0.2823
0.2252 0.8275 0.2835
0.2470 0.8288 0.2837
0.2759 0.8306 0.2841
0.3117 0.8328 0.2849
0.3545 0.8355 0.2864
0.4047 0.8385 0.2884
0.4622 0.8420 0.2909
0.5261 0.8457 0.2939
0.5942 0.8497 0.2976
0.6648 0.8539 0.3018
0.7361 0.8581 0.3067
0.8062 0.8623 0.3124
0.8751 0.8662 0.3191
0.9424 0.8697 0.3273
0.2148 0.8909 0.3000
0.2164 0.8910 0.3001
0.2232 0.8914 0.3007
0.2364 0.8923 0.3019
0.2571 0.8935 0.3023
0.2852 0.8951 0.3026
0.3202 0.8970 0.3033
0.3624 0.8993 0.3045
0.4119 0.9020 0.3063
0.4686 0.9051 0.3086
0.5314 0.9084 0.3114
0.5981 0.9120 0.3147
0.6671 0.9158 0.3186
0.7366 0.9198 0.3231
0.8046 0.9238 0.3283
0.8710 0.9277 0.3342
0.9360 0.9313 0.3412
0.2276 0.9520 0.3191
0.2291 0.9521 0.3192
0.2356 0.9525 0.3197
0.2482 0.9533 0.3208
0.2679 0.9543 0.3216
0.2952 0.9557 0.3218
0.3295 0.9573 0.3223
0.3710 0.9593 0.3234
0.4199 0.9617 0.3249
0.4758 0.9643 0.3270
0.5376 0.9672 0.3296
0.6030 0.9704 0.3328
0.6706 0.9737 0.3364
0.7385 0.9772 0.3406
0.8049 0.9807 0.3454
0.8694 0.9843 0.3509
0.9322 0.9877 0.3571
0.0678 0.0700 0.0934
0.0901 0.0729 0.0958
0.1225 0.0811 0.1007
0.1577 0.0907 0.1088
0.1964 0.1008 0.1190
0.2393 0.1113 0.1305
0.2874 0.1221 0.1429
0.3419 0.1332 0.1559
0.4036 0.1446 0.1694
0.4726 0.1564 0.1833
0.5469 0.1685 0.1976
0.6233 0.1810 0.2121
0.6992 0.1940 0.2269
0.7724 0.2073 0.2419
0.8415 0.2212 0.2572
0.9068 0.2356 0.2729
0.9677 0.2505 0.2890
0.0729 0.0905 0.0945
0.0914 0.0914 0.0962
0.1232 0.0947 0.1013
0.1582 0.1005 0.1094
0.1968 0.1082 0.1195
0.2396 0.1171 0.1309
0.2877 0.1268 0.1432
0.3422 0.1372 0.1562
0.4039 0.1481 0.1696
0.4729 0.1594 0.1835
0.5472 0.1712 0.1977
0.6235 0.1834 0.2123
0.6994 0.1962 0.2270
0.7726 0.2094 0.2420
0.8417 0.2231 0.2574
0.9069 0.2374 0.2731
0.9678 0.2522 0.2891
0.0805 0.1218 0.1022
0.0934 0.1224 0.1033
0.1217 0.1245 0.1039
0.1597 0.1264 0.1103
0.1984 0.1307 0.1210
0.2411 0.1366 0.1324
0.2891 0.1438 0.1445
0.3434 0.1521 0.1573
0.4051 0.1613 0.1706
0.4740 0.1713 0.1844
0.5483 0.1820 0.1985
0.6244 0.1934 0.2129
0.7002 0.2054 0.2277
0.7733 0.2180 0.2426
0.8422 0.2312 0.2579
0.9074 0.2450 0.2735
0.9682 0.2595 0.2896
0.0888 0.1563 0.1125
0.0980 0.1567 0.1133
0.1228 0.1583 0.1140
0.1550 0.1607 0.1159
0.1965 0.1625 0.1221
0.2428 0.1655 0.1332
0.2913 0.1705 0.1460
0.3457 0.1768 0.1590
0.4074 0.1842 0.1723
0.4763 0.1926 0.1859
0.5503 0.2018 0.2000
0.6263 0.2119 0.2143
0.7019 0.2228 0.2289
0.7747 0.2345 0.2438
0.8435 0.2469 0.2590
0.9085 0.2600 0.2745
0.9691 0.2739 0.2905
0.0976 0.1940 0.1247
0.1045 0.1943 0.1253
0.1260 0.1956 0.1259
0.1555 0.1978 0.1273
0.1915 0.2004 0.1301
0.2369 0.2025 0.1362
0.2902 0.2050 0.1469
0.3477 0.2091 0.1599
0.4101 0.2149 0.1738
0.4792 0.2218 0.1876
0.5532 0.2297 0.2017
0.6290 0.2386 0.2160
0.7043 0.2484 0.2306
0.7768 0.2590 0.2454
0.8453 0.2705 0.2605
0.9100 0.2828 0.2760
0.9704 0.2959 0.2919
0.1068 0.2358 0.1380
0.1122 0.2361 0.1385
0.1307 0.2372 0.1392
0.1582 0.2391 0.1402
0.1917 0.2418 0.1423
0.2319 0.2447 0.1458
0.2820 0.2472 0.1518
0.3424 0.2495 0.1619
0.4103 0.2531 0.1744
0.4817 0.2584 0.1887
0.5563 0.2650 0.2032
0.6322 0.2728 0.2177
0.7073 0.2815 0.2324
0.7795 0.2912 0.2472
0.8477 0.3018 0.2624
0.9121 0.3133 0.2778
0.9722 0.3257 0.2938
0.1163 0.2826 0.1523
0.1207 0.2829 0.1527
0.1367 0.2839 0.1535
0.1622 0.2857 0.1541
0.1940 0.2882 0.1558
0.2318 0.2913 0.1584
0.2770 0.2946 0.1623
0.3330 0.2975 0.1683
0.4008 0.3000 0.1778
0.4774 0.3033 0.1901
0.5576 0.3081 0.2036
0.6347 0.3146 0.2188
0.7103 0.3223 0.2338
0.7824 0.3311 0.2489
0.8504 0.3409 0.2642
0.9147 0.3517 0.2798
0.9744 0.3634 0.2957
0.1261 0.3353 0.1672
0.1298 0.3356 0.1676
0.1437 0.3366 0.1685
0.1672 0.3383 0.1688
0.1976 0.3407 0.1701
0.2339 0.3439 0.1723
0.2767 0.3475 0.1753
0.3278 0.3512 0.1795
0.3905 0.3545 0.1855
0.4658 0.3574 0.1945
0.5487 0.3607 0.2065
0.6323 0.3653 0.2198
0.7118 0.3714 0.2344
0.7848 0.3792 0.2500
0.8530 0.3882 0.2657
0.9172 0.3983 0.2815
0.9768 0.4093 0.2976
0.1362 0.3951 0.1827
0.1393 0.3953 0.1830
0.1515 0.3963 0.1840
0.1733 0.3980 0.1842
0.2022 0.4004 0.1851
0.2373 0.4035 0.1869
0.2786 0.4072 0.1895
0.3272 0.4113 0.1929
0.3852 0.4156 0.1973
0.4551 0.4194 0.2033
0.5360 0.4227 0.2119
0.6213 0.4262 0.2233
0.7054 0.4306 0.2366
0.7842 0.4364 0.2506
0.8545 0.4440 0.2664
0.9193 0.4530 0.2827
0.9789 0.4632 0.2992
0.1465 0.4620 0.1986
0.1493 0.4622 0.1988
0.1601 0.4632 0.1998
0.1802 0.4648 0.2001
0.2077 0.4671 0.2008
0.2416 0.4702 0.2022
0.2818 0.4739 0.2044
0.3289 0.4781 0.2072
0.3843 0.4827 0.2109
0.4495 0.4874 0.2155
0.5253 0.4915 0.2216
0.6084 0.4952 0.2299
0.6936 0.4988 0.2408
0.7752 0.5032 0.2538
0.8507 0.5087 0.2680
0.9198 0.5156 0.2830
0.9803 0.5244 0.3000
0.1571 0.5345 0.2149
0.1596 0.5347 0.2151
0.1694 0.5356 0.2160
0.1879 0.5372 0.2165
0.2141 0.5393 0.2169
0.2469 0.5422 0.2180
0.2862 0.5457 0.2198
0.3321 0.5498 0.2223
0.3859 0.5543 0.2254
0.4484 0.5592 0.2294
0.5196 0.5640 0.2341
0.5980 0.5684 0.2402
0.6810 0.5722 0.2483
0.7634 0.5759 0.2589
0.8411 0.5800 0.2717
0.9130 0.5851 0.2859
0.9783 0.5914 0.3010
0.1681 0.6093 0.2314
0.1703 0.6095 0.2316
0.1792 0.6103 0.2324
0.1963 0.6118 0.2331
0.2213 0.6137 0.2334
0.2531 0.6164 0.2343
0.2914 0.6196 0.2358
0.3364 0.6234 0.2379
0.3890 0.6277 0.2407
0.4497 0.6324 0.2441
0.5183 0.6373 0.2482
0.5925 0.6421 0.2532
0.6713 0.6465 0.2593
0.7517 0.6504 0.2674
0.8296 0.6541 0.2777
0.9033 0.6580 0.2903
0.9710 0.6626 0.3046
0.1793 0.6843 0.2483
0.1813 0.6844 0.2485
0.1896 0.6851 0.2492
0.2054 0.6865 0.2502
0.2292 0.6882 0.2504
0.2600 0.6906 0.2510
0.2975 0.6935 0.2523
0.3417 0.6969 0.2541
0.3934 0.7009 0.2566
0.4528 0.7052 0.2596
0.5194 0.7098 0.2632
0.5911 0.7145 0.2676
0.6661 0.7192 0.2727
0.7429 0.7236 0.2790
0.8189 0.7274 0.2870
0.8923 0.7309 0.2972
0.9615 0.7346 0.3097
0.1909 0.7570 0.2656
0.1928 0.7571 0.2658
0.2004 0.7577 0.2665
0.2151 0.7589 0.2677
0.2379 0.7604 0.2678
0.2677 0.7625 0.2682
0.3044 0.7650 0.2692
0.3479 0.7680 0.2709
0.3988 0.7715 0.2730
0.4572 0.7754 0.2758
0.5223 0.7796 0.2790
0.5919 0.7840 0.2829
0.6645 0.7885 0.2876
0.7380 0.7929 0.2929
0.8109 0.7970 0.2994
0.8825 0.8006 0.3074
0.9514 0.8040 0.3176
0.2029 0.8258 0.2834
0.2046 0.8259 0.2836
0.2118 0.8264 0.2842
0.2256 0.8274 0.2854
0.2473 0.8288 0.2857
0.2762 0.8306 0.2860
0.3121 0.8328 0.2868
0.3549 0.8354 0.2882
0.4051 0.8385 0.2902
0.4626 0.8419 0.2926
0.5265 0.8457 0.2956
0.5945 0.8497 0.2992
0.6651 0.8539 0.3034
0.7364 0.8581 0.3082
0.8065 0.8623 0.3138
0.8753 0.8662 0.3205
0.9426 0.8697 0.3287
0.2152 0.8909 0.3018
0.2168 0.8910 0.3019
0.2236 0.8914 0.3025
0.2368 0.8923 0.3036
0.2574 0.8935 0.3042
0.2855 0.8950 0.3044
0.3205 0.8970 0.3051
0.3627 0.8993 0.3062
0.4122 0.9020 0.3080
0.4689 0.9050 0.3102
0.5318 0.9084 0.3130
0.5984 0.9120 0.3163
0.6674 0.9158 0.3201
0.7368 0.9198 0.3246
0.8048 0.9238 0.3297
0.8712 0.9277 0.3356
0.9362 0.9313 0.3425
0.2280 0.9520 0.3207
0.2295 0.9521 0.3208
0.2359 0.9525 0.3214
0.2485 0.9532 0.3225
0.2682 0.9543 0.3234
0.2954 0.9556 0.3235
0.3298 0.9573 0.3241
0.3713 0.9593 0.3250
0.4202 0.9616 0.3266
0.4761 0.9643 0.3287
0.5379 0.9672 0.3312
0.6033 0.9703 0.3343
0.6709 0.9737 0.3379
0.7387 0.9772 0.3420
0.8051 0.9807 0.3468
0.8696 0.9843 0.3523
0.9324 0.9877 0.3584
0.0765 0.0809 0.1292
0.0914 0.0821 0.1318
0.1228 0.0870 0.1343
0.1575 0.0947 0.1385
0.1957 0.1038 0.1447
0.2385 0.1137 0.1527
0.2865 0.1240 0.1621
0.3409 0.1349 0.1726
0.4026 0.1460 0.1841
0.4716 0.1576 0.1964
0.5460 0.1696 0.2092
0.6223 0.1820 0.2226
0.6985 0.1949 0.2364
0.7718 0.2082 0.2506
0.8410 0.2220 0.2653
0.9063 0.2363 0.2804
0.9673 0.2512 0.2961
0.0794 0.0950 0.1282
0.0928 0.0957 0.1306
0.1234 0.0983 0.1343
0.1578 0.1036 0.1386
0.1961 0.1108 0.1449
0.2388 0.1193 0.1529
0.2868 0.1287 0.1623
0.3412 0.1388 0.1728
0.4029 0.1494 0.1843
0.4718 0.1606 0.1965
0.5462 0.1723 0.2094
0.6226 0.1844 0.2227
0.6987 0.1971 0.2365
0.7719 0.2103 0.2507
0.8411 0.2239 0.2654
0.9064 0.2382 0.2806
0.9674 0.2530 0.2962
0.0868 0.1236 0.1316
0.0982 0.1240 0.1324
0.1255 0.1255 0.1351
0.1593 0.1282 0.1397
0.1974 0.1326 0.1461
0.2400 0.1383 0.1540
0.2880 0.1454 0.1633
0.3423 0.1535 0.1738
0.4040 0.1626 0.1851
0.4729 0.1725 0.1973
0.5472 0.1831 0.2100
0.6235 0.1944 0.2233
0.6994 0.2063 0.2371
0.7726 0.2188 0.2513
0.8417 0.2320 0.2659
0.9069 0.2458 0.2811
0.9678 0.2603 0.2967
0.0946 0.1569 0.1389
0.1033 0.1572 0.1396
0.1268 0.1585 0.1418
0.1579 0.1611 0.1419
0.1992 0.1629 0.1467
0.2424 0.1666 0.1555
0.2903 0.1717 0.1650
0.3446 0.1779 0.1755
0.4062 0.1853 0.1867
0.4751 0.1936 0.1988
0.5492 0.2028 0.2114
0.6253 0.2128 0.2246
0.7010 0.2237 0.2383
0.7740 0.2353 0.2524
0.8428 0.2477 0.2670
0.9079 0.2608 0.2820
0.9686 0.2746 0.2976
0.1026 0.1942 0.1479
0.1093 0.1944 0.1485
0.1298 0.1956 0.1503
0.1586 0.1978 0.1507
0.1939 0.2006 0.1515
0.2396 0.2026 0.1561
0.2921 0.2053 0.1651
0.3473 0.2099 0.1766
0.4093 0.2157 0.1883
0.4782 0.2227 0.2005
0.5522 0.2306 0.2132
0.6280 0.2394 0.2264
0.7035 0.2492 0.2399
0.7760 0.2598 0.2540
0.8447 0.2712 0.2685
0.9094 0.2835 0.2835
0.9700 0.2966 0.2990
0.1111 0.2357 0.1583
0.1164 0.2360 0.1588
0.1342 0.2371 0.1603
0.1611 0.2391 0.1609
0.1942 0.2418 0.1617
0.2340 0.2448 0.1635
0.2844 0.2472 0.1681
0.3446 0.2496 0.1772
0.4112 0.2534 0.1886
0.4812 0.2590 0.2016
0.5556 0.2657 0.2147
0.6314 0.2735 0.2281
0.7065 0.2823 0.2418
0.7788 0.2919 0.2559
0.8470 0.3025 0.2704
0.9116 0.3140 0.2853
0.9718 0.3264 0.3008
0.1200 0.2824 0.1700
0.1243 0.2827 0.1704
0.1398 0.2837 0.1717
0.1648 0.2855 0.1724
0.1964 0.2881 0.1731
0.2339 0.2913 0.1746
0.2790 0.2947 0.1772
0.3351 0.2975 0.1821
0.4031 0.3000 0.1908
0.4792 0.3035 0.2022
0.5576 0.3085 0.2152
0.6343 0.3152 0.2292
0.7098 0.3230 0.2433
0.7819 0.3318 0.2576
0.8499 0.3416 0.2722
0.9141 0.3524 0.2873
0.9740 0.3641 0.3028
0.1293 0.3352 0.1827
0.1330 0.3354 0.1830
0.1466 0.3364 0.1842
0.1696 0.3382 0.1850
0.1998 0.3406 0.1856
0.2360 0.3438 0.1870
0.2786 0.3475 0.1891
0.3296 0.3513 0.1923
0.3926 0.3546 0.1973
0.4680 0.3574 0.2057
0.5506 0.3608 0.2170
0.6336 0.3654 0.2296
0.7117 0.3719 0.2438
0.7845 0.3797 0.2587
0.8526 0.3888 0.2737
0.9168 0.3988 0.2890
0.9764 0.4099 0.3047
0.1390 0.3949 0.1964
0.1421 0.3951 0.1966
0.1542 0.3961 0.1977
0.1754 0.3978 0.1986
0.2043 0.4002 0.1991
0.2393 0.4033 0.2002
0.2805 0.4071 0.2021
0.3290 0.4113 0.2047
0.3869 0.4156 0.2083
0.4569 0.4194 0.2136
0.5380 0.4227 0.2216
0.6231 0.4261 0.2326
0.7067 0.4307 0.2453
0.7850 0.4366 0.2588
0.8544 0.4444 0.2744
0.9191 0.4535 0.2902
0.9787 0.4637 0.3063
0.1490 0.4617 0.2107
0.1518 0.4620 0.2110
0.1626 0.4629 0.2119
0.1821 0.4646 0.2130
0.2096 0.4669 0.2133
0.2435 0.4700 0.2143
0.2837 0.4737 0.2159
0.3307 0.4780 0.2182
0.3860 0.4827 0.2212
0.4511 0.4874 0.2252
0.5270 0.4916 0.2306
0.6101 0.4952 0.2384
0.6952 0.4988 0.2491
0.7765 0.5032 0.2617
0.8515 0.5088 0.2755
0.9198 0.5160 0.2904
0.9802 0.5248 0.3071
0.1594 0.5343 0.2257
0.1618 0.5345 0.2259
0.1717 0.5353 0.2267
0.1896 0.5370 0.2280
0.2158 0.5391 0.2282
0.2487 0.5420 0.2290
0.2879 0.5455 0.2304
0.3339 0.5497 0.2324
0.3876 0.5543 0.2350
0.4500 0.5591 0.2384
0.5212 0.5640 0.2427
0.5996 0.5684 0.2483
0.6825 0.5722 0.2561
0.7648 0.5758 0.2663
0.8422 0.5800 0.2789
0.9139 0.5852 0.2929
0.9789 0.5915 0.3077
0.1701 0.6091 0.2412
0.1723 0.6093 0.2414
0.1813 0.6101 0.2422
0.1979 0.6116 0.2436
0.2229 0.6136 0.2437
0.2547 0.6162 0.2443
0.2930 0.6194 0.2455
0.3381 0.6233 0.2473
0.3907 0.6276 0.2497
0.4514 0.6323 0.2526
0.5198 0.6372 0.2564
0.5939 0.6421 0.2609
0.6727 0.6465 0.2667
0.7530 0.6504 0.2744
0.8308 0.6540 0.2845
0.9042 0.6580 0.2969
0.9717 0.6627 0.3111
0.1812 0.6841 0.2573
0.1832 0.6842 0.2575
0.1915 0.6849 0.2582
0.2071 0.6863 0.2595
0.2307 0.6881 0.2598
0.2615 0.6904 0.2603
0.2990 0.6933 0.2613
0.3433 0.6968 0.2629
0.3950 0.7007 0.2650
0.4544 0.7051 0.2677
0.5209 0.7098 0.2710
0.5924 0.7145 0.2750
0.6673 0.7193 0.2798
0.7440 0.7236 0.2858
0.8199 0.7274 0.2936
0.8933 0.7309 0.3035
0.9624 0.7346 0.3159
0.1927 0.7568 0.2739
0.1945 0.7569 0.2741
0.2022 0.7575 0.2747
0.2169 0.7587 0.2760
0.2393 0.7603 0.2766
0.2692 0.7623 0.2769
0.3058 0.7649 0.2777
0.3494 0.7679 0.2791
0.4003 0.7714 0.2810
0.4587 0.7753 0.2835
0.5238 0.7795 0.2865
0.5933 0.7839 0.2901
0.6657 0.7885 0.2944
0.7391 0.7929 0.2995
0.8119 0.7970 0.3057
0.8834 0.8006 0.3135
0.9523 0.8040 0.3235
0.2045 0.8257 0.2911
0.2062 0.8258 0.2913
0.2134 0.8263 0.2919
0.2273 0.8273 0.2931
0.2487 0.8287 0.2939
0.2776 0.8305 0.2942
0.3135 0.8327 0.2948
0.3563 0.8353 0.2960
0.4066 0.8384 0.2978
0.4640 0.8418 0.3000
0.5279 0.8456 0.3028
0.5959 0.8496 0.3061
0.6663 0.8538 0.3100
0.7374 0.8581 0.3146
0.8074 0.8623 0.3200
0.8762 0.8662 0.3264
0.9434 0.8697 0.3345
0.2168 0.8907 0.3090
0.2184 0.8908 0.3092
0.2252 0.8912 0.3097
0.2384 0.8921 0.3109
0.2587 0.8934 0.3120
0.2868 0.8949 0.3121
0.3219 0.8969 0.3127
0.3641 0.8992 0.3137
0.4137 0.9019 0.3153
0.4703 0.9049 0.3173
0.5331 0.9083 0.3199
0.5997 0.9120 0.3230
0.6686 0.9158 0.3266
0.7378 0.9198 0.3309
0.8057 0.9237 0.3358
0.8720 0.9277 0.3415
0.9369 0.9313 0.3482
0.2295 0.9519 0.3276
0.2310 0.9520 0.3278
0.2374 0.9523 0.3283
0.2500 0.9531 0.3294
0.2694 0.9542 0.3309
0.2967 0.9555 0.3309
0.3310 0.9572 0.3313
0.3726 0.9592 0.3322
0.4216 0.9616 0.3336
0.4775 0.9642 0.3355
0.5393 0.9671 0.3379
0.6046 0.9703 0.3408
0.6720 0.9736 0.3442
0.7397 0.9772 0.3482
0.8060 0.9807 0.3528
0.8704 0.9843 0.3581
0.9330 0.9877 0.3641
0.0854 0.0921 0.1668
0.0957 0.0928 0.1688
0.1237 0.0957 0.1723
0.1579 0.1013 0.1750
0.1958 0.1090 0.1790
0.2381 0.1179 0.1845
0.2858 0.1276 0.1914
0.3399 0.1379 0.1996
0.4014 0.1487 0.2088
0.4702 0.1600 0.2190
0.5446 0.1718 0.2300
0.6210 0.1840 0.2417
0.6972 0.1967 0.2541
0.7707 0.2099 0.2671
0.8400 0.2236 0.2808
0.9054 0.2379 0.2951
0.9665 0.2527 0.3100
0.0871 0.1021 0.1659
0.0970 0.1027 0.1677
0.1241 0.1046 0.1721
0.1583 0.1089 0.1749
0.1961 0.1153 0.1790
0.2384 0.1231 0.1846
0.2861 0.1320 0.1916
0.3401 0.1417 0.1997
0.4016 0.1520 0.2089
0.4705 0.1629 0.2191
0.5448 0.1744 0.2301
0.6212 0.1864 0.2418
0.6974 0.1989 0.2542
0.7708 0.2119 0.2673
0.8401 0.2255 0.2809
0.9055 0.2397 0.2952
