assets/luts/LUTs/JD_Orizaba.CUBE
TITLE "ColorFinale Export"
# Created by Jeven Dovey on 2021-07-15 17:50:29 +0000
# Color Finale Plugin v.2.3.2 (520)
LUT_3D_SIZE 5
0.0592 0.0592 0.0592
0.1968 0.1000 0.1105
0.4039 0.1443 0.1656
0.6994 0.1937 0.2246
0.9678 0.2503 0.2873
0.0960 0.1941 0.1167
0.1908 0.2004 0.1239
0.4103 0.2147 0.1700
0.7045 0.2482 0.2283
0.9705 0.2958 0.2902
0.1355 0.3952 0.1791
0.2017 0.4004 0.1816
0.3847 0.4156 0.1946
0.7051 0.4306 0.2345
0.9790 0.4631 0.2975
0.1789 0.6843 0.2461
0.2289 0.6883 0.2481
0.3930 0.7009 0.2545
0.6658 0.7192 0.2710
0.9614 0.7346 0.3082
0.2276 0.9520 0.3191
0.2679 0.9543 0.3216
0.4199 0.9617 0.3249
0.6706 0.9737 0.3364
0.9322 0.9877 0.3571
0.0944 0.1034 0.2063
0.1964 0.1161 0.2176
0.4006 0.1527 0.2405
0.6958 0.1995 0.2794
0.9655 0.2549 0.3311
0.1158 0.1984 0.2116
0.2029 0.2029 0.2193
0.4059 0.2203 0.2434
0.7001 0.2532 0.2821
0.9680 0.3002 0.3335
0.1500 0.3955 0.2475
0.2134 0.4002 0.2528
0.3948 0.4163 0.2556
0.7120 0.4317 0.2863
0.9772 0.4666 0.3414
0.1899 0.6837 0.2975
0.2388 0.6875 0.3015
0.4027 0.7005 0.3049
0.6733 0.7195 0.3144
0.9665 0.7346 0.3476
0.2366 0.9515 0.3617
0.2769 0.9537 0.3650
0.4284 0.9612 0.3686
0.6778 0.9735 0.3765
0.9364 0.9878 0.3933
0.1319 0.1518 0.3878
0.2034 0.1575 0.4032
0.4028 0.1807 0.4192
0.6936 0.2206 0.4461
0.9619 0.2726 0.4886
0.1449 0.2224 0.3821
0.2106 0.2262 0.3959
0.4074 0.2404 0.4191
0.6968 0.2714 0.4468
0.9638 0.3169 0.4899
0.1801 0.4092 0.4022
0.2399 0.4119 0.4073
0.4240 0.4240 0.4242
0.7090 0.4462 0.4541
0.9713 0.4821 0.4980
0.2201 0.6891 0.4487
0.2697 0.6914 0.4533
0.4349 0.7025 0.4685
0.6975 0.7228 0.4688
0.9813 0.7372 0.5022
0.2655 0.9526 0.5112
0.3071 0.9542 0.5152
0.4588 0.9613 0.5285
0.7028 0.9739 0.5314
0.9513 0.9889 0.5375
0.1729 0.2066 0.6520
0.2258 0.2105 0.6665
0.4100 0.2259 0.6930
0.6975 0.2578 0.7129
0.9623 0.3050 0.7423
0.1816 0.2625 0.6449
0.2330 0.2656 0.6587
0.4132 0.2776 0.6915
0.7007 0.3044 0.7125
0.9641 0.3474 0.7424
0.2142 0.4411 0.6426
0.2624 0.4442 0.6506
0.4303 0.4558 0.6821
0.7125 0.4746 0.7141
0.9704 0.5097 0.7450
0.2567 0.7086 0.6806
0.3033 0.7103 0.6846
0.4738 0.7178 0.6987
0.7330 0.7330 0.7221
0.9820 0.7543 0.7551
0.3058 0.9607 0.7349
0.3478 0.9618 0.7385
0.5075 0.9664 0.7513
0.7425 0.9772 0.7711
0.9739 0.9928 0.7698
0.2187 0.2703 0.9261
0.2615 0.2734 0.9351
0.4254 0.2859 0.9602
0.7049 0.3113 0.9762
0.9658 0.3533 0.9917
0.2254 0.3179 0.9214
0.2677 0.3206 0.9301
0.4280 0.3321 0.9569
0.7074 0.3543 0.9757
0.9675 0.3937 0.9915
0.2520 0.4891 0.9130
0.2930 0.4918 0.9198
0.4495 0.5019 0.9445
0.7166 0.5190 0.9747
0.9740 0.5496 0.9916
0.2982 0.7406 0.9235
0.3397 0.7423 0.9264
0.4967 0.7500 0.9393
0.7376 0.7641 0.9688
0.9853 0.7813 0.9941
0.3515 0.9771 0.9581
0.3919 0.9780 0.9603
0.5480 0.9817 0.9686
0.7805 0.9892 0.9825
1.0000 1.0000 1.0000
