assets/luts/LUTs/JD_Orizaba.CUBE
TITLE "ColorFinale Export"
# Created by Jeven Dovey on 2021-07-15 17:50:29 +0000
# Color Finale Plugin v.2.3.2 (520)
LUT_3D_SIZE 9
0.0592 0.0592 0.0592
0.1229 0.0793 0.0844
0.1968 0.1000 0.1105
0.2877 0.1216 0.1375
0.4039 0.1443 0.1656
0.5472 0.1682 0.1947
0.6994 0.1937 0.2246
0.8417 0.2210 0.2553
0.9678 0.2503 0.2873
0.0773 0.1218 0.0874
0.1204 0.1244 0.0908
0.1988 0.1303 0.1125
0.2895 0.1435 0.1392
0.4054 0.1610 0.1669
0.5485 0.1818 0.1956
0.7004 0.2052 0.2253
0.8424 0.2310 0.2560
0.9683 0.2594 0.2879
0.0960 0.1941 0.1167
0.1250 0.1957 0.1179
0.1908 0.2004 0.1239
0.2897 0.2049 0.1420
0.4103 0.2147 0.1700
0.5535 0.2295 0.1989
0.7045 0.2482 0.2283
0.8454 0.2703 0.2586
0.9705 0.2958 0.2902
0.1153 0.2827 0.1473
0.1360 0.2840 0.1482
0.1934 0.2882 0.1511
0.2765 0.2946 0.1584
0.4003 0.3000 0.1746
0.5575 0.3080 0.2008
0.7104 0.3222 0.2315
0.8506 0.3408 0.2623
0.9745 0.3633 0.2941
0.1355 0.3952 0.1791
0.1509 0.3964 0.1802
0.2017 0.4004 0.1816
0.2781 0.4072 0.1863
0.3847 0.4156 0.1946
0.5355 0.4227 0.2096
0.7051 0.4306 0.2345
0.8546 0.4439 0.2645
0.9790 0.4631 0.2975
0.1566 0.5346 0.2121
0.1688 0.5357 0.2133
0.2137 0.5394 0.2141
0.2857 0.5457 0.2172
0.3855 0.5544 0.2231
0.5192 0.5640 0.2321
0.6806 0.5722 0.2465
0.8408 0.5800 0.2700
0.9782 0.5913 0.2995
0.1789 0.6843 0.2461
0.1891 0.6852 0.2471
0.2289 0.6883 0.2481
0.2971 0.6935 0.2501
0.3930 0.7009 0.2545
0.5191 0.7098 0.2613
0.6658 0.7192 0.2710
0.8186 0.7274 0.2855
0.9614 0.7346 0.3082
0.2025 0.8258 0.2816
0.2114 0.8265 0.2823
0.2470 0.8288 0.2837
0.3117 0.8328 0.2849
0.4047 0.8385 0.2884
0.5261 0.8457 0.2939
0.6648 0.8539 0.3018
0.8062 0.8623 0.3124
0.9424 0.8697 0.3273
0.2276 0.9520 0.3191
0.2356 0.9525 0.3197
0.2679 0.9543 0.3216
0.3295 0.9573 0.3223
0.4199 0.9617 0.3249
0.5376 0.9672 0.3296
0.6706 0.9737 0.3364
0.8049 0.9807 0.3454
0.9322 0.9877 0.3571
0.0765 0.0809 0.1292
0.1228 0.0870 0.1343
0.1957 0.1038 0.1447
0.2865 0.1240 0.1621
0.4026 0.1460 0.1841
0.5460 0.1696 0.2092
0.6985 0.1949 0.2364
0.8410 0.2220 0.2653
0.9673 0.2512 0.2961
0.0868 0.1236 0.1316
0.1255 0.1255 0.1351
0.1974 0.1326 0.1461
0.2880 0.1454 0.1633
0.4040 0.1626 0.1851
0.5472 0.1831 0.2100
0.6994 0.2063 0.2371
0.8417 0.2320 0.2659
0.9678 0.2603 0.2967
0.1026 0.1942 0.1479
0.1298 0.1956 0.1503
0.1939 0.2006 0.1515
0.2921 0.2053 0.1651
0.4093 0.2157 0.1883
0.5522 0.2306 0.2132
0.7035 0.2492 0.2399
0.8447 0.2712 0.2685
0.9700 0.2966 0.2990
0.1200 0.2824 0.1700
0.1398 0.2837 0.1717
0.1964 0.2881 0.1731
0.2790 0.2947 0.1772
0.4031 0.3000 0.1908
0.5576 0.3085 0.2152
0.7098 0.3230 0.2433
0.8499 0.3416 0.2722
0.9740 0.3641 0.3028
0.1390 0.3949 0.1964
0.1542 0.3961 0.1977
0.2043 0.4002 0.1991
0.2805 0.4071 0.2021
0.3869 0.4156 0.2083
0.5380 0.4227 0.2216
0.7067 0.4307 0.2453
0.8544 0.4444 0.2744
0.9787 0.4637 0.3063
0.1594 0.5343 0.2257
0.1717 0.5353 0.2267
0.2158 0.5391 0.2282
0.2879 0.5455 0.2304
0.3876 0.5543 0.2350
0.5212 0.5640 0.2427
0.6825 0.5722 0.2561
0.8422 0.5800 0.2789
0.9789 0.5915 0.3077
0.1812 0.6841 0.2573
0.1915 0.6849 0.2582
0.2307 0.6881 0.2598
0.2990 0.6933 0.2613
0.3950 0.7007 0.2650
0.5209 0.7098 0.2710
0.6673 0.7193 0.2798
0.8199 0.7274 0.2936
0.9624 0.7346 0.3159
0.2045 0.8257 0.2911
0.2134 0.8263 0.2919
0.2487 0.8287 0.2939
0.3135 0.8327 0.2948
0.4066 0.8384 0.2978
0.5279 0.8456 0.3028
0.6663 0.8538 0.3100
0.8074 0.8623 0.3200
0.9434 0.8697 0.3345
0.2295 0.9519 0.3276
0.2374 0.9523 0.3283
0.2694 0.9542 0.3309
0.3310 0.9572 0.3313
0.4216 0.9616 0.3336
0.5393 0.9671 0.3379
0.6720 0.9736 0.3442
0.8060 0.9807 0.3528
0.9330 0.9877 0.3641
0.0944 0.1034 0.2063
0.1257 0.1060 0.2119
0.1964 0.1161 0.2176
0.2858 0.1327 0.2267
0.4006 0.1527 0.2405
0.5433 0.1750 0.2582
0.6958 0.1995 0.2794
0.8387 0.2261 0.3036
0.9655 0.2549 0.3311
0.1003 0.1334 0.2042
0.1286 0.1349 0.2093
0.1979 0.1405 0.2175
0.2868 0.1522 0.2270
0.4016 0.1684 0.2409
0.5443 0.1881 0.2586
0.6967 0.2107 0.2798
0.8393 0.2360 0.3041
0.9660 0.2639 0.3315
0.1158 0.1984 0.2116
0.1403 0.1993 0.2134
0.2029 0.2029 0.2193
0.2910 0.2097 0.2294
0.4059 0.2203 0.2434
0.5484 0.2349 0.2611
0.7001 0.2532 0.2821
0.8420 0.2750 0.3063
0.9680 0.3002 0.3335
0.1324 0.2843 0.2276
0.1516 0.2850 0.2291
0.2062 0.2888 0.2341
0.2871 0.2959 0.2342
0.4117 0.3010 0.2447
0.5564 0.3115 0.2644
0.7069 0.3263 0.2860
0.8472 0.3450 0.3103
0.9719 0.3675 0.3375
0.1500 0.3955 0.2475
0.1650 0.3964 0.2487
0.2134 0.4002 0.2528
0.2889 0.4074 0.2537
0.3948 0.4163 0.2556
0.5471 0.4230 0.2657
0.7120 0.4317 0.2863
0.8535 0.4469 0.3130
0.9772 0.4666 0.3414
0.1691 0.5342 0.2708
0.1813 0.5351 0.2718
0.2244 0.5388 0.2753
0.2959 0.5453 0.2766
0.3955 0.5544 0.2784
0.5285 0.5644 0.2825
0.6897 0.5724 0.2931
0.8474 0.5803 0.3145
0.9804 0.5927 0.3421
0.1899 0.6837 0.2975
0.2002 0.6844 0.2983
0.2388 0.6875 0.3015
0.3064 0.6930 0.3031
0.4027 0.7005 0.3049
0.5281 0.7098 0.3083
0.6733 0.7195 0.3144
0.8252 0.7275 0.3261
0.9665 0.7346 0.3476
0.2124 0.8252 0.3277
0.2213 0.8258 0.3284
0.2563 0.8281 0.3313
0.3202 0.8323 0.3333
0.4138 0.8381 0.3348
0.5350 0.8454 0.3381
0.6722 0.8538 0.3433
0.8119 0.8624 0.3512
0.9472 0.8697 0.3642
0.2366 0.9515 0.3617
0.2447 0.9519 0.3623
0.2769 0.9537 0.3650
0.3373 0.9569 0.3675
0.4284 0.9612 0.3686
0.5459 0.9669 0.3717
0.6778 0.9735 0.3765
0.8104 0.9807 0.3835
0.9364 0.9878 0.3933
0.1128 0.1270 0.2902
0.1347 0.1286 0.2947
0.1987 0.1348 0.3029
0.2871 0.1471 0.3092
0.4008 0.1643 0.3187
0.5422 0.1848 0.3320
0.6938 0.2080 0.3492
0.8365 0.2338 0.3700
0.9634 0.2620 0.3947
0.1165 0.1489 0.2881
0.1376 0.1501 0.2923
0.1996 0.1545 0.3024
0.2882 0.1641 0.3090
0.4018 0.1787 0.3187
0.5430 0.1972 0.3322
0.6944 0.2189 0.3494
0.8370 0.2435 0.3704
0.9638 0.2709 0.3950
0.1301 0.2081 0.2874
0.1489 0.2091 0.2898
0.2048 0.2125 0.2995
0.2922 0.2181 0.3095
0.4053 0.2285 0.3196
0.5462 0.2427 0.3334
0.6972 0.2606 0.3508
0.8392 0.2820 0.3719
0.9655 0.3069 0.3966
0.1467 0.2909 0.2990
0.1637 0.2915 0.3003
0.2179 0.2941 0.3047
0.2995 0.2995 0.3121
0.4122 0.3072 0.3229
0.5528 0.3184 0.3370
0.7029 0.3333 0.3544
0.8436 0.3518 0.3755
0.9689 0.3740 0.4002
0.1646 0.3999 0.3163
0.1789 0.4005 0.3174
0.2279 0.4031 0.3216
0.3029 0.4093 0.3283
0.4074 0.4189 0.3279
0.5601 0.4249 0.3380
0.7119 0.4366 0.3580
0.8509 0.4527 0.3802
0.9744 0.4726 0.4055
0.1834 0.5368 0.3373
0.1954 0.5374 0.3384
0.2390 0.5402 0.3421
0.3096 0.5462 0.3481
0.4090 0.5555 0.3487
0.5406 0.5661 0.3494
0.7020 0.5733 0.3586
0.8548 0.5819 0.3796
0.9801 0.5966 0.4077
0.2035 0.6849 0.3620
0.2138 0.6855 0.3628
0.2530 0.6880 0.3662
0.3197 0.6932 0.3718
0.4161 0.7008 0.3730
0.5407 0.7104 0.3740
0.6836 0.7205 0.3769
0.8345 0.7281 0.3866
0.9734 0.7351 0.4086
0.2254 0.8256 0.3904
0.2344 0.8260 0.3912
0.2700 0.8281 0.3943
0.3332 0.8321 0.3996
0.4267 0.8380 0.4014
0.5475 0.8455 0.4028
0.6826 0.8542 0.4054
0.8199 0.8630 0.4106
0.9542 0.8701 0.4217
0.2491 0.9515 0.4233
0.2572 0.9518 0.4239
0.2899 0.9534 0.4268
0.3501 0.9565 0.4320
0.4405 0.9611 0.4344
0.5580 0.9667 0.4357
0.6882 0.9735 0.4386
0.8184 0.9809 0.4431
0.9427 0.9881 0.4505
0.1319 0.1518 0.3878
0.1485 0.1530 0.3917
0.2034 0.1575 0.4032
0.2896 0.1665 0.4110
0.4028 0.1807 0.4192
0.5432 0.1990 0.4307
0.6936 0.2206 0.4461
0.8355 0.2452 0.4654
0.9619 0.2726 0.4886
0.1346 0.1688 0.3857
0.1508 0.1697 0.3895
0.2042 0.1736 0.4017
0.2905 0.1810 0.4108
0.4037 0.1936 0.4190
0.5440 0.2105 0.4306
0.6943 0.2310 0.4462
0.8359 0.2546 0.4655
0.9623 0.2813 0.4888
0.1449 0.2224 0.3821
0.1601 0.2232 0.3850
0.2106 0.2262 0.3959
0.2937 0.2312 0.4103
0.4074 0.2404 0.4191
0.5472 0.2540 0.4310
0.6968 0.2714 0.4468
0.8378 0.2924 0.4664
0.9638 0.3169 0.4899
0.1619 0.3022 0.3866
0.1762 0.3028 0.3879
0.2246 0.3056 0.3936
0.3011 0.3109 0.4074
0.4141 0.3174 0.4205
0.5530 0.3286 0.4328
0.7014 0.3433 0.4490
0.8415 0.3617 0.4690
0.9666 0.3838 0.4927
0.1801 0.4092 0.4022
0.1930 0.4097 0.4033
0.2399 0.4119 0.4073
0.3171 0.4165 0.4143
0.4240 0.4240 0.4242
0.5618 0.4334 0.4375
0.7090 0.4462 0.4541
0.8475 0.4624 0.4742
0.9713 0.4821 0.4980
0.1995 0.5436 0.4233
0.2110 0.5441 0.4242
0.2543 0.5461 0.4282
0.3278 0.5504 0.4353
0.4278 0.5585 0.4444
0.5566 0.5697 0.4435
0.7166 0.5763 0.4552
0.8563 0.5880 0.4786
0.9782 0.6039 0.5039
0.2201 0.6891 0.4487
0.2302 0.6895 0.4496
0.2697 0.6914 0.4533
0.3388 0.6954 0.4600
0.4349 0.7025 0.4685
0.5579 0.7123 0.4690
0.6975 0.7228 0.4688
0.8472 0.7297 0.4784
0.9813 0.7372 0.5022
0.2419 0.8279 0.4780
0.2510 0.8282 0.4789
0.2871 0.8298 0.4823
0.3524 0.8332 0.4885
0.4452 0.8388 0.4965
0.5648 0.8463 0.4979
0.6971 0.8553 0.4983
0.8309 0.8644 0.5003
0.9639 0.8712 0.5099
0.2655 0.9526 0.5112
0.2738 0.9529 0.5120
0.3071 0.9542 0.5152
0.3690 0.9569 0.5209
0.4588 0.9613 0.5285
0.5747 0.9670 0.5305
0.7028 0.9739 0.5314
0.8296 0.9815 0.5332
0.9513 0.9889 0.5375
0.1519 0.1783 0.5103
0.1652 0.1791 0.5140
0.2123 0.1830 0.5267
0.2936 0.1898 0.5394
0.4058 0.2013 0.5484
0.5456 0.2173 0.5585
0.6950 0.2372 0.5719
0.8359 0.2605 0.5888
0.9617 0.2869 0.6091
0.1540 0.1921 0.5082
0.1671 0.1929 0.5119
0.2138 0.1963 0.5245
0.2942 0.2025 0.5388
0.4067 0.2129 0.5482
0.5464 0.2280 0.5584
0.6956 0.2470 0.5718
0.8363 0.2695 0.5888
0.9620 0.2954 0.6092
0.1623 0.2405 0.5031
0.1748 0.2412 0.5063
0.2201 0.2439 0.5181
0.2969 0.2489 0.5365
0.4099 0.2567 0.5477
0.5497 0.2692 0.5582
0.6982 0.2859 0.5719
0.8382 0.3063 0.5891
0.9634 0.3303 0.6097
0.1776 0.3179 0.5015
0.1894 0.3185 0.5038
0.2327 0.3212 0.5125
0.3060 0.3260 0.5291
0.4155 0.3321 0.5479
0.5556 0.3421 0.5589
0.7030 0.3565 0.5728
0.8417 0.3747 0.5904
0.9659 0.3967 0.6113
0.1965 0.4231 0.5125
0.2079 0.4236 0.5136
0.2509 0.4259 0.5180
0.3238 0.4308 0.5268
0.4256 0.4381 0.5450
0.5643 0.4461 0.5614
0.7097 0.4588 0.5757
0.8467 0.4750 0.5937
0.9699 0.4945 0.6149
0.2165 0.5549 0.5327
0.2272 0.5553 0.5337
0.2685 0.5572 0.5374
0.3414 0.5609 0.5442
0.4457 0.5671 0.5537
0.5758 0.5758 0.5661
0.7190 0.5861 0.5816
0.8542 0.5991 0.5999
0.9756 0.6149 0.6212
0.2379 0.6971 0.5578
0.2477 0.6974 0.5587
0.2866 0.6989 0.5624
0.3569 0.7020 0.5690
0.4579 0.7072 0.5785
0.5798 0.7158 0.5897
0.7141 0.7269 0.5884
0.8613 0.7330 0.6009
0.9834 0.7435 0.6258
0.2606 0.8328 0.5867
0.2696 0.8331 0.5874
0.3058 0.8344 0.5910
0.3728 0.8370 0.5973
0.4694 0.8414 0.6062
0.5866 0.8484 0.6163
0.7151 0.8575 0.6167
0.8443 0.8670 0.6157
0.9758 0.8730 0.6250
0.2848 0.9556 0.6185
0.2931 0.9558 0.6193
0.3268 0.9569 0.6225
0.3905 0.9591 0.6284
0.4832 0.9627 0.6365
0.5962 0.9682 0.6459
0.7210 0.9750 0.6472
0.8437 0.9829 0.6469
0.9619 0.9904 0.6479
0.1729 0.2066 0.6520
0.1840 0.2073 0.6552
0.2258 0.2105 0.6665
0.3003 0.2164 0.6825
0.4100 0.2259 0.6930
0.5490 0.2398 0.7022
0.6975 0.2578 0.7129
0.8373 0.2797 0.7262
0.9623 0.3050 0.7423
0.1746 0.2184 0.6502
0.1856 0.2190 0.6534
0.2272 0.2220 0.6647
0.3009 0.2276 0.6817
0.4107 0.2364 0.6927
0.5498 0.2496 0.7020
0.6982 0.2671 0.7128
0.8378 0.2884 0.7262
0.9627 0.3133 0.7423
0.1816 0.2625 0.6449
0.1923 0.2631 0.6478
0.2330 0.2656 0.6587
0.3044 0.2706 0.6762
0.4132 0.2776 0.6915
0.5527 0.2888 0.7016
0.7007 0.3044 0.7125
0.8397 0.3240 0.7261
0.9641 0.3474 0.7424
0.1948 0.3374 0.6405
0.2050 0.3380 0.6428
0.2445 0.3404 0.6520
0.3143 0.3449 0.6683
0.4180 0.3512 0.6894
0.5580 0.3600 0.7016
0.7055 0.3735 0.7127
0.8433 0.3913 0.7265
0.9666 0.4129 0.7431
0.2142 0.4411 0.6426
0.2240 0.4417 0.6442
0.2624 0.4442 0.6506
0.3307 0.4490 0.6629
0.4303 0.4558 0.6821
0.5655 0.4632 0.7025
0.7125 0.4746 0.7141
0.8485 0.4904 0.7280
0.9704 0.5097 0.7450
0.2346 0.5702 0.6587
0.2443 0.5706 0.6596
0.2828 0.5725 0.6631
0.3527 0.5764 0.6697
0.4528 0.5828 0.6802
0.5773 0.5913 0.7001
0.7217 0.5998 0.7171
0.8552 0.6127 0.7314
0.9753 0.6283 0.7487
0.2567 0.7086 0.6806
0.2660 0.7089 0.6814
0.3033 0.7103 0.6846
0.3726 0.7131 0.6904
0.4738 0.7178 0.6987
0.5994 0.7243 0.7093
0.7330 0.7330 0.7221
0.8638 0.7426 0.7376
0.9820 0.7543 0.7551
0.2805 0.8407 0.7065
0.2892 0.8409 0.7073
0.3249 0.8420 0.7102
0.3922 0.8441 0.7158
0.4910 0.8477 0.7238
0.6117 0.8530 0.7341
0.7367 0.8610 0.7456
0.8596 0.8710 0.7441
0.9880 0.8763 0.7559
0.3058 0.9607 0.7349
0.3140 0.9609 0.7358
0.3478 0.9618 0.7385
0.4126 0.9635 0.7438
0.5075 0.9664 0.7513
0.6225 0.9708 0.7609
0.7425 0.9772 0.7711
0.8603 0.9850 0.7713
0.9739 0.9928 0.7698
0.1952 0.2372 0.7949
0.2047 0.2378 0.7973
0.2423 0.2406 0.8064
0.3101 0.2463 0.8210
0.4163 0.2541 0.8334
0.5534 0.2662 0.8422
0.7009 0.2825 0.8508
0.8397 0.3029 0.8607
0.9638 0.3271 0.8727
0.1966 0.2476 0.7935
0.2061 0.2482 0.7959
0.2436 0.2508 0.8050
0.3113 0.2562 0.8197
0.4168 0.2638 0.8329
0.5540 0.2754 0.8421
0.7014 0.2913 0.8507
0.8401 0.3112 0.8606
0.9641 0.3351 0.8726
0.2026 0.2883 0.7889
0.2120 0.2888 0.7912
0.2490 0.2912 0.8001
0.3163 0.2959 0.8148
0.4191 0.3028 0.8312
0.5564 0.3128 0.8414
0.7038 0.3271 0.8503
0.8420 0.3458 0.8604
0.9655 0.3684 0.8725
0.2142 0.3607 0.7837
0.2233 0.3613 0.7857
0.2595 0.3635 0.7937
0.3259 0.3679 0.8077
0.4244 0.3745 0.8261
0.5608 0.3825 0.8405
0.7082 0.3949 0.8501
0.8456 0.4119 0.8603
0.9681 0.4330 0.8726
0.2319 0.4634 0.7819
0.2407 0.4640 0.7835
0.2761 0.4663 0.7897
0.3413 0.4707 0.8014
0.4383 0.4770 0.8186
0.5672 0.4847 0.8390
0.7146 0.4946 0.8506
0.8508 0.5094 0.8609
0.9720 0.5280 0.8733
0.2540 0.5890 0.7885
0.2629 0.5895 0.7894
0.2987 0.5914 0.7927
0.3638 0.5955 0.8010
0.4593 0.6018 0.8139
0.5815 0.6095 0.8328
0.7226 0.6173 0.8519
0.8578 0.6287 0.8627
0.9770 0.6438 0.8752
0.2768 0.7232 0.8053
0.2854 0.7236 0.8060
0.3208 0.7249 0.8087
0.3875 0.7278 0.8137
0.4857 0.7324 0.8209
0.6062 0.7392 0.8314
0.7342 0.7476 0.8501
0.8664 0.7555 0.8658
0.9831 0.7669 0.8786
0.3015 0.8512 0.8262
0.3098 0.8514 0.8267
0.3444 0.8524 0.8291
0.4106 0.8545 0.8336
0.5082 0.8578 0.8401
0.6279 0.8625 0.8485
0.7550 0.8687 0.8587
0.8766 0.8766 0.8705
0.9904 0.8849 0.8844
0.3280 0.9680 0.8496
0.3360 0.9682 0.8502
0.3695 0.9689 0.8525
0.4341 0.9704 0.8569
0.5291 0.9729 0.8630
0.6444 0.9764 0.8712
0.7661 0.9813 0.8811
0.8796 0.9881 0.8917
0.9870 0.9961 0.8902
0.2187 0.2703 0.9261
0.2272 0.2709 0.9280
0.2615 0.2734 0.9351
0.3256 0.2785 0.9469
0.4254 0.2859 0.9602
0.5591 0.2966 0.9689
0.7049 0.3113 0.9762
0.8426 0.3302 0.9835
0.9658 0.3533 0.9917
0.2200 0.2798 0.9251
0.2285 0.2804 0.9269
0.2627 0.2828 0.9340
0.3267 0.2877 0.9459
0.4259 0.2950 0.9597
0.5596 0.3053 0.9686
0.7054 0.3196 0.9761
0.8431 0.3383 0.9834
0.9662 0.3611 0.9917
0.2254 0.3179 0.9214
0.2337 0.3184 0.9232
0.2677 0.3206 0.9301
0.3315 0.3251 0.9420
0.4280 0.3321 0.9569
0.5617 0.3412 0.9677
0.7074 0.3543 0.9757
0.8448 0.3719 0.9832
0.9675 0.3937 0.9915
0.2358 0.3881 0.9164
0.2441 0.3886 0.9180
0.2776 0.3907 0.9245
0.3407 0.3949 0.9360
0.4359 0.4014 0.9512
0.5657 0.4096 0.9660
0.7112 0.4209 0.9751
0.8482 0.4368 0.9829
0.9701 0.4569 0.9913
0.2520 0.4891 0.9130
0.2600 0.4896 0.9143
0.2930 0.4918 0.9198
0.3554 0.4958 0.9300
0.4495 0.5019 0.9445
0.5724 0.5100 0.9619
0.7166 0.5190 0.9747
0.8531 0.5322 0.9831
0.9740 0.5496 0.9916
0.2738 0.6114 0.9138
0.2818 0.6119 0.9148
0.3145 0.6138 0.9190
0.3766 0.6177 0.9271
0.4694 0.6234 0.9392
0.5886 0.6306 0.9555
0.7236 0.6386 0.9738
0.8595 0.6482 0.9839
0.9791 0.6621 0.9924
0.2982 0.7406 0.9235
0.3063 0.7409 0.9241
0.3397 0.7423 0.9264
0.4036 0.7452 0.9310
0.4967 0.7500 0.9393
0.6116 0.7566 0.9517
0.7376 0.7641 0.9688
0.8670 0.7713 0.9854
0.9853 0.7813 0.9941
0.3238 0.8641 0.9394
0.3318 0.8643 0.9399
0.3649 0.8653 0.9419
0.4290 0.8673 0.9457
0.5236 0.8706 0.9511
0.6390 0.8753 0.9582
0.7610 0.8817 0.9679
0.8775 0.8893 0.9841
0.9925 0.8962 0.9967
0.3515 0.9771 0.9581
0.3592 0.9773 0.9585
0.3919 0.9780 0.9603
0.4552 0.9794 0.9637
0.5480 0.9817 0.9686
0.6609 0.9849 0.9749
0.7805 0.9892 0.9825
0.8958 0.9944 0.9911
1.0000 1.0000 1.0000
