assets/luts/LUTs/JD_PUEBLA.CUBE
TITLE "ColorFinale Export"
# Created by Jeven Dovey on 2020-10-01 21:06:36 +0000
# Color Finale Plugin v.2.1.144 (485)
LUT_3D_SIZE 5
0.0000 0.0000 0.0039
0.1596 0.0000 0.0079
0.4421 0.0031 0.0127
0.7795 0.0062 0.0162
0.8897 0.0069 0.0170
0.0160 0.1863 0.0121
0.2548 0.1678 0.0354
0.5013 0.1698 0.0169
0.8039 0.1646 0.0185
0.9149 0.1609 0.0189
0.0347 0.5198 0.0182
0.2649 0.5055 0.0190
0.6860 0.4638 0.0733
0.9873 0.4496 0.1429
0.9898 0.4566 0.1125
0.0474 0.8769 0.0195
0.2635 0.8656 0.0192
0.7000 0.8327 0.0179
0.9968 0.7848 0.1064
0.9968 0.7682 0.1682
0.0510 0.9905 0.0191
0.2607 0.9920 0.0183
0.6951 0.9717 0.0159
0.9987 0.9339 0.0573
0.9986 0.9169 0.1199
0.0026 0.0271 0.1867
0.1795 0.0007 0.1785
0.4721 0.0040 0.1292
0.8044 0.0066 0.0885
0.9131 0.0072 0.0764
0.0139 0.2712 0.1545
0.1937 0.1823 0.1834
0.4666 0.1578 0.1299
0.7927 0.1389 0.0860
0.9090 0.1344 0.0727
0.0218 0.6128 0.1355
0.2081 0.5165 0.1729
0.6237 0.4797 0.2182
0.9112 0.4749 0.2339
0.9909 0.4806 0.1871
0.0319 0.9597 0.1114
0.2151 0.8745 0.1555
0.6358 0.8477 0.1365
0.9975 0.8002 0.2432
0.9974 0.7838 0.3055
0.0337 0.9908 0.1036
0.2150 0.9936 0.1457
0.6330 0.9851 0.1154
0.9991 0.9496 0.1867
0.9991 0.9321 0.2519
0.0063 0.0767 0.5054
0.1440 0.0409 0.5163
0.4886 0.0055 0.4932
0.8376 0.0076 0.4429
0.9480 0.0081 0.4252
0.0443 0.3248 0.4620
0.1605 0.2465 0.5054
0.4971 0.1772 0.4922
0.8344 0.1509 0.4316
0.9493 0.1439 0.4115
0.0195 0.7468 0.3964
0.1949 0.6528 0.4383
0.5138 0.5066 0.4920
0.8229 0.4771 0.4260
0.9455 0.4656 0.4026
0.0150 0.9919 0.3654
0.1846 0.9929 0.4101
0.5244 0.8689 0.4714
0.9726 0.8285 0.5246
0.9985 0.8154 0.5790
0.0152 0.9919 0.3583
0.1798 0.9943 0.4033
0.5261 0.9976 0.4614
0.9816 0.9786 0.4696
0.9997 0.9608 0.5354
0.0092 0.1236 0.8695
0.0986 0.0912 0.8823
0.4399 0.0357 0.8957
0.8387 0.0082 0.8696
0.9576 0.0086 0.8551
0.0187 0.3929 0.7884
0.1174 0.3073 0.8742
0.4500 0.2398 0.8950
0.8445 0.1731 0.8665
0.9685 0.1624 0.8478
0.0693 0.7828 0.8329
0.2224 0.7030 0.8396
0.4693 0.5827 0.8732
0.8517 0.4985 0.8591
0.9818 0.4826 0.8331
0.0227 0.9935 0.6769
0.1871 0.9957 0.7324
0.5055 0.9927 0.7921
0.8588 0.8574 0.8496
0.9842 0.8427 0.8183
0.0221 0.9934 0.6688
0.1816 0.9956 0.7258
0.4986 0.9982 0.7840
0.8620 0.9998 0.8390
1.0000 0.9890 0.8624
0.0097 0.1355 0.9522
0.0791 0.1091 0.9535
0.4163 0.0542 0.9634
0.8176 0.0116 0.9732
0.9539 0.0087 0.9770
0.0132 0.4190 0.9458
0.0974 0.3286 0.9719
0.4268 0.2640 0.9779
0.8246 0.1956 0.9835
0.9662 0.1708 0.9854
0.0855 0.8057 0.9721
0.2020 0.7373 0.9633
0.4488 0.6117 0.9911
0.8317 0.5287 0.9938
0.9825 0.4951 0.9948
0.0458 0.9947 0.8919
0.2043 0.9966 0.9483
0.5256 0.9989 0.9989
0.8390 0.8904 0.9992
0.9957 0.8527 0.9995
0.0391 0.9944 0.8430
0.1976 0.9962 0.8710
0.5151 0.9987 0.9325
0.8589 0.9999 0.9824
1.0000 1.0000 1.0000
