assets/luts/LUTs/JD_PUEBLA.CUBE
TITLE "ColorFinale Export"
# Created by Jeven Dovey on 2020-10-01 21:06:36 +0000
# Color Finale Plugin v.2.1.144 (485)
LUT_3D_SIZE 17
0.0000 0.0000 0.0039
0.0313 0.0000 0.0049
0.0686 0.0000 0.0059
0.1110 0.0000 0.0069
0.1596 0.0000 0.0079
0.2164 0.0002 0.0091
0.2830 0.0011 0.0103
0.3586 0.0021 0.0115
0.4421 0.0031 0.0127
0.5316 0.0041 0.0138
0.6224 0.0049 0.0148
0.7080 0.0056 0.0156
0.7795 0.0062 0.0162
0.8337 0.0066 0.0166
0.8744 0.0068 0.0169
0.8897 0.0069 0.0170
0.8897 0.0069 0.0170
0.0033 0.0327 0.0061
0.0504 0.0294 0.0114
0.0853 0.0295 0.0130
0.1217 0.0294 0.0086
0.1686 0.0265 0.0094
0.2243 0.0225 0.0102
0.2898 0.0180 0.0111
0.3642 0.0134 0.0120
0.4464 0.0092 0.0129
0.5344 0.0057 0.0139
0.6242 0.0050 0.0148
0.7090 0.0057 0.0156
0.7800 0.0062 0.0162
0.8339 0.0066 0.0166
0.8743 0.0068 0.0169
0.8914 0.0069 0.0170
0.8913 0.0069 0.0170
0.0073 0.0772 0.0082
0.0533 0.0747 0.0091
0.1102 0.0698 0.0191
0.1562 0.0679 0.0317
0.1936 0.0701 0.0192
0.2411 0.0705 0.0121
0.3027 0.0680 0.0129
0.3753 0.0641 0.0137
0.4563 0.0597 0.0145
0.5433 0.0555 0.0152
0.6321 0.0518 0.0159
0.7156 0.0490 0.0165
0.7855 0.0469 0.0170
0.8387 0.0455 0.0173
0.8786 0.0445 0.0176
0.8973 0.0439 0.0177
0.8972 0.0434 0.0177
0.0116 0.1279 0.0102
0.0552 0.1256 0.0110
0.1146 0.1213 0.0118
0.1777 0.1156 0.0270
0.2340 0.1121 0.0456
0.2808 0.1137 0.0405
0.3311 0.1166 0.0195
0.3952 0.1166 0.0151
0.4712 0.1144 0.0158
0.5553 0.1111 0.0164
0.6421 0.1077 0.0170
0.7241 0.1048 0.0174
0.7928 0.1025 0.0178
0.8452 0.1009 0.0181
0.8846 0.0998 0.0182
0.9049 0.0990 0.0183
0.9048 0.0985 0.0183
0.0160 0.1863 0.0121
0.0575 0.1840 0.0127
0.1162 0.1804 0.0135
0.1836 0.1745 0.0149
0.2548 0.1678 0.0354
0.3221 0.1630 0.0585
0.3806 0.1635 0.0611
0.4365 0.1673 0.0403
0.5013 0.1698 0.0169
0.5775 0.1699 0.0174
0.6592 0.1684 0.0179
0.7375 0.1664 0.0182
0.8039 0.1646 0.0185
0.8548 0.1632 0.0187
0.8930 0.1621 0.0188
0.9150 0.1614 0.0189
0.9149 0.1609 0.0189
0.0207 0.2545 0.0140
0.0599 0.2522 0.0144
0.1178 0.2489 0.0150
0.1854 0.2437 0.0156
0.2620 0.2365 0.0202
0.3438 0.2285 0.0442
0.4234 0.2223 0.0719
0.4932 0.2213 0.0818
0.5559 0.2251 0.0653
0.6213 0.2296 0.0383
0.6925 0.2321 0.0186
0.7631 0.2327 0.0189
0.8244 0.2325 0.0190
0.8721 0.2320 0.0192
0.9084 0.2315 0.0192
0.9313 0.2310 0.0193
0.9311 0.2305 0.0193
0.0255 0.3342 0.0156
0.0623 0.3319 0.0160
0.1197 0.3287 0.0165
0.1865 0.3242 0.0169
0.2641 0.3175 0.0174
0.3524 0.3087 0.0256
0.4466 0.2991 0.0537
0.5374 0.2914 0.0854
0.6175 0.2888 0.1023
0.6873 0.2917 0.0935
0.7508 0.2969 0.0691
0.8103 0.3013 0.0439
0.8630 0.3039 0.0244
0.9050 0.3053 0.0195
0.9371 0.3061 0.0195
0.9598 0.3065 0.0195
0.9596 0.3060 0.0195
0.0302 0.4236 0.0171
0.0643 0.4214 0.0173
0.1213 0.4183 0.0176
0.1875 0.4142 0.0180
0.2648 0.4082 0.0183
0.3548 0.3998 0.0186
0.4563 0.3893 0.0318
0.5616 0.3783 0.0635
0.6617 0.3694 0.0984
0.7488 0.3652 0.1216
0.8194 0.3664 0.1220
0.8769 0.3706 0.1060
0.9232 0.3752 0.0860
0.9583 0.3786 0.0693
0.9842 0.3810 0.0565
0.9870 0.3825 0.0469
0.9870 0.3821 0.0466
0.0347 0.5198 0.0182
0.0660 0.5177 0.0183
0.1227 0.5147 0.0185
0.1882 0.5109 0.0188
0.2649 0.5055 0.0190
0.3550 0.4979 0.0192
0.4592 0.4877 0.0194
0.5723 0.4757 0.0388
0.6860 0.4638 0.0733
0.7893 0.4539 0.1104
0.8751 0.4483 0.1381
0.9407 0.4475 0.1476
0.9873 0.4496 0.1429
0.9898 0.4522 0.1331
0.9898 0.4546 0.1230
0.9898 0.4568 0.1138
0.9898 0.4566 0.1125
0.0387 0.6197 0.0189
0.0670 0.6178 0.0190
0.1236 0.6148 0.0191
0.1889 0.6111 0.0193
0.2648 0.6061 0.0194
0.3544 0.5992 0.0195
0.4591 0.5898 0.0195
0.5755 0.5780 0.0195
0.6971 0.5650 0.0464
0.8118 0.5524 0.0830
0.9101 0.5422 0.1204
0.9854 0.5358 0.1496
0.9921 0.5328 0.1655
0.9921 0.5324 0.1706
0.9922 0.5329 0.1704
0.9922 0.5339 0.1679
0.9922 0.5338 0.1671
0.0423 0.7180 0.0193
0.0675 0.7161 0.0194
0.1242 0.7132 0.0195
0.1890 0.7097 0.0195
0.2645 0.7051 0.0195
0.3535 0.6989 0.0195
0.4579 0.6903 0.0194
0.5755 0.6792 0.0193
0.7009 0.6661 0.0244
0.8226 0.6524 0.0551
0.9295 0.6398 0.0919
0.9941 0.6298 0.1271
0.9941 0.6229 0.1546
0.9941 0.6191 0.1721
0.9941 0.6171 0.1823
0.9941 0.6163 0.1881
0.9941 0.6158 0.1895
0.0452 0.8055 0.0195
0.0676 0.8039 0.0195
0.1243 0.8010 0.0195
0.1890 0.7977 0.0195
0.2641 0.7934 0.0194
0.3524 0.7878 0.0193
0.4564 0.7801 0.0191
0.5740 0.7701 0.0189
0.7010 0.7579 0.0185
0.8267 0.7444 0.0327
0.9390 0.7312 0.0650
0.9957 0.7196 0.0997
0.9957 0.7107 0.1303
0.9957 0.7048 0.1530
0.9957 0.7011 0.1689
0.9957 0.6985 0.1803
0.9957 0.6974 0.1845
0.0474 0.8769 0.0195
0.0675 0.8754 0.0195
0.1240 0.8727 0.0194
0.1886 0.8695 0.0193
0.2635 0.8656 0.0192
0.3514 0.8603 0.0190
0.4551 0.8532 0.0187
0.5724 0.8440 0.0183
0.7000 0.8327 0.0179
0.8275 0.8198 0.0173
0.9431 0.8067 0.0441
0.9969 0.7947 0.0761
0.9968 0.7848 0.1064
0.9968 0.7780 0.1303
0.9968 0.7733 0.1482
0.9968 0.7699 0.1619
0.9968 0.7682 0.1682
0.0490 0.9299 0.0194
0.0673 0.9285 0.0194
0.1237 0.9260 0.0192
0.1882 0.9230 0.0191
0.2628 0.9192 0.0189
0.3505 0.9143 0.0186
0.4536 0.9077 0.0183
0.5710 0.8991 0.0178
0.6988 0.8885 0.0172
0.8270 0.8763 0.0165
0.9446 0.8635 0.0296
0.9977 0.8514 0.0588
0.9976 0.8412 0.0877
0.9976 0.8340 0.1114
0.9976 0.8288 0.1298
0.9975 0.8250 0.1442
0.9975 0.8229 0.1519
0.0501 0.9684 0.0192
0.0670 0.9671 0.0192
0.1235 0.9647 0.0191
0.1878 0.9619 0.0189
0.2623 0.9583 0.0186
0.3497 0.9537 0.0183
0.4526 0.9475 0.0179
0.5696 0.9396 0.0173
0.6974 0.9296 0.0166
0.8265 0.9179 0.0158
0.9449 0.9056 0.0195
0.9982 0.8936 0.0463
0.9981 0.8835 0.0738
0.9981 0.8760 0.0969
0.9981 0.8706 0.1151
0.9981 0.8666 0.1297
0.9981 0.8642 0.1382
0.0510 0.9905 0.0191
0.0667 0.9908 0.0191
0.1233 0.9917 0.0189
0.1874 0.9906 0.0186
0.2618 0.9874 0.0184
0.3492 0.9832 0.0180
0.4518 0.9776 0.0175
0.5687 0.9701 0.0169
0.6963 0.9609 0.0161
0.8258 0.9498 0.0152
0.9449 0.9379 0.0142
0.9985 0.9263 0.0369
0.9985 0.9162 0.0632
0.9985 0.9087 0.0855
0.9984 0.9032 0.1035
0.9984 0.8991 0.1180
0.9984 0.8965 0.1271
0.0510 0.9905 0.0191
0.0658 0.9908 0.0191
0.1223 0.9917 0.0189
0.1864 0.9926 0.0186
0.2607 0.9920 0.0183
0.3482 0.9890 0.0179
0.4507 0.9849 0.0174
0.5675 0.9791 0.0167
0.6951 0.9717 0.0159
0.8247 0.9625 0.0149
0.9441 0.9526 0.0139
0.9987 0.9426 0.0322
0.9987 0.9339 0.0573
0.9987 0.9274 0.0789
0.9986 0.9227 0.0964
0.9986 0.9191 0.1106
0.9986 0.9169 0.1199
0.0003 0.0020 0.0410
0.0353 0.0000 0.0391
0.0750 0.0000 0.0316
0.1178 0.0000 0.0237
0.1664 0.0000 0.0156
0.2229 0.0003 0.0092
0.2891 0.0012 0.0104
0.3643 0.0022 0.0116
0.4483 0.0032 0.0127
0.5390 0.0042 0.0139
0.6312 0.0050 0.0148
0.7179 0.0057 0.0157
0.7902 0.0063 0.0163
0.8451 0.0066 0.0167
0.8861 0.0069 0.0170
0.9019 0.0070 0.0171
0.9020 0.0070 0.0171
0.0034 0.0489 0.0352
0.0385 0.0321 0.0406
0.0752 0.0291 0.0331
0.1172 0.0249 0.0252
0.1652 0.0204 0.0169
0.2211 0.0157 0.0099
0.2866 0.0111 0.0108
0.3611 0.0068 0.0117
0.4433 0.0031 0.0127
0.5321 0.0041 0.0138
0.6224 0.0049 0.0148
0.7075 0.0056 0.0156
0.7787 0.0062 0.0162
0.8328 0.0066 0.0166
0.8733 0.0068 0.0169
0.8908 0.0069 0.0170
0.8908 0.0069 0.0170
0.0058 0.0944 0.0340
0.0417 0.0767 0.0402
0.0981 0.0726 0.0475
0.1389 0.0722 0.0508
0.1795 0.0725 0.0343
0.2333 0.0694 0.0209
0.2980 0.0648 0.0127
0.3720 0.0597 0.0135
0.4536 0.0549 0.0143
0.5412 0.0505 0.0151
0.6303 0.0470 0.0158
0.7141 0.0443 0.0164
0.7843 0.0424 0.0169
0.8376 0.0411 0.0172
0.8777 0.0403 0.0175
0.8968 0.0397 0.0176
0.8967 0.0393 0.0176
0.0096 0.1459 0.0331
0.0450 0.1273 0.0403
0.1018 0.1240 0.0386
0.1659 0.1183 0.0542
0.2193 0.1156 0.0694
0.2635 0.1180 0.0548
0.3181 0.1186 0.0332
0.3868 0.1162 0.0153
0.4658 0.1124 0.0157
0.5515 0.1082 0.0163
0.6394 0.1045 0.0169
0.7221 0.1013 0.0174
0.7913 0.0990 0.0177
0.8439 0.0975 0.0180
0.8834 0.0963 0.0182
0.9042 0.0956 0.0183
0.9042 0.0952 0.0183
0.0138 0.2049 0.0320
0.0483 0.1856 0.0399
0.1042 0.1826 0.0353
0.1713 0.1773 0.0410
0.2434 0.1705 0.0610
0.3092 0.1660 0.0826
0.3646 0.1675 0.0773
0.4216 0.1707 0.0524
0.4903 0.1714 0.0280
0.5698 0.1698 0.0174
0.6538 0.1672 0.0178
0.7337 0.1647 0.0182
0.8010 0.1625 0.0185
0.8524 0.1609 0.0186
0.8911 0.1598 0.0188
0.9135 0.1591 0.0189
0.9135 0.1586 0.0188
0.0185 0.2738 0.0305
0.0516 0.2537 0.0390
0.1070 0.2507 0.0329
0.1735 0.2462 0.0333
0.2506 0.2392 0.0442
0.3331 0.2310 0.0680
0.4119 0.2249 0.0948
0.4792 0.2247 0.0988
0.5413 0.2287 0.0770
0.6089 0.2322 0.0485
0.6832 0.2333 0.0243
0.7561 0.2331 0.0188
0.8191 0.2322 0.0190
0.8678 0.2313 0.0191
0.9047 0.2306 0.0192
0.9284 0.2300 0.0193
0.9284 0.2295 0.0193
0.0234 0.3540 0.0282
0.0547 0.3334 0.0374
0.1100 0.3303 0.0304
0.1756 0.3262 0.0279
0.2530 0.3199 0.0321
0.3419 0.3112 0.0473
0.4369 0.3014 0.0751
0.5273 0.2937 0.1061
0.6058 0.2916 0.1191
0.6746 0.2949 0.1053
0.7391 0.2999 0.0782
0.8007 0.3035 0.0523
0.8552 0.3055 0.0325
0.8983 0.3063 0.0195
0.9315 0.3068 0.0195
0.9552 0.3069 0.0195
0.9551 0.3063 0.0195
0.0284 0.4438 0.0251
0.0574 0.4228 0.0350
0.1128 0.4197 0.0275
0.1778 0.4158 0.0231
0.2546 0.4101 0.0234
0.3448 0.4021 0.0314
0.4471 0.3915 0.0509
0.5530 0.3803 0.0822
0.6530 0.3714 0.1163
0.7396 0.3673 0.1370
0.8098 0.3689 0.1337
0.8677 0.3733 0.1149
0.9148 0.3775 0.0934
0.9508 0.3807 0.0759
0.9779 0.3828 0.0630
0.9871 0.3842 0.0530
0.9871 0.3838 0.0524
0.0332 0.5401 0.0212
0.0597 0.5189 0.0318
0.1153 0.5158 0.0238
0.1799 0.5121 0.0188
0.2560 0.5070 0.0190
0.3459 0.4997 0.0195
0.4506 0.4896 0.0314
0.5644 0.4776 0.0550
0.6787 0.4654 0.0890
0.7826 0.4555 0.1253
0.8684 0.4499 0.1512
0.9340 0.4493 0.1582
0.9813 0.4515 0.1516
0.9899 0.4541 0.1403
0.9899 0.4565 0.1291
0.9899 0.4585 0.1196
0.9899 0.4583 0.1180
0.0376 0.6401 0.0190
0.0614 0.6188 0.0278
0.1171 0.6157 0.0197
0.1815 0.6121 0.0193
0.2571 0.6074 0.0194
0.3466 0.6007 0.0195
0.4514 0.5914 0.0195
0.5683 0.5797 0.0324
0.6907 0.5665 0.0595
0.8063 0.5537 0.0954
0.9051 0.5433 0.1320
0.9811 0.5369 0.1599
0.9922 0.5339 0.1744
0.9922 0.5335 0.1783
0.9922 0.5341 0.1771
0.9922 0.5351 0.1740
0.9922 0.5349 0.1726
0.0415 0.7379 0.0194
0.0626 0.7170 0.0234
0.1184 0.7140 0.0195
0.1829 0.7105 0.0195
0.2580 0.7061 0.0195
0.3467 0.7000 0.0195
0.4513 0.6915 0.0194
0.5691 0.6804 0.0193
0.6952 0.6673 0.0350
0.8179 0.6534 0.0651
0.9256 0.6407 0.1010
0.9942 0.6306 0.1354
0.9942 0.6236 0.1619
0.9941 0.6197 0.1785
0.9942 0.6177 0.1881
0.9942 0.6168 0.1933
0.9941 0.6163 0.1943
0.0449 0.8247 0.0195
0.0632 0.8044 0.0195
0.1193 0.8017 0.0195
0.1835 0.7984 0.0195
0.2584 0.7942 0.0194
0.3466 0.7887 0.0193
0.4508 0.7810 0.0192
0.5687 0.7710 0.0189
0.6964 0.7587 0.0185
0.8228 0.7452 0.0404
0.9360 0.7318 0.0719
0.9958 0.7201 0.1057
0.9957 0.7110 0.1355
0.9957 0.7050 0.1574
0.9957 0.7012 0.1728
0.9957 0.6987 0.1838
0.9957 0.6975 0.1877
0.0475 0.8953 0.0195
0.0635 0.8759 0.0195
0.1198 0.8732 0.0194
0.1839 0.8701 0.0193
0.2585 0.8661 0.0192
0.3464 0.8609 0.0190
0.4500 0.8539 0.0187
0.5677 0.8447 0.0184
0.6960 0.8333 0.0179
0.8243 0.8204 0.0224
0.9407 0.8071 0.0492
0.9969 0.7949 0.0802
0.9968 0.7849 0.1097
0.9968 0.7780 0.1330
0.9968 0.7732 0.1503
0.9968 0.7698 0.1636
0.9968 0.7680 0.1697
0.0494 0.9474 0.0193
0.0636 0.9289 0.0194
0.1199 0.9264 0.0193
0.1839 0.9234 0.0191
0.2584 0.9196 0.0189
0.3461 0.9147 0.0187
0.4494 0.9082 0.0183
0.5671 0.8995 0.0178
0.6952 0.8889 0.0172
0.8244 0.8766 0.0165
0.9426 0.8637 0.0332
0.9977 0.8514 0.0615
0.9976 0.8412 0.0896
0.9976 0.8338 0.1126
0.9976 0.8286 0.1304
0.9975 0.8247 0.1445
0.9975 0.8225 0.1520
0.0506 0.9847 0.0191
0.0635 0.9674 0.0192
0.1199 0.9650 0.0191
0.1841 0.9622 0.0189
0.2583 0.9587 0.0186
0.3459 0.9541 0.0183
0.4489 0.9479 0.0179
0.5662 0.9399 0.0173
0.6945 0.9299 0.0166
0.8243 0.9181 0.0158
0.9433 0.9056 0.0221
0.9982 0.8935 0.0480
0.9981 0.8832 0.0746
0.9981 0.8757 0.0971
0.9981 0.8703 0.1151
0.9981 0.8663 0.1297
0.9981 0.8638 0.1384
0.0510 0.9905 0.0191
0.0635 0.9907 0.0191
0.1199 0.9916 0.0189
0.1841 0.9908 0.0187
0.2582 0.9876 0.0184
0.3459 0.9834 0.0180
0.4485 0.9778 0.0175
0.5656 0.9704 0.0169
0.6938 0.9611 0.0161
0.8238 0.9499 0.0152
0.9436 0.9379 0.0142
0.9986 0.9261 0.0378
0.9985 0.9159 0.0632
0.9985 0.9084 0.0855
0.9984 0.9029 0.1035
0.9984 0.8988 0.1180
0.9984 0.8961 0.1272
0.0510 0.9905 0.0191
0.0627 0.9907 0.0191
0.1191 0.9916 0.0189
0.1833 0.9925 0.0186
0.2574 0.9925 0.0183
0.3450 0.9895 0.0179
0.4476 0.9854 0.0174
0.5648 0.9796 0.0168
0.6929 0.9721 0.0159
0.8230 0.9629 0.0150
0.9432 0.9528 0.0139
0.9987 0.9427 0.0323
0.9987 0.9340 0.0572
0.9987 0.9275 0.0788
0.9986 0.9227 0.0962
0.9986 0.9191 0.1105
0.9986 0.9169 0.1199
0.0010 0.0093 0.0836
0.0309 0.0021 0.0846
0.0774 0.0000 0.0796
0.1233 0.0000 0.0712
0.1735 0.0000 0.0617
0.2308 0.0007 0.0516
0.2972 0.0015 0.0410
0.3722 0.0024 0.0305
0.4549 0.0033 0.0204
0.5435 0.0042 0.0139
0.6337 0.0050 0.0149
0.7183 0.0057 0.0157
0.7890 0.0063 0.0163
0.8427 0.0066 0.0167
0.8828 0.0069 0.0170
0.8987 0.0070 0.0171
0.8987 0.0070 0.0171
0.0102 0.0556 0.0813
0.0342 0.0409 0.0826
0.0797 0.0318 0.0803
0.1241 0.0275 0.0711
0.1727 0.0230 0.0613
0.2288 0.0182 0.0511
0.2941 0.0132 0.0404
0.3682 0.0086 0.0296
0.4500 0.0045 0.0193
0.5384 0.0042 0.0139
0.6300 0.0050 0.0148
0.7160 0.0057 0.0156
0.7880 0.0062 0.0163
0.8425 0.0066 0.0167
0.8834 0.0069 0.0170
0.9014 0.0070 0.0171
0.9013 0.0070 0.0171
0.0071 0.1130 0.0706
0.0405 0.0948 0.0757
0.0842 0.0759 0.0825
0.1252 0.0731 0.0739
0.1735 0.0681 0.0643
0.2295 0.0625 0.0539
0.2946 0.0567 0.0430
0.3686 0.0510 0.0318
0.4502 0.0459 0.0211
0.5378 0.0415 0.0149
0.6271 0.0381 0.0156
0.7113 0.0357 0.0162
0.7818 0.0340 0.0167
0.8355 0.0329 0.0171
0.8757 0.0322 0.0174
0.8952 0.0316 0.0175
0.8952 0.0312 0.0175
0.0089 0.1653 0.0687
0.0421 0.1462 0.0747
0.0873 0.1266 0.0810
0.1512 0.1217 0.0899
0.1982 0.1210 0.0946
0.2451 0.1214 0.0746
0.3075 0.1178 0.0580
0.3804 0.1125 0.0434
0.4613 0.1070 0.0300
0.5479 0.1017 0.0179
0.6364 0.0974 0.0168
0.7196 0.0941 0.0173
0.7893 0.0918 0.0176
0.8422 0.0902 0.0179
0.8819 0.0891 0.0181
0.9032 0.0883 0.0182
0.9031 0.0879 0.0182
0.0120 0.2250 0.0667
0.0446 0.2053 0.0738
0.0909 0.1848 0.0807
0.1551 0.1809 0.0791
0.2281 0.1741 0.0973
0.2901 0.1707 0.1151
0.3412 0.1735 0.0977
0.4028 0.1742 0.0725
0.4777 0.1716 0.0516
0.5612 0.1676 0.0342
0.6474 0.1635 0.0200
0.7289 0.1600 0.0181
0.7973 0.1573 0.0184
0.8494 0.1555 0.0186
0.8885 0.1542 0.0187
0.9115 0.1533 0.0188
0.9114 0.1528 0.0188
0.0158 0.2947 0.0645
0.0474 0.2743 0.0727
0.0945 0.2530 0.0799
0.1575 0.2494 0.0747
0.2340 0.2431 0.0813
0.3174 0.2348 0.1049
0.3936 0.2294 0.1303
0.4558 0.2309 0.1242
0.5177 0.2346 0.0964
0.5900 0.2357 0.0690
0.6690 0.2345 0.0470
0.7455 0.2324 0.0303
0.8107 0.2304 0.0190
0.8609 0.2289 0.0191
0.8987 0.2277 0.0192
0.9234 0.2268 0.0192
0.9233 0.2263 0.0192
0.0201 0.3756 0.0616
0.0502 0.3547 0.0708
0.0980 0.3326 0.0784
0.1604 0.3291 0.0714
0.2362 0.3237 0.0717
0.3252 0.3153 0.0844
0.4207 0.3054 0.1126
0.5094 0.2982 0.1433
0.5834 0.2975 0.1494
0.6496 0.3017 0.1275
0.7160 0.3058 0.0980
0.7813 0.3078 0.0726
0.8393 0.3083 0.0541
0.8849 0.3081 0.0415
0.9195 0.3078 0.0326
0.9447 0.3075 0.0266
0.9446 0.3070 0.0261
0.0246 0.4658 0.0580
0.0526 0.4447 0.0682
0.1012 0.4221 0.0760
0.1633 0.4186 0.0681
0.2381 0.4138 0.0649
0.3274 0.4063 0.0700
0.4301 0.3959 0.0882
0.5365 0.3846 0.1202
0.6351 0.3759 0.1547
0.7189 0.3730 0.1711
0.7868 0.3756 0.1607
0.8441 0.3803 0.1368
0.8927 0.3842 0.1136
0.9308 0.3867 0.0960
0.9599 0.3882 0.0832
0.9825 0.3891 0.0736
0.9828 0.3886 0.0729
0.0289 0.5625 0.0537
0.0546 0.5412 0.0647
0.1038 0.5184 0.0728
0.1659 0.5149 0.0642
0.2399 0.5104 0.0590
0.3286 0.5038 0.0595
0.4329 0.4942 0.0695
0.5471 0.4822 0.0926
0.6619 0.4699 0.1276
0.7656 0.4601 0.1645
0.8499 0.4552 0.1881
0.9141 0.4556 0.1903
0.9612 0.4585 0.1790
0.9902 0.4617 0.1645
0.9902 0.4641 0.1518
0.9902 0.4660 0.1412
0.9902 0.4659 0.1393
0.0330 0.6627 0.0486
0.0560 0.6413 0.0605
0.1058 0.6183 0.0688
0.1681 0.6149 0.0597
0.2417 0.6105 0.0533
0.3294 0.6045 0.0509
0.4335 0.5958 0.0553
0.5505 0.5843 0.0702
0.6736 0.5712 0.0976
0.7902 0.5583 0.1345
0.8894 0.5480 0.1718
0.9656 0.5420 0.1988
0.9925 0.5398 0.2107
0.9925 0.5399 0.2117
0.9925 0.5409 0.2082
0.9925 0.5422 0.2033
0.9925 0.5422 0.2014
0.0367 0.7598 0.0432
0.0570 0.7392 0.0559
0.1073 0.7166 0.0642
0.1696 0.7132 0.0549
0.2428 0.7091 0.0477
0.3300 0.7035 0.0434
0.4335 0.6957 0.0442
0.5511 0.6851 0.0532
0.6775 0.6722 0.0729
0.8016 0.6582 0.1035
0.9106 0.6454 0.1406
0.9944 0.6355 0.1756
0.9944 0.6286 0.2020
0.9944 0.6251 0.2177
0.9944 0.6234 0.2260
0.9944 0.6228 0.2301
0.9944 0.6224 0.2306
0.0397 0.8458 0.0381
0.0575 0.8259 0.0512
0.1081 0.8041 0.0596
0.1705 0.8010 0.0502
0.2436 0.7971 0.0423
0.3303 0.7919 0.0369
0.4331 0.7848 0.0354
0.5505 0.7753 0.0403
0.6781 0.7635 0.0542
0.8059 0.7500 0.0784
0.9209 0.7366 0.1108
0.9960 0.7249 0.1455
0.9959 0.7158 0.1759
0.9959 0.7100 0.1981
0.9959 0.7063 0.2133
0.9959 0.7039 0.2240
0.9959 0.7027 0.2278
0.0422 0.9156 0.0334
0.0577 0.8966 0.0469
0.1085 0.8756 0.0555
0.1710 0.8725 0.0460
0.2441 0.8688 0.0376
0.3306 0.8640 0.0314
0.4327 0.8575 0.0285
0.5498 0.8488 0.0308
0.6777 0.8378 0.0408
0.8071 0.8251 0.0599
0.9253 0.8119 0.0875
0.9971 0.7997 0.1194
0.9971 0.7897 0.1497
0.9970 0.7828 0.1735
0.9970 0.7780 0.1912
0.9970 0.7746 0.2045
0.9970 0.7729 0.2108
0.0440 0.9665 0.0297
0.0577 0.9486 0.0435
0.1087 0.9286 0.0521
0.1713 0.9257 0.0425
0.2442 0.9222 0.0340
0.3305 0.9176 0.0272
0.4323 0.9115 0.0234
0.5489 0.9034 0.0242
0.6768 0.8932 0.0316
0.8072 0.8811 0.0473
0.9270 0.8683 0.0712
0.9978 0.8561 0.1002
0.9978 0.8458 0.1292
0.9978 0.8385 0.1528
0.9977 0.8332 0.1710
0.9977 0.8294 0.1853
0.9977 0.8272 0.1930
0.0452 0.9905 0.0270
0.0576 0.9857 0.0409
0.1087 0.9671 0.0494
0.1715 0.9644 0.0397
0.2442 0.9610 0.0312
0.3303 0.9568 0.0241
0.4319 0.9511 0.0196
0.5483 0.9435 0.0193
0.6761 0.9340 0.0251
0.8067 0.9226 0.0384
0.9276 0.9102 0.0596
0.9983 0.8982 0.0863
0.9983 0.8879 0.1138
0.9983 0.8803 0.1369
0.9982 0.8748 0.1550
0.9982 0.8708 0.1695
0.9982 0.8683 0.1781
0.0454 0.9905 0.0260
0.0571 0.9908 0.0394
0.1087 0.9916 0.0473
0.1715 0.9925 0.0375
0.2441 0.9898 0.0290
0.3301 0.9859 0.0216
0.4316 0.9807 0.0176
0.5477 0.9738 0.0170
0.6752 0.9649 0.0202
0.8062 0.9541 0.0318
0.9277 0.9424 0.0510
0.9987 0.9307 0.0758
0.9986 0.9205 0.1020
0.9986 0.9129 0.1244
0.9986 0.9073 0.1423
0.9986 0.9031 0.1568
0.9986 0.9004 0.1659
0.0456 0.9905 0.0251
0.0563 0.9908 0.0386
0.1080 0.9916 0.0464
0.1707 0.9925 0.0366
0.2434 0.9934 0.0280
0.3294 0.9922 0.0205
0.4308 0.9885 0.0175
0.5467 0.9832 0.0168
0.6744 0.9762 0.0180
0.8053 0.9674 0.0286
0.9272 0.9575 0.0465
0.9989 0.9476 0.0699
0.9988 0.9388 0.0950
0.9988 0.9322 0.1166
0.9988 0.9273 0.1340
0.9988 0.9237 0.1481
0.9988 0.9214 0.1576
0.0018 0.0176 0.1316
0.0265 0.0103 0.1331
0.0725 0.0022 0.1321
0.1250 0.0000 0.1255
0.1781 0.0003 0.1162
0.2374 0.0011 0.1052
0.3049 0.0019 0.0933
0.3806 0.0028 0.0811
0.4635 0.0037 0.0695
0.5520 0.0045 0.0584
0.6418 0.0052 0.0485
0.7259 0.0059 0.0401
0.7960 0.0064 0.0334
0.8493 0.0067 0.0286
0.8892 0.0070 0.0251
0.9053 0.0070 0.0235
0.9052 0.0070 0.0230
0.0099 0.0664 0.1196
0.0304 0.0506 0.1305
0.0748 0.0409 0.1322
0.1272 0.0314 0.1261
0.1792 0.0265 0.1158
0.2370 0.0216 0.1042
0.3031 0.0165 0.0919
0.3775 0.0116 0.0796
0.4593 0.0072 0.0677
0.5470 0.0044 0.0566
0.6366 0.0052 0.0468
0.7208 0.0058 0.0386
0.7911 0.0063 0.0320
0.8445 0.0067 0.0272
0.8845 0.0069 0.0237
0.9024 0.0070 0.0220
