assets/luts/LUTs/JD_PUEBLA.CUBE
TITLE "ColorFinale Export"
# Created by Jeven Dovey on 2020-10-01 21:06:36 +0000
# Color Finale Plugin v.2.1.144 (485)
LUT_3D_SIZE 9
0.0000 0.0000 0.0039
0.0686 0.0000 0.0059
0.1596 0.0000 0.0079
0.2830 0.0011 0.0103
0.4421 0.0031 0.0127
0.6224 0.0049 0.0148
0.7795 0.0062 0.0162
0.8744 0.0068 0.0169
0.8897 0.0069 0.0170
0.0073 0.0772 0.0082
0.1102 0.0698 0.0191
0.1936 0.0701 0.0192
0.3027 0.0680 0.0129
0.4563 0.0597 0.0145
0.6321 0.0518 0.0159
0.7855 0.0469 0.0170
0.8786 0.0445 0.0176
0.8972 0.0434 0.0177
0.0160 0.1863 0.0121
0.1162 0.1804 0.0135
0.2548 0.1678 0.0354
0.3806 0.1635 0.0611
0.5013 0.1698 0.0169
0.6592 0.1684 0.0179
0.8039 0.1646 0.0185
0.8930 0.1621 0.0188
0.9149 0.1609 0.0189
0.0255 0.3342 0.0156
0.1197 0.3287 0.0165
0.2641 0.3175 0.0174
0.4466 0.2991 0.0537
0.6175 0.2888 0.1023
0.7508 0.2969 0.0691
0.8630 0.3039 0.0244
0.9371 0.3061 0.0195
0.9596 0.3060 0.0195
0.0347 0.5198 0.0182
0.1227 0.5147 0.0185
0.2649 0.5055 0.0190
0.4592 0.4877 0.0194
0.6860 0.4638 0.0733
0.8751 0.4483 0.1381
0.9873 0.4496 0.1429
0.9898 0.4546 0.1230
0.9898 0.4566 0.1125
0.0423 0.7180 0.0193
0.1242 0.7132 0.0195
0.2645 0.7051 0.0195
0.4579 0.6903 0.0194
0.7009 0.6661 0.0244
0.9295 0.6398 0.0919
0.9941 0.6229 0.1546
0.9941 0.6171 0.1823
0.9941 0.6158 0.1895
0.0474 0.8769 0.0195
0.1240 0.8727 0.0194
0.2635 0.8656 0.0192
0.4551 0.8532 0.0187
0.7000 0.8327 0.0179
0.9431 0.8067 0.0441
0.9968 0.7848 0.1064
0.9968 0.7733 0.1482
0.9968 0.7682 0.1682
0.0501 0.9684 0.0192
0.1235 0.9647 0.0191
0.2623 0.9583 0.0186
0.4526 0.9475 0.0179
0.6974 0.9296 0.0166
0.9449 0.9056 0.0195
0.9981 0.8835 0.0738
0.9981 0.8706 0.1151
0.9981 0.8642 0.1382
0.0510 0.9905 0.0191
0.1223 0.9917 0.0189
0.2607 0.9920 0.0183
0.4507 0.9849 0.0174
0.6951 0.9717 0.0159
0.9441 0.9526 0.0139
0.9987 0.9339 0.0573
0.9986 0.9227 0.0964
0.9986 0.9169 0.1199
0.0010 0.0093 0.0836
0.0774 0.0000 0.0796
0.1735 0.0000 0.0617
0.2972 0.0015 0.0410
0.4549 0.0033 0.0204
0.6337 0.0050 0.0149
0.7890 0.0063 0.0163
0.8828 0.0069 0.0170
0.8987 0.0070 0.0171
0.0071 0.1130 0.0706
0.0842 0.0759 0.0825
0.1735 0.0681 0.0643
0.2946 0.0567 0.0430
0.4502 0.0459 0.0211
0.6271 0.0381 0.0156
0.7818 0.0340 0.0167
0.8757 0.0322 0.0174
0.8952 0.0312 0.0175
0.0120 0.2250 0.0667
0.0909 0.1848 0.0807
0.2281 0.1741 0.0973
0.3412 0.1735 0.0977
0.4777 0.1716 0.0516
0.6474 0.1635 0.0200
0.7973 0.1573 0.0184
0.8885 0.1542 0.0187
0.9114 0.1528 0.0188
0.0201 0.3756 0.0616
0.0980 0.3326 0.0784
0.2362 0.3237 0.0717
0.4207 0.3054 0.1126
0.5834 0.2975 0.1494
0.7160 0.3058 0.0980
0.8393 0.3083 0.0541
0.9195 0.3078 0.0326
0.9446 0.3070 0.0261
0.0289 0.5625 0.0537
0.1038 0.5184 0.0728
0.2399 0.5104 0.0590
0.4329 0.4942 0.0695
0.6619 0.4699 0.1276
0.8499 0.4552 0.1881
0.9612 0.4585 0.1790
0.9902 0.4641 0.1518
0.9902 0.4659 0.1393
0.0367 0.7598 0.0432
0.1073 0.7166 0.0642
0.2428 0.7091 0.0477
0.4335 0.6957 0.0442
0.6775 0.6722 0.0729
0.9106 0.6454 0.1406
0.9944 0.6286 0.2020
0.9944 0.6234 0.2260
0.9944 0.6224 0.2306
0.0422 0.9156 0.0334
0.1085 0.8756 0.0555
0.2441 0.8688 0.0376
0.4327 0.8575 0.0285
0.6777 0.8378 0.0408
0.9253 0.8119 0.0875
0.9971 0.7897 0.1497
0.9970 0.7780 0.1912
0.9970 0.7729 0.2108
0.0452 0.9905 0.0270
0.1087 0.9671 0.0494
0.2442 0.9610 0.0312
0.4319 0.9511 0.0196
0.6761 0.9340 0.0251
0.9276 0.9102 0.0596
0.9983 0.8879 0.1138
0.9982 0.8748 0.1550
0.9982 0.8683 0.1781
0.0456 0.9905 0.0251
0.1080 0.9916 0.0464
0.2434 0.9934 0.0280
0.4308 0.9885 0.0175
0.6744 0.9762 0.0180
0.9272 0.9575 0.0465
0.9988 0.9388 0.0950
0.9988 0.9273 0.1340
0.9988 0.9214 0.1576
0.0026 0.0271 0.1867
0.0667 0.0111 0.1895
0.1795 0.0007 0.1785
0.3113 0.0023 0.1555
0.4721 0.0040 0.1292
0.6508 0.0055 0.1056
0.8044 0.0066 0.0885
0.8969 0.0071 0.0788
0.9131 0.0072 0.0764
0.0222 0.1297 0.1788
0.0737 0.0972 0.1850
0.1842 0.0746 0.1795
0.3114 0.0625 0.1537
0.4676 0.0507 0.1264
0.6434 0.0416 0.1024
0.7962 0.0364 0.0853
0.8886 0.0340 0.0758
0.9086 0.0329 0.0731
0.0139 0.2712 0.1545
0.0876 0.2297 0.1668
0.1937 0.1823 0.1834
0.3123 0.1727 0.1582
0.4666 0.1578 0.1299
0.6408 0.1458 0.1044
0.7927 0.1389 0.0860
0.8849 0.1357 0.0758
0.9090 0.1344 0.0727
0.0164 0.4245 0.1463
0.0895 0.3809 0.1616
0.2009 0.3303 0.1780
0.3841 0.3145 0.2009
0.5287 0.3123 0.2062
0.6754 0.3127 0.1496
0.8160 0.3069 0.1162
0.9033 0.3031 0.0992
0.9310 0.3013 0.0936
0.0218 0.6128 0.1355
0.0929 0.5684 0.1544
0.2081 0.5165 0.1729
0.3925 0.5038 0.1649
0.6237 0.4797 0.2182
0.8046 0.4681 0.2685
0.9112 0.4749 0.2339
0.9739 0.4798 0.2003
0.9909 0.4806 0.1871
0.0276 0.8084 0.1229
0.0950 0.7660 0.1446
0.2129 0.7152 0.1645
0.3944 0.7043 0.1473
0.6365 0.6829 0.1651
0.8757 0.6559 0.2331
0.9950 0.6402 0.2940
0.9950 0.6369 0.3104
0.9950 0.6369 0.3099
0.0319 0.9597 0.1114
0.0955 0.9215 0.1348
0.2151 0.8745 0.1555
0.3954 0.8650 0.1346
0.6358 0.8477 0.1365
0.8895 0.8224 0.1794
0.9975 0.8002 0.2432
0.9974 0.7887 0.2858
0.9974 0.7838 0.3055
0.0334 0.9908 0.1059
0.0951 0.9919 0.1286
0.2156 0.9662 0.1492
0.3954 0.9578 0.1268
0.6343 0.9430 0.1223
0.8907 0.9204 0.1519
0.9986 0.8983 0.2062
0.9986 0.8851 0.2490
0.9985 0.8785 0.2733
0.0337 0.9908 0.1036
0.0933 0.9919 0.1267
0.2150 0.9936 0.1457
0.3946 0.9950 0.1227
0.6330 0.9851 0.1154
0.8901 0.9679 0.1388
0.9991 0.9496 0.1867
0.9991 0.9382 0.2270
0.9991 0.9321 0.2519
0.0044 0.0500 0.3263
0.0531 0.0343 0.3303
0.1646 0.0139 0.3307
0.3160 0.0031 0.3144
0.4860 0.0048 0.2876
0.6690 0.0062 0.2597
0.8226 0.0071 0.2386
0.9142 0.0076 0.2267
0.9313 0.0076 0.2236
0.0181 0.1599 0.2945
0.0618 0.1244 0.3250
0.1695 0.1006 0.3303
0.3203 0.0730 0.3148
0.4864 0.0592 0.2844
0.6653 0.0484 0.2547
0.8168 0.0419 0.2331
0.9079 0.0388 0.2212
0.9284 0.0375 0.2178
0.0363 0.2899 0.3207
0.0989 0.2527 0.3165
0.1774 0.2113 0.3230
0.3256 0.1797 0.3150
0.4868 0.1636 0.2817
0.6613 0.1503 0.2511
0.8111 0.1419 0.2293
0.9017 0.1380 0.2172
0.9263 0.1365 0.2134
0.0186 0.4855 0.2633
0.0904 0.4418 0.2807
0.1941 0.3904 0.2940
0.3372 0.3259 0.3188
0.4864 0.3137 0.2864
0.6580 0.2968 0.2541
0.8063 0.2858 0.2306
0.8964 0.2805 0.2177
0.9258 0.2784 0.2131
0.0179 0.6752 0.2492
0.0863 0.6310 0.2696
0.1952 0.5788 0.2852
0.3444 0.5129 0.3093
0.5747 0.4919 0.3383
0.7375 0.4874 0.3537
0.8512 0.4911 0.2989
0.9287 0.4895 0.2711
0.9599 0.4880 0.2609
0.0199 0.8669 0.2336
0.0844 0.8259 0.2567
0.1973 0.7765 0.2748
0.3506 0.7124 0.3015
0.5828 0.6958 0.2937
0.8297 0.6689 0.3554
0.9778 0.6554 0.4108
0.9957 0.6558 0.4095
0.9957 0.6573 0.3992
0.0220 0.9913 0.2202
0.0828 0.9753 0.2451
0.1980 0.9313 0.2647
0.3537 0.8725 0.2928
0.5827 0.8590 0.2740
0.8414 0.8355 0.3033
0.9980 0.8132 0.3668
0.9979 0.8020 0.4099
0.9979 0.7976 0.4285
0.0223 0.9912 0.2163
0.0807 0.9923 0.2403
0.1975 0.9939 0.2582
0.3547 0.9647 0.2864
0.5823 0.9529 0.2637
0.8414 0.9329 0.2789
0.9990 0.9111 0.3293
0.9989 0.8978 0.3732
0.9989 0.8911 0.3986
0.0225 0.9912 0.2138
0.0789 0.9923 0.2383
0.1955 0.9939 0.2562
0.3544 0.9957 0.2827
0.5815 0.9946 0.2583
0.8403 0.9804 0.2674
0.9994 0.9630 0.3097
0.9994 0.9515 0.3503
0.9994 0.9453 0.3765
0.0063 0.0767 0.5054
0.0358 0.0620 0.5089
0.1440 0.0409 0.5163
0.2959 0.0159 0.5130
0.4886 0.0055 0.4932
0.6806 0.0068 0.4663
0.8376 0.0076 0.4429
0.9299 0.0080 0.4289
0.9480 0.0081 0.4252
0.0106 0.1924 0.4649
0.0449 0.1556 0.5044
0.1504 0.1325 0.5134
0.3009 0.1027 0.5142
0.4922 0.0713 0.4926
0.6810 0.0576 0.4624
0.8355 0.0491 0.4373
0.9267 0.0450 0.4227
0.9481 0.0435 0.4184
0.0443 0.3248 0.4620
0.0802 0.2923 0.4676
0.1605 0.2465 0.5054
0.3057 0.2137 0.5120
0.4971 0.1772 0.4922
0.6829 0.1611 0.4585
0.8344 0.1509 0.4316
0.9241 0.1458 0.4164
0.9493 0.1439 0.4115
0.0431 0.5067 0.4833
0.1087 0.4647 0.4986
0.2093 0.4188 0.4909
0.3149 0.3636 0.5006
0.5022 0.3219 0.4904
0.6819 0.3030 0.4529
0.8290 0.2905 0.4247
0.9174 0.2842 0.4092
0.9471 0.2817 0.4036
0.0195 0.7468 0.3964
0.0878 0.7041 0.4201
0.1949 0.6528 0.4383
0.3342 0.5868 0.4593
0.5138 0.5066 0.4920
0.6788 0.4927 0.4555
0.8229 0.4771 0.4260
0.9103 0.4690 0.4095
0.9455 0.4656 0.4026
0.0157 0.9327 0.3778
0.0786 0.8938 0.4042
0.1882 0.8468 0.4234
0.3331 0.7851 0.4469
0.5199 0.7076 0.4797
0.7708 0.6843 0.5113
0.9083 0.6773 0.5387
0.9693 0.6814 0.5045
0.9964 0.6822 0.4862
0.0150 0.9919 0.3654
0.0731 0.9929 0.3913
0.1846 0.9929 0.4101
0.3333 0.9396 0.4361
0.5244 0.8689 0.4714
0.7780 0.8508 0.4669
0.9726 0.8285 0.5246
0.9985 0.8183 0.5662
0.9985 0.8154 0.5790
0.0151 0.9919 0.3611
0.0703 0.9929 0.3878
0.1818 0.9944 0.4056
0.3326 0.9960 0.4293
0.5260 0.9619 0.4653
0.7773 0.9468 0.4503
0.9807 0.9263 0.4879
0.9993 0.9128 0.5316
0.9993 0.9062 0.5580
0.0152 0.9919 0.3583
0.0685 0.9928 0.3855
0.1798 0.9943 0.4033
0.3306 0.9960 0.4270
0.5261 0.9976 0.4614
0.7765 0.9936 0.4423
0.9816 0.9786 0.4696
0.9997 0.9672 0.5081
0.9997 0.9608 0.5354
0.0080 0.1030 0.7050
0.0152 0.0895 0.7069
0.1205 0.0690 0.7183
0.2701 0.0430 0.7248
0.4642 0.0146 0.7178
0.6794 0.0073 0.6976
0.8426 0.0080 0.6767
0.9375 0.0083 0.6628
0.9572 0.0084 0.6587
0.0104 0.2233 0.6615
0.0240 0.1858 0.7035
0.1279 0.1641 0.7152
0.2758 0.1348 0.7243
0.4693 0.1007 0.7192
0.6822 0.0696 0.6964
0.8433 0.0586 0.6730
0.9370 0.0531 0.6578
0.9599 0.0512 0.6530
0.0317 0.3642 0.6297
0.0559 0.3289 0.6581
0.1388 0.2810 0.7083
0.2823 0.2497 0.7196
0.4740 0.2110 0.7190
0.6866 0.1750 0.6953
0.8459 0.1619 0.6692
0.9382 0.1554 0.6526
0.9647 0.1530 0.6468
0.0676 0.5352 0.6671
0.1067 0.5016 0.6619
0.1869 0.4627 0.6589
0.2944 0.4029 0.7077
0.4788 0.3606 0.7148
0.6911 0.3187 0.6926
0.8475 0.3031 0.6632
0.9377 0.2954 0.6448
0.9684 0.2923 0.6378
0.0414 0.7665 0.6465
0.1032 0.7249 0.6742
0.2153 0.6759 0.6898
0.3533 0.6159 0.6886
0.4882 0.5483 0.6992
0.6954 0.5019 0.6884
0.8465 0.4843 0.6548
0.9333 0.4751 0.6351
0.9686 0.4711 0.6266
0.0164 0.9928 0.5405
0.0796 0.9597 0.5707
0.1893 0.9161 0.5937
0.3326 0.8580 0.6213
0.5082 0.7838 0.6512
0.7039 0.7006 0.6864
0.8414 0.6876 0.6538
0.9261 0.6768 0.6336
0.9665 0.6716 0.6238
0.0155 0.9927 0.5310
0.0721 0.9937 0.5604
0.1801 0.9950 0.5807
0.3242 0.9965 0.6065
0.5048 0.9392 0.6385
0.7081 0.8635 0.6749
0.9133 0.8443 0.7016
0.9956 0.8378 0.7289
0.9990 0.8391 0.7171
0.0153 0.9927 0.5263
0.0691 0.9936 0.5565
0.1769 0.9950 0.5768
0.3208 0.9965 0.6016
0.5035 0.9979 0.6311
0.7106 0.9574 0.6691
0.9186 0.9418 0.6698
0.9996 0.9284 0.7094
0.9996 0.9221 0.7350
0.0152 0.9927 0.5232
0.0672 0.9936 0.5540
0.1749 0.9950 0.5743
0.3187 0.9964 0.5991
0.5013 0.9979 0.6286
0.7113 0.9991 0.6652
0.9181 0.9935 0.6570
0.9999 0.9830 0.6862
0.9999 0.9766 0.7137
0.0092 0.1236 0.8695
0.0089 0.1112 0.8701
0.0986 0.0912 0.8823
0.2465 0.0656 0.8933
0.4399 0.0357 0.8957
0.6569 0.0133 0.8853
0.8387 0.0082 0.8696
0.9363 0.0085 0.8587
0.9576 0.0086 0.8551
0.0112 0.2469 0.8282
0.0108 0.2091 0.8671
0.1063 0.1884 0.8797
0.2527 0.1603 0.8921
0.4449 0.1261 0.8965
0.6610 0.0926 0.8859
0.8407 0.0681 0.8680
0.9372 0.0614 0.8558
0.9619 0.0592 0.8514
0.0187 0.3929 0.7884
0.0340 0.3560 0.8225
0.1174 0.3073 0.8742
0.2605 0.2778 0.8874
0.4500 0.2398 0.8950
0.6657 0.2014 0.8858
0.8445 0.1731 0.8665
0.9402 0.1652 0.8529
0.9685 0.1624 0.8478
0.0627 0.5683 0.7922
0.0841 0.5357 0.7991
0.1627 0.4950 0.8194
0.2738 0.4331 0.8771
0.4566 0.3930 0.8886
0.6702 0.3491 0.8841
0.8482 0.3161 0.8636
0.9427 0.3067 0.8484
0.9754 0.3030 0.8418
0.0693 0.7828 0.8329
0.1196 0.7444 0.8471
0.2224 0.7030 0.8396
0.3352 0.6540 0.8259
0.4693 0.5827 0.8732
0.6742 0.5358 0.8785
0.8517 0.4985 0.8591
0.9445 0.4874 0.8416
0.9818 0.4826 0.8331
0.0308 0.9940 0.7620
0.0877 0.9729 0.7960
0.2010 0.9312 0.8199
0.3496 0.8751 0.8451
0.5283 0.8055 0.8565
0.6817 0.7360 0.8620
0.8545 0.6961 0.8534
0.9444 0.6841 0.8332
0.9854 0.6783 0.8224
0.0227 0.9935 0.6769
0.0797 0.9944 0.7088
0.1871 0.9957 0.7324
0.3286 0.9970 0.7602
0.5055 0.9927 0.7921
0.6984 0.9231 0.8229
0.8588 0.8574 0.8496
0.9400 0.8492 0.8298
0.9842 0.8427 0.8183
0.0223 0.9934 0.6719
0.0766 0.9943 0.7049
0.1837 0.9956 0.7284
0.3251 0.9970 0.7562
0.5009 0.9983 0.7866
0.6949 0.9992 0.8147
0.8608 0.9524 0.8425
0.9807 0.9409 0.8578
0.9998 0.9370 0.8735
0.0221 0.9934 0.6688
0.0746 0.9943 0.7023
0.1816 0.9956 0.7258
0.3228 0.9969 0.7536
0.4986 0.9982 0.7840
0.6926 0.9992 0.8122
0.8620 0.9998 0.8390
0.9834 0.9953 0.8391
1.0000 0.9890 0.8624
0.0097 0.1356 0.9523
0.0095 0.1239 0.9510
0.0841 0.1042 0.9533
0.2308 0.0790 0.9580
0.4232 0.0490 0.9632
0.6403 0.0200 0.9684
0.8250 0.0101 0.9733
0.9327 0.0086 0.9697
0.9549 0.0087 0.9669
0.0117 0.2607 0.9266
0.0113 0.2229 0.9606
0.0919 0.2025 0.9628
0.2375 0.1751 0.9665
0.4284 0.1415 0.9706
0.6449 0.1073 0.9748
0.8280 0.0814 0.9780
0.9343 0.0670 0.9681
0.9599 0.0645 0.9646
0.0130 0.4091 0.8858
0.0200 0.3713 0.9198
0.1029 0.3224 0.9693
0.2457 0.2940 0.9746
0.4340 0.2569 0.9777
0.6496 0.2181 0.9808
0.8319 0.1884 0.9776
0.9376 0.1719 0.9666
0.9672 0.1687 0.9623
0.0540 0.5887 0.8730
0.0678 0.5550 0.8882
0.1467 0.5128 0.9167
0.2593 0.4504 0.9738
0.4419 0.4118 0.9847
0.6543 0.3682 0.9869
0.8360 0.3338 0.9760
0.9409 0.3146 0.9638
0.9751 0.3105 0.9585
0.0819 0.7957 0.9242
0.1188 0.7610 0.9278
0.2118 0.7241 0.9155
0.3189 0.6758 0.9173
0.4559 0.6025 0.9727
0.6593 0.5570 0.9810
0.8396 0.5182 0.9727
0.9439 0.4964 0.9595
0.9832 0.4911 0.9526
0.0458 0.9947 0.8894
0.0987 0.9801 0.9200
0.2144 0.9399 0.9384
0.3627 0.8870 0.9509
0.5228 0.8272 0.9363
0.6696 0.7575 0.9650
0.8420 0.7173 0.9668
0.9462 0.6935 0.9541
0.9903 0.6868 0.9451
0.0353 0.9942 0.8120
0.0876 0.9950 0.8453
0.1958 0.9962 0.8700
0.3378 0.9975 0.8995
0.5152 0.9987 0.9314
0.7125 0.9349 0.9520
0.8457 0.8783 0.9539
0.9476 0.8545 0.9488
0.9947 0.8475 0.9375
0.0300 0.9939 0.7627
0.0849 0.9948 0.7942
0.1927 0.9960 0.8187
0.3342 0.9973 0.8480
0.5092 0.9985 0.8799
0.6988 0.9994 0.9091
0.8555 0.9861 0.9309
0.9490 0.9486 0.9456
0.9945 0.9431 0.9340
0.0297 0.9939 0.7596
0.0828 0.9947 0.7918
0.1904 0.9960 0.8163
0.3318 0.9973 0.8455
0.5067 0.9985 0.8775
0.6963 0.9994 0.9066
0.8529 0.9998 0.9275
0.9501 1.0000 0.9417
1.0000 0.9960 0.9502
0.0097 0.1355 0.9522
0.0096 0.1288 0.9515
0.0791 0.1091 0.9535
0.2250 0.0842 0.9582
0.4163 0.0542 0.9634
0.6328 0.0250 0.9686
0.8176 0.0116 0.9732
0.9259 0.0086 0.9762
0.9539 0.0087 0.9770
0.0119 0.2681 0.9643
0.0113 0.2283 0.9610
0.0867 0.2081 0.9630
0.2313 0.1810 0.9667
0.4212 0.1476 0.9708
0.6372 0.1134 0.9749
0.8207 0.0874 0.9782
0.9279 0.0728 0.9801
0.9589 0.0660 0.9805
0.0132 0.4190 0.9458
0.0130 0.3804 0.9720
0.0974 0.3286 0.9719
0.2394 0.3006 0.9747
0.4268 0.2640 0.9779
0.6414 0.2254 0.9810
0.8246 0.1956 0.9835
0.9311 0.1788 0.9850
0.9662 0.1708 0.9854
0.0475 0.6009 0.9257
0.0571 0.5664 0.9443
0.1362 0.5235 0.9751
0.2528 0.4578 0.9827
0.4346 0.4200 0.9849
0.6459 0.3770 0.9871
0.8284 0.3425 0.9889
0.9344 0.3230 0.9900
0.9742 0.3134 0.9904
0.0855 0.8057 0.9721
0.1133 0.7728 0.9725
0.2020 0.7373 0.9633
0.3079 0.6886 0.9742
0.4488 0.6117 0.9911
0.6512 0.5673 0.9926
0.8317 0.5287 0.9938
0.9374 0.5064 0.9945
0.9825 0.4951 0.9948
0.0569 0.9951 0.9620
0.1062 0.9848 0.9874
0.2217 0.9462 0.9959
0.3652 0.8967 0.9963
0.5133 0.8416 0.9854
0.6623 0.7685 0.9966
0.8338 0.7293 0.9973
0.9397 0.7049 0.9978
0.9902 0.6918 0.9980
0.0458 0.9947 0.8919
0.0950 0.9954 0.9243
0.2043 0.9966 0.9483
0.3474 0.9978 0.9758
0.5256 0.9989 0.9989
0.7155 0.9461 0.9991
0.8390 0.8904 0.9992
0.9404 0.8665 0.9994
0.9957 0.8527 0.9995
0.0395 0.9944 0.8457
0.0914 0.9952 0.8776
0.2000 0.9964 0.9023
0.3425 0.9976 0.9314
0.5184 0.9987 0.9626
0.7083 0.9995 0.9900
0.8643 0.9928 0.9999
0.9418 0.9606 0.9999
0.9986 0.9467 0.9999
0.0391 0.9944 0.8430
0.0893 0.9950 0.8462
0.1976 0.9962 0.8710
0.3397 0.9975 0.9004
0.5151 0.9987 0.9325
0.7046 0.9995 0.9615
0.8589 0.9999 0.9824
0.9490 1.0000 0.9938
1.0000 1.0000 1.0000
