assets/luts/LUTs/JD_RWANDA.CUBE
TITLE "ColorFinale Export"
# Created by Jeven Dovey on 2023-09-01 22:29:24 +0000
# Color Finale Plugin v.2.6.0 (537)
LUT_3D_SIZE 9
0.0193 0.0231 0.0214
0.1012 0.0231 0.0214
0.1940 0.0231 0.0214
0.3157 0.0231 0.0214
0.4603 0.0231 0.0214
0.5847 0.0231 0.0214
0.7036 0.0231 0.0214
0.7980 0.0231 0.0214
0.8415 0.0231 0.0214
0.0193 0.1149 0.0214
0.1444 0.1366 0.0411
0.2399 0.1239 0.0383
0.3655 0.1057 0.0281
0.5154 0.0834 0.0214
0.6447 0.0640 0.0214
0.7685 0.0453 0.0214
0.8649 0.0306 0.0214
0.8850 0.0235 0.0214
0.0193 0.2216 0.0214
0.1191 0.2401 0.0214
0.2899 0.2609 0.0464
0.4230 0.2425 0.0490
0.5809 0.2180 0.0342
0.7173 0.1969 0.0216
0.8479 0.1768 0.0214
0.8850 0.1615 0.0214
0.8850 0.1548 0.0214
0.0193 0.3686 0.0214
0.0670 0.3852 0.0214
0.2488 0.4031 0.0214
0.4856 0.4239 0.0393
0.6528 0.4008 0.0557
0.7953 0.3777 0.0421
0.8850 0.3558 0.0294
0.8850 0.3390 0.0214
0.8850 0.3317 0.0214
0.0193 0.5428 0.0214
0.0193 0.5669 0.0214
0.1736 0.5829 0.0214
0.4316 0.5962 0.0214
0.7194 0.6130 0.0473
0.8651 0.5948 0.0851
0.8850 0.5730 0.0747
0.8850 0.5562 0.0671
0.8850 0.5489 0.0639
0.0193 0.6843 0.0214
0.0193 0.7122 0.0214
0.0918 0.7410 0.0214
0.3615 0.7561 0.0214
0.6791 0.7592 0.0214
0.8850 0.7741 0.0556
0.8850 0.7568 0.1087
0.8850 0.7397 0.1021
0.8850 0.7323 0.0994
0.0193 0.8229 0.0214
0.0193 0.8544 0.0214
0.0193 0.8880 0.0214
0.2811 0.8950 0.0214
0.6182 0.8950 0.0214
0.8850 0.8950 0.0214
0.8850 0.8950 0.0611
0.8850 0.8950 0.1331
0.8850 0.8950 0.1308
0.0193 0.8950 0.0214
0.0193 0.8950 0.0214
0.0193 0.8950 0.0214
0.2259 0.8950 0.0214
0.5640 0.8950 0.0214
0.8514 0.8950 0.0214
0.8850 0.8950 0.0214
0.8850 0.8950 0.0781
0.8850 0.8950 0.1175
0.0193 0.8950 0.0214
0.0193 0.8950 0.0214
0.0193 0.8950 0.0214
0.2057 0.8950 0.0214
0.5456 0.8950 0.0214
0.8352 0.8950 0.0214
0.8850 0.8950 0.0214
0.8850 0.8950 0.0319
0.8850 0.8950 0.0969
0.0193 0.0231 0.0680
0.0992 0.0249 0.1068
0.1921 0.0231 0.1058
0.3096 0.0231 0.1000
0.4491 0.0231 0.0937
0.5692 0.0231 0.0891
0.6842 0.0231 0.0854
0.7737 0.0231 0.0831
0.8140 0.0231 0.0821
0.0193 0.1162 0.1093
0.1018 0.1161 0.1092
0.1961 0.1049 0.1039
0.3189 0.0888 0.0964
0.4648 0.0694 0.0879
0.5903 0.0527 0.0813
0.7104 0.0367 0.0757
0.8039 0.0242 0.0720
0.8459 0.0231 0.0702
0.0193 0.2182 0.0967
0.0781 0.2183 0.0890
0.2460 0.2418 0.1263
0.3769 0.2260 0.1252
0.5299 0.2046 0.1141
0.6619 0.1863 0.1052
0.7883 0.1691 0.0974
0.8850 0.1560 0.0918
0.8850 0.1504 0.0896
0.0193 0.3576 0.0631
0.0284 0.3603 0.0450
0.2079 0.3809 0.0779
0.4428 0.4061 0.1243
0.6127 0.3836 0.1298
0.7555 0.3608 0.1172
0.8850 0.3392 0.1056
0.8850 0.3226 0.0971
0.8850 0.3154 0.0935
0.0193 0.5309 0.0214
0.0193 0.5373 0.0214
0.1373 0.5563 0.0214
0.3877 0.5776 0.0239
0.6794 0.5964 0.1268
0.8277 0.5783 0.1543
0.8850 0.5564 0.1437
0.8850 0.5395 0.1360
0.8850 0.5322 0.1327
0.0193 0.6683 0.0214
0.0193 0.6790 0.0214
0.0604 0.7103 0.0214
0.3168 0.7365 0.0214
0.6365 0.7430 0.0214
0.8850 0.7581 0.1343
0.8850 0.7409 0.1763
0.8850 0.7238 0.1694
0.8850 0.7163 0.1665
0.0193 0.8028 0.0214
0.0193 0.8177 0.0214
0.0193 0.8537 0.0214
0.2366 0.8935 0.0214
0.5730 0.8950 0.0214
0.8481 0.8950 0.0214
0.8850 0.8950 0.1395
0.8850 0.8950 0.1996
0.8850 0.8950 0.1970
0.0193 0.8950 0.0214
0.0193 0.8950 0.0214
0.0193 0.8950 0.0214
0.1821 0.8950 0.0214
0.5170 0.8950 0.0214
0.8082 0.8950 0.0214
0.8850 0.8950 0.0336
0.8850 0.8950 0.1543
0.8850 0.8950 0.1878
0.0193 0.8950 0.0214
0.0193 0.8950 0.0214
0.0193 0.8950 0.0214
0.1622 0.8950 0.0214
0.4985 0.8950 0.0214
0.7913 0.8950 0.0214
0.8850 0.8950 0.0214
0.8850 0.8950 0.1157
0.8850 0.8950 0.1709
0.0193 0.0231 0.1083
0.0193 0.0240 0.1505
0.1874 0.0296 0.1993
0.3144 0.0231 0.2026
0.4543 0.0231 0.1961
0.5744 0.0231 0.1910
0.6894 0.0231 0.1867
0.7790 0.0231 0.1839
0.8185 0.0231 0.1829
0.0193 0.1090 0.1546
0.0244 0.1123 0.1577
0.1904 0.1189 0.2023
0.3140 0.1036 0.2025
0.4533 0.0887 0.1967
0.5734 0.0763 0.1923
0.6882 0.0649 0.1888
0.7778 0.0565 0.1866
0.8173 0.0529 0.1858
0.0204 0.2178 0.2068
0.1024 0.2180 0.2070
0.1959 0.2184 0.2072
0.3221 0.2049 0.2011
0.4697 0.1871 0.1927
0.5968 0.1720 0.1861
0.7184 0.1581 0.1805
0.8130 0.1476 0.1766
0.8548 0.1431 0.1751
0.0193 0.3554 0.1931
0.0633 0.3525 0.1900
0.1619 0.3539 0.1788
0.3879 0.3831 0.2240
0.5531 0.3647 0.2251
0.6901 0.3453 0.2152
0.8213 0.3270 0.2063
0.8850 0.3131 0.1999
0.8850 0.3071 0.1972
0.0193 0.5228 0.1535
0.0193 0.5180 0.1479
0.0979 0.5235 0.1225
0.3376 0.5494 0.1581
0.6284 0.5753 0.2185
0.7801 0.5573 0.2362
0.8850 0.5353 0.2250
0.8850 0.5184 0.2168
0.8850 0.5110 0.2133
0.0193 0.6681 0.1069
0.0193 0.6624 0.0997
0.0267 0.6724 0.0597
0.2722 0.7031 0.0750
0.5822 0.7224 0.1298
0.8365 0.7377 0.2256
0.8850 0.7206 0.2571
0.8850 0.7035 0.2496
0.8850 0.6960 0.2464
0.0193 0.8015 0.0653
0.0193 0.7960 0.0575
0.0193 0.8111 0.0214
0.1995 0.8548 0.0214
0.5153 0.8788 0.0214
0.7954 0.8819 0.1190
0.8850 0.8950 0.2306
0.8850 0.8845 0.2796
0.8850 0.8768 0.2767
0.0193 0.8950 0.0328
0.0193 0.8907 0.0242
0.0193 0.8950 0.0214
0.1513 0.8950 0.0214
0.4571 0.8950 0.0214
0.7532 0.8950 0.0214
0.8850 0.8950 0.1433
0.8850 0.8950 0.2439
0.8850 0.8950 0.2720
0.0193 0.8950 0.0214
0.0193 0.8950 0.0214
0.0193 0.8950 0.0214
0.1336 0.8950 0.0214
0.4383 0.8950 0.0214
0.7355 0.8950 0.0214
0.8850 0.8950 0.1089
0.8850 0.8950 0.2107
0.8850 0.8950 0.2586
0.0193 0.0231 0.1471
0.0193 0.0231 0.1945
0.0778 0.0309 0.2501
0.3054 0.0349 0.3222
0.4647 0.0231 0.3311
0.5896 0.0231 0.3257
0.7064 0.0231 0.3198
0.7974 0.0231 0.3156
0.8376 0.0231 0.3139
0.0193 0.0967 0.2008
0.0193 0.1025 0.2058
0.0856 0.1166 0.2571
0.3084 0.1231 0.3251
0.4647 0.1002 0.3311
0.5878 0.0862 0.3255
0.7045 0.0741 0.3202
0.7955 0.0650 0.3166
0.8356 0.0612 0.3151
0.0193 0.2048 0.2611
0.0193 0.2084 0.2645
0.0997 0.2128 0.2687
0.3122 0.2221 0.3289
0.4644 0.2044 0.3310
0.5861 0.1926 0.3258
0.7028 0.1818 0.3214
0.7937 0.1739 0.3185
0.8338 0.1705 0.3174
0.0200 0.3517 0.3358
0.1024 0.3518 0.3360
0.1964 0.3520 0.3361
0.3209 0.3525 0.3362
0.4751 0.3379 0.3302
0.6045 0.3230 0.3232
0.7282 0.3092 0.3170
0.8245 0.2989 0.3128
0.8671 0.2945 0.3110
0.0193 0.5183 0.3233
0.0341 0.5151 0.3199
0.1453 0.5111 0.3157
0.2785 0.5114 0.3015
0.5531 0.5445 0.3513
0.7046 0.5294 0.3567
0.8410 0.5097 0.3466
0.8850 0.4947 0.3392
0.8850 0.4881 0.3361
0.0193 0.6651 0.2916
0.0193 0.6603 0.2862
0.0859 0.6543 0.2795
0.2225 0.6572 0.2530
0.5091 0.6875 0.2913
0.7658 0.7088 0.3470
0.8850 0.6919 0.3662
0.8850 0.6747 0.3577
0.8850 0.6671 0.3541
0.0193 0.8075 0.2515
0.0193 0.8020 0.2451
0.0212 0.7951 0.2369
0.1604 0.8020 0.1987
0.4455 0.8391 0.2111
0.7202 0.8535 0.2620
0.8850 0.8681 0.3522
0.8850 0.8566 0.3880
0.8850 0.8490 0.3847
0.0193 0.8950 0.2252
0.0193 0.8950 0.2186
0.0193 0.8898 0.2103
0.1216 0.8950 0.1651
0.3908 0.8950 0.1452
0.6747 0.8950 0.1867
0.8850 0.8950 0.2808
0.8850 0.8950 0.3639
0.8850 0.8950 0.3857
0.0193 0.8950 0.2156
0.0193 0.8950 0.2090
0.0193 0.8950 0.2007
0.1073 0.8950 0.1527
0.3740 0.8950 0.1281
0.6558 0.8950 0.1559
0.8850 0.8950 0.2530
0.8850 0.8950 0.3363
0.8850 0.8950 0.3766
0.0193 0.0231 0.1659
0.0193 0.0231 0.2209
0.0193 0.0237 0.2856
0.1707 0.0437 0.3702
0.4493 0.0417 0.4679
0.5991 0.0231 0.4847
0.7207 0.0231 0.4797
0.8171 0.0231 0.4757
0.8601 0.0231 0.4738
0.0193 0.0735 0.2299
0.0193 0.0826 0.2373
0.0193 0.1067 0.2976
0.1791 0.1265 0.3780
0.4522 0.1287 0.4708
0.5991 0.1021 0.4847
0.7207 0.0868 0.4797
0.8167 0.0746 0.4756
0.8576 0.0704 0.4733
0.0193 0.1850 0.3027
0.0193 0.1913 0.3085
0.0193 0.1993 0.3157
0.1898 0.2203 0.3878
0.4559 0.2271 0.4745
0.5991 0.2058 0.4847
0.7207 0.1922 0.4797
0.8137 0.1833 0.4751
0.8547 0.1796 0.4732
0.0193 0.3301 0.3927
0.0193 0.3339 0.3964
0.0971 0.3386 0.4009
0.2128 0.3453 0.4074
0.4612 0.3568 0.4797
0.5991 0.3409 0.4847
0.7182 0.3298 0.4795
0.8108 0.3217 0.4759
0.8517 0.3182 0.4744
0.0194 0.5075 0.4886
0.1020 0.5076 0.4887
0.1962 0.5076 0.4887
0.3215 0.5077 0.4888
0.4723 0.5083 0.4888
0.6097 0.4969 0.4849
0.7361 0.4828 0.4780
0.8346 0.4721 0.4731
0.8780 0.4675 0.4711
0.0193 0.6557 0.4860
0.0199 0.6528 0.4830
0.1325 0.6492 0.4792
0.2750 0.6441 0.4739
0.4368 0.6427 0.4605
0.6741 0.6716 0.5028
0.8225 0.6581 0.5080
0.8850 0.6432 0.5004
0.8850 0.6367 0.4972
0.0193 0.8023 0.4613
0.0193 0.7978 0.4565
0.0618 0.7922 0.4504
0.2189 0.7842 0.4418
0.3848 0.7844 0.4164
0.6312 0.8111 0.4483
0.8818 0.8329 0.4966
0.8850 0.8216 0.5181
0.8850 0.8139 0.5142
0.0193 0.8950 0.4352
0.0193 0.8950 0.4292
0.0193 0.8950 0.4217
0.1705 0.8876 0.4110
0.3388 0.8895 0.3766
0.5886 0.8950 0.3980
0.8504 0.8950 0.4408
0.8850 0.8950 0.5069
0.8850 0.8950 0.5218
0.0193 0.8950 0.4265
0.0193 0.8950 0.4204
0.0193 0.8950 0.4129
0.1591 0.8950 0.4022
0.3260 0.8950 0.3656
0.5709 0.8950 0.3774
0.8366 0.8950 0.4188
0.8850 0.8950 0.4849
0.8850 0.8950 0.5174
0.0193 0.0231 0.1560
0.0193 0.0231 0.2187
0.0193 0.0231 0.2925
0.0635 0.0438 0.3889
0.3244 0.0587 0.5008
0.5767 0.0476 0.5940
0.7290 0.0231 0.6164
0.8252 0.0231 0.6124
0.8682 0.0231 0.6107
0.0193 0.0442 0.2302
0.0193 0.0569 0.2400
0.0193 0.0908 0.3088
0.0779 0.1228 0.4009
0.3318 0.1398 0.5078
0.5795 0.1337 0.5968
0.7290 0.1022 0.6164
0.8252 0.0900 0.6124
0.8682 0.0844 0.6107
0.0193 0.1607 0.3150
0.0193 0.1697 0.3229
0.0193 0.1808 0.3329
0.0958 0.2127 0.4161
0.3413 0.2330 0.5168
0.5832 0.2317 0.6004
0.7290 0.2060 0.6164
0.8252 0.1950 0.6124
0.8682 0.1901 0.6107
0.0193 0.3087 0.4210
0.0193 0.3148 0.4267
0.0193 0.3224 0.4339
0.1275 0.3331 0.4440
0.3547 0.3567 0.5294
0.5884 0.3610 0.6055
0.7290 0.3410 0.6164
0.8252 0.3309 0.6124
0.8682 0.3263 0.6107
0.0193 0.4818 0.5323
0.0413 0.4851 0.5355
0.1297 0.4893 0.5396
0.2445 0.4951 0.5453
0.3819 0.5024 0.5524
0.5949 0.5118 0.6118
0.7290 0.4975 0.6164
0.8232 0.4890 0.6123
0.8648 0.4855 0.6106
0.0193 0.6399 0.6201
0.1017 0.6399 0.6201
0.1960 0.6399 0.6201
0.3215 0.6400 0.6202
0.4732 0.6401 0.6203
0.6053 0.6406 0.6202
0.7398 0.6300 0.6167
0.8401 0.6189 0.6113
0.8844 0.6142 0.6090
0.0193 0.7908 0.6232
0.0193 0.7880 0.6202
0.1149 0.7845 0.6166
0.2588 0.7794 0.6114
0.4295 0.7731 0.6049
0.5701 0.7724 0.5924
0.8009 0.8001 0.6326
0.8850 0.7918 0.6411
0.8850 0.7851 0.6377
0.0193 0.8950 0.6097
0.0193 0.8924 0.6055
0.0572 0.8874 0.6002
0.2126 0.8803 0.5927
0.3928 0.8714 0.5833
0.5350 0.8719 0.5630
0.7719 0.8950 0.5958
0.8850 0.8950 0.6303
0.8850 0.8950 0.6396
0.0193 0.8950 0.6030
0.0193 0.8950 0.5984
0.0325 0.8950 0.5925
0.1936 0.8950 0.5842
0.3775 0.8950 0.5738
0.5202 0.8950 0.5504
0.7591 0.8950 0.5806
0.8850 0.8950 0.6129
0.8850 0.8950 0.6392
0.0193 0.0231 0.1201
0.0193 0.0231 0.1921
0.0193 0.0231 0.2759
0.0193 0.0365 0.3850
0.2138 0.0683 0.5118
0.4464 0.0723 0.6178
0.6992 0.0538 0.7162
0.8334 0.0231 0.7459
0.8763 0.0231 0.7442
0.0193 0.0231 0.2063
0.0193 0.0231 0.2185
0.0193 0.0675 0.2969
0.0193 0.1129 0.4014
0.2262 0.1447 0.5231
0.4537 0.1518 0.6247
0.7021 0.1390 0.7190
0.8334 0.1054 0.7459
0.8763 0.1000 0.7442
0.0193 0.1295 0.3041
0.0193 0.1413 0.3143
0.0193 0.1559 0.3271
0.0193 0.1992 0.4221
0.2418 0.2333 0.5373
0.4629 0.2441 0.6335
0.7058 0.2365 0.7226
0.8334 0.2088 0.7459
0.8763 0.2039 0.7442
0.0193 0.2815 0.4270
0.0193 0.2900 0.4348
0.0193 0.3005 0.4447
0.0581 0.3153 0.4584
0.2639 0.3512 0.5574
0.4760 0.3671 0.6459
0.7110 0.3655 0.7277
0.8334 0.3437 0.7459
0.8763 0.3391 0.7442
0.0193 0.4574 0.5577
0.0193 0.4628 0.5630
0.0597 0.4697 0.5696
0.1703 0.4793 0.5788
0.2999 0.4914 0.5905
0.4921 0.5109 0.6612
0.7175 0.5159 0.7340
0.8334 0.5000 0.7459
0.8763 0.4957 0.7442
0.0193 0.6086 0.6567
0.0611 0.6118 0.6599
0.1477 0.6158 0.6638
0.2614 0.6214 0.6694
0.3981 0.6285 0.6763
0.5177 0.6349 0.6826
0.7232 0.6440 0.7395
0.8334 0.6326 0.7459
0.8761 0.6286 0.7442
0.0193 0.7697 0.7488
0.1006 0.7697 0.7488
0.1951 0.7697 0.7488
0.3208 0.7697 0.7487
0.4727 0.7697 0.7487
0.6059 0.7696 0.7487
0.7347 0.7701 0.7486
0.8436 0.7633 0.7472
0.8850 0.7583 0.7447
0.0193 0.8833 0.7595
0.0193 0.8809 0.7571
0.1188 0.8780 0.7541
0.2603 0.8738 0.7498
0.4283 0.8686 0.7445
0.5746 0.8639 0.7396
0.7108 0.8627 0.7304
0.8850 0.8845 0.7620
0.8850 0.8821 0.7659
0.0193 0.8950 0.7574
0.0193 0.8950 0.7546
0.0982 0.8950 0.7510
0.2434 0.8950 0.7460
0.4148 0.8950 0.7396
0.5637 0.8950 0.7338
0.7005 0.8950 0.7220
0.8801 0.8950 0.7516
0.8850 0.8950 0.7677
0.0193 0.0231 0.0986
0.0193 0.0231 0.1544
0.0193 0.0231 0.2471
0.0193 0.0254 0.3669
0.1396 0.0710 0.5056
0.3574 0.0859 0.6217
0.5947 0.0790 0.7296
0.8024 0.0571 0.8116
0.8668 0.0351 0.8297
0.0193 0.0231 0.1710
0.0193 0.0231 0.1854
0.0193 0.0441 0.2719
0.0193 0.1008 0.3867
0.1562 0.1443 0.5201
0.3682 0.1613 0.6317
0.6009 0.1586 0.7355
0.8052 0.1420 0.8142
0.8681 0.1246 0.8309
0.0193 0.1006 0.2800
0.0193 0.1149 0.2921
0.0193 0.1324 0.3071
0.0193 0.1849 0.4117
0.1770 0.2297 0.5383
0.3819 0.2498 0.6444
0.6086 0.2514 0.7429
0.8086 0.2394 0.8176
0.8697 0.2249 0.8325
0.0193 0.2568 0.4165
0.0193 0.2671 0.4260
0.0193 0.2800 0.4379
0.0193 0.2980 0.4546
0.2061 0.3435 0.5642
0.4012 0.3681 0.6624
0.6197 0.3751 0.7535
0.8136 0.3683 0.8224
0.8720 0.3568 0.8348
0.0193 0.4351 0.5625
0.0193 0.4423 0.5694
0.0193 0.4512 0.5779
0.1258 0.4637 0.5899
0.2491 0.4795 0.6050
0.4250 0.5067 0.6845
0.6333 0.5200 0.7665
0.8197 0.5188 0.8283
0.8748 0.5103 0.8375
0.0193 0.5879 0.6744
0.0193 0.5927 0.6790
0.1028 0.5987 0.6849
0.2121 0.6071 0.6931
0.3423 0.6176 0.7034
0.4558 0.6272 0.7128
0.6454 0.6436 0.7781
0.8251 0.6470 0.8335
0.8773 0.6408 0.8400
0.0193 0.7397 0.7722
0.0936 0.7423 0.7747
0.1795 0.7456 0.7780
0.2939 0.7501 0.7825
0.4321 0.7559 0.7883
0.5534 0.7612 0.7935
0.6714 0.7663 0.7987
0.8305 0.7726 0.8388
0.8799 0.7686 0.8425
0.0226 0.8606 0.8438
0.1046 0.8607 0.8438
0.1984 0.8609 0.8440
0.3235 0.8610 0.8441
0.4747 0.8612 0.8444
0.6073 0.8614 0.8446
0.7364 0.8616 0.8448
0.8381 0.8621 0.8448
0.8850 0.8598 0.8449
0.0193 0.8950 0.8519
0.0663 0.8950 0.8510
0.1664 0.8950 0.8500
0.2977 0.8950 0.8484
0.4554 0.8950 0.8465
0.5934 0.8950 0.8447
0.7276 0.8938 0.8430
0.8315 0.8938 0.8400
0.8850 0.8950 0.8550
0.0193 0.0231 0.1023
0.0193 0.0231 0.1449
0.0193 0.0231 0.2316
0.0193 0.0231 0.3559
0.1124 0.0709 0.4996
0.3244 0.0902 0.6197
0.5554 0.0876 0.7316
0.7581 0.0697 0.8166
0.8543 0.0567 0.8534
0.0193 0.0231 0.1611
0.0193 0.0231 0.1760
0.0193 0.0330 0.2580
0.0193 0.0949 0.3771
0.1308 0.1431 0.5153
0.3366 0.1641 0.6310
0.5629 0.1653 0.7387
0.7621 0.1520 0.8204
0.8568 0.1418 0.8559
0.0193 0.0877 0.2665
0.0193 0.1030 0.2793
0.0193 0.1218 0.2953
0.0193 0.1781 0.4039
0.1538 0.2273 0.5352
0.3521 0.2511 0.6453
0.5723 0.2564 0.7477
0.7672 0.2474 0.8253
0.8600 0.2394 0.8590
0.0193 0.2458 0.4087
0.0193 0.2569 0.4189
0.0193 0.2708 0.4316
0.0193 0.2901 0.4494
0.1859 0.3395 0.5634
0.3740 0.3676 0.6655
0.5857 0.3781 0.7604
0.7744 0.3741 0.8323
0.8645 0.3687 0.8633
0.0193 0.4253 0.5610
0.0193 0.4332 0.5684
0.0193 0.4429 0.5778
0.1111 0.4566 0.5909
0.2318 0.4739 0.6073
0.4009 0.5043 0.6904
0.6023 0.5208 0.7762
0.7833 0.5223 0.8408
0.8701 0.5195 0.8688
0.0193 0.5788 0.6780
0.0193 0.5842 0.6833
0.0880 0.5910 0.6899
0.1954 0.6005 0.6992
0.3229 0.6125 0.7108
0.4339 0.6233 0.7214
0.6170 0.6427 0.7901
0.7911 0.6486 0.8485
0.8751 0.6479 0.8736
0.0193 0.7311 0.7808
0.0778 0.7343 0.7840
0.1626 0.7384 0.7880
0.2750 0.7440 0.7936
0.4106 0.7512 0.8007
0.5293 0.7576 0.8071
0.6449 0.7640 0.8134
0.7991 0.7725 0.8561
0.8801 0.7738 0.8784
0.0304 0.8472 0.8535
0.1081 0.8484 0.8547
0.1980 0.8499 0.8562
0.3179 0.8520 0.8583
0.4631 0.8546 0.8609
0.5905 0.8570 0.8633
0.7147 0.8593 0.8656
0.8120 0.8616 0.8685
0.8850 0.8621 0.8832
0.0299 0.8919 0.8801
0.1105 0.8921 0.8804
0.2035 0.8924 0.8807
0.3276 0.8929 0.8811
0.4778 0.8934 0.8817
0.6096 0.8939 0.8822
0.7380 0.8944 0.8826
0.8385 0.8950 0.8832
0.8850 0.8950 0.8832
