assets/luts/LUTs/JD_RWANDA.CUBE
TITLE "ColorFinale Export"
# Created by Jeven Dovey on 2023-09-01 22:29:24 +0000
# Color Finale Plugin v.2.6.0 (537)
LUT_3D_SIZE 17
0.0193 0.0231 0.0214
0.0604 0.0231 0.0214
0.1012 0.0231 0.0214
0.1450 0.0231 0.0214
0.1940 0.0231 0.0214
0.2503 0.0231 0.0214
0.3157 0.0231 0.0214
0.3880 0.0231 0.0214
0.4603 0.0231 0.0214
0.5261 0.0231 0.0214
0.5847 0.0231 0.0214
0.6441 0.0231 0.0214
0.7036 0.0231 0.0214
0.7565 0.0231 0.0214
0.7980 0.0231 0.0214
0.8241 0.0231 0.0214
0.8415 0.0231 0.0214
0.0193 0.0689 0.0214
0.0819 0.0812 0.0337
0.1240 0.0758 0.0306
0.1678 0.0696 0.0278
0.2168 0.0627 0.0245
0.2739 0.0541 0.0214
0.3403 0.0440 0.0214
0.4139 0.0323 0.0214
0.4875 0.0231 0.0214
0.5545 0.0231 0.0214
0.6142 0.0231 0.0214
0.6748 0.0231 0.0214
0.7355 0.0231 0.0214
0.7894 0.0231 0.0214
0.8300 0.0231 0.0214
0.8565 0.0231 0.0214
0.8742 0.0231 0.0214
0.0193 0.1149 0.0214
0.0733 0.1256 0.0222
0.1444 0.1366 0.0411
0.1913 0.1307 0.0392
0.2399 0.1239 0.0383
0.2979 0.1156 0.0337
0.3655 0.1057 0.0281
0.4404 0.0946 0.0220
0.5154 0.0834 0.0214
0.5838 0.0731 0.0214
0.6447 0.0640 0.0214
0.7065 0.0547 0.0214
0.7685 0.0453 0.0214
0.8235 0.0370 0.0214
0.8649 0.0306 0.0214
0.8850 0.0267 0.0214
0.8850 0.0235 0.0214
0.0193 0.1649 0.0214
0.0606 0.1747 0.0214
0.1341 0.1845 0.0254
0.2125 0.1953 0.0452
0.2665 0.1887 0.0463
0.3237 0.1803 0.0457
0.3928 0.1700 0.0397
0.4694 0.1586 0.0330
0.5462 0.1470 0.0264
0.6163 0.1365 0.0214
0.6787 0.1272 0.0214
0.7420 0.1178 0.0214
0.8055 0.1084 0.0214
0.8619 0.1002 0.0214
0.8850 0.0940 0.0214
0.8850 0.0902 0.0214
0.8850 0.0877 0.0214
0.0193 0.2216 0.0214
0.0433 0.2308 0.0214
0.1191 0.2401 0.0214
0.1995 0.2499 0.0242
0.2899 0.2609 0.0464
0.3543 0.2532 0.0501
0.4230 0.2425 0.0490
0.5018 0.2303 0.0416
0.5809 0.2180 0.0342
0.6530 0.2068 0.0275
0.7173 0.1969 0.0216
0.7825 0.1868 0.0214
0.8479 0.1768 0.0214
0.8850 0.1681 0.0214
0.8850 0.1615 0.0214
0.8850 0.1575 0.0214
0.8850 0.1548 0.0214
0.0193 0.2886 0.0214
0.0193 0.2973 0.0214
0.0979 0.3060 0.0214
0.1806 0.3152 0.0214
0.2735 0.3252 0.0214
0.3808 0.3365 0.0408
0.4586 0.3271 0.0488
0.5378 0.3141 0.0466
0.6196 0.3007 0.0382
0.6943 0.2885 0.0305
0.7608 0.2777 0.0237
0.8284 0.2667 0.0214
0.8850 0.2558 0.0214
0.8850 0.2462 0.0214
0.8850 0.2390 0.0214
0.8850 0.2346 0.0214
0.8850 0.2317 0.0214
0.0193 0.3686 0.0214
0.0193 0.3769 0.0214
0.0670 0.3852 0.0214
0.1531 0.3938 0.0214
0.2488 0.4031 0.0214
0.3596 0.4132 0.0214
0.4856 0.4239 0.0393
0.5726 0.4140 0.0575
0.6528 0.4008 0.0557
0.7281 0.3886 0.0484
0.7953 0.3777 0.0421
0.8636 0.3667 0.0357
0.8850 0.3558 0.0294
0.8850 0.3462 0.0239
0.8850 0.3390 0.0214
0.8850 0.3346 0.0214
0.8850 0.3317 0.0214
0.0193 0.4591 0.0214
0.0193 0.4671 0.0214
0.0236 0.4750 0.0214
0.1155 0.4831 0.0214
0.2149 0.4917 0.0214
0.3293 0.5009 0.0214
0.4622 0.5086 0.0214
0.6017 0.5191 0.0429
0.6900 0.5100 0.0690
0.7629 0.4981 0.0703
0.8304 0.4873 0.0645
0.8850 0.4764 0.0587
0.8850 0.4655 0.0531
0.8850 0.4559 0.0482
0.8850 0.4488 0.0447
0.8850 0.4444 0.0426
0.8850 0.4415 0.0412
0.0193 0.5428 0.0214
0.0193 0.5550 0.0214
0.0193 0.5669 0.0214
0.0693 0.5748 0.0214
0.1736 0.5829 0.0214
0.2920 0.5913 0.0214
0.4316 0.5962 0.0214
0.5798 0.6027 0.0214
0.7194 0.6130 0.0473
0.8012 0.6055 0.0785
0.8651 0.5948 0.0851
0.8850 0.5839 0.0798
0.8850 0.5730 0.0747
0.8850 0.5634 0.0703
0.8850 0.5562 0.0671
0.8850 0.5518 0.0652
0.8850 0.5489 0.0639
0.0193 0.6167 0.0214
0.0193 0.6298 0.0214
0.0193 0.6427 0.0214
0.0246 0.6558 0.0214
0.1291 0.6677 0.0214
0.2518 0.6756 0.0214
0.3979 0.6781 0.0214
0.5537 0.6811 0.0214
0.7013 0.6878 0.0214
0.8279 0.6972 0.0525
0.8850 0.6908 0.0861
0.8850 0.6799 0.0977
0.8850 0.6689 0.0929
0.8850 0.6593 0.0888
0.8850 0.6520 0.0858
0.8850 0.6476 0.0841
0.8850 0.6447 0.0829
0.0193 0.6843 0.0214
0.0193 0.6983 0.0214
0.0193 0.7122 0.0214
0.0193 0.7263 0.0214
0.0918 0.7410 0.0214
0.2088 0.7558 0.0214
0.3615 0.7561 0.0214
0.5246 0.7559 0.0214
0.6791 0.7592 0.0214
0.8126 0.7656 0.0214
0.8850 0.7741 0.0556
0.8850 0.7678 0.0951
0.8850 0.7568 0.1087
0.8850 0.7470 0.1049
0.8850 0.7397 0.1021
0.8850 0.7353 0.1005
0.8850 0.7323 0.0994
0.0193 0.7546 0.0214
0.0193 0.7695 0.0214
0.0193 0.7843 0.0214
0.0193 0.7995 0.0214
0.0530 0.8155 0.0214
0.1703 0.8320 0.0214
0.3182 0.8396 0.0214
0.4890 0.8367 0.0214
0.6509 0.8366 0.0214
0.7910 0.8397 0.0214
0.8850 0.8453 0.0214
0.8850 0.8537 0.0572
0.8850 0.8481 0.1035
0.8850 0.8382 0.1208
0.8850 0.8308 0.1182
0.8850 0.8263 0.1167
0.8850 0.8233 0.1157
0.0193 0.8229 0.0214
0.0193 0.8387 0.0214
0.0193 0.8544 0.0214
0.0193 0.8708 0.0214
0.0193 0.8880 0.0214
0.1316 0.8950 0.0214
0.2811 0.8950 0.0214
0.4486 0.8950 0.0214
0.6182 0.8950 0.0214
0.7648 0.8950 0.0214
0.8850 0.8950 0.0214
0.8850 0.8950 0.0214
0.8850 0.8950 0.0611
0.8850 0.8950 0.1083
0.8850 0.8950 0.1331
0.8850 0.8950 0.1317
0.8850 0.8950 0.1308
0.0193 0.8810 0.0214
0.0193 0.8950 0.0214
0.0193 0.8950 0.0214
0.0193 0.8950 0.0214
0.0193 0.8950 0.0214
0.0974 0.8950 0.0214
0.2487 0.8950 0.0214
0.4178 0.8950 0.0214
0.5862 0.8950 0.0214
0.7386 0.8950 0.0214
0.8683 0.8950 0.0214
0.8850 0.8950 0.0214
0.8850 0.8950 0.0214
0.8850 0.8950 0.0681
0.8850 0.8950 0.1080
0.8850 0.8950 0.1260
0.8850 0.8950 0.1381
0.0193 0.8950 0.0214
0.0193 0.8950 0.0214
0.0193 0.8950 0.0214
0.0193 0.8950 0.0214
0.0193 0.8950 0.0214
0.0728 0.8950 0.0214
0.2259 0.8950 0.0214
0.3962 0.8950 0.0214
0.5640 0.8950 0.0214
0.7182 0.8950 0.0214
0.8514 0.8950 0.0214
0.8850 0.8950 0.0214
0.8850 0.8950 0.0214
0.8850 0.8950 0.0214
0.8850 0.8950 0.0781
0.8850 0.8950 0.1047
0.8850 0.8950 0.1175
0.0193 0.8950 0.0214
0.0193 0.8950 0.0214
0.0193 0.8950 0.0214
0.0193 0.8950 0.0214
0.0193 0.8950 0.0214
0.0574 0.8950 0.0214
0.2120 0.8950 0.0214
0.3830 0.8950 0.0214
0.5513 0.8950 0.0214
0.7049 0.8950 0.0214
0.8404 0.8950 0.0214
0.8850 0.8950 0.0214
0.8850 0.8950 0.0214
0.8850 0.8950 0.0214
0.8850 0.8950 0.0469
0.8850 0.8950 0.0853
0.8850 0.8950 0.1035
0.0193 0.8950 0.0214
0.0193 0.8950 0.0214
0.0193 0.8950 0.0214
0.0193 0.8950 0.0214
0.0193 0.8950 0.0214
0.0505 0.8950 0.0214
0.2057 0.8950 0.0214
0.3772 0.8950 0.0214
0.5456 0.8950 0.0214
0.6989 0.8950 0.0214
0.8352 0.8950 0.0214
0.8850 0.8950 0.0214
0.8850 0.8950 0.0214
0.8850 0.8950 0.0214
0.8850 0.8950 0.0319
0.8850 0.8950 0.0717
0.8850 0.8950 0.0969
0.0193 0.0231 0.0475
0.0607 0.0231 0.0661
0.1006 0.0231 0.0646
0.1441 0.0231 0.0624
0.1930 0.0231 0.0596
0.2484 0.0231 0.0563
0.3127 0.0231 0.0526
0.3837 0.0231 0.0486
0.4548 0.0231 0.0448
0.5195 0.0231 0.0415
0.5772 0.0231 0.0388
0.6357 0.0231 0.0363
0.6942 0.0231 0.0340
0.7462 0.0231 0.0321
0.7855 0.0231 0.0308
0.8111 0.0231 0.0294
0.8282 0.0231 0.0284
0.0193 0.0711 0.0664
0.0608 0.0706 0.0659
0.1018 0.0657 0.0637
0.1458 0.0598 0.0608
0.1951 0.0529 0.0575
0.2517 0.0448 0.0538
0.3173 0.0351 0.0496
0.3899 0.0240 0.0450
0.4625 0.0231 0.0406
0.5286 0.0231 0.0368
0.5875 0.0231 0.0336
0.6472 0.0231 0.0305
0.7070 0.0231 0.0276
0.7601 0.0231 0.0253
0.8001 0.0231 0.0236
0.8262 0.0231 0.0218
0.8436 0.0231 0.0214
0.0193 0.1150 0.0613
0.0528 0.1145 0.0593
0.1230 0.1265 0.0770
0.1696 0.1212 0.0745
0.2186 0.1147 0.0721
0.2759 0.1069 0.0682
0.3427 0.0975 0.0635
0.4167 0.0871 0.0585
0.4908 0.0766 0.0536
0.5582 0.0671 0.0493
0.6183 0.0585 0.0456
0.6792 0.0498 0.0421
0.7402 0.0411 0.0388
0.7945 0.0334 0.0361
0.8352 0.0275 0.0341
0.8604 0.0238 0.0330
0.8779 0.0231 0.0318
0.0193 0.1641 0.0520
0.0399 0.1636 0.0480
0.1133 0.1741 0.0650
0.1911 0.1857 0.0837
0.2450 0.1796 0.0832
0.3018 0.1718 0.0818
0.3700 0.1622 0.0766
0.4455 0.1514 0.0710
0.5212 0.1407 0.0655
0.5902 0.1309 0.0607
0.6517 0.1222 0.0566
0.7140 0.1135 0.0526
0.7765 0.1048 0.0488
0.8320 0.0972 0.0455
0.8738 0.0915 0.0432
0.8850 0.0880 0.0419
0.8850 0.0857 0.0410
0.0193 0.2196 0.0385
0.0223 0.2196 0.0323
0.0987 0.2294 0.0488
0.1788 0.2399 0.0670
0.2684 0.2517 0.0875
0.3324 0.2445 0.0899
0.4004 0.2346 0.0881
0.4781 0.2231 0.0818
0.5560 0.2115 0.0755
0.6270 0.2010 0.0700
0.6903 0.1917 0.0652
0.7545 0.1824 0.0605
0.8189 0.1731 0.0559
0.8760 0.1649 0.0521
0.8850 0.1588 0.0493
0.8850 0.1551 0.0476
0.8850 0.1527 0.0465
0.0193 0.2849 0.0214
0.0193 0.2854 0.0214
0.0780 0.2947 0.0257
0.1604 0.3046 0.0433
0.2526 0.3153 0.0631
0.3589 0.3275 0.0864
0.4362 0.3188 0.0923
0.5144 0.3065 0.0897
0.5951 0.2939 0.0825
0.6686 0.2824 0.0760
0.7341 0.2722 0.0704
0.8007 0.2619 0.0648
0.8674 0.2516 0.0594
0.8850 0.2426 0.0547
0.8850 0.2359 0.0513
0.8850 0.2318 0.0492
0.8850 0.2290 0.0479
0.0193 0.3629 0.0214
0.0193 0.3642 0.0214
0.0478 0.3730 0.0214
0.1338 0.3823 0.0214
0.2288 0.3924 0.0269
0.3384 0.4033 0.0489
0.4655 0.4154 0.0795
0.5535 0.4055 0.0939
0.6342 0.3923 0.0913
0.7098 0.3801 0.0842
0.7772 0.3692 0.0781
0.8457 0.3582 0.0720
0.8850 0.3472 0.0660
0.8850 0.3375 0.0609
0.8850 0.3303 0.0571
0.8850 0.3259 0.0548
0.8850 0.3230 0.0533
0.0193 0.4511 0.0214
0.0193 0.4533 0.0214
0.0193 0.4618 0.0214
0.0972 0.4706 0.0214
0.1959 0.4800 0.0214
0.3090 0.4901 0.0214
0.4413 0.5003 0.0257
0.5820 0.5109 0.0829
0.6712 0.5018 0.1048
0.7446 0.4899 0.1051
0.8123 0.4790 0.0993
0.8810 0.4681 0.0936
0.8850 0.4572 0.0881
0.8850 0.4476 0.0833
0.8850 0.4405 0.0799
0.8850 0.4361 0.0778
0.8850 0.4332 0.0764
0.0193 0.5369 0.0214
0.0193 0.5402 0.0214
0.0193 0.5525 0.0214
0.0519 0.5611 0.0214
0.1557 0.5701 0.0214
0.2728 0.5794 0.0214
0.4099 0.5880 0.0214
0.5593 0.5946 0.0219
0.7001 0.6050 0.0870
0.7827 0.5975 0.1140
0.8470 0.5868 0.1193
0.8850 0.5759 0.1139
0.8850 0.5650 0.1088
0.8850 0.5553 0.1044
0.8850 0.5482 0.1012
0.8850 0.5438 0.0992
0.8850 0.5408 0.0980
0.0193 0.6097 0.0214
0.0193 0.6141 0.0214
0.0193 0.6274 0.0214
0.0193 0.6411 0.0214
0.1123 0.6538 0.0214
0.2337 0.6627 0.0214
0.3755 0.6701 0.0214
0.5326 0.6731 0.0214
0.6813 0.6799 0.0260
0.8088 0.6894 0.0918
0.8831 0.6829 0.1214
0.8850 0.6721 0.1313
0.8850 0.6611 0.1264
0.8850 0.6514 0.1223
0.8850 0.6442 0.1193
0.8850 0.6397 0.1175
0.8850 0.6368 0.1163
0.0193 0.6764 0.0214
0.0193 0.6818 0.0214
0.0193 0.6960 0.0214
0.0193 0.7108 0.0214
0.0763 0.7261 0.0214
0.1917 0.7418 0.0214
0.3383 0.7482 0.0214
0.5029 0.7480 0.0214
0.6585 0.7514 0.0214
0.7930 0.7578 0.0307
0.8850 0.7663 0.0948
0.8850 0.7601 0.1301
0.8850 0.7491 0.1419
0.8850 0.7393 0.1380
0.8850 0.7320 0.1352
0.8850 0.7275 0.1335
0.8850 0.7246 0.1324
0.0193 0.7457 0.0214
0.0193 0.7520 0.0214
0.0193 0.7672 0.0214
0.0193 0.7831 0.0214
0.0386 0.7998 0.0214
0.1548 0.8171 0.0214
0.2942 0.8318 0.0214
0.4665 0.8288 0.0214
0.6297 0.8288 0.0214
0.7707 0.8320 0.0214
0.8850 0.8377 0.0250
0.8850 0.8460 0.0964
0.8850 0.8405 0.1382
0.8850 0.8306 0.1536
0.8850 0.8233 0.1510
0.8850 0.8187 0.1494
0.8850 0.8157 0.1484
0.0193 0.8130 0.0214
0.0193 0.8204 0.0214
0.0193 0.8365 0.0214
0.0193 0.8535 0.0214
0.0193 0.8714 0.0214
0.1176 0.8903 0.0214
0.2567 0.8950 0.0214
0.4255 0.8950 0.0214
0.5964 0.8950 0.0214
0.7440 0.8950 0.0214
0.8696 0.8950 0.0214
0.8850 0.8950 0.0223
0.8850 0.8950 0.1000
0.8850 0.8950 0.1431
0.8850 0.8950 0.1657
0.8850 0.8950 0.1642
0.8850 0.8950 0.1633
0.0193 0.8703 0.0214
0.0193 0.8785 0.0214
0.0193 0.8950 0.0214
0.0193 0.8950 0.0214
0.0193 0.8950 0.0214
0.0847 0.8950 0.0214
0.2241 0.8950 0.0214
0.3944 0.8950 0.0214
0.5638 0.8950 0.0214
0.7172 0.8950 0.0214
0.8478 0.8950 0.0214
0.8850 0.8950 0.0214
0.8850 0.8950 0.0333
0.8850 0.8950 0.1065
0.8850 0.8950 0.1431
0.8850 0.8950 0.1596
0.8850 0.8950 0.1708
0.0193 0.8950 0.0214
0.0193 0.8950 0.0214
0.0193 0.8950 0.0214
0.0193 0.8950 0.0214
0.0193 0.8950 0.0214
0.0609 0.8950 0.0214
0.2010 0.8950 0.0214
0.3727 0.8950 0.0214
0.5413 0.8950 0.0214
0.6964 0.8950 0.0214
0.8305 0.8950 0.0214
0.8850 0.8950 0.0214
0.8850 0.8950 0.0214
0.8850 0.8950 0.0595
0.8850 0.8950 0.1158
0.8850 0.8950 0.1403
0.8850 0.8950 0.1520
0.0193 0.8950 0.0214
0.0193 0.8950 0.0214
0.0193 0.8950 0.0214
0.0193 0.8950 0.0214
0.0193 0.8950 0.0214
0.0461 0.8950 0.0214
0.1869 0.8950 0.0214
0.3594 0.8950 0.0214
0.5286 0.8950 0.0214
0.6830 0.8950 0.0214
0.8193 0.8950 0.0214
0.8850 0.8950 0.0214
0.8850 0.8950 0.0214
0.8850 0.8950 0.0271
0.8850 0.8950 0.0874
0.8850 0.8950 0.1225
0.8850 0.8950 0.1393
0.0193 0.8950 0.0214
0.0193 0.8950 0.0214
0.0193 0.8950 0.0214
0.0193 0.8950 0.0214
0.0193 0.8950 0.0214
0.0393 0.8950 0.0214
0.1806 0.8950 0.0214
0.3535 0.8950 0.0214
0.5229 0.8950 0.0214
0.6768 0.8950 0.0214
0.8140 0.8950 0.0214
0.8850 0.8950 0.0214
0.8850 0.8950 0.0214
0.8850 0.8950 0.0214
0.8850 0.8950 0.0741
0.8850 0.8950 0.1100
0.8850 0.8950 0.1334
0.0193 0.0231 0.0680
0.0235 0.0232 0.0872
0.0992 0.0249 0.1068
0.1421 0.0231 0.1068
0.1921 0.0231 0.1058
0.2466 0.0231 0.1031
0.3096 0.0231 0.1000
0.3793 0.0231 0.0968
0.4491 0.0231 0.0937
0.5126 0.0231 0.0912
0.5692 0.0231 0.0891
0.6266 0.0231 0.0871
0.6842 0.0231 0.0854
0.7353 0.0231 0.0840
0.7737 0.0231 0.0831
0.7974 0.0231 0.0826
0.8140 0.0231 0.0821
0.0193 0.0690 0.0895
0.0247 0.0699 0.0910
0.1013 0.0704 0.1091
0.1446 0.0655 0.1078
0.1944 0.0583 0.1055
0.2500 0.0509 0.1023
0.3144 0.0423 0.0988
0.3857 0.0325 0.0950
0.4570 0.0231 0.0914
0.5220 0.0231 0.0884
0.5798 0.0231 0.0858
0.6384 0.0231 0.0834
0.6972 0.0231 0.0812
0.7494 0.0231 0.0795
0.7887 0.0231 0.0783
0.8129 0.0231 0.0776
0.8298 0.0231 0.0768
0.0193 0.1162 0.1093
0.0596 0.1165 0.1097
0.1018 0.1161 0.1092
0.1464 0.1113 0.1071
0.1961 0.1049 0.1039
0.2529 0.0975 0.1004
0.3189 0.0888 0.0964
0.3918 0.0792 0.0920
0.4648 0.0694 0.0879
0.5312 0.0606 0.0843
0.5903 0.0527 0.0813
0.6503 0.0447 0.0784
0.7104 0.0367 0.0757
0.7638 0.0295 0.0735
0.8039 0.0242 0.0720
0.8286 0.0231 0.0711
0.8459 0.0231 0.0702
0.0193 0.1630 0.1055
0.0496 0.1633 0.1042
0.0931 0.1629 0.1020
0.1687 0.1753 0.1202
0.2226 0.1699 0.1180
0.2792 0.1626 0.1156
0.3465 0.1536 0.1111
0.4210 0.1436 0.1062
0.4956 0.1336 0.1014
0.5635 0.1245 0.0972
0.6241 0.1165 0.0937
0.6855 0.1084 0.0903
0.7470 0.1004 0.0871
0.8017 0.0934 0.0844
0.8427 0.0882 0.0825
0.8681 0.0850 0.0814
0.8850 0.0829 0.0807
0.0193 0.2182 0.0967
0.0327 0.2187 0.0934
0.0781 0.2183 0.0890
0.1571 0.2292 0.1062
0.2460 0.2418 0.1263
0.3096 0.2353 0.1275
0.3769 0.2260 0.1252
0.4533 0.2153 0.1196
0.5299 0.2046 0.1141
0.5997 0.1949 0.1093
0.6619 0.1863 0.1052
0.7250 0.1777 0.1012
0.7883 0.1691 0.0974
0.8445 0.1616 0.0942
0.8850 0.1560 0.0918
0.8850 0.1526 0.0905
0.8850 0.1504 0.0896
0.0193 0.2817 0.0835
0.0193 0.2827 0.0782
0.0581 0.2829 0.0715
0.1395 0.2932 0.0875
0.2308 0.3048 0.1067
0.3360 0.3179 0.1293
0.4127 0.3099 0.1335
0.4900 0.2984 0.1306
0.5693 0.2866 0.1242
0.6417 0.2758 0.1185
0.7061 0.2663 0.1136
0.7716 0.2567 0.1087
0.8372 0.2472 0.1040
0.8850 0.2388 0.1000
0.8850 0.2326 0.0972
0.8850 0.2288 0.0954
0.8850 0.2262 0.0943
0.0193 0.3576 0.0631
0.0193 0.3593 0.0549
0.0284 0.3603 0.0450
0.1138 0.3701 0.0601
0.2079 0.3809 0.0779
0.3163 0.3929 0.0986
0.4428 0.4061 0.1243
0.5320 0.3966 0.1331
0.6127 0.3836 0.1298
0.6882 0.3715 0.1231
0.7555 0.3608 0.1172
0.8238 0.3500 0.1113
0.8850 0.3392 0.1056
0.8850 0.3297 0.1007
0.8850 0.3226 0.0971
0.8850 0.3183 0.0949
0.8850 0.3154 0.0935
0.0193 0.4434 0.0331
0.0193 0.4460 0.0214
0.0193 0.4479 0.0214
0.0783 0.4572 0.0214
0.1762 0.4675 0.0375
0.2880 0.4785 0.0568
0.4188 0.4904 0.0794
0.5609 0.5021 0.1229
0.6512 0.4930 0.1413
0.7249 0.4811 0.1406
0.7929 0.4702 0.1348
0.8619 0.4593 0.1291
0.8850 0.4484 0.1235
0.8850 0.4387 0.1188
0.8850 0.4316 0.1153
0.8850 0.4272 0.1132
0.8850 0.4242 0.1118
0.0193 0.5309 0.0214
0.0193 0.5345 0.0214
0.0193 0.5373 0.0214
0.0338 0.5465 0.0214
0.1373 0.5563 0.0214
0.2529 0.5667 0.0214
0.3877 0.5776 0.0239
0.5374 0.5860 0.0696
0.6794 0.5964 0.1268
0.7629 0.5889 0.1504
0.8277 0.5783 0.1543
0.8850 0.5673 0.1489
0.8850 0.5564 0.1437
0.8850 0.5467 0.1392
0.8850 0.5395 0.1360
0.8850 0.5351 0.1340
0.8850 0.5322 0.1327
0.0193 0.6027 0.0214
0.0193 0.6073 0.0214
0.0193 0.6113 0.0214
0.0193 0.6254 0.0214
0.0951 0.6389 0.0214
0.2150 0.6489 0.0214
0.3536 0.6590 0.0214
0.5100 0.6646 0.0214
0.6599 0.6714 0.0730
0.7884 0.6810 0.1314
0.8634 0.6746 0.1577
0.8850 0.6637 0.1660
0.8850 0.6527 0.1610
0.8850 0.6430 0.1568
0.8850 0.6358 0.1537
0.8850 0.6313 0.1519
0.8850 0.6284 0.1507
0.0193 0.6683 0.0214
0.0193 0.6739 0.0214
0.0193 0.6790 0.0214
0.0193 0.6942 0.0214
0.0604 0.7103 0.0214
0.1742 0.7268 0.0214
0.3168 0.7365 0.0214
0.4796 0.7396 0.0214
0.6365 0.7430 0.0214
0.7719 0.7495 0.0770
0.8850 0.7581 0.1343
0.8850 0.7518 0.1661
0.8850 0.7409 0.1763
0.8850 0.7311 0.1723
0.8850 0.7238 0.1694
0.8850 0.7193 0.1676
0.8850 0.7163 0.1665
0.0193 0.7365 0.0214
0.0193 0.7431 0.0214
0.0193 0.7493 0.0214
0.0193 0.7655 0.0214
0.0238 0.7830 0.0214
0.1390 0.8012 0.0214
0.2731 0.8194 0.0214
0.4425 0.8205 0.0214
0.6070 0.8205 0.0214
0.7490 0.8238 0.0214
0.8697 0.8294 0.0722
0.8850 0.8379 0.1360
0.8850 0.8323 0.1740
0.8850 0.8225 0.1877
0.8850 0.8151 0.1850
0.8850 0.8106 0.1834
0.8850 0.8076 0.1823
0.0193 0.8028 0.0214
0.0193 0.8104 0.0214
0.0193 0.8177 0.0214
0.0193 0.8350 0.0214
0.0193 0.8537 0.0214
0.1035 0.8734 0.0214
0.2366 0.8935 0.0214
0.4005 0.8950 0.0214
0.5730 0.8950 0.0214
0.7217 0.8950 0.0214
0.8481 0.8950 0.0214
0.8850 0.8950 0.0699
0.8850 0.8950 0.1395
0.8850 0.8950 0.1790
0.8850 0.8950 0.1996
0.8850 0.8950 0.1980
0.8850 0.8950 0.1970
0.0193 0.8591 0.0214
0.0193 0.8676 0.0214
0.0193 0.8758 0.0214
0.0193 0.8940 0.0214
0.0193 0.8950 0.0214
0.0719 0.8950 0.0214
0.2047 0.8950 0.0214
0.3693 0.8950 0.0214
0.5397 0.8950 0.0214
0.6943 0.8950 0.0214
0.8258 0.8950 0.0214
0.8850 0.8950 0.0214
0.8850 0.8950 0.0792
0.8850 0.8950 0.1456
0.8850 0.8950 0.1794
0.8850 0.8950 0.1945
0.8850 0.8950 0.2048
0.0193 0.8950 0.0214
0.0193 0.8950 0.0214
0.0193 0.8950 0.0214
0.0193 0.8950 0.0214
0.0193 0.8950 0.0214
0.0491 0.8950 0.0214
0.1821 0.8950 0.0214
0.3474 0.8950 0.0214
0.5170 0.8950 0.0214
0.6731 0.8950 0.0214
0.8082 0.8950 0.0214
0.8850 0.8950 0.0214
0.8850 0.8950 0.0336
0.8850 0.8950 0.1024
0.8850 0.8950 0.1543
0.8850 0.8950 0.1771
0.8850 0.8950 0.1878
0.0193 0.8950 0.0214
0.0193 0.8950 0.0214
0.0193 0.8950 0.0214
0.0193 0.8950 0.0214
0.0193 0.8950 0.0214
0.0347 0.8950 0.0214
0.1683 0.8950 0.0214
0.3341 0.8950 0.0214
0.5042 0.8950 0.0214
0.6594 0.8950 0.0214
0.7967 0.8950 0.0214
0.8850 0.8950 0.0214
0.8850 0.8950 0.0214
0.8850 0.8950 0.0739
0.8850 0.8950 0.1280
0.8850 0.8950 0.1606
0.8850 0.8950 0.1763
0.0193 0.8950 0.0214
0.0193 0.8950 0.0214
0.0193 0.8950 0.0214
0.0193 0.8950 0.0214
0.0193 0.8950 0.0214
0.0281 0.8950 0.0214
0.1622 0.8950 0.0214
0.3281 0.8950 0.0214
0.4985 0.8950 0.0214
0.6531 0.8950 0.0214
0.7913 0.8950 0.0214
0.8850 0.8950 0.0214
0.8850 0.8950 0.0214
0.8850 0.8950 0.0615
0.8850 0.8950 0.1157
0.8850 0.8950 0.1489
0.8850 0.8950 0.1709
0.0193 0.0231 0.0874
0.0193 0.0231 0.1074
0.0603 0.0255 0.1278
0.1401 0.0276 0.1498
0.1901 0.0231 0.1518
0.2477 0.0231 0.1513
0.3105 0.0231 0.1484
0.3797 0.0231 0.1453
0.4491 0.0231 0.1423
0.5122 0.0231 0.1399
0.5685 0.0231 0.1378
0.6256 0.0231 0.1359
0.6828 0.0231 0.1342
0.7336 0.0231 0.1329
0.7718 0.0231 0.1320
0.7954 0.0231 0.1315
0.8111 0.0231 0.1312
0.0193 0.0657 0.1098
0.0193 0.0674 0.1117
0.0625 0.0707 0.1309
0.1423 0.0726 0.1521
0.1916 0.0668 0.1528
0.2487 0.0583 0.1515
0.3117 0.0507 0.1485
0.3815 0.0422 0.1454
0.4513 0.0337 0.1424
0.5148 0.0259 0.1399
0.5715 0.0231 0.1379
0.6289 0.0231 0.1360
0.6865 0.0231 0.1343
0.7376 0.0231 0.1330
0.7761 0.0231 0.1321
0.7998 0.0231 0.1316
