assets/luts/LUTs/JD_RWANDA.CUBE
TITLE "ColorFinale Export"
# Created by Jeven Dovey on 2023-09-01 22:29:24 +0000
# Color Finale Plugin v.2.6.0 (537)
LUT_3D_SIZE 5
0.0193 0.0231 0.0214
0.1940 0.0231 0.0214
0.4603 0.0231 0.0214
0.7036 0.0231 0.0214
0.8415 0.0231 0.0214
0.0193 0.2216 0.0214
0.2899 0.2609 0.0464
0.5809 0.2180 0.0342
0.8479 0.1768 0.0214
0.8850 0.1548 0.0214
0.0193 0.5428 0.0214
0.1736 0.5829 0.0214
0.7194 0.6130 0.0473
0.8850 0.5730 0.0747
0.8850 0.5489 0.0639
0.0193 0.8229 0.0214
0.0193 0.8880 0.0214
0.6182 0.8950 0.0214
0.8850 0.8950 0.0611
0.8850 0.8950 0.1308
0.0193 0.8950 0.0214
0.0193 0.8950 0.0214
0.5456 0.8950 0.0214
0.8850 0.8950 0.0214
0.8850 0.8950 0.0969
0.0193 0.0231 0.1083
0.1874 0.0296 0.1993
0.4543 0.0231 0.1961
0.6894 0.0231 0.1867
0.8185 0.0231 0.1829
0.0204 0.2178 0.2068
0.1959 0.2184 0.2072
0.4697 0.1871 0.1927
0.7184 0.1581 0.1805
0.8548 0.1431 0.1751
0.0193 0.5228 0.1535
0.0979 0.5235 0.1225
0.6284 0.5753 0.2185
0.8850 0.5353 0.2250
0.8850 0.5110 0.2133
0.0193 0.8015 0.0653
0.0193 0.8111 0.0214
0.5153 0.8788 0.0214
0.8850 0.8950 0.2306
0.8850 0.8768 0.2767
0.0193 0.8950 0.0214
0.0193 0.8950 0.0214
0.4383 0.8950 0.0214
0.8850 0.8950 0.1089
0.8850 0.8950 0.2586
0.0193 0.0231 0.1659
0.0193 0.0237 0.2856
0.4493 0.0417 0.4679
0.7207 0.0231 0.4797
0.8601 0.0231 0.4738
0.0193 0.1850 0.3027
0.0193 0.1993 0.3157
0.4559 0.2271 0.4745
0.7207 0.1922 0.4797
0.8547 0.1796 0.4732
0.0194 0.5075 0.4886
0.1962 0.5076 0.4887
0.4723 0.5083 0.4888
0.7361 0.4828 0.4780
0.8780 0.4675 0.4711
0.0193 0.8023 0.4613
0.0618 0.7922 0.4504
0.3848 0.7844 0.4164
0.8818 0.8329 0.4966
0.8850 0.8139 0.5142
0.0193 0.8950 0.4265
0.0193 0.8950 0.4129
0.3260 0.8950 0.3656
0.8366 0.8950 0.4188
0.8850 0.8950 0.5174
0.0193 0.0231 0.1201
0.0193 0.0231 0.2759
0.2138 0.0683 0.5118
0.6992 0.0538 0.7162
0.8763 0.0231 0.7442
0.0193 0.1295 0.3041
0.0193 0.1559 0.3271
0.2418 0.2333 0.5373
0.7058 0.2365 0.7226
0.8763 0.2039 0.7442
0.0193 0.4574 0.5577
0.0597 0.4697 0.5696
0.2999 0.4914 0.5905
0.7175 0.5159 0.7340
0.8763 0.4957 0.7442
0.0193 0.7697 0.7488
0.1951 0.7697 0.7488
0.4727 0.7697 0.7487
0.7347 0.7701 0.7486
0.8850 0.7583 0.7447
0.0193 0.8950 0.7574
0.0982 0.8950 0.7510
0.4148 0.8950 0.7396
0.7005 0.8950 0.7220
0.8850 0.8950 0.7677
0.0193 0.0231 0.1023
0.0193 0.0231 0.2316
0.1124 0.0709 0.4996
0.5554 0.0876 0.7316
0.8543 0.0567 0.8534
0.0193 0.0877 0.2665
0.0193 0.1218 0.2953
0.1538 0.2273 0.5352
0.5723 0.2564 0.7477
0.8600 0.2394 0.8590
0.0193 0.4253 0.5610
0.0193 0.4429 0.5778
0.2318 0.4739 0.6073
0.6023 0.5208 0.7762
0.8701 0.5195 0.8688
0.0193 0.7311 0.7808
0.1626 0.7384 0.7880
0.4106 0.7512 0.8007
0.6449 0.7640 0.8134
0.8801 0.7738 0.8784
0.0299 0.8919 0.8801
0.2035 0.8924 0.8807
0.4778 0.8934 0.8817
0.7380 0.8944 0.8826
0.8850 0.8950 0.8832
