assets/luts/LUTs/JD_SAN FRANSISCO.CUBE
TITLE "ColorFinale Export"
# Created by Jeven Dovey on 2022-01-27 18:37:30 +0000
# Color Finale Plugin v.2.4.5 (531)
LUT_3D_SIZE 5
0.1373 0.1373 0.1373
0.1823 0.1401 0.1401
0.3855 0.1528 0.1528
0.7000 0.1725 0.1725
0.8122 0.1795 0.1795
0.1371 0.1737 0.1371
0.1908 0.1738 0.1413
0.3827 0.1890 0.1628
0.7009 0.2078 0.1805
0.8137 0.2146 0.1872
0.1362 0.3964 0.1362
0.1918 0.3965 0.1359
0.4425 0.3960 0.1395
0.7249 0.4176 0.2346
0.8209 0.4285 0.2511
0.1347 0.7923 0.1347
0.1902 0.7923 0.1344
0.4411 0.7923 0.1326
0.8313 0.7916 0.1314
0.9627 0.7910 0.1575
0.1340 0.9699 0.1340
0.1895 0.9700 0.1337
0.4402 0.9700 0.1319
0.8300 0.9696 0.1293
0.9693 0.9693 0.1287
0.1378 0.1378 0.1814
0.1930 0.1371 0.1882
0.3941 0.1514 0.1917
0.7047 0.1723 0.2112
0.8163 0.1795 0.2183
0.1390 0.1732 0.1868
0.1928 0.1736 0.1880
0.3934 0.1873 0.1983
0.7076 0.2071 0.2181
0.8197 0.2142 0.2251
0.1365 0.3963 0.1874
0.1919 0.3964 0.1871
0.4420 0.3959 0.1919
0.7194 0.4201 0.2768
0.8181 0.4305 0.2897
0.1349 0.7922 0.1859
0.1904 0.7922 0.1856
0.4411 0.7922 0.1839
0.8312 0.7916 0.1828
0.9617 0.7910 0.2106
0.1342 0.9698 0.1852
0.1897 0.9698 0.1849
0.4403 0.9699 0.1832
0.8299 0.9695 0.1805
0.9692 0.9692 0.1800
0.1402 0.1402 0.3907
0.1905 0.1405 0.4030
0.4448 0.1366 0.4299
0.7867 0.1513 0.4181
0.8926 0.1610 0.4171
0.1446 0.1753 0.3904
0.1931 0.1764 0.3992
0.4446 0.1730 0.4297
0.7806 0.1894 0.4186
0.8864 0.1990 0.4192
0.1421 0.3948 0.4263
0.1972 0.3949 0.4263
0.4432 0.3960 0.4284
0.7518 0.4180 0.4428
0.8633 0.4252 0.4499
0.1365 0.7915 0.4280
0.1918 0.7916 0.4279
0.4416 0.7918 0.4268
0.8308 0.7913 0.4268
0.9527 0.7924 0.4642
0.1357 0.9692 0.4275
0.1910 0.9692 0.4273
0.4409 0.9695 0.4261
0.8298 0.9693 0.4234
0.9691 0.9691 0.4228
0.1440 0.1440 0.7183
0.1933 0.1447 0.7294
0.4376 0.1405 0.7887
0.8345 0.1357 0.8082
0.9729 0.1357 0.8076
0.1482 0.1792 0.7170
0.1968 0.1803 0.7266
0.4371 0.1773 0.7857
0.8343 0.1721 0.8080
0.9727 0.1721 0.8074
0.1697 0.3925 0.7441
0.2208 0.3940 0.7419
0.4422 0.4006 0.7615
0.8330 0.3951 0.8067
0.9713 0.3951 0.8061
0.1439 0.7895 0.8025
0.1989 0.7896 0.8026
0.4470 0.7902 0.8032
0.8267 0.7924 0.8039
0.9365 0.8002 0.8103
0.1390 0.9681 0.8044
0.1942 0.9682 0.8044
0.4435 0.9685 0.8045
0.8299 0.9689 0.8036
0.9688 0.9688 0.8028
0.1456 0.1456 0.8613
0.1948 0.1464 0.8722
0.4339 0.1436 0.9329
0.8348 0.1354 0.9742
0.9735 0.1353 0.9735
0.1498 0.1809 0.8598
0.1984 0.1819 0.8696
0.4341 0.1803 0.9291
0.8346 0.1719 0.9739
0.9733 0.1718 0.9733
0.1742 0.3940 0.8802
0.2241 0.3958 0.8793
0.4436 0.4024 0.9041
0.8332 0.3949 0.9725
0.9720 0.3947 0.9720
0.1593 0.7860 0.9560
0.2145 0.7861 0.9555
0.4634 0.7869 0.9517
0.8289 0.7932 0.9546
0.9697 0.7908 0.9697
0.1445 0.9667 0.9667
0.1995 0.9668 0.9668
0.4476 0.9674 0.9674
0.8317 0.9683 0.9683
0.9686 0.9686 0.9686
