assets/luts/LUTs/JD_Shasta.CUBE
TITLE "ColorFinale Export"
# Created by Jeven Dovey on 2021-07-15 17:40:48 +0000
# Color Finale Plugin v.2.3.2 (520)
LUT_3D_SIZE 5
0.0862 0.0863 0.0880
0.1686 0.0867 0.0868
0.4377 0.0881 0.0884
0.7447 0.0891 0.0897
0.8997 0.0893 0.0901
0.0935 0.1829 0.0916
0.2340 0.1727 0.0986
0.4945 0.1780 0.0681
0.7556 0.1785 0.0469
0.9138 0.1776 0.0339
0.1015 0.5102 0.0935
0.2447 0.4946 0.0935
0.6724 0.4512 0.1090
0.9744 0.4398 0.1130
0.9737 0.4491 0.0964
0.1058 0.8257 0.0929
0.2411 0.8123 0.0922
0.6969 0.7744 0.0903
0.9915 0.7337 0.1238
0.9894 0.7169 0.1603
0.1070 0.9993 0.0918
0.2366 1.0000 0.0906
0.6877 0.9747 0.0879
1.0000 0.9279 0.1003
1.0000 0.9022 0.1348
0.0850 0.1011 0.1881
0.2131 0.0868 0.1311
0.4537 0.0882 0.0885
0.7415 0.0891 0.0897
0.8920 0.0893 0.0901
0.0927 0.2461 0.1691
0.1882 0.1810 0.1872
0.4589 0.1670 0.1318
0.7460 0.1609 0.0862
0.9084 0.1601 0.0647
0.0946 0.6022 0.1566
0.1972 0.5071 0.1815
0.6152 0.4688 0.2025
0.8747 0.4681 0.1894
0.9751 0.4770 0.1435
0.0973 0.9290 0.1422
0.1997 0.8234 0.1695
0.6310 0.7923 0.1561
0.9914 0.7492 0.2122
0.9888 0.7328 0.2677
0.0981 0.9996 0.1363
0.1983 1.0000 0.1612
0.6257 0.9928 0.1406
1.0000 0.9493 0.1709
1.0000 0.9225 0.2215
0.0795 0.1282 0.4840
0.1589 0.1061 0.5031
0.6137 0.0903 0.2133
0.8085 0.1063 0.0374
0.9479 0.1082 0.0267
0.0964 0.3033 0.4306
0.1534 0.2327 0.4859
0.5772 0.1753 0.3122
0.7831 0.1898 0.1115
0.9355 0.1883 0.0901
0.0938 0.7224 0.3874
0.1913 0.6386 0.4328
0.5086 0.4966 0.4797
0.7798 0.4621 0.3902
0.9552 0.4481 0.3442
0.0895 1.0000 0.3523
0.1790 0.9738 0.4030
0.5170 0.8156 0.4632
0.9427 0.7772 0.4955
0.9869 0.7672 0.5325
0.0895 1.0000 0.3431
0.1751 1.0000 0.3922
0.5168 1.0000 0.4478
0.9612 0.9865 0.4343
1.0000 0.9593 0.5084
0.0735 0.1535 0.7758
0.1168 0.1330 0.8019
0.5296 0.0940 0.7648
1.0000 0.0911 0.3556
0.9909 0.1004 0.1012
0.0737 0.3774 0.6803
0.1173 0.2865 0.7749
0.4826 0.2108 0.8077
0.9815 0.1690 0.4679
0.9990 0.1869 0.1876
0.1116 0.7559 0.7368
0.2027 0.6823 0.7442
0.4475 0.5736 0.7788
0.9040 0.4801 0.6186
0.9870 0.5043 0.3980
0.0943 1.0000 0.6247
0.1823 1.0000 0.6687
0.5039 0.9589 0.7234
0.8206 0.8013 0.7631
0.9928 0.7814 0.7092
0.0940 1.0000 0.6173
0.1781 1.0000 0.6627
0.4921 1.0000 0.7133
0.8231 1.0000 0.7507
1.0000 0.9904 0.7737
0.0705 0.1636 0.9197
0.0985 0.1462 0.9215
0.4728 0.1053 0.9404
0.9936 0.0890 0.7100
1.0000 0.0899 0.4427
0.0678 0.4165 0.8704
0.0983 0.3151 0.9390
0.4311 0.2358 0.9584
0.9400 0.1757 0.8172
1.0000 0.1646 0.5486
0.1121 0.7850 0.9255
0.1768 0.7207 0.9060
0.4067 0.6096 0.9644
0.8464 0.5098 0.9716
1.0000 0.4701 0.6933
0.1039 1.0000 0.8544
0.1907 1.0000 0.9226
0.5255 0.9849 0.9672
0.7854 0.8481 0.9797
1.0000 0.7898 0.8601
0.1016 1.0000 0.7857
0.1887 1.0000 0.8162
0.5118 1.0000 0.8922
0.8227 1.0000 0.9525
1.0000 1.0000 0.9805
