assets/luts/LUTs/JD_SAN FRANSISCO.CUBE
TITLE "ColorFinale Export"
# Created by Jeven Dovey on 2022-01-27 18:37:30 +0000
# Color Finale Plugin v.2.4.5 (531)
LUT_3D_SIZE 17
0.1373 0.1373 0.1373
0.1423 0.1376 0.1376
0.1498 0.1380 0.1380
0.1622 0.1388 0.1388
0.1823 0.1401 0.1401
0.2128 0.1420 0.1420
0.2566 0.1447 0.1447
0.3145 0.1483 0.1483
0.3855 0.1528 0.1528
0.4683 0.1580 0.1580
0.5560 0.1635 0.1635
0.6369 0.1685 0.1685
0.7000 0.1725 0.1725
0.7453 0.1753 0.1753
0.7780 0.1774 0.1774
0.8035 0.1790 0.1790
0.8122 0.1795 0.1795
0.1373 0.1373 0.1373
0.1423 0.1376 0.1376
0.1498 0.1380 0.1380
0.1622 0.1388 0.1388
0.1823 0.1401 0.1401
0.2128 0.1420 0.1420
0.2566 0.1447 0.1447
0.3145 0.1483 0.1483
0.3855 0.1528 0.1528
0.4683 0.1580 0.1580
0.5560 0.1635 0.1635
0.6369 0.1685 0.1685
0.7000 0.1725 0.1725
0.7453 0.1753 0.1753
0.7780 0.1774 0.1774
0.8035 0.1790 0.1790
0.8122 0.1795 0.1795
0.1372 0.1442 0.1372
0.1435 0.1441 0.1372
0.1509 0.1445 0.1393
0.1618 0.1456 0.1410
0.1817 0.1469 0.1420
0.2127 0.1487 0.1436
0.2568 0.1514 0.1462
0.3150 0.1550 0.1497
0.3861 0.1594 0.1541
0.4690 0.1645 0.1593
0.5568 0.1700 0.1648
0.6377 0.1750 0.1698
0.7009 0.1790 0.1738
0.7462 0.1818 0.1766
0.7789 0.1839 0.1786
0.8043 0.1855 0.1802
0.8130 0.1860 0.1808
0.1372 0.1550 0.1372
0.1434 0.1550 0.1371
0.1527 0.1550 0.1371
0.1661 0.1552 0.1404
0.1830 0.1571 0.1449
0.2110 0.1596 0.1476
0.2552 0.1624 0.1496
0.3140 0.1658 0.1527
0.3857 0.1700 0.1568
0.4691 0.1751 0.1617
0.5571 0.1805 0.1671
0.6382 0.1855 0.1721
0.7015 0.1894 0.1760
0.7469 0.1922 0.1788
0.7796 0.1943 0.1808
0.8051 0.1958 0.1824
0.8138 0.1964 0.1829
0.1371 0.1737 0.1371
0.1433 0.1737 0.1371
0.1526 0.1737 0.1370
0.1680 0.1737 0.1369
0.1908 0.1738 0.1413
0.2168 0.1763 0.1503
0.2551 0.1804 0.1559
0.3108 0.1847 0.1595
0.3827 0.1890 0.1628
0.4668 0.1939 0.1671
0.5557 0.1991 0.1720
0.6373 0.2039 0.1767
0.7009 0.2078 0.1805
0.7465 0.2105 0.1832
0.7794 0.2125 0.1852
0.8050 0.2141 0.1867
0.8137 0.2146 0.1872
0.1370 0.2041 0.1370
0.1432 0.2041 0.1370
0.1524 0.2041 0.1369
0.1678 0.2041 0.1368
0.1927 0.2041 0.1366
0.2286 0.2041 0.1418
0.2673 0.2071 0.1569
0.3163 0.2127 0.1670
0.3804 0.2190 0.1739
0.4615 0.2247 0.1783
0.5503 0.2300 0.1824
0.6325 0.2348 0.1864
0.6967 0.2385 0.1897
0.7426 0.2412 0.1921
0.7758 0.2431 0.1939
0.8016 0.2446 0.1953
0.8104 0.2452 0.1958
0.1368 0.2503 0.1368
0.1430 0.2503 0.1368
0.1523 0.2503 0.1367
0.1676 0.2503 0.1366
0.1924 0.2503 0.1364
0.2302 0.2503 0.1362
0.2829 0.2501 0.1418
0.3367 0.2531 0.1635
0.3959 0.2598 0.1802
0.4677 0.2677 0.1911
0.5474 0.2753 0.1991
0.6256 0.2812 0.2038
0.6886 0.2853 0.2069
0.7342 0.2881 0.2089
0.7674 0.2901 0.2104
0.7931 0.2916 0.2116
0.8019 0.2921 0.2120
0.1366 0.3149 0.1366
0.1428 0.3149 0.1365
0.1520 0.3149 0.1365
0.1674 0.3149 0.1364
0.1921 0.3149 0.1362
0.2298 0.3149 0.1359
0.2841 0.3148 0.1356
0.3546 0.3145 0.1409
0.4247 0.3170 0.1681
0.4944 0.3240 0.1929
0.5680 0.3326 0.2093
0.6383 0.3403 0.2197
0.6947 0.3460 0.2261
0.7358 0.3500 0.2303
0.7658 0.3528 0.2331
0.7895 0.3548 0.2350
0.7977 0.3555 0.2356
0.1362 0.3964 0.1362
0.1425 0.3965 0.1362
0.1517 0.3965 0.1362
0.1670 0.3965 0.1361
0.1918 0.3965 0.1359
0.2294 0.3965 0.1356
0.2836 0.3964 0.1352
0.3554 0.3963 0.1348
0.4425 0.3960 0.1395
0.5285 0.3976 0.1702
0.6050 0.4039 0.2014
0.6721 0.4114 0.2223
0.7249 0.4176 0.2346
0.7633 0.4221 0.2419
0.7913 0.4252 0.2466
0.8134 0.4276 0.2500
0.8209 0.4285 0.2511
0.1359 0.4927 0.1359
0.1421 0.4927 0.1358
0.1513 0.4927 0.1358
0.1667 0.4927 0.1357
0.1914 0.4927 0.1355
0.2290 0.4927 0.1353
0.2831 0.4927 0.1349
0.3548 0.4926 0.1343
0.4429 0.4925 0.1338
0.5449 0.4921 0.1381
0.6400 0.4928 0.1683
0.7150 0.4970 0.2001
0.7692 0.5018 0.2215
0.8069 0.5058 0.2348
0.8340 0.5089 0.2434
0.8551 0.5113 0.2495
0.8622 0.5122 0.2516
0.1355 0.5990 0.1355
0.1417 0.5990 0.1354
0.1509 0.5990 0.1354
0.1662 0.5990 0.1353
0.1909 0.5990 0.1351
0.2285 0.5990 0.1349
0.2826 0.5990 0.1345
0.3542 0.5990 0.1339
0.4422 0.5989 0.1333
0.5450 0.5987 0.1327
0.6533 0.5983 0.1360
0.7450 0.5982 0.1601
0.8088 0.5999 0.1851
0.8512 0.6020 0.2032
0.8806 0.6040 0.2157
0.9028 0.6058 0.2250
0.9102 0.6064 0.2283
0.1350 0.7034 0.1350
0.1413 0.7034 0.1350
0.1505 0.7034 0.1350
0.1658 0.7034 0.1349
0.1905 0.7034 0.1347
0.2281 0.7034 0.1345
0.2822 0.7034 0.1341
0.3536 0.7034 0.1336
0.4415 0.7034 0.1329
0.5442 0.7033 0.1322
0.6531 0.7030 0.1316
0.7533 0.7027 0.1336
0.8277 0.7022 0.1481
0.8776 0.7024 0.1636
0.9118 0.7029 0.1761
0.9374 0.7036 0.1864
0.9460 0.7039 0.1897
0.1347 0.7923 0.1347
0.1409 0.7923 0.1347
0.1501 0.7923 0.1346
0.1655 0.7923 0.1345
0.1902 0.7923 0.1344
0.2277 0.7923 0.1341
0.2818 0.7923 0.1338
0.3532 0.7923 0.1332
0.4411 0.7923 0.1326
0.5436 0.7922 0.1318
0.6524 0.7921 0.1311
0.7529 0.7919 0.1307
0.8313 0.7916 0.1314
0.8861 0.7912 0.1383
0.9243 0.7910 0.1466
0.9531 0.7909 0.1546
0.9627 0.7910 0.1575
0.1344 0.8581 0.1344
0.1407 0.8582 0.1344
0.1499 0.8582 0.1344
0.1652 0.8582 0.1343
0.1899 0.8582 0.1341
0.2275 0.8582 0.1339
0.2815 0.8582 0.1335
0.3529 0.8582 0.1330
0.4407 0.8582 0.1323
0.5432 0.8581 0.1316
0.6520 0.8580 0.1308
0.7524 0.8578 0.1303
0.8309 0.8577 0.1300
0.8871 0.8575 0.1301
0.9272 0.8572 0.1332
0.9578 0.8570 0.1377
0.9681 0.8569 0.1397
0.1343 0.9056 0.1343
0.1405 0.9056 0.1342
0.1497 0.9056 0.1342
0.1650 0.9056 0.1341
0.1897 0.9057 0.1339
0.2273 0.9057 0.1337
0.2813 0.9057 0.1333
0.3527 0.9057 0.1328
0.4405 0.9057 0.1322
0.5429 0.9056 0.1314
0.6516 0.9055 0.1306
0.7520 0.9054 0.1300
0.8305 0.9052 0.1296
0.8868 0.9051 0.1294
0.9274 0.9050 0.1294
0.9588 0.9048 0.1309
0.9694 0.9047 0.1318
0.1341 0.9408 0.1341
0.1403 0.9408 0.1341
0.1496 0.9408 0.1340
0.1649 0.9409 0.1340
0.1896 0.9409 0.1338
0.2272 0.9409 0.1336
0.2812 0.9409 0.1332
0.3526 0.9409 0.1327
0.4403 0.9409 0.1320
0.5428 0.9409 0.1313
0.6514 0.9408 0.1305
0.7518 0.9406 0.1298
0.8302 0.9405 0.1294
0.8865 0.9403 0.1292
0.9271 0.9403 0.1291
0.9587 0.9402 0.1290
0.9695 0.9401 0.1292
0.1340 0.9699 0.1340
0.1402 0.9699 0.1340
0.1495 0.9699 0.1339
0.1648 0.9699 0.1338
0.1895 0.9700 0.1337
0.2270 0.9700 0.1334
0.2811 0.9700 0.1331
0.3525 0.9700 0.1326
0.4402 0.9700 0.1319
0.5426 0.9700 0.1312
0.6512 0.9699 0.1304
0.7516 0.9697 0.1297
0.8300 0.9696 0.1293
0.8863 0.9695 0.1290
0.9269 0.9694 0.1289
0.9585 0.9693 0.1288
0.9693 0.9693 0.1287
0.1373 0.1373 0.1410
0.1435 0.1372 0.1416
0.1508 0.1378 0.1414
0.1629 0.1387 0.1421
0.1827 0.1401 0.1434
0.2131 0.1420 0.1453
0.2568 0.1448 0.1480
0.3147 0.1484 0.1517
0.3857 0.1528 0.1561
0.4685 0.1580 0.1613
0.5562 0.1635 0.1668
0.6371 0.1686 0.1719
0.7002 0.1725 0.1758
0.7455 0.1754 0.1786
0.7782 0.1774 0.1807
0.8036 0.1790 0.1823
0.8123 0.1795 0.1828
0.1373 0.1373 0.1410
0.1435 0.1372 0.1416
0.1508 0.1378 0.1414
0.1629 0.1387 0.1421
0.1827 0.1401 0.1434
0.2131 0.1420 0.1453
0.2568 0.1448 0.1480
0.3147 0.1484 0.1517
0.3857 0.1528 0.1561
0.4685 0.1580 0.1613
0.5562 0.1635 0.1668
0.6371 0.1686 0.1719
0.7002 0.1725 0.1758
0.7455 0.1754 0.1786
0.7782 0.1774 0.1807
0.8036 0.1790 0.1823
0.8123 0.1795 0.1828
0.1373 0.1441 0.1416
0.1435 0.1441 0.1415
0.1504 0.1447 0.1429
0.1629 0.1455 0.1436
0.1832 0.1467 0.1447
0.2138 0.1485 0.1466
0.2577 0.1513 0.1493
0.3156 0.1549 0.1529
0.3866 0.1593 0.1573
0.4694 0.1645 0.1625
0.5572 0.1700 0.1680
0.6380 0.1750 0.1731
0.7012 0.1790 0.1770
0.7465 0.1818 0.1799
0.7792 0.1839 0.1819
0.8046 0.1855 0.1835
0.8133 0.1860 0.1840
0.1372 0.1550 0.1415
0.1434 0.1550 0.1415
0.1527 0.1550 0.1414
0.1656 0.1554 0.1448
0.1828 0.1572 0.1482
0.2123 0.1595 0.1501
0.2568 0.1621 0.1522
0.3153 0.1655 0.1555
0.3868 0.1698 0.1597
0.4700 0.1749 0.1648
0.5579 0.1804 0.1702
0.6389 0.1854 0.1752
0.7022 0.1893 0.1791
0.7475 0.1921 0.1820
0.7802 0.1942 0.1840
0.8057 0.1958 0.1856
0.8144 0.1963 0.1861
0.1371 0.1737 0.1414
0.1433 0.1737 0.1414
0.1526 0.1737 0.1414
0.1680 0.1737 0.1412
0.1905 0.1738 0.1458
0.2163 0.1765 0.1540
0.2552 0.1805 0.1589
0.3121 0.1845 0.1620
0.3843 0.1887 0.1654
0.4683 0.1936 0.1699
0.5569 0.1988 0.1749
0.6385 0.2037 0.1797
0.7020 0.2076 0.1834
0.7475 0.2104 0.1862
0.7804 0.2124 0.1882
0.8059 0.2139 0.1897
0.8147 0.2145 0.1903
0.1370 0.2041 0.1413
0.1432 0.2041 0.1413
0.1525 0.2041 0.1412
0.1678 0.2041 0.1411
0.1927 0.2041 0.1410
0.2284 0.2041 0.1463
0.2667 0.2073 0.1610
0.3160 0.2129 0.1703
0.3809 0.2190 0.1766
0.4629 0.2245 0.1808
0.5518 0.2298 0.1849
0.6340 0.2345 0.1890
0.6982 0.2382 0.1924
0.7441 0.2409 0.1948
0.7772 0.2429 0.1967
0.8030 0.2444 0.1981
0.8118 0.2449 0.1986
0.1368 0.2503 0.1412
0.1430 0.2503 0.1411
0.1523 0.2503 0.1411
0.1676 0.2503 0.1410
0.1924 0.2503 0.1408
0.2302 0.2503 0.1405
0.2828 0.2501 0.1462
0.3362 0.2532 0.1678
0.3954 0.2600 0.1838
0.4676 0.2678 0.1943
0.5479 0.2753 0.2019
0.6267 0.2811 0.2064
0.6899 0.2851 0.2093
0.7357 0.2878 0.2114
0.7688 0.2898 0.2129
0.7947 0.2913 0.2141
0.8035 0.2919 0.2145
0.1366 0.3149 0.1409
0.1428 0.3149 0.1409
0.1520 0.3149 0.1408
0.1674 0.3149 0.1407
0.1921 0.3149 0.1405
0.2298 0.3149 0.1403
0.2841 0.3148 0.1399
0.3546 0.3145 0.1453
0.4243 0.3171 0.1726
0.4938 0.3243 0.1969
0.5676 0.3328 0.2128
0.6381 0.3405 0.2229
0.6946 0.3462 0.2293
0.7358 0.3501 0.2333
0.7660 0.3528 0.2360
0.7900 0.3548 0.2378
0.7983 0.3555 0.2383
0.1363 0.3964 0.1406
0.1425 0.3964 0.1405
0.1517 0.3964 0.1405
0.1670 0.3965 0.1404
0.1918 0.3965 0.1402
0.2294 0.3965 0.1400
0.2836 0.3964 0.1396
0.3554 0.3963 0.1391
0.4425 0.3960 0.1439
0.5282 0.3977 0.1748
0.6044 0.4040 0.2057
0.6715 0.4116 0.2262
0.7244 0.4178 0.2383
0.7628 0.4223 0.2454
0.7909 0.4254 0.2501
0.8130 0.4278 0.2534
0.8206 0.4287 0.2545
0.1359 0.4926 0.1402
0.1421 0.4926 0.1402
0.1513 0.4927 0.1401
0.1667 0.4927 0.1400
0.1914 0.4927 0.1399
0.2290 0.4927 0.1396
0.2831 0.4927 0.1392
0.3547 0.4926 0.1387
0.4429 0.4925 0.1381
0.5449 0.4921 0.1425
0.6398 0.4929 0.1729
0.7145 0.4971 0.2046
0.7686 0.5020 0.2259
0.8063 0.5060 0.2390
0.8333 0.5091 0.2475
0.8544 0.5116 0.2535
0.8616 0.5124 0.2556
0.1355 0.5990 0.1398
0.1417 0.5990 0.1398
0.1509 0.5990 0.1397
0.1663 0.5990 0.1396
0.1910 0.5990 0.1395
0.2285 0.5990 0.1392
0.2826 0.5990 0.1388
0.3542 0.5990 0.1383
0.4422 0.5989 0.1376
0.5449 0.5987 0.1371
0.6533 0.5983 0.1404
0.7449 0.5982 0.1646
0.8086 0.5999 0.1896
0.8508 0.6021 0.2078
0.8801 0.6041 0.2202
0.9023 0.6059 0.2295
0.9097 0.6066 0.2327
0.1351 0.7034 0.1394
0.1413 0.7034 0.1393
0.1505 0.7034 0.1393
0.1658 0.7034 0.1392
0.1905 0.7034 0.1391
0.2281 0.7034 0.1388
0.2822 0.7034 0.1384
0.3536 0.7034 0.1379
0.4415 0.7034 0.1372
0.5442 0.7032 0.1365
0.6531 0.7030 0.1360
0.7533 0.7027 0.1380
0.8277 0.7022 0.1526
0.8775 0.7024 0.1681
0.9116 0.7030 0.1807
0.9371 0.7037 0.1910
0.9458 0.7040 0.1943
0.1347 0.7923 0.1390
0.1409 0.7923 0.1390
0.1502 0.7923 0.1389
0.1655 0.7923 0.1389
0.1902 0.7923 0.1387
0.2278 0.7923 0.1385
0.2818 0.7923 0.1381
0.3532 0.7923 0.1376
0.4411 0.7923 0.1369
0.5436 0.7922 0.1362
0.6524 0.7921 0.1355
0.7529 0.7919 0.1350
0.8313 0.7916 0.1357
0.8861 0.7912 0.1427
0.9243 0.7910 0.1510
0.9530 0.7909 0.1591
0.9627 0.7910 0.1620
0.1345 0.8581 0.1388
0.1407 0.8581 0.1387
0.1499 0.8581 0.1387
0.1652 0.8582 0.1386
0.1899 0.8582 0.1385
0.2275 0.8582 0.1382
0.2815 0.8582 0.1378
0.3530 0.8582 0.1373
0.4407 0.8582 0.1367
0.5432 0.8581 0.1359
0.6520 0.8580 0.1352
0.7524 0.8578 0.1346
0.8308 0.8577 0.1343
0.8871 0.8575 0.1345
0.9272 0.8572 0.1376
0.9578 0.8570 0.1421
0.9681 0.8569 0.1441
0.1343 0.9056 0.1386
0.1405 0.9056 0.1386
0.1497 0.9056 0.1385
0.1651 0.9056 0.1384
0.1898 0.9056 0.1383
0.2273 0.9057 0.1380
0.2813 0.9057 0.1377
0.3527 0.9057 0.1372
0.4405 0.9057 0.1365
0.5429 0.9056 0.1357
0.6516 0.9055 0.1350
0.7520 0.9054 0.1344
0.8305 0.9052 0.1340
0.8868 0.9051 0.1338
0.9274 0.9050 0.1337
0.9588 0.9048 0.1353
0.9694 0.9047 0.1362
0.1341 0.9408 0.1385
0.1404 0.9408 0.1384
0.1496 0.9408 0.1384
0.1649 0.9408 0.1383
0.1896 0.9409 0.1381
0.2272 0.9409 0.1379
0.2812 0.9409 0.1375
0.3526 0.9409 0.1370
0.4403 0.9409 0.1364
0.5428 0.9409 0.1356
0.6514 0.9408 0.1348
0.7518 0.9406 0.1342
0.8302 0.9405 0.1338
0.8865 0.9403 0.1335
0.9271 0.9403 0.1334
0.9587 0.9402 0.1333
0.9695 0.9401 0.1335
0.1340 0.9699 0.1384
0.1402 0.9699 0.1383
0.1495 0.9699 0.1383
0.1648 0.9699 0.1382
0.1895 0.9699 0.1380
0.2271 0.9700 0.1378
0.2811 0.9700 0.1374
0.3525 0.9700 0.1369
0.4402 0.9700 0.1363
0.5426 0.9700 0.1355
0.6512 0.9699 0.1347
0.7516 0.9697 0.1340
0.8300 0.9696 0.1336
0.8862 0.9695 0.1334
0.9269 0.9694 0.1332
0.9585 0.9693 0.1331
0.9693 0.9693 0.1331
0.1374 0.1374 0.1484
0.1434 0.1373 0.1499
0.1528 0.1372 0.1502
0.1661 0.1379 0.1496
0.1851 0.1395 0.1501
0.2147 0.1417 0.1518
0.2579 0.1446 0.1545
0.3155 0.1483 0.1582
0.3863 0.1528 0.1627
0.4690 0.1581 0.1679
0.5566 0.1636 0.1734
0.6375 0.1686 0.1784
0.7006 0.1726 0.1824
0.7459 0.1754 0.1852
0.7786 0.1775 0.1873
0.8040 0.1791 0.1889
0.8127 0.1796 0.1894
0.1374 0.1374 0.1484
0.1434 0.1373 0.1499
0.1528 0.1372 0.1502
0.1661 0.1379 0.1496
0.1851 0.1395 0.1501
0.2147 0.1417 0.1518
0.2579 0.1446 0.1545
0.3155 0.1483 0.1582
0.3863 0.1528 0.1627
0.4690 0.1581 0.1679
0.5566 0.1636 0.1734
0.6375 0.1686 0.1784
0.7006 0.1726 0.1824
0.7459 0.1754 0.1852
0.7786 0.1775 0.1873
0.8040 0.1791 0.1889
0.8127 0.1796 0.1894
0.1379 0.1440 0.1494
0.1436 0.1442 0.1492
0.1527 0.1441 0.1501
0.1649 0.1451 0.1500
0.1844 0.1465 0.1512
0.2146 0.1485 0.1531
0.2583 0.1513 0.1558
0.3161 0.1549 0.1595
0.3871 0.1594 0.1639
0.4698 0.1646 0.1691
0.5575 0.1701 0.1746
0.6384 0.1751 0.1797
0.7016 0.1791 0.1836
0.7469 0.1819 0.1865
0.7796 0.1840 0.1885
0.8050 0.1856 0.1901
0.8137 0.1861 0.1906
0.1373 0.1550 0.1501
0.1435 0.1550 0.1501
0.1527 0.1550 0.1501
0.1646 0.1557 0.1525
0.1844 0.1571 0.1536
0.2152 0.1589 0.1553
0.2593 0.1616 0.1579
0.3173 0.1652 0.1615
0.3884 0.1696 0.1659
0.4713 0.1748 0.1711
0.5590 0.1803 0.1766
0.6399 0.1853 0.1816
0.7031 0.1893 0.1856
0.7484 0.1921 0.1884
0.7811 0.1941 0.1904
0.8065 0.1957 0.1920
0.8152 0.1963 0.1926
0.1372 0.1736 0.1501
0.1434 0.1736 0.1500
0.1526 0.1737 0.1500
0.1680 0.1736 0.1499
0.1897 0.1740 0.1548
0.2155 0.1769 0.1609
0.2566 0.1804 0.1642
0.3152 0.1839 0.1669
0.3873 0.1881 0.1707
0.4710 0.1931 0.1755
0.5593 0.1984 0.1807
0.6405 0.2034 0.1856
0.7039 0.2073 0.1895
0.7494 0.2101 0.1923
0.7822 0.2121 0.1943
0.8077 0.2137 0.1959
0.8164 0.2142 0.1964
0.1371 0.2041 0.1500
0.1433 0.2041 0.1499
0.1525 0.2041 0.1499
0.1678 0.2041 0.1498
0.1927 0.2041 0.1496
0.2279 0.2042 0.1554
0.2655 0.2077 0.1688
0.3157 0.2132 0.1767
0.3825 0.2188 0.1819
0.4658 0.2240 0.1857
0.5550 0.2292 0.1900
0.6371 0.2339 0.1943
0.7011 0.2377 0.1978
0.7470 0.2404 0.2003
0.7800 0.2423 0.2022
0.8057 0.2439 0.2037
0.8145 0.2444 0.2042
0.1369 0.2503 0.1498
0.1431 0.2503 0.1497
0.1523 0.2503 0.1497
0.1677 0.2503 0.1496
0.1924 0.2503 0.1494
0.2302 0.2503 0.1492
0.2825 0.2501 0.1552
0.3350 0.2536 0.1763
0.3945 0.2605 0.1910
0.4674 0.2681 0.2005
0.5492 0.2753 0.2073
0.6291 0.2807 0.2113
0.6928 0.2846 0.2142
0.7387 0.2873 0.2164
0.7719 0.2893 0.2179
0.7978 0.2908 0.2191
0.8066 0.2913 0.2196
0.1366 0.3149 0.1495
0.1428 0.3149 0.1495
0.1521 0.3149 0.1494
0.1674 0.3149 0.1493
0.1921 0.3149 0.1492
0.2298 0.3149 0.1489
0.2841 0.3148 0.1485
0.3544 0.3145 0.1542
0.4234 0.3173 0.1814
0.4926 0.3247 0.2048
0.5667 0.3333 0.2198
0.6377 0.3408 0.2293
0.6946 0.3464 0.2354
0.7361 0.3503 0.2392
0.7668 0.3529 0.2416
0.7912 0.3548 0.2432
0.7996 0.3554 0.2437
0.1363 0.3964 0.1492
0.1425 0.3964 0.1492
0.1517 0.3964 0.1491
0.1671 0.3964 0.1490
0.1918 0.3965 0.1489
0.2294 0.3965 0.1486
0.2836 0.3964 0.1482
0.3554 0.3963 0.1477
0.4424 0.3960 0.1528
0.5276 0.3978 0.1837
0.6033 0.4044 0.2140
0.6704 0.4121 0.2340
0.7233 0.4183 0.2456
0.7620 0.4227 0.2524
0.7902 0.4258 0.2569
0.8123 0.4282 0.2601
0.8200 0.4290 0.2611
0.1359 0.4926 0.1488
0.1421 0.4926 0.1488
0.1514 0.4926 0.1487
0.1667 0.4926 0.1487
0.1914 0.4927 0.1485
0.2290 0.4927 0.1482
0.2831 0.4927 0.1478
0.3547 0.4926 0.1473
0.4429 0.4925 0.1468
0.5448 0.4921 0.1512
0.6394 0.4930 0.1818
0.7137 0.4973 0.2133
0.7674 0.5023 0.2345
0.8051 0.5064 0.2474
0.8321 0.5095 0.2556
0.8532 0.5120 0.2615
0.8604 0.5128 0.2634
0.1355 0.5989 0.1484
0.1417 0.5989 0.1484
0.1509 0.5989 0.1483
0.1663 0.5990 0.1482
0.1910 0.5990 0.1481
0.2286 0.5990 0.1478
0.2826 0.5990 0.1475
0.3542 0.5990 0.1469
0.4422 0.5989 0.1463
0.5449 0.5987 0.1457
0.6532 0.5983 0.1491
0.7447 0.5983 0.1735
0.8080 0.6000 0.1987
0.8501 0.6023 0.2167
0.8792 0.6044 0.2292
0.9013 0.6062 0.2384
0.9089 0.6068 0.2413
0.1351 0.7033 0.1480
0.1413 0.7033 0.1480
0.1505 0.7033 0.1479
0.1659 0.7034 0.1478
0.1906 0.7034 0.1477
0.2281 0.7034 0.1474
0.2822 0.7034 0.1471
0.3537 0.7034 0.1465
0.4415 0.7034 0.1459
0.5442 0.7032 0.1452
0.6531 0.7030 0.1446
0.7533 0.7027 0.1466
0.8276 0.7022 0.1614
0.8772 0.7024 0.1772
0.9112 0.7030 0.1898
0.9367 0.7038 0.2000
0.9452 0.7040 0.2035
0.1348 0.7922 0.1477
0.1410 0.7922 0.1476
0.1502 0.7923 0.1476
0.1655 0.7923 0.1475
0.1902 0.7923 0.1473
0.2278 0.7923 0.1471
0.2818 0.7923 0.1467
0.3533 0.7923 0.1462
0.4411 0.7923 0.1456
0.5436 0.7922 0.1448
0.6524 0.7921 0.1441
0.7529 0.7919 0.1437
0.8312 0.7916 0.1444
0.8860 0.7912 0.1514
0.9242 0.7910 0.1599
0.9529 0.7909 0.1680
0.9625 0.7910 0.1708
0.1345 0.8581 0.1474
0.1407 0.8581 0.1474
0.1499 0.8581 0.1473
0.1653 0.8581 0.1472
0.1900 0.8582 0.1471
0.2275 0.8582 0.1468
0.2816 0.8582 0.1465
0.3530 0.8582 0.1460
0.4407 0.8582 0.1453
0.5432 0.8581 0.1446
0.6520 0.8580 0.1438
0.7524 0.8578 0.1432
0.8308 0.8577 0.1429
0.8871 0.8575 0.1431
0.9272 0.8572 0.1463
0.9578 0.8570 0.1509
0.9681 0.8569 0.1529
0.1343 0.9056 0.1472
0.1405 0.9056 0.1472
0.1498 0.9056 0.1471
0.1651 0.9056 0.1470
0.1898 0.9056 0.1469
0.2273 0.9056 0.1467
0.2814 0.9057 0.1463
0.3528 0.9057 0.1458
0.4405 0.9057 0.1452
0.5430 0.9056 0.1444
0.6516 0.9055 0.1436
0.7520 0.9054 0.1430
0.8305 0.9052 0.1426
0.8867 0.9051 0.1424
0.9274 0.9050 0.1424
0.9588 0.9048 0.1440
0.9694 0.9047 0.1449
0.1342 0.9408 0.1471
0.1404 0.9408 0.1471
0.1496 0.9408 0.1470
0.1650 0.9408 0.1469
0.1897 0.9408 0.1468
0.2272 0.9409 0.1465
0.2812 0.9409 0.1462
0.3526 0.9409 0.1457
0.4403 0.9409 0.1450
0.5428 0.9409 0.1443
0.6514 0.9408 0.1435
0.7518 0.9406 0.1428
0.8302 0.9405 0.1424
0.8865 0.9403 0.1422
0.9271 0.9402 0.1420
0.9587 0.9402 0.1420
0.9695 0.9401 0.1422
0.1341 0.9699 0.1470
0.1403 0.9699 0.1469
0.1495 0.9699 0.1469
0.1648 0.9699 0.1468
0.1895 0.9699 0.1467
0.2271 0.9699 0.1464
0.2811 0.9700 0.1461
0.3525 0.9700 0.1456
0.4402 0.9700 0.1449
0.5426 0.9700 0.1442
0.6512 0.9699 0.1434
0.7516 0.9697 0.1427
0.8300 0.9696 0.1423
0.8862 0.9695 0.1420
0.9269 0.9694 0.1418
0.9585 0.9693 0.1417
0.9693 0.9693 0.1417
0.1375 0.1375 0.1609
0.1432 0.1375 0.1623
0.1526 0.1373 0.1643
0.1682 0.1372 0.1646
0.1906 0.1379 0.1638
0.2196 0.1405 0.1636
0.2616 0.1439 0.1656
0.3182 0.1479 0.1691
0.3884 0.1526 0.1735
0.4707 0.1579 0.1788
0.5580 0.1635 0.1843
0.6387 0.1686 0.1894
0.7017 0.1726 0.1934
0.7469 0.1755 0.1962
0.7796 0.1775 0.1983
0.8050 0.1791 0.1999
0.8137 0.1797 0.2004
0.1375 0.1375 0.1609
0.1432 0.1375 0.1623
0.1526 0.1373 0.1643
0.1682 0.1372 0.1646
0.1906 0.1379 0.1638
0.2196 0.1405 0.1636
0.2616 0.1439 0.1656
0.3182 0.1479 0.1691
0.3884 0.1526 0.1735
0.4707 0.1579 0.1788
0.5580 0.1635 0.1843
0.6387 0.1686 0.1894
0.7017 0.1726 0.1934
0.7469 0.1755 0.1962
0.7796 0.1775 0.1983
0.8050 0.1791 0.1999
