assets/luts/LUTs/JD_SAN FRANSISCO.CUBE
TITLE "ColorFinale Export"
# Created by Jeven Dovey on 2022-01-27 18:37:30 +0000
# Color Finale Plugin v.2.4.5 (531)
LUT_3D_SIZE 9
0.1373 0.1373 0.1373
0.1498 0.1380 0.1380
0.1823 0.1401 0.1401
0.2566 0.1447 0.1447
0.3855 0.1528 0.1528
0.5560 0.1635 0.1635
0.7000 0.1725 0.1725
0.7780 0.1774 0.1774
0.8122 0.1795 0.1795
0.1372 0.1442 0.1372
0.1509 0.1445 0.1393
0.1817 0.1469 0.1420
0.2568 0.1514 0.1462
0.3861 0.1594 0.1541
0.5568 0.1700 0.1648
0.7009 0.1790 0.1738
0.7789 0.1839 0.1786
0.8130 0.1860 0.1808
0.1371 0.1737 0.1371
0.1526 0.1737 0.1370
0.1908 0.1738 0.1413
0.2551 0.1804 0.1559
0.3827 0.1890 0.1628
0.5557 0.1991 0.1720
0.7009 0.2078 0.1805
0.7794 0.2125 0.1852
0.8137 0.2146 0.1872
0.1368 0.2503 0.1368
0.1523 0.2503 0.1367
0.1924 0.2503 0.1364
0.2829 0.2501 0.1418
0.3959 0.2598 0.1802
0.5474 0.2753 0.1991
0.6886 0.2853 0.2069
0.7674 0.2901 0.2104
0.8019 0.2921 0.2120
0.1362 0.3964 0.1362
0.1517 0.3965 0.1362
0.1918 0.3965 0.1359
0.2836 0.3964 0.1352
0.4425 0.3960 0.1395
0.6050 0.4039 0.2014
0.7249 0.4176 0.2346
0.7913 0.4252 0.2466
0.8209 0.4285 0.2511
0.1355 0.5990 0.1355
0.1509 0.5990 0.1354
0.1909 0.5990 0.1351
0.2826 0.5990 0.1345
0.4422 0.5989 0.1333
0.6533 0.5983 0.1360
0.8088 0.5999 0.1851
0.8806 0.6040 0.2157
0.9102 0.6064 0.2283
0.1347 0.7923 0.1347
0.1501 0.7923 0.1346
0.1902 0.7923 0.1344
0.2818 0.7923 0.1338
0.4411 0.7923 0.1326
0.6524 0.7921 0.1311
0.8313 0.7916 0.1314
0.9243 0.7910 0.1466
0.9627 0.7910 0.1575
0.1343 0.9056 0.1343
0.1497 0.9056 0.1342
0.1897 0.9057 0.1339
0.2813 0.9057 0.1333
0.4405 0.9057 0.1322
0.6516 0.9055 0.1306
0.8305 0.9052 0.1296
0.9274 0.9050 0.1294
0.9694 0.9047 0.1318
0.1340 0.9699 0.1340
0.1495 0.9699 0.1339
0.1895 0.9700 0.1337
0.2811 0.9700 0.1331
0.4402 0.9700 0.1319
0.6512 0.9699 0.1304
0.8300 0.9696 0.1293
0.9269 0.9694 0.1289
0.9693 0.9693 0.1287
0.1374 0.1374 0.1484
0.1528 0.1372 0.1502
0.1851 0.1395 0.1501
0.2579 0.1446 0.1545
0.3863 0.1528 0.1627
0.5566 0.1636 0.1734
0.7006 0.1726 0.1824
0.7786 0.1775 0.1873
0.8127 0.1796 0.1894
0.1379 0.1440 0.1494
0.1527 0.1441 0.1501
0.1844 0.1465 0.1512
0.2583 0.1513 0.1558
0.3871 0.1594 0.1639
0.5575 0.1701 0.1746
0.7016 0.1791 0.1836
0.7796 0.1840 0.1885
0.8137 0.1861 0.1906
0.1372 0.1736 0.1501
0.1526 0.1737 0.1500
0.1897 0.1740 0.1548
0.2566 0.1804 0.1642
0.3873 0.1881 0.1707
0.5593 0.1984 0.1807
0.7039 0.2073 0.1895
0.7822 0.2121 0.1943
0.8164 0.2142 0.1964
0.1369 0.2503 0.1498
0.1523 0.2503 0.1497
0.1924 0.2503 0.1494
0.2825 0.2501 0.1552
0.3945 0.2605 0.1910
0.5492 0.2753 0.2073
0.6928 0.2846 0.2142
0.7719 0.2893 0.2179
0.8066 0.2913 0.2196
0.1363 0.3964 0.1492
0.1517 0.3964 0.1491
0.1918 0.3965 0.1489
0.2836 0.3964 0.1482
0.4424 0.3960 0.1528
0.6033 0.4044 0.2140
0.7233 0.4183 0.2456
0.7902 0.4258 0.2569
0.8200 0.4290 0.2611
0.1355 0.5989 0.1484
0.1509 0.5989 0.1483
0.1910 0.5990 0.1481
0.2826 0.5990 0.1475
0.4422 0.5989 0.1463
0.6532 0.5983 0.1491
0.8080 0.6000 0.1987
0.8792 0.6044 0.2292
0.9089 0.6068 0.2413
0.1348 0.7922 0.1477
0.1502 0.7923 0.1476
0.1902 0.7923 0.1473
0.2818 0.7923 0.1467
0.4411 0.7923 0.1456
0.6524 0.7921 0.1441
0.8312 0.7916 0.1444
0.9242 0.7910 0.1599
0.9625 0.7910 0.1708
0.1343 0.9056 0.1472
0.1498 0.9056 0.1471
0.1898 0.9056 0.1469
0.2814 0.9057 0.1463
0.4405 0.9057 0.1452
0.6516 0.9055 0.1436
0.8305 0.9052 0.1426
0.9274 0.9050 0.1424
0.9694 0.9047 0.1449
0.1341 0.9699 0.1470
0.1495 0.9699 0.1469
0.1895 0.9699 0.1467
0.2811 0.9700 0.1461
0.4402 0.9700 0.1449
0.6512 0.9699 0.1434
0.8300 0.9696 0.1423
0.9269 0.9694 0.1418
0.9693 0.9693 0.1417
0.1378 0.1378 0.1814
0.1521 0.1377 0.1850
0.1930 0.1371 0.1882
0.2705 0.1415 0.1860
0.3941 0.1514 0.1917
0.5618 0.1630 0.2022
0.7047 0.1723 0.2112
0.7823 0.1773 0.2162
0.8163 0.1795 0.2183
0.1386 0.1444 0.1814
0.1524 0.1446 0.1842
0.1930 0.1440 0.1882
0.2693 0.1487 0.1864
0.3936 0.1584 0.1928
0.5618 0.1697 0.2035
0.7050 0.1790 0.2125
0.7827 0.1839 0.2175
0.8167 0.1861 0.2196
0.1390 0.1732 0.1868
0.1543 0.1733 0.1864
0.1928 0.1736 0.1880
0.2655 0.1790 0.1902
0.3934 0.1873 0.1983
0.5636 0.1981 0.2090
0.7076 0.2071 0.2181
0.7855 0.2120 0.2229
0.8197 0.2142 0.2251
0.1371 0.2502 0.1879
0.1525 0.2502 0.1879
0.1925 0.2502 0.1877
0.2807 0.2505 0.1954
0.3922 0.2620 0.2200
0.5600 0.2736 0.2294
0.7064 0.2821 0.2367
0.7855 0.2867 0.2409
0.8201 0.2888 0.2428
0.1365 0.3963 0.1874
0.1519 0.3963 0.1873
0.1919 0.3964 0.1871
0.2836 0.3964 0.1865
0.4420 0.3959 0.1919
0.5980 0.4061 0.2507
0.7194 0.4201 0.2768
0.7877 0.4274 0.2861
0.8181 0.4305 0.2897
0.1357 0.5988 0.1866
0.1511 0.5989 0.1866
0.1911 0.5989 0.1863
0.2827 0.5989 0.1857
0.4421 0.5989 0.1846
0.6531 0.5983 0.1879
0.8053 0.6006 0.2389
0.8750 0.6054 0.2686
0.9042 0.6081 0.2800
0.1349 0.7922 0.1859
0.1504 0.7922 0.1858
0.1904 0.7922 0.1856
0.2819 0.7922 0.1850
0.4411 0.7922 0.1839
0.6524 0.7920 0.1824
0.8312 0.7916 0.1828
0.9237 0.7910 0.1992
0.9617 0.7910 0.2106
0.1345 0.9055 0.1855
0.1499 0.9055 0.1854
0.1899 0.9055 0.1851
0.2815 0.9056 0.1846
0.4406 0.9056 0.1834
0.6516 0.9055 0.1819
0.8304 0.9052 0.1809
0.9273 0.9049 0.1807
0.9693 0.9047 0.1834
0.1342 0.9698 0.1852
0.1497 0.9698 0.1851
0.1897 0.9698 0.1849
0.2812 0.9699 0.1843
0.4403 0.9699 0.1832
0.6512 0.9698 0.1816
0.8299 0.9695 0.1805
0.9268 0.9693 0.1801
0.9692 0.9692 0.1800
0.1387 0.1387 0.2583
0.1525 0.1388 0.2615
0.1913 0.1382 0.2713
0.2851 0.1369 0.2771
0.4277 0.1422 0.2720
0.5891 0.1566 0.2732
0.7271 0.1676 0.2798
0.8027 0.1733 0.2841
0.8359 0.1757 0.2861
0.1395 0.1453 0.2581
0.1531 0.1456 0.2609
0.1913 0.1451 0.2706
0.2851 0.1438 0.2770
0.4267 0.1494 0.2720
0.5881 0.1637 0.2739
0.7264 0.1746 0.2809
0.8020 0.1803 0.2853
0.8352 0.1827 0.2873
0.1429 0.1736 0.2603
0.1565 0.1741 0.2605
0.1920 0.1748 0.2672
0.2849 0.1734 0.2768
0.4218 0.1803 0.2723
0.5838 0.1941 0.2775
0.7235 0.2045 0.2856
0.7999 0.2099 0.2903
0.8334 0.2122 0.2924
0.1406 0.2493 0.2745
0.1560 0.2494 0.2744
0.1958 0.2495 0.2739
0.2844 0.2501 0.2764
0.4105 0.2594 0.2799
0.5795 0.2706 0.2906
0.7230 0.2797 0.2997
0.8009 0.2846 0.3046
0.8350 0.2868 0.3067
0.1372 0.3961 0.2762
0.1525 0.3961 0.2762
0.1924 0.3961 0.2761
0.2838 0.3962 0.2758
0.4400 0.3961 0.2844
0.5871 0.4104 0.3281
0.7168 0.4232 0.3423
0.7923 0.4288 0.3468
0.8261 0.4311 0.3485
0.1362 0.5986 0.2757
0.1516 0.5986 0.2756
0.1916 0.5987 0.2754
0.2830 0.5988 0.2750
0.4421 0.5988 0.2738
0.6526 0.5982 0.2783
0.7975 0.6024 0.3320
0.8640 0.6086 0.3581
0.8924 0.6117 0.3677
0.1354 0.7919 0.2750
0.1508 0.7919 0.2749
0.1908 0.7920 0.2747
0.2823 0.7921 0.2742
0.4412 0.7921 0.2732
0.6523 0.7919 0.2716
0.8311 0.7915 0.2723
0.9224 0.7910 0.2911
0.9594 0.7913 0.3032
0.1350 0.9053 0.2746
0.1504 0.9053 0.2745
0.1904 0.9053 0.2743
0.2818 0.9054 0.2738
0.4407 0.9055 0.2727
0.6516 0.9054 0.2712
0.8304 0.9051 0.2701
0.9273 0.9049 0.2699
0.9691 0.9046 0.2732
0.1347 0.9696 0.2743
0.1501 0.9696 0.2742
0.1901 0.9696 0.2740
0.2816 0.9697 0.2735
0.4405 0.9698 0.2725
0.6512 0.9697 0.2709
0.8299 0.9695 0.2698
0.9268 0.9693 0.2693
0.9692 0.9692 0.2692
0.1402 0.1402 0.3907
0.1538 0.1404 0.3937
0.1905 0.1405 0.4030
0.2825 0.1382 0.4239
0.4448 0.1366 0.4299
0.6448 0.1401 0.4248
0.7867 0.1513 0.4181
0.8605 0.1580 0.4171
0.8926 0.1610 0.4171
0.1410 0.1469 0.3904
0.1545 0.1471 0.3932
0.1909 0.1473 0.4023
0.2824 0.1452 0.4234
0.4448 0.1435 0.4299
0.6442 0.1472 0.4247
0.7855 0.1585 0.4181
0.8594 0.1652 0.4173
0.8915 0.1682 0.4175
0.1446 0.1753 0.3904
0.1579 0.1757 0.3921
0.1931 0.1764 0.3992
0.2819 0.1750 0.4211
0.4446 0.1730 0.4297
0.6412 0.1776 0.4239
0.7806 0.1894 0.4186
0.8541 0.1961 0.4187
0.8864 0.1990 0.4192
0.1514 0.2486 0.4020
0.1657 0.2490 0.4013
0.2018 0.2502 0.4005
0.2829 0.2521 0.4129
0.4441 0.2497 0.4293
0.6310 0.2573 0.4225
0.7672 0.2696 0.4223
0.8411 0.2759 0.4248
0.8737 0.2786 0.4261
0.1421 0.3948 0.4263
0.1575 0.3948 0.4263
0.1972 0.3949 0.4263
0.2882 0.3951 0.4259
0.4432 0.3960 0.4284
0.6091 0.4086 0.4337
0.7518 0.4180 0.4428
0.8294 0.4230 0.4477
0.8633 0.4252 0.4499
0.1375 0.5982 0.4283
0.1528 0.5982 0.4283
0.1927 0.5983 0.4283
0.2839 0.5984 0.4282
0.4424 0.5985 0.4276
0.6505 0.5982 0.4361
0.7782 0.6082 0.4838
0.8439 0.6158 0.4978
0.8733 0.6191 0.5025
0.1365 0.7915 0.4280
0.1519 0.7915 0.4280
0.1918 0.7916 0.4279
0.2831 0.7917 0.4276
0.4416 0.7918 0.4268
0.6523 0.7918 0.4253
0.8308 0.7913 0.4268
0.9185 0.7914 0.4506
0.9527 0.7924 0.4642
0.1360 0.9049 0.4277
0.1514 0.9049 0.4276
0.1913 0.9049 0.4275
0.2826 0.9050 0.4272
0.4412 0.9052 0.4264
0.6516 0.9052 0.4249
0.8303 0.9050 0.4237
0.9271 0.9047 0.4237
0.9686 0.9044 0.4283
0.1357 0.9692 0.4275
0.1511 0.9692 0.4274
0.1910 0.9692 0.4273
0.2823 0.9693 0.4269
0.4409 0.9695 0.4261
0.6513 0.9695 0.4246
0.8298 0.9693 0.4234
0.9267 0.9692 0.4229
0.9691 0.9691 0.4228
0.1422 0.1422 0.5634
0.1558 0.1424 0.5662
0.1918 0.1428 0.5749
0.2788 0.1418 0.5975
0.4432 0.1372 0.6267
0.6560 0.1361 0.6292
0.8336 0.1362 0.6284
0.9232 0.1384 0.6248
0.9600 0.1402 0.6226
0.1429 0.1489 0.5630
0.1565 0.1491 0.5658
0.1923 0.1495 0.5742
0.2789 0.1487 0.5968
0.4430 0.1442 0.6265
0.6560 0.1430 0.6292
0.8335 0.1431 0.6283
0.9227 0.1455 0.6246
0.9594 0.1473 0.6224
0.1465 0.1774 0.5623
0.1599 0.1777 0.5645
0.1951 0.1785 0.5717
0.2797 0.1783 0.5933
0.4425 0.1739 0.6253
0.6558 0.1726 0.6290
0.8329 0.1728 0.6279
0.9208 0.1756 0.6238
0.9569 0.1776 0.6216
0.1555 0.2506 0.5678
0.1691 0.2512 0.5681
0.2040 0.2525 0.5701
0.2843 0.2543 0.5848
0.4409 0.2513 0.6213
0.6554 0.2493 0.6286
0.8304 0.2502 0.6265
0.9144 0.2543 0.6216
0.9491 0.2566 0.6194
0.1607 0.3920 0.5979
0.1757 0.3922 0.5971
0.2142 0.3928 0.5952
0.2998 0.3950 0.5911
0.4411 0.3986 0.6072
0.6545 0.3955 0.6277
0.8196 0.3997 0.6224
0.8959 0.4059 0.6188
0.9285 0.4088 0.6180
0.1434 0.5966 0.6244
0.1587 0.5967 0.6244
0.1984 0.5968 0.6245
0.2892 0.5970 0.6246
0.4469 0.5973 0.6247
0.6515 0.5988 0.6259
0.7906 0.6096 0.6316
0.8677 0.6147 0.6365
0.9016 0.6169 0.6387
0.1383 0.7910 0.6265
0.1536 0.7910 0.6265
0.1935 0.7910 0.6265
0.2847 0.7911 0.6266
0.4429 0.7913 0.6265
0.6524 0.7915 0.6257
0.8296 0.7912 0.6301
0.9048 0.7944 0.6598
0.9336 0.7972 0.6706
0.1376 0.9043 0.6266
0.1530 0.9043 0.6266
0.1929 0.9044 0.6265
0.2841 0.9045 0.6265
0.4423 0.9047 0.6262
0.6520 0.9049 0.6253
0.8301 0.9048 0.6240
0.9269 0.9046 0.6244
0.9672 0.9043 0.6322
0.1373 0.9686 0.6265
0.1527 0.9686 0.6265
0.1926 0.9687 0.6265
0.2838 0.9688 0.6263
0.4420 0.9690 0.6260
0.6517 0.9692 0.6250
0.8297 0.9691 0.6237
0.9265 0.9690 0.6231
0.9689 0.9689 0.6230
0.1440 0.1440 0.7183
0.1576 0.1442 0.7212
0.1933 0.1447 0.7294
0.2782 0.1444 0.7514
0.4376 0.1405 0.7887
0.6563 0.1358 0.8090
0.8345 0.1357 0.8082
0.9308 0.1357 0.8077
0.9729 0.1357 0.8076
0.1447 0.1507 0.7179
0.1583 0.1509 0.7207
0.1939 0.1514 0.7289
0.2785 0.1513 0.7507
0.4375 0.1474 0.7882
0.6562 0.1427 0.8090
0.8345 0.1426 0.8082
0.9307 0.1426 0.8077
0.9729 0.1426 0.8075
0.1482 0.1792 0.7170
0.1616 0.1795 0.7194
0.1968 0.1803 0.7266
0.2800 0.1807 0.7472
0.4371 0.1773 0.7857
0.6560 0.1723 0.8087
0.8343 0.1721 0.8080
0.9306 0.1721 0.8075
0.9727 0.1721 0.8074
0.1576 0.2527 0.7195
0.1710 0.2532 0.7204
0.2057 0.2544 0.7242
0.2859 0.2562 0.7395
0.4368 0.2547 0.7781
0.6553 0.2491 0.8079
0.8338 0.2488 0.8076
0.9301 0.2488 0.8071
0.9722 0.2488 0.8069
0.1697 0.3925 0.7441
0.1840 0.3929 0.7434
0.2208 0.3940 0.7419
0.3028 0.3969 0.7409
0.4422 0.4006 0.7615
0.6533 0.3960 0.8048
0.8330 0.3951 0.8067
0.9292 0.3951 0.8063
0.9713 0.3951 0.8061
0.1613 0.5930 0.7860
0.1767 0.5930 0.7857
0.2164 0.5932 0.7848
0.3069 0.5938 0.7821
0.4610 0.5959 0.7751
0.6509 0.6003 0.7905
0.8318 0.5978 0.8055
0.9256 0.5986 0.8039
0.9620 0.6005 0.8017
0.1439 0.7895 0.8025
0.1592 0.7895 0.8025
0.1989 0.7896 0.8026
0.2896 0.7898 0.8028
0.4470 0.7902 0.8032
0.6553 0.7907 0.8036
0.8267 0.7924 0.8039
0.9026 0.7980 0.8082
0.9365 0.8002 0.8103
0.1394 0.9038 0.8042
0.1548 0.9038 0.8042
0.1946 0.9039 0.8042
0.2858 0.9040 0.8043
0.4439 0.9042 0.8044
0.6531 0.9044 0.8045
0.8301 0.9046 0.8039
0.9261 0.9044 0.8062
0.9606 0.9053 0.8193
0.1390 0.9681 0.8044
0.1543 0.9681 0.8044
0.1942 0.9682 0.8044
0.2854 0.9683 0.8045
0.4435 0.9685 0.8045
0.6528 0.9687 0.8043
0.8299 0.9689 0.8036
0.9264 0.9688 0.8029
0.9688 0.9688 0.8028
0.1450 0.1450 0.8085
0.1586 0.1453 0.8113
0.1942 0.1457 0.8195
0.2784 0.1458 0.8410
0.4351 0.1425 0.8799
0.6548 0.1365 0.9108
0.8348 0.1355 0.9128
0.9312 0.1354 0.9123
0.9733 0.1354 0.9121
0.1458 0.1517 0.8081
0.1593 0.1520 0.8108
0.1949 0.1525 0.8188
0.2788 0.1526 0.8402
0.4350 0.1494 0.8792
0.6546 0.1434 0.9107
0.8347 0.1424 0.9128
0.9311 0.1424 0.9123
0.9733 0.1423 0.9121
0.1492 0.1803 0.8070
0.1627 0.1806 0.8095
0.1978 0.1813 0.8167
0.2806 0.1819 0.8369
0.4350 0.1792 0.8762
0.6542 0.1731 0.9099
0.8345 0.1719 0.9126
0.9310 0.1719 0.9121
0.9731 0.1719 0.9119
0.1586 0.2538 0.8084
0.1720 0.2543 0.8097
0.2067 0.2555 0.8141
0.2869 0.2572 0.8296
0.4357 0.2564 0.8679
0.6528 0.2503 0.9074
0.8341 0.2486 0.9122
0.9305 0.2486 0.9117
0.9726 0.2486 0.9115
0.1728 0.3934 0.8296
0.1869 0.3938 0.8292
0.2230 0.3951 0.8283
0.3040 0.3981 0.8291
0.4430 0.4018 0.8514
0.6499 0.3978 0.8999
0.8332 0.3949 0.9113
0.9296 0.3948 0.9108
0.9718 0.3948 0.9106
0.1712 0.5916 0.8740
0.1864 0.5917 0.8734
0.2257 0.5921 0.8719
0.3148 0.5932 0.8678
0.4644 0.5967 0.8605
0.6510 0.6017 0.8799
0.8319 0.5976 0.9100
0.9285 0.5975 0.9096
0.9706 0.5975 0.9094
0.1531 0.7873 0.9004
0.1684 0.7873 0.9004
0.2082 0.7874 0.9003
0.2992 0.7876 0.9000
0.4572 0.7880 0.8988
0.6651 0.7891 0.8938
0.8292 0.7922 0.9021
0.9273 0.7910 0.9085
0.9688 0.7912 0.9080
0.1442 0.9026 0.9060
0.1595 0.9026 0.9061
0.1992 0.9027 0.9061
0.2899 0.9029 0.9064
0.4473 0.9033 0.9067
0.6555 0.9038 0.9072
0.8314 0.9042 0.9076
0.9230 0.9055 0.9082
0.9568 0.9077 0.9104
0.1411 0.9676 0.9072
0.1564 0.9676 0.9072
0.1962 0.9677 0.9073
0.2870 0.9679 0.9075
0.4447 0.9682 0.9077
0.6537 0.9684 0.9079
0.8305 0.9686 0.9079
0.9264 0.9687 0.9076
0.9687 0.9687 0.9073
0.1456 0.1456 0.8613
0.1592 0.1459 0.8641
0.1948 0.1464 0.8722
0.2786 0.1465 0.8935
0.4339 0.1436 0.9329
0.6531 0.1373 0.9686
0.8348 0.1354 0.9742
0.9313 0.1353 0.9737
0.9735 0.1353 0.9735
0.1464 0.1523 0.8609
0.1600 0.1526 0.8637
0.1955 0.1531 0.8716
0.2790 0.1533 0.8928
0.4339 0.1505 0.9323
0.6529 0.1442 0.9684
0.8348 0.1423 0.9741
0.9313 0.1422 0.9737
0.9735 0.1422 0.9735
0.1498 0.1809 0.8598
0.1633 0.1812 0.8624
0.1984 0.1819 0.8696
0.2810 0.1826 0.8895
0.4341 0.1803 0.9291
0.6524 0.1740 0.9673
0.8346 0.1719 0.9739
0.9311 0.1718 0.9735
0.9733 0.1718 0.9733
0.1592 0.2545 0.8608
0.1726 0.2550 0.8622
0.2073 0.2561 0.8668
0.2875 0.2579 0.8825
0.4353 0.2573 0.9205
0.6508 0.2513 0.9637
0.8341 0.2486 0.9735
0.9307 0.2485 0.9731
0.9728 0.2485 0.9728
0.1742 0.3940 0.8802
0.1882 0.3945 0.8798
0.2241 0.3958 0.8793
0.3047 0.3988 0.8811
0.4436 0.4024 0.9041
0.6482 0.3990 0.9541
0.8332 0.3949 0.9725
0.9298 0.3947 0.9722
0.9720 0.3947 0.9720
0.1761 0.5912 0.9246
0.1912 0.5913 0.9240
0.2302 0.5918 0.9221
0.3182 0.5933 0.9177
0.4658 0.5973 0.9111
0.6513 0.6024 0.9326
0.8306 0.5982 0.9689
0.9286 0.5974 0.9710
0.9708 0.5974 0.9708
0.1593 0.7860 0.9560
0.1747 0.7860 0.9558
0.2145 0.7861 0.9555
0.3056 0.7863 0.9545
0.4634 0.7869 0.9517
0.6687 0.7891 0.9436
0.8289 0.7932 0.9546
0.9274 0.7909 0.9698
0.9697 0.7908 0.9697
0.1490 0.9014 0.9643
0.1643 0.9014 0.9644
0.2040 0.9015 0.9644
0.2948 0.9017 0.9645
0.4524 0.9021 0.9646
0.6611 0.9025 0.9641
0.8371 0.9033 0.9607
0.9259 0.9050 0.9655
0.9690 0.9043 0.9690
0.1445 0.9667 0.9667
0.1598 0.9667 0.9667
0.1995 0.9668 0.9668
0.2902 0.9670 0.9670
0.4476 0.9674 0.9674
0.6558 0.9679 0.9679
0.8317 0.9683 0.9683
0.9270 0.9685 0.9685
0.9686 0.9686 0.9686
