assets/luts/LUTs/JD_Shasta.CUBE
TITLE "ColorFinale Export"
# Created by Jeven Dovey on 2021-07-15 17:40:48 +0000
# Color Finale Plugin v.2.3.2 (520)
LUT_3D_SIZE 17
0.0862 0.0863 0.0880
0.1010 0.0864 0.0876
0.1188 0.0866 0.0868
0.1406 0.0867 0.0867
0.1686 0.0867 0.0868
0.2068 0.0869 0.0870
0.2619 0.0873 0.0874
0.3405 0.0877 0.0880
0.4377 0.0881 0.0884
0.5371 0.0885 0.0889
0.6241 0.0888 0.0893
0.6930 0.0890 0.0895
0.7447 0.0891 0.0897
0.7893 0.0892 0.0898
0.8373 0.0893 0.0899
0.8939 0.0893 0.0901
0.8997 0.0893 0.0901
0.0878 0.1013 0.0890
0.1096 0.1000 0.0907
0.1266 0.1003 0.0900
0.1455 0.1005 0.0866
0.1728 0.0996 0.0846
0.2108 0.0983 0.0818
0.2656 0.0968 0.0777
0.3429 0.0957 0.0719
0.4431 0.0905 0.0909
0.5401 0.0891 0.0895
0.6258 0.0888 0.0893
0.6941 0.0890 0.0895
0.7454 0.0891 0.0897
0.7898 0.0892 0.0899
0.8375 0.0893 0.0899
0.8937 0.0893 0.0901
0.9019 0.0893 0.0901
0.0896 0.1224 0.0900
0.1116 0.1212 0.0904
0.1395 0.1193 0.0938
0.1651 0.1188 0.0969
0.1885 0.1203 0.0895
0.2228 0.1210 0.0836
0.2769 0.1206 0.0794
0.3542 0.1197 0.0733
0.4472 0.1187 0.0659
0.5407 0.1179 0.0586
0.6232 0.1172 0.0522
0.6891 0.1168 0.0471
0.7393 0.1165 0.0432
0.7828 0.1165 0.0398
0.8297 0.1166 0.0362
0.8845 0.1167 0.0319
0.8946 0.1164 0.0311
0.0915 0.1486 0.0908
0.1124 0.1473 0.0911
0.1432 0.1449 0.0915
0.1785 0.1426 0.0965
0.2174 0.1416 0.1009
0.2563 0.1430 0.0955
0.3051 0.1453 0.0823
0.3757 0.1463 0.0744
0.4628 0.1463 0.0675
0.5513 0.1457 0.0603
0.6310 0.1449 0.0539
0.6956 0.1443 0.0488
0.7455 0.1440 0.0448
0.7890 0.1438 0.0413
0.8358 0.1437 0.0375
0.8903 0.1437 0.0332
0.9027 0.1434 0.0322
0.0935 0.1829 0.0916
0.1134 0.1815 0.0919
0.1437 0.1792 0.0921
0.1844 0.1754 0.0928
0.2340 0.1727 0.0986
0.2959 0.1709 0.1030
0.3594 0.1720 0.0990
0.4228 0.1754 0.0845
0.4945 0.1780 0.0681
0.5716 0.1790 0.0620
0.6450 0.1790 0.0560
0.7067 0.1787 0.0509
0.7556 0.1785 0.0469
0.7992 0.1783 0.0434
0.8455 0.1781 0.0396
0.8991 0.1780 0.0352
0.9138 0.1776 0.0339
0.0956 0.2317 0.0923
0.1144 0.2300 0.0925
0.1444 0.2273 0.0927
0.1853 0.2232 0.0929
0.2433 0.2177 0.0949
0.3183 0.2140 0.0994
0.4072 0.2110 0.1035
0.4858 0.2112 0.1016
0.5499 0.2150 0.0887
0.6115 0.2192 0.0715
0.6730 0.2218 0.0578
0.7295 0.2230 0.0532
0.7768 0.2235 0.0493
0.8193 0.2238 0.0458
0.8641 0.2239 0.0421
0.9155 0.2241 0.0378
0.9321 0.2237 0.0364
0.0977 0.3047 0.0929
0.1154 0.3024 0.0930
0.1452 0.2990 0.0932
0.1858 0.2943 0.0933
0.2454 0.2875 0.0934
0.3326 0.2792 0.0967
0.4332 0.2734 0.0999
0.5301 0.2680 0.1047
0.6075 0.2665 0.1062
0.6698 0.2699 0.0968
0.7252 0.2753 0.0814
0.7768 0.2797 0.0670
0.8214 0.2824 0.0565
0.8606 0.2842 0.0482
0.9017 0.2857 0.0446
0.9476 0.2869 0.0408
0.9645 0.2869 0.0394
0.0997 0.4030 0.0933
0.1162 0.4005 0.0934
0.1458 0.3969 0.0934
0.1860 0.3921 0.0935
0.2452 0.3851 0.0936
0.3367 0.3752 0.0935
0.4515 0.3640 0.0985
0.5556 0.3551 0.1033
0.6452 0.3477 0.1085
0.7240 0.3437 0.1131
0.7939 0.3458 0.1076
0.8527 0.3504 0.0961
0.8966 0.3548 0.0856
0.9318 0.3584 0.0766
0.9649 0.3618 0.0678
0.9744 0.3647 0.0606
0.9742 0.3654 0.0576
0.1015 0.5102 0.0935
0.1166 0.5079 0.0936
0.1463 0.5047 0.0936
0.1861 0.5005 0.0936
0.2447 0.4946 0.0935
0.3353 0.4861 0.0935
0.4576 0.4743 0.0934
0.5747 0.4619 0.1009
0.6724 0.4512 0.1090
0.7631 0.4432 0.1146
0.8565 0.4385 0.1186
0.9294 0.4381 0.1175
0.9744 0.4398 0.1130
0.9745 0.4417 0.1102
0.9742 0.4442 0.1059
0.9739 0.4476 0.1000
0.9737 0.4491 0.0964
0.1031 0.6085 0.0935
0.1168 0.6067 0.0935
0.1463 0.6039 0.0935
0.1860 0.6003 0.0934
0.2440 0.5955 0.0933
0.3339 0.5889 0.0932
0.4557 0.5796 0.0929
0.5813 0.5675 0.0930
0.6905 0.5557 0.1035
0.7951 0.5458 0.1132
0.9016 0.5393 0.1184
0.9733 0.5355 0.1217
0.9733 0.5324 0.1289
0.9735 0.5312 0.1329
0.9736 0.5310 0.1347
0.9736 0.5319 0.1342
0.9735 0.5326 0.1327
0.1044 0.6943 0.0934
0.1166 0.6926 0.0934
0.1462 0.6900 0.0933
0.1856 0.6867 0.0931
0.2430 0.6825 0.0930
0.3319 0.6769 0.0928
0.4529 0.6690 0.0925
0.5805 0.6584 0.0920
0.6974 0.6463 0.0945
0.8135 0.6354 0.1059
0.9320 0.6275 0.1140
0.9809 0.6210 0.1231
0.9802 0.6159 0.1337
0.9797 0.6127 0.1414
0.9793 0.6103 0.1482
0.9790 0.6086 0.1541
0.9789 0.6077 0.1568
0.1052 0.7664 0.0931
0.1162 0.7647 0.0931
0.1458 0.7618 0.0930
0.1851 0.7584 0.0928
0.2421 0.7541 0.0925
0.3300 0.7484 0.0923
0.4505 0.7408 0.0920
0.5777 0.7307 0.0914
0.6980 0.7185 0.0912
0.8215 0.7064 0.0981
0.9486 0.6973 0.1076
0.9876 0.6894 0.1184
0.9869 0.6835 0.1295
0.9862 0.6792 0.1386
0.9857 0.6756 0.1474
0.9852 0.6723 0.1567
0.9849 0.6701 0.1627
0.1058 0.8257 0.0929
0.1160 0.8239 0.0928
0.1454 0.8208 0.0926
0.1845 0.8170 0.0924
0.2411 0.8123 0.0922
0.3284 0.8061 0.0919
0.4487 0.7980 0.0914
0.5751 0.7876 0.0909
0.6969 0.7744 0.0903
0.8242 0.7608 0.0922
0.9568 0.7498 0.1021
0.9922 0.7406 0.1130
0.9915 0.7337 0.1238
0.9909 0.7286 0.1330
0.9903 0.7242 0.1423
0.9897 0.7200 0.1526
0.9894 0.7169 0.1603
0.1062 0.8772 0.0926
0.1157 0.8753 0.0925
0.1449 0.8721 0.0924
0.1839 0.8682 0.0921
0.2402 0.8632 0.0918
0.3271 0.8569 0.0914
0.4467 0.8484 0.0910
0.5734 0.8375 0.0905
0.6952 0.8236 0.0896
0.8247 0.8085 0.0894
0.9615 0.7955 0.0975
0.9957 0.7846 0.1081
0.9950 0.7768 0.1185
0.9945 0.7709 0.1275
0.9940 0.7657 0.1367
0.9933 0.7604 0.1473
0.9929 0.7566 0.1559
0.1065 0.9290 0.0923
0.1153 0.9273 0.0923
0.1444 0.9240 0.0920
0.1833 0.9201 0.0918
0.2393 0.9152 0.0914
0.3256 0.9088 0.0910
0.4449 0.9003 0.0905
0.5718 0.8893 0.0899
0.6928 0.8756 0.0890
0.8242 0.8595 0.0886
0.9646 0.8447 0.0929
0.9987 0.8323 0.1030
0.9981 0.8234 0.1128
0.9977 0.8167 0.1214
0.9972 0.8104 0.1304
0.9967 0.8041 0.1410
0.9962 0.7993 0.1500
0.1068 0.9844 0.0920
0.1148 0.9829 0.0919
0.1440 0.9798 0.0916
0.1825 0.9762 0.0913
0.2382 0.9717 0.0909
0.3239 0.9658 0.0905
0.4428 0.9579 0.0899
0.5697 0.9475 0.0893
0.6901 0.9344 0.0884
0.8223 0.9184 0.0875
0.9663 0.9026 0.0879
1.0000 0.8895 0.0970
1.0000 0.8798 0.1061
1.0000 0.8723 0.1142
1.0000 0.8652 0.1228
0.9998 0.8578 0.1330
0.9994 0.8517 0.1423
0.1070 0.9993 0.0918
0.1141 0.9996 0.0917
0.1432 1.0000 0.0914
0.1814 1.0000 0.0911
0.2366 1.0000 0.0906
0.3220 0.9972 0.0901
0.4403 0.9920 0.0895
0.5673 0.9846 0.0888
0.6877 0.9747 0.0879
0.8196 0.9617 0.0868
0.9656 0.9480 0.0867
1.0000 0.9366 0.0921
1.0000 0.9279 0.1003
1.0000 0.9212 0.1078
1.0000 0.9147 0.1158
1.0000 0.9079 0.1255
1.0000 0.9022 0.1348
0.0860 0.0876 0.1061
0.1071 0.0863 0.0972
0.1212 0.0866 0.0866
0.1418 0.0867 0.0867
0.1691 0.0867 0.0868
0.2066 0.0869 0.0870
0.2608 0.0873 0.0874
0.3383 0.0877 0.0879
0.4347 0.0881 0.0884
0.5339 0.0885 0.0889
0.6208 0.0888 0.0893
0.6897 0.0889 0.0895
0.7410 0.0891 0.0897
0.7852 0.0892 0.0898
0.8328 0.0893 0.0899
0.8892 0.0893 0.0901
0.8954 0.0893 0.0901
0.0879 0.1090 0.1031
0.1041 0.1012 0.1060
0.1222 0.0995 0.1013
0.1440 0.0975 0.0976
0.1710 0.0963 0.0892
0.2084 0.0947 0.0820
0.2625 0.0933 0.0777
0.3431 0.0893 0.0896
0.4387 0.0881 0.0884
0.5375 0.0885 0.0889
0.6239 0.0888 0.0893
0.6926 0.0890 0.0895
0.7440 0.0891 0.0897
0.7884 0.0892 0.0898
0.8361 0.0893 0.0899
0.8925 0.0893 0.0901
0.9011 0.0893 0.0901
0.0889 0.1311 0.1028
0.1056 0.1222 0.1061
0.1329 0.1206 0.1082
0.1545 0.1208 0.1073
0.1790 0.1212 0.0979
0.2167 0.1202 0.0888
0.2722 0.1187 0.0795
0.3503 0.1173 0.0733
0.4441 0.1162 0.0659
0.5385 0.1153 0.0586
0.6216 0.1147 0.0522
0.6878 0.1143 0.0471
0.7380 0.1142 0.0432
0.7816 0.1142 0.0398
0.8284 0.1143 0.0362
0.8835 0.1145 0.0319
0.8941 0.1143 0.0311
0.0905 0.1586 0.1022
0.1071 0.1483 0.1061
0.1355 0.1465 0.1049
0.1707 0.1440 0.1106
0.2060 0.1433 0.1139
0.2401 0.1451 0.1042
0.2910 0.1462 0.0903
0.3655 0.1459 0.0760
0.4563 0.1450 0.0679
0.5475 0.1440 0.0605
0.6285 0.1430 0.0540
0.6937 0.1424 0.0487
0.7437 0.1420 0.0448
0.7874 0.1419 0.0413
0.8342 0.1417 0.0375
0.8891 0.1418 0.0332
0.9020 0.1415 0.0321
0.0924 0.1953 0.1015
0.1086 0.1826 0.1057
0.1366 0.1807 0.1033
0.1758 0.1773 0.1058
0.2244 0.1742 0.1122
0.2822 0.1726 0.1166
0.3402 0.1743 0.1090
0.4043 0.1773 0.0922
0.4818 0.1788 0.0748
0.5636 0.1788 0.0626
0.6399 0.1782 0.0563
0.7028 0.1775 0.0511
0.7523 0.1771 0.0471
0.7959 0.1768 0.0435
0.8425 0.1766 0.0397
0.8965 0.1765 0.0353
0.9120 0.1761 0.0339
0.0944 0.2479 0.1006
0.1100 0.2313 0.1051
0.1380 0.2289 0.1021
0.1768 0.2253 0.1021
0.2332 0.2198 0.1069
0.3065 0.2157 0.1125
0.3932 0.2128 0.1168
0.4695 0.2136 0.1122
0.5344 0.2176 0.0963
0.5993 0.2210 0.0778
0.6642 0.2228 0.0618
0.7221 0.2233 0.0539
0.7701 0.2234 0.0498
0.8132 0.2233 0.0463
0.8586 0.2234 0.0425
0.9109 0.2233 0.0381
0.9284 0.2228 0.0366
0.0965 0.3257 0.0993
0.1114 0.3040 0.1042
0.1395 0.3007 0.1007
0.1780 0.2966 0.0993
0.2347 0.2902 0.1011
0.3206 0.2815 0.1078
0.4216 0.2754 0.1120
0.5193 0.2700 0.1169
0.5960 0.2690 0.1167
0.6580 0.2728 0.1044
0.7134 0.2781 0.0873
0.7658 0.2819 0.0724
0.8109 0.2841 0.0616
0.8512 0.2854 0.0532
0.8928 0.2866 0.0454
0.9403 0.2874 0.0415
0.9585 0.2871 0.0399
0.0986 0.4262 0.0976
0.1125 0.4022 0.1027
0.1408 0.3986 0.0991
0.1791 0.3941 0.0969
0.2357 0.3876 0.0968
0.3243 0.3781 0.1001
0.4405 0.3664 0.1084
0.5468 0.3573 0.1139
0.6372 0.3497 0.1192
0.7151 0.3461 0.1229
0.7827 0.3485 0.1154
0.8407 0.3534 0.1025
0.8847 0.3576 0.0910
0.9207 0.3610 0.0814
0.9556 0.3641 0.0722
0.9745 0.3669 0.0639
0.9743 0.3673 0.0607
0.1006 0.5313 0.0954
0.1133 0.5093 0.1008
0.1418 0.5060 0.0970
0.1802 0.5020 0.0944
0.2364 0.4965 0.0935
0.3243 0.4884 0.0944
0.4467 0.4767 0.0995
0.5666 0.4640 0.1093
0.6659 0.4531 0.1179
0.7560 0.4450 0.1237
0.8479 0.4403 0.1273
0.9206 0.4400 0.1251
0.9671 0.4420 0.1194
0.9746 0.4440 0.1151
0.9744 0.4466 0.1102
0.9740 0.4497 0.1037
0.9738 0.4511 0.0996
0.1024 0.6273 0.0935
0.1138 0.6077 0.0986
0.1424 0.6049 0.0947
0.1807 0.6014 0.0934
0.2368 0.5969 0.0934
0.3244 0.5904 0.0932
0.4456 0.5813 0.0929
0.5735 0.5692 0.0992
0.6846 0.5571 0.1103
0.7889 0.5470 0.1202
0.8952 0.5404 0.1256
0.9733 0.5367 0.1279
0.9735 0.5337 0.1349
0.9737 0.5324 0.1383
0.9738 0.5323 0.1395
0.9737 0.5332 0.1384
0.9736 0.5338 0.1363
0.1038 0.7122 0.0934
0.1140 0.6935 0.0961
0.1427 0.6908 0.0933
0.1811 0.6876 0.0931
0.2369 0.6835 0.0930
0.3237 0.6780 0.0928
0.4445 0.6703 0.0925
0.5735 0.6597 0.0921
0.6919 0.6475 0.0998
0.8082 0.6362 0.1112
0.9270 0.6282 0.1193
0.9808 0.6217 0.1279
0.9802 0.6167 0.1381
0.9796 0.6134 0.1458
0.9793 0.6110 0.1523
0.9790 0.6092 0.1578
0.9789 0.6083 0.1600
0.1049 0.7860 0.0930
0.1139 0.7654 0.0940
0.1428 0.7626 0.0930
0.1810 0.7592 0.0928
0.2367 0.7550 0.0926
0.3229 0.7494 0.0923
0.4432 0.7418 0.0920
0.5715 0.7318 0.0914
0.6931 0.7194 0.0917
0.8167 0.7072 0.1021
0.9444 0.6978 0.1115
0.9876 0.6899 0.1218
0.9868 0.6838 0.1327
0.9862 0.6795 0.1417
0.9857 0.6758 0.1503
0.9852 0.6725 0.1592
0.9848 0.6703 0.1650
0.1056 0.8475 0.0928
0.1138 0.8246 0.0928
0.1427 0.8215 0.0926
0.1809 0.8178 0.0925
0.2363 0.8132 0.0922
0.3221 0.8071 0.0919
0.4422 0.7989 0.0914
0.5698 0.7885 0.0909
0.6926 0.7752 0.0903
0.8198 0.7615 0.0954
0.9533 0.7502 0.1051
0.9922 0.7409 0.1156
0.9915 0.7339 0.1262
0.9909 0.7288 0.1352
0.9903 0.7243 0.1442
0.9897 0.7200 0.1542
0.9894 0.7168 0.1617
0.1061 0.8998 0.0925
0.1136 0.8760 0.0925
0.1425 0.8728 0.0924
0.1806 0.8690 0.0921
0.2358 0.8640 0.0918
0.3213 0.8578 0.0914
0.4409 0.8493 0.0910
0.5687 0.8383 0.0905
0.6911 0.8244 0.0896
0.8209 0.8091 0.0903
0.9584 0.7957 0.0998
0.9957 0.7848 0.1101
0.9950 0.7769 0.1202
0.9944 0.7711 0.1289
0.9939 0.7657 0.1380
0.9933 0.7604 0.1482
0.9929 0.7564 0.1565
0.1066 0.9512 0.0922
0.1134 0.9279 0.0923
0.1422 0.9246 0.0920
0.1803 0.9207 0.0918
0.2353 0.9158 0.0914
0.3205 0.9096 0.0910
0.4396 0.9010 0.0905
0.5677 0.8899 0.0899
0.6895 0.8761 0.0890
0.8208 0.8599 0.0885
0.9620 0.8450 0.0946
0.9987 0.8325 0.1044
0.9981 0.8234 0.1139
0.9976 0.8165 0.1222
0.9972 0.8102 0.1310
0.9967 0.8038 0.1412
0.9962 0.7989 0.1500
0.1069 0.9993 0.0918
0.1130 0.9833 0.0919
0.1419 0.9803 0.0916
0.1800 0.9767 0.0913
0.2347 0.9722 0.0909
0.3197 0.9663 0.0905
0.4382 0.9584 0.0900
0.5660 0.9479 0.0893
0.6874 0.9348 0.0885
0.8196 0.9186 0.0875
0.9642 0.9027 0.0889
1.0000 0.8894 0.0977
1.0000 0.8795 0.1065
1.0000 0.8719 0.1144
1.0000 0.8647 0.1228
0.9997 0.8574 0.1330
0.9993 0.8513 0.1424
0.1070 0.9993 0.0918
0.1125 0.9995 0.0918
0.1413 1.0000 0.0914
0.1792 1.0000 0.0911
0.2336 1.0000 0.0907
0.3182 0.9978 0.0902
0.4364 0.9927 0.0895
0.5644 0.9852 0.0888
0.6855 0.9753 0.0880
0.8176 0.9621 0.0868
0.9642 0.9484 0.0867
1.0000 0.9367 0.0922
1.0000 0.9279 0.1002
1.0000 0.9212 0.1077
1.0000 0.9148 0.1158
1.0000 0.9079 0.1254
1.0000 0.9022 0.1348
0.0858 0.0916 0.1276
0.1022 0.0873 0.1284
0.1334 0.0863 0.1071
0.1493 0.0867 0.0868
0.1747 0.0868 0.0868
0.2110 0.0869 0.0870
0.2643 0.0873 0.0875
0.3407 0.0877 0.0880
0.4354 0.0881 0.0884
0.5332 0.0885 0.0889
0.6193 0.0888 0.0892
0.6876 0.0889 0.0895
0.7384 0.0891 0.0897
0.7820 0.0892 0.0898
0.8290 0.0893 0.0899
0.8848 0.0893 0.0901
0.8915 0.0893 0.0901
0.0903 0.1128 0.1245
0.1010 0.1060 0.1272
0.1298 0.1009 0.1172
0.1475 0.1013 0.1014
0.1745 0.0993 0.0994
0.2098 0.0987 0.0866
0.2627 0.0973 0.0779
0.3384 0.0961 0.0723
0.4376 0.0909 0.0912
0.5346 0.0895 0.0899
0.6202 0.0888 0.0893
0.6885 0.0889 0.0895
0.7395 0.0891 0.0897
0.7832 0.0892 0.0898
0.8303 0.0893 0.0899
0.8861 0.0893 0.0901
0.8951 0.0893 0.0901
0.0898 0.1408 0.1210
0.1056 0.1314 0.1243
0.1260 0.1221 0.1274
0.1484 0.1199 0.1214
0.1772 0.1173 0.1174
0.2148 0.1159 0.1057
0.2698 0.1139 0.0960
0.3469 0.1123 0.0844
0.4403 0.1112 0.0717
0.5349 0.1105 0.0594
0.6184 0.1100 0.0521
0.6851 0.1098 0.0470
0.7354 0.1098 0.0431
0.7790 0.1099 0.0398
0.8258 0.1100 0.0362
0.8810 0.1103 0.0319
0.8921 0.1101 0.0310
0.0902 0.1701 0.1204
0.1058 0.1590 0.1241
0.1276 0.1480 0.1274
0.1616 0.1458 0.1296
0.1903 0.1460 0.1282
0.2253 0.1465 0.1160
0.2811 0.1450 0.1038
0.3592 0.1433 0.0905
0.4519 0.1416 0.0767
0.5442 0.1401 0.0634
0.6258 0.1390 0.0538
0.6915 0.1383 0.0486
0.7416 0.1379 0.0446
0.7854 0.1377 0.0411
0.8322 0.1377 0.0374
0.8872 0.1377 0.0330
0.9007 0.1374 0.0319
0.0914 0.2096 0.1192
0.1068 0.1958 0.1234
0.1294 0.1822 0.1271
0.1647 0.1798 0.1255
0.2122 0.1763 0.1322
0.2628 0.1752 0.1358
0.3131 0.1777 0.1222
0.3822 0.1789 0.1046
0.4682 0.1783 0.0878
0.5556 0.1769 0.0725
0.6342 0.1755 0.0596
0.6983 0.1745 0.0512
0.7482 0.1737 0.0471
0.7922 0.1733 0.0435
0.8391 0.1730 0.0397
0.8935 0.1728 0.0352
0.9094 0.1724 0.0339
0.0930 0.2666 0.1179
0.1079 0.2485 0.1225
0.1311 0.2308 0.1265
0.1660 0.2280 0.1234
0.2189 0.2230 0.1261
0.2896 0.2183 0.1336
0.3712 0.2157 0.1385
0.4414 0.2180 0.1287
0.5088 0.2217 0.1090
0.5809 0.2233 0.0900
0.6515 0.2232 0.0743
0.7118 0.2226 0.0623
0.7604 0.2219 0.0539
0.8038 0.2215 0.0470
0.8501 0.2211 0.0430
0.9034 0.2207 0.0385
0.9217 0.2201 0.0369
0.0947 0.3493 0.1162
0.1089 0.3266 0.1213
0.1327 0.3034 0.1255
0.1676 0.2997 0.1217
0.2198 0.2943 0.1214
0.3017 0.2858 0.1272
0.4024 0.2790 0.1341
0.4998 0.2739 0.1401
0.5737 0.2744 0.1365
0.6341 0.2793 0.1192
0.6911 0.2837 0.1001
0.7446 0.2860 0.0849
0.7908 0.2871 0.0742
0.8323 0.2876 0.0658
0.8759 0.2879 0.0576
0.9254 0.2880 0.0490
0.9453 0.2875 0.0453
0.0965 0.4513 0.1141
0.1099 0.4275 0.1196
0.1341 0.4017 0.1241
0.1692 0.3976 0.1198
0.2211 0.3920 0.1179
0.3033 0.3834 0.1199
0.4199 0.3715 0.1283
0.5298 0.3619 0.1363
0.6205 0.3546 0.1434
0.6952 0.3523 0.1458
0.7571 0.3561 0.1344
0.8112 0.3614 0.1185
0.8549 0.3653 0.1056
0.8921 0.3682 0.0953
0.9296 0.3707 0.0855
0.9700 0.3729 0.0753
0.9747 0.3730 0.0716
0.0983 0.5538 0.1116
0.1105 0.5325 0.1175
0.1352 0.5089 0.1221
0.1705 0.5052 0.1176
0.2222 0.5004 0.1147
0.3040 0.4932 0.1145
0.4235 0.4823 0.1187
0.5488 0.4691 0.1294
0.6506 0.4581 0.1406
0.7387 0.4501 0.1491
0.8249 0.4462 0.1531
0.8943 0.4471 0.1489
0.9410 0.4497 0.1407
0.9738 0.4528 0.1323
0.9748 0.4555 0.1253
0.9744 0.4589 0.1172
0.9741 0.4601 0.1124
0.0999 0.6478 0.1087
0.1109 0.6286 0.1150
0.1359 0.6074 0.1196
0.1714 0.6041 0.1149
0.2231 0.6001 0.1116
0.3042 0.5944 0.1100
0.4228 0.5860 0.1117
0.5539 0.5742 0.1183
0.6686 0.5618 0.1306
0.7715 0.5515 0.1434
0.8750 0.5449 0.1516
0.9558 0.5418 0.1550
0.9745 0.5396 0.1602
0.9746 0.5388 0.1627
0.9746 0.5392 0.1625
0.9744 0.5407 0.1592
0.9742 0.5415 0.1558
0.1012 0.7323 0.1057
0.1109 0.7134 0.1123
0.1362 0.6932 0.1169
0.1719 0.6902 0.1122
0.2234 0.6865 0.1085
0.3042 0.6814 0.1061
0.4217 0.6744 0.1061
0.5531 0.6644 0.1096
0.6746 0.6522 0.1189
0.7897 0.6406 0.1321
0.9074 0.6323 0.1430
0.9808 0.6266 0.1519
0.9801 0.6216 0.1634
0.9796 0.6185 0.1718
0.9793 0.6164 0.1786
0.9791 0.6151 0.1838
0.9790 0.6145 0.1854
0.1021 0.8088 0.1032
0.1108 0.7875 0.1099
0.1362 0.7652 0.1145
0.1719 0.7620 0.1098
0.2236 0.7580 0.1058
0.3037 0.7528 0.1030
0.4206 0.7459 0.1020
0.5510 0.7364 0.1039
0.6752 0.7242 0.1101
0.7972 0.7117 0.1216
0.9248 0.7019 0.1333
0.9876 0.6945 0.1442
0.9867 0.6885 0.1565
0.9861 0.6842 0.1667
0.9857 0.6807 0.1765
0.9851 0.6774 0.1865
0.9848 0.6755 0.1926
0.1027 0.8723 0.1012
0.1106 0.8491 0.1081
0.1361 0.8244 0.1127
0.1719 0.8208 0.1079
0.2233 0.8165 0.1038
0.3034 0.8109 0.1006
0.4197 0.8033 0.0991
0.5497 0.7933 0.1000
0.6741 0.7806 0.1045
0.7996 0.7666 0.1142
0.9332 0.7548 0.1257
0.9923 0.7458 0.1367
0.9915 0.7386 0.1487
0.9909 0.7335 0.1590
0.9903 0.7290 0.1694
0.9897 0.7248 0.1808
0.9893 0.7217 0.1893
0.1032 0.9251 0.0995
0.1104 0.9015 0.1065
0.1359 0.8758 0.1111
0.1718 0.8721 0.1063
0.2231 0.8675 0.1021
0.3029 0.8617 0.0987
0.4188 0.8539 0.0968
0.5487 0.8435 0.0971
0.6725 0.8302 0.1004
0.8001 0.8147 0.1085
0.9379 0.8009 0.1195
0.9958 0.7901 0.1304
0.9951 0.7820 0.1418
0.9945 0.7761 0.1517
0.9940 0.7706 0.1619
0.9934 0.7654 0.1738
0.9928 0.7614 0.1832
0.1036 0.9756 0.0979
0.1101 0.9530 0.1049
0.1357 0.9276 0.1095
0.1716 0.9238 0.1046
0.2227 0.9193 0.1004
0.3021 0.9134 0.0969
0.4178 0.9057 0.0947
0.5476 0.8953 0.0944
0.6708 0.8821 0.0969
0.7995 0.8661 0.1033
0.9408 0.8507 0.1135
0.9989 0.8383 0.1240
0.9983 0.8291 0.1346
0.9978 0.8221 0.1439
0.9973 0.8158 0.1539
0.9968 0.8093 0.1655
0.9963 0.8042 0.1756
0.1040 0.9993 0.0965
0.1097 0.9996 0.1032
0.1353 0.9831 0.1076
0.1712 0.9797 0.1028
0.2222 0.9756 0.0986
0.3013 0.9700 0.0949
0.4166 0.9627 0.0923
0.5463 0.9530 0.0914
0.6690 0.9405 0.0932
0.7980 0.9249 0.0980
0.9422 0.9088 0.1068
1.0000 0.8955 0.1166
1.0000 0.8856 0.1263
1.0000 0.8779 0.1350
1.0000 0.8707 0.1444
0.9998 0.8632 0.1556
0.9994 0.8569 0.1660
0.1042 0.9993 0.0956
0.1091 0.9996 0.1024
0.1348 1.0000 0.1064
0.1705 1.0000 0.1015
0.2213 1.0000 0.0972
0.2999 1.0000 0.0933
0.4149 0.9968 0.0906
0.5443 0.9902 0.0894
0.6673 0.9810 0.0904
0.7956 0.9686 0.0941
0.9419 0.9549 0.1016
1.0000 0.9434 0.1103
1.0000 0.9346 0.1191
1.0000 0.9277 0.1271
1.0000 0.9211 0.1357
1.0000 0.9141 0.1461
1.0000 0.9082 0.1563
0.0854 0.0960 0.1539
0.0975 0.0918 0.1561
0.1275 0.0868 0.1510
0.1669 0.0863 0.1184
0.1874 0.0878 0.0879
0.2218 0.0873 0.0875
0.2741 0.0874 0.0875
0.3489 0.0877 0.0880
0.4412 0.0881 0.0885
0.5365 0.0885 0.0889
0.6207 0.0888 0.0893
0.6880 0.0889 0.0895
0.7382 0.0891 0.0897
0.7814 0.0892 0.0898
0.8277 0.0893 0.0899
0.8829 0.0893 0.0901
0.8901 0.0893 0.0901
0.0884 0.1189 0.1446
0.0976 0.1112 0.1531
0.1236 0.1053 0.1552
0.1626 0.1005 0.1289
0.1831 0.1033 0.0957
0.2179 0.1023 0.0896
0.2698 0.1010 0.0813
0.3437 0.1000 0.0721
0.4351 0.0991 0.0653
0.5290 0.0985 0.0583
0.6211 0.0914 0.0919
0.6882 0.0906 0.0911
0.7384 0.0901 0.0907
0.7814 0.0897 0.0903
0.8276 0.0893 0.0900
0.8828 0.0893 0.0901
