assets/luts/LUTs/JD_Shasta.CUBE
TITLE "ColorFinale Export"
# Created by Jeven Dovey on 2021-07-15 17:40:48 +0000
# Color Finale Plugin v.2.3.2 (520)
LUT_3D_SIZE 9
0.0862 0.0863 0.0880
0.1188 0.0866 0.0868
0.1686 0.0867 0.0868
0.2619 0.0873 0.0874
0.4377 0.0881 0.0884
0.6241 0.0888 0.0893
0.7447 0.0891 0.0897
0.8373 0.0893 0.0899
0.8997 0.0893 0.0901
0.0896 0.1224 0.0900
0.1395 0.1193 0.0938
0.1885 0.1203 0.0895
0.2769 0.1206 0.0794
0.4472 0.1187 0.0659
0.6232 0.1172 0.0522
0.7393 0.1165 0.0432
0.8297 0.1166 0.0362
0.8946 0.1164 0.0311
0.0935 0.1829 0.0916
0.1437 0.1792 0.0921
0.2340 0.1727 0.0986
0.3594 0.1720 0.0990
0.4945 0.1780 0.0681
0.6450 0.1790 0.0560
0.7556 0.1785 0.0469
0.8455 0.1781 0.0396
0.9138 0.1776 0.0339
0.0977 0.3047 0.0929
0.1452 0.2990 0.0932
0.2454 0.2875 0.0934
0.4332 0.2734 0.0999
0.6075 0.2665 0.1062
0.7252 0.2753 0.0814
0.8214 0.2824 0.0565
0.9017 0.2857 0.0446
0.9645 0.2869 0.0394
0.1015 0.5102 0.0935
0.1463 0.5047 0.0936
0.2447 0.4946 0.0935
0.4576 0.4743 0.0934
0.6724 0.4512 0.1090
0.8565 0.4385 0.1186
0.9744 0.4398 0.1130
0.9742 0.4442 0.1059
0.9737 0.4491 0.0964
0.1044 0.6943 0.0934
0.1462 0.6900 0.0933
0.2430 0.6825 0.0930
0.4529 0.6690 0.0925
0.6974 0.6463 0.0945
0.9320 0.6275 0.1140
0.9802 0.6159 0.1337
0.9793 0.6103 0.1482
0.9789 0.6077 0.1568
0.1058 0.8257 0.0929
0.1454 0.8208 0.0926
0.2411 0.8123 0.0922
0.4487 0.7980 0.0914
0.6969 0.7744 0.0903
0.9568 0.7498 0.1021
0.9915 0.7337 0.1238
0.9903 0.7242 0.1423
0.9894 0.7169 0.1603
0.1065 0.9290 0.0923
0.1444 0.9240 0.0920
0.2393 0.9152 0.0914
0.4449 0.9003 0.0905
0.6928 0.8756 0.0890
0.9646 0.8447 0.0929
0.9981 0.8234 0.1128
0.9972 0.8104 0.1304
0.9962 0.7993 0.1500
0.1070 0.9993 0.0918
0.1432 1.0000 0.0914
0.2366 1.0000 0.0906
0.4403 0.9920 0.0895
0.6877 0.9747 0.0879
0.9656 0.9480 0.0867
1.0000 0.9279 0.1003
1.0000 0.9147 0.1158
1.0000 0.9022 0.1348
0.0858 0.0916 0.1276
0.1334 0.0863 0.1071
0.1747 0.0868 0.0868
0.2643 0.0873 0.0875
0.4354 0.0881 0.0884
0.6193 0.0888 0.0892
0.7384 0.0891 0.0897
0.8290 0.0893 0.0899
0.8915 0.0893 0.0901
0.0898 0.1408 0.1210
0.1260 0.1221 0.1274
0.1772 0.1173 0.1174
0.2698 0.1139 0.0960
0.4403 0.1112 0.0717
0.6184 0.1100 0.0521
0.7354 0.1098 0.0431
0.8258 0.1100 0.0362
0.8921 0.1101 0.0310
0.0914 0.2096 0.1192
0.1294 0.1822 0.1271
0.2122 0.1763 0.1322
0.3131 0.1777 0.1222
0.4682 0.1783 0.0878
0.6342 0.1755 0.0596
0.7482 0.1737 0.0471
0.8391 0.1730 0.0397
0.9094 0.1724 0.0339
0.0947 0.3493 0.1162
0.1327 0.3034 0.1255
0.2198 0.2943 0.1214
0.4024 0.2790 0.1341
0.5737 0.2744 0.1365
0.6911 0.2837 0.1001
0.7908 0.2871 0.0742
0.8759 0.2879 0.0576
0.9453 0.2875 0.0453
0.0983 0.5538 0.1116
0.1352 0.5089 0.1221
0.2222 0.5004 0.1147
0.4235 0.4823 0.1187
0.6506 0.4581 0.1406
0.8249 0.4462 0.1531
0.9410 0.4497 0.1407
0.9748 0.4555 0.1253
0.9741 0.4601 0.1124
0.1012 0.7323 0.1057
0.1362 0.6932 0.1169
0.2234 0.6865 0.1085
0.4217 0.6744 0.1061
0.6746 0.6522 0.1189
0.9074 0.6323 0.1430
0.9801 0.6216 0.1634
0.9793 0.6164 0.1786
0.9790 0.6145 0.1854
0.1027 0.8723 0.1012
0.1361 0.8244 0.1127
0.2233 0.8165 0.1038
0.4197 0.8033 0.0991
0.6741 0.7806 0.1045
0.9332 0.7548 0.1257
0.9915 0.7386 0.1487
0.9903 0.7290 0.1694
0.9893 0.7217 0.1893
0.1036 0.9756 0.0979
0.1357 0.9276 0.1095
0.2227 0.9193 0.1004
0.4178 0.9057 0.0947
0.6708 0.8821 0.0969
0.9408 0.8507 0.1135
0.9983 0.8291 0.1346
0.9973 0.8158 0.1539
0.9963 0.8042 0.1756
0.1042 0.9993 0.0956
0.1348 1.0000 0.1064
0.2213 1.0000 0.0972
0.4149 0.9968 0.0906
0.6673 0.9810 0.0904
0.9419 0.9549 0.1016
1.0000 0.9346 0.1191
1.0000 0.9211 0.1357
1.0000 0.9082 0.1563
0.0850 0.1011 0.1881
0.1208 0.0914 0.1913
0.2131 0.0868 0.1311
0.2930 0.0886 0.0888
0.4537 0.0882 0.0885
0.6263 0.0888 0.0893
0.7415 0.0891 0.0897
0.8299 0.0893 0.0899
0.8920 0.0893 0.0901
0.0946 0.1515 0.1783
0.1179 0.1345 0.1873
0.2017 0.1210 0.1559
0.2829 0.1232 0.1051
0.4458 0.1205 0.0817
0.6176 0.1188 0.0582
0.7313 0.1181 0.0439
0.8195 0.1181 0.0371
0.8855 0.1180 0.0319
0.0927 0.2461 0.1691
0.1291 0.2133 0.1781
0.1882 0.1810 0.1872
0.2875 0.1735 0.1624
0.4589 0.1670 0.1318
0.6310 0.1627 0.1038
0.7460 0.1609 0.0862
0.8366 0.1604 0.0740
0.9084 0.1601 0.0647
0.0930 0.4049 0.1639
0.1284 0.3556 0.1747
0.1930 0.3012 0.1855
0.3595 0.2870 0.1933
0.5164 0.2882 0.1783
0.6558 0.2887 0.1337
0.7653 0.2848 0.1091
0.8552 0.2823 0.0932
0.9307 0.2800 0.0808
0.0946 0.6022 0.1566
0.1291 0.5599 0.1691
0.1972 0.5071 0.1815
0.3715 0.4936 0.1740
0.6152 0.4688 0.2025
0.7727 0.4606 0.2195
0.8747 0.4681 0.1894
0.9452 0.4742 0.1624
0.9751 0.4770 0.1435
0.0964 0.7798 0.1484
0.1292 0.7384 0.1620
0.1995 0.6922 0.1751
0.3722 0.6824 0.1630
0.6338 0.6625 0.1715
0.8630 0.6413 0.2083
0.9798 0.6327 0.2345
0.9792 0.6291 0.2505
0.9792 0.6289 0.2513
0.0973 0.9290 0.1422
0.1286 0.8799 0.1564
0.1997 0.8234 0.1695
0.3720 0.8122 0.1560
0.6310 0.7923 0.1561
0.8862 0.7652 0.1814
0.9914 0.7492 0.2122
0.9900 0.7397 0.2410
0.9888 0.7328 0.2677
0.0979 0.9996 0.1383
0.1279 0.9827 0.1522
0.1994 0.9267 0.1654
0.3710 0.9152 0.1513
0.6284 0.8948 0.1480
0.8909 0.8639 0.1648
0.9985 0.8418 0.1917
0.9974 0.8281 0.2185
0.9962 0.8162 0.2494
0.0981 0.9996 0.1363
0.1267 1.0000 0.1496
0.1983 1.0000 0.1612
0.3688 1.0000 0.1466
0.6257 0.9928 0.1406
0.8894 0.9696 0.1503
1.0000 0.9493 0.1709
1.0000 0.9357 0.1928
1.0000 0.9225 0.2215
0.0830 0.1134 0.3026
0.1057 0.1044 0.3113
0.1886 0.0911 0.2992
0.3817 0.0886 0.1626
0.5009 0.0974 0.0604
0.6564 0.0913 0.0919
0.7642 0.0909 0.0915
0.8510 0.0906 0.0913
0.9119 0.0905 0.0912
0.0869 0.1714 0.2657
0.1064 0.1509 0.3010
0.1777 0.1346 0.3122
0.3633 0.1198 0.1933
0.4890 0.1293 0.0861
0.6395 0.1281 0.0656
0.7470 0.1275 0.0511
0.8327 0.1275 0.0406
0.8974 0.1273 0.0327
0.1017 0.2646 0.2924
0.1303 0.2346 0.2859
0.1731 0.2035 0.3019
0.3399 0.1784 0.2384
0.4780 0.1827 0.1468
0.6368 0.1780 0.1196
0.7472 0.1754 0.1016
0.8349 0.1744 0.0890
0.9059 0.1737 0.0792
0.0944 0.4737 0.2509
0.1300 0.4246 0.2681
0.1918 0.3661 0.2821
0.3098 0.2972 0.2989
0.4817 0.2810 0.2524
0.6470 0.2673 0.2110
0.7603 0.2605 0.1857
0.8513 0.2573 0.1689
0.9296 0.2550 0.1554
0.0928 0.6589 0.2381
0.1260 0.6190 0.2569
0.1891 0.5700 0.2726
0.3169 0.5031 0.2941
0.5682 0.4818 0.3124
0.7066 0.4815 0.3052
0.8010 0.4854 0.2533
0.8849 0.4844 0.2240
0.9615 0.4819 0.2016
0.0924 0.8442 0.2240
0.1235 0.7981 0.2441
0.1885 0.7483 0.2608
0.3220 0.6895 0.2852
0.5781 0.6747 0.2719
0.8082 0.6523 0.3244
0.9539 0.6463 0.3566
0.9805 0.6457 0.3583
0.9798 0.6485 0.3396
0.0923 0.9952 0.2139
0.1217 0.9497 0.2347
0.1875 0.8922 0.2517
0.3234 0.8208 0.2769
0.5765 0.8052 0.2563
0.8267 0.7785 0.2820
0.9905 0.7625 0.3271
0.9889 0.7532 0.3661
0.9877 0.7475 0.3943
0.0925 1.0000 0.2102
0.1206 1.0000 0.2295
0.1865 0.9938 0.2452
0.3231 0.9243 0.2704
0.5753 0.9082 0.2473
0.8274 0.8803 0.2591
0.9984 0.8577 0.2963
0.9971 0.8433 0.3357
0.9957 0.8315 0.3784
0.0927 1.0000 0.2072
0.1192 1.0000 0.2268
0.1847 1.0000 0.2415
0.3218 1.0000 0.2635
0.5732 1.0000 0.2383
0.8232 0.9865 0.2404
1.0000 0.9668 0.2653
1.0000 0.9531 0.2971
1.0000 0.9397 0.3404
0.0795 0.1282 0.4840
0.0891 0.1200 0.4913
0.1589 0.1061 0.5031
0.3346 0.0898 0.4591
0.6137 0.0903 0.2133
0.7072 0.1046 0.0451
0.8085 0.1063 0.0374
0.8920 0.1075 0.0310
0.9479 0.1082 0.0267
0.0799 0.1948 0.4366
0.0909 0.1711 0.4814
0.1527 0.1548 0.5009
0.3126 0.1324 0.4863
0.5981 0.1183 0.2525
0.6953 0.1360 0.0668
0.7959 0.1363 0.0543
0.8796 0.1366 0.0444
0.9407 0.1366 0.0370
0.0964 0.3033 0.4306
0.1112 0.2727 0.4380
0.1534 0.2327 0.4859
0.2908 0.2010 0.5006
0.5772 0.1753 0.3122
0.6818 0.1913 0.1272
0.7831 0.1898 0.1115
0.8679 0.1890 0.0996
0.9355 0.1883 0.0901
0.1057 0.4983 0.4636
0.1372 0.4534 0.4752
0.1956 0.4035 0.4637
0.2798 0.3422 0.4850
0.5478 0.2901 0.3925
0.6671 0.2981 0.2393
0.7720 0.2911 0.2145
0.8589 0.2870 0.1971
0.9349 0.2838 0.1827
0.0938 0.7224 0.3874
0.1278 0.6841 0.4128
0.1913 0.6386 0.4328
0.3135 0.5774 0.4564
0.5086 0.4966 0.4797
0.6677 0.4757 0.4265
0.7798 0.4621 0.3902
0.8706 0.4543 0.3657
0.9552 0.4481 0.3442
0.0905 0.9249 0.3657
0.1207 0.8763 0.3956
0.1831 0.8209 0.4171
0.3056 0.7562 0.4422
0.5145 0.6845 0.4716
0.7476 0.6651 0.4917
0.8712 0.6624 0.5026
0.9405 0.6667 0.4678
0.9831 0.6682 0.4319
0.0895 1.0000 0.3523
0.1171 1.0000 0.3808
0.1790 0.9738 0.4030
0.3028 0.9025 0.4300
0.5170 0.8156 0.4632
0.7569 0.7947 0.4531
0.9427 0.7772 0.4955
0.9873 0.7698 0.5230
0.9869 0.7672 0.5325
0.0895 1.0000 0.3479
0.1159 1.0000 0.3772
0.1771 1.0000 0.3961
0.3005 1.0000 0.4209
0.5175 0.9194 0.4562
0.7545 0.8989 0.4352
0.9590 0.8758 0.4658
0.9962 0.8615 0.5025
0.9946 0.8499 0.5400
0.0895 1.0000 0.3431
0.1144 1.0000 0.3731
0.1751 1.0000 0.3922
0.2976 1.0000 0.4161
0.5168 1.0000 0.4478
0.7520 1.0000 0.4194
0.9612 0.9865 0.4343
1.0000 0.9731 0.4646
1.0000 0.9593 0.5084
0.0761 0.1431 0.6531
0.0761 0.1355 0.6573
0.1333 0.1220 0.6748
0.2784 0.1031 0.6728
0.5750 0.0887 0.5909
0.8366 0.0910 0.2904
0.9436 0.0979 0.0986
0.9744 0.1130 0.0247
0.9817 0.1135 0.0242
0.0757 0.2186 0.6093
0.0752 0.1919 0.6477
0.1305 0.1755 0.6682
0.2623 0.1515 0.6806
0.5529 0.1269 0.6225
0.8184 0.1159 0.3374
0.9221 0.1284 0.1291
0.9600 0.1433 0.0415
0.9826 0.1432 0.0378
0.0823 0.3480 0.5759
0.0912 0.3113 0.6016
0.1326 0.2641 0.6536
0.2485 0.2315 0.6773
0.5258 0.1922 0.6516
0.7948 0.1715 0.4054
0.8921 0.1856 0.1863
0.9415 0.1999 0.1008
0.9832 0.1995 0.0942
0.1098 0.5317 0.6126
0.1276 0.4975 0.6068
0.1700 0.4565 0.6029
0.2482 0.3887 0.6548
0.4924 0.3285 0.6709
0.7647 0.2827 0.4856
0.8392 0.3115 0.2239
0.9174 0.3096 0.2101
0.9819 0.3074 0.1979
0.1045 0.7414 0.6094
0.1348 0.7038 0.6295
0.2034 0.6610 0.6405
0.3280 0.6078 0.6366
0.4749 0.5433 0.6536
0.7288 0.4868 0.5671
0.8111 0.4986 0.4250
0.8934 0.4933 0.4047
0.9712 0.4877 0.3850
0.0910 1.0000 0.5325
0.1220 0.9580 0.5579
0.1852 0.9024 0.5770
0.3085 0.8321 0.6004
0.5095 0.7530 0.6268
0.6905 0.6776 0.6466
0.8027 0.6655 0.6118
0.8939 0.6575 0.5879
0.9831 0.6501 0.5648
0.0903 1.0000 0.5253
0.1177 1.0000 0.5509
0.1772 1.0000 0.5691
0.2959 0.9852 0.5916
0.5010 0.8996 0.6162
0.6929 0.8079 0.6403
0.8703 0.7913 0.6509
0.9618 0.7885 0.6566
0.9887 0.7915 0.6263
0.0902 1.0000 0.5213
0.1163 1.0000 0.5479
0.1754 1.0000 0.5661
0.2917 1.0000 0.5860
0.4971 1.0000 0.6083
0.6941 0.9116 0.6349
0.8788 0.8940 0.6288
0.9953 0.8796 0.6542
0.9938 0.8703 0.6811
0.0901 1.0000 0.5167
0.1147 1.0000 0.5446
0.1733 1.0000 0.5627
0.2881 1.0000 0.5825
0.4936 1.0000 0.6040
0.6942 1.0000 0.6282
0.8752 1.0000 0.6128
1.0000 0.9920 0.6256
1.0000 0.9782 0.6617
0.0735 0.1535 0.7758
0.0736 0.1463 0.7797
0.1168 0.1330 0.8019
0.2430 0.1142 0.8148
0.5296 0.0940 0.7648
0.8151 0.0890 0.6111
1.0000 0.0911 0.3556
0.9939 0.0957 0.1647
0.9909 0.1004 0.1012
0.0728 0.2354 0.7255
0.0724 0.2068 0.7683
0.1152 0.1901 0.7923
0.2310 0.1663 0.8166
0.5075 0.1385 0.7893
0.7926 0.1178 0.6473
1.0000 0.1142 0.4018
0.9950 0.1248 0.1938
0.9945 0.1295 0.1303
0.0737 0.3774 0.6803
0.0773 0.3376 0.7127
0.1173 0.2865 0.7749
0.2225 0.2536 0.8062
0.4826 0.2108 0.8077
0.7666 0.1773 0.6906
0.9815 0.1690 0.4679
0.9952 0.1824 0.2453
0.9990 0.1869 0.1876
0.1037 0.5608 0.6946
0.1127 0.5296 0.6949
0.1499 0.4894 0.7078
0.2252 0.4197 0.7782
0.4559 0.3612 0.8108
0.7335 0.2986 0.7399
0.9480 0.2778 0.5418
0.9937 0.2984 0.3181
0.9841 0.3175 0.2035
0.1116 0.7559 0.7368
0.1371 0.7202 0.7505
0.2027 0.6823 0.7442
0.3039 0.6386 0.7265
0.4475 0.5736 0.7788
0.6936 0.5130 0.7839
0.9040 0.4801 0.6186
0.9625 0.5011 0.4411
0.9870 0.5043 0.3980
0.0975 1.0000 0.6809
0.1256 0.9727 0.7078
0.1912 0.9188 0.7279
0.3222 0.8493 0.7519
0.5262 0.7712 0.7675
0.6702 0.7059 0.7726
0.8551 0.6719 0.6984
0.9192 0.6790 0.6082
0.9907 0.6733 0.5896
0.0943 1.0000 0.6247
0.1219 1.0000 0.6495
0.1823 1.0000 0.6687
0.3001 1.0000 0.6927
0.5039 0.9589 0.7234
0.6897 0.8660 0.7481
0.8206 0.8013 0.7631
0.9107 0.7917 0.7354
0.9928 0.7814 0.7092
0.0942 1.0000 0.6213
0.1205 1.0000 0.6467
0.1803 1.0000 0.6660
0.2968 1.0000 0.6898
0.4962 1.0000 0.7167
0.6845 0.9714 0.7398
0.8224 0.9042 0.7578
0.9584 0.8914 0.7661
0.9940 0.8894 0.7628
0.0940 1.0000 0.6173
0.1189 1.0000 0.6437
0.1781 1.0000 0.6627
0.2930 1.0000 0.6864
0.4921 1.0000 0.7133
0.6812 1.0000 0.7336
0.8231 1.0000 0.7507
0.9631 0.9998 0.7412
1.0000 0.9904 0.7737
0.0714 0.1608 0.8774
0.0715 0.1537 0.8810
0.1057 0.1405 0.9060
0.2213 0.1219 0.9278
0.4985 0.1001 0.8958
0.7858 0.0890 0.7556
1.0000 0.0890 0.5974
1.0000 0.0903 0.4075
0.9992 0.0932 0.2575
0.0706 0.2468 0.8173
0.0701 0.2172 0.8680
0.1045 0.2001 0.8951
0.2119 0.1763 0.9260
0.4773 0.1467 0.9164
0.7632 0.1234 0.7938
0.9932 0.1130 0.6338
1.0000 0.1122 0.4519
0.9996 0.1187 0.2883
0.0713 0.3961 0.7599
0.0699 0.3548 0.8001
0.1065 0.3018 0.8759
0.2055 0.2686 0.9127
0.4551 0.2238 0.9283
0.7375 0.1866 0.8384
0.9675 0.1695 0.6818
1.0000 0.1667 0.5139
0.9998 0.1751 0.3394
0.0966 0.5803 0.7580
0.1011 0.5495 0.7659
0.1362 0.5092 0.7928
0.2091 0.4396 0.8817
0.4292 0.3833 0.9232
0.7055 0.3177 0.8847
0.9307 0.2822 0.7420
1.0000 0.2741 0.5820
0.9988 0.2883 0.4028
0.1136 0.7681 0.8274
0.1337 0.7344 0.8330
0.1929 0.7001 0.8154
0.2819 0.6588 0.8047
0.4268 0.5927 0.8846
0.6709 0.5348 0.9096
0.8811 0.4900 0.8171
1.0000 0.4753 0.6540
0.9971 0.4929 0.4934
0.1020 1.0000 0.7862
0.1281 0.9822 0.8198
0.1961 0.9301 0.8419
0.3315 0.8628 0.8611
0.5199 0.7913 0.8484
0.6541 0.7251 0.8796
0.8266 0.6856 0.8790
0.9835 0.6676 0.7342
0.9907 0.6819 0.5968
0.0989 1.0000 0.7235
0.1244 1.0000 0.7535
0.1861 1.0000 0.7778
0.3067 1.0000 0.8100
0.5136 0.9706 0.8482
0.6999 0.8802 0.8679
0.8048 0.8235 0.8697
0.9482 0.7966 0.8035
0.9931 0.7986 0.7272
0.0971 1.0000 0.6850
0.1238 1.0000 0.7117
0.1851 1.0000 0.7334
0.3047 1.0000 0.7617
0.5037 1.0000 0.7962
0.6866 1.0000 0.8280
0.8195 0.9450 0.8479
0.9234 0.8991 0.8597
0.9952 0.8864 0.8268
0.0970 1.0000 0.6810
0.1222 1.0000 0.7084
0.1828 1.0000 0.7299
0.3007 1.0000 0.7579
0.4994 1.0000 0.7920
0.6824 1.0000 0.8227
0.8137 1.0000 0.8387
0.9254 1.0000 0.8519
1.0000 0.9978 0.8668
0.0705 0.1636 0.9197
0.0706 0.1596 0.9189
0.0985 0.1462 0.9215
0.2066 0.1277 0.9318
0.4728 0.1053 0.9404
0.7601 0.0890 0.8592
0.9936 0.0890 0.7100
1.0000 0.0890 0.5819
1.0000 0.0899 0.4427
0.0680 0.2589 0.9183
0.0687 0.2258 0.9247
0.0970 0.2085 0.9320
0.1982 0.1845 0.9418
0.4519 0.1541 0.9494
0.7375 0.1294 0.9074
0.9699 0.1167 0.7562
1.0000 0.1119 0.6270
1.0000 0.1106 0.4866
0.0678 0.4165 0.8704
0.0666 0.3736 0.9127
0.0983 0.3151 0.9390
0.1924 0.2817 0.9493
0.4311 0.2358 0.9584
0.7119 0.1965 0.9545
0.9400 0.1757 0.8172
1.0000 0.1675 0.6860
1.0000 0.1646 0.5486
0.0864 0.6014 0.8473
0.0866 0.5706 0.8654
0.1211 0.5295 0.9082
0.1957 0.4567 0.9506
0.4061 0.4028 0.9662
0.6809 0.3369 0.9705
0.8984 0.2959 0.8957
1.0000 0.2774 0.7615
1.0000 0.2704 0.6178
0.1121 0.7850 0.9255
0.1250 0.7531 0.9234
0.1768 0.7207 0.9060
0.2556 0.6798 0.9129
0.4067 0.6096 0.9644
0.6495 0.5550 0.9771
0.8464 0.5098 0.9716
1.0000 0.4827 0.8636
1.0000 0.4701 0.6933
0.1059 1.0000 0.9248
0.1295 0.9936 0.9514
0.1996 0.9442 0.9531
0.3317 0.8823 0.9575
0.4975 0.8179 0.9447
0.6371 0.7441 0.9758
0.7988 0.7054 0.9819
0.9574 0.6784 0.9609
1.0000 0.6624 0.7822
0.1039 1.0000 0.8544
0.1266 1.0000 0.8930
0.1907 1.0000 0.9226
0.3174 1.0000 0.9578
0.5255 0.9849 0.9672
0.6903 0.9078 0.9675
0.7854 0.8481 0.9797
0.9168 0.8160 0.9829
1.0000 0.7898 0.8601
0.1024 1.0000 0.8068
0.1265 1.0000 0.8438
0.1899 1.0000 0.8728
0.3147 1.0000 0.9094
0.5153 1.0000 0.9506
0.6971 1.0000 0.9733
0.8265 0.9645 0.9769
0.9047 0.9250 0.9815
1.0000 0.8919 0.9157
0.1016 1.0000 0.7857
0.1261 1.0000 0.7893
0.1887 1.0000 0.8162
0.3118 1.0000 0.8512
0.5118 1.0000 0.8922
0.6927 1.0000 0.9293
0.8227 1.0000 0.9525
0.9253 1.0000 0.9674
1.0000 1.0000 0.9805
