assets/luts/LUTs/JD_Yucca.CUBE
TITLE "ColorFinale Export"
# Created by Jeven Dovey on 2021-07-15 17:42:21 +0000
# Color Finale Plugin v.2.3.2 (520)
LUT_3D_SIZE 9
0.0000 0.0004 0.0247
0.0768 0.0227 0.0209
0.1950 0.0460 0.0144
0.3178 0.0685 0.0055
0.4403 0.0894 0.0000
0.5859 0.1129 0.0000
0.7538 0.1383 0.0000
0.9228 0.1626 0.0000
1.0000 0.1842 0.0000
0.0000 0.1016 0.0324
0.1006 0.0884 0.0197
0.2274 0.1098 0.0022
0.3603 0.1295 0.0000
0.4926 0.1476 0.0000
0.6496 0.1675 0.0000
0.8305 0.1887 0.0000
1.0000 0.2086 0.0000
1.0000 0.2254 0.0000
0.0000 0.2146 0.0380
0.0940 0.2052 0.0255
0.2413 0.1847 0.0152
0.3669 0.2078 0.0000
0.4951 0.2276 0.0000
0.6473 0.2495 0.0000
0.8225 0.2730 0.0000
0.9983 0.2952 0.0000
1.0000 0.3140 0.0000
0.0000 0.3305 0.0413
0.0901 0.3242 0.0233
0.2324 0.3030 0.0227
0.3826 0.2818 0.0150
0.5029 0.3051 0.0000
0.6460 0.3308 0.0000
0.8147 0.3568 0.0000
0.9840 0.3815 0.0000
1.0000 0.4024 0.0000
0.0000 0.4445 0.0429
0.0841 0.4417 0.0180
0.2303 0.4174 0.0253
0.3736 0.3966 0.0236
0.5179 0.3763 0.0213
0.6556 0.4040 0.0000
0.8139 0.4342 0.0000
0.9727 0.4633 0.0000
1.0000 0.4865 0.0000
0.0000 0.5778 0.0436
0.0756 0.5795 0.0102
0.2277 0.5515 0.0238
0.3722 0.5281 0.0313
0.5099 0.5082 0.0339
0.6717 0.4861 0.0392
0.8231 0.5185 0.0000
0.9746 0.5498 0.0000
1.0000 0.5766 0.0000
0.0000 0.7289 0.0436
0.0652 0.7358 0.0009
0.2239 0.7039 0.0199
0.3732 0.6768 0.0358
0.5110 0.6546 0.0470
0.6667 0.6324 0.0581
0.8397 0.6101 0.0754
0.9835 0.6437 0.0358
1.0000 0.6730 0.0032
0.0000 0.8780 0.0440
0.0551 0.8901 0.0000
0.2198 0.8546 0.0160
0.3746 0.8239 0.0386
0.5158 0.7986 0.0578
0.6714 0.7742 0.0771
0.8395 0.7512 0.1002
0.9990 0.7325 0.1293
1.0000 0.7654 0.1040
0.0000 1.0000 0.0434
0.0458 1.0000 0.0000
0.2169 0.9863 0.0133
0.3764 0.9525 0.0410
0.5214 0.9244 0.0662
0.6793 0.8973 0.0931
0.8469 0.8725 0.1228
1.0000 0.8529 0.1568
1.0000 0.8443 0.1646
0.0000 0.0384 0.0972
0.0734 0.0093 0.1105
0.1840 0.0357 0.0832
0.2861 0.0667 0.0410
0.3997 0.0893 0.0279
0.5374 0.1140 0.0091
0.6977 0.1405 0.0000
0.8597 0.1659 0.0000
0.9995 0.1892 0.0000
0.0000 0.0902 0.1161
0.0879 0.1050 0.1218
0.2045 0.1292 0.0937
0.3256 0.1527 0.0620
0.4463 0.1749 0.0284
0.5896 0.1999 0.0000
0.7561 0.2265 0.0000
0.9262 0.2503 0.0000
1.0000 0.2705 0.0000
0.0000 0.1971 0.1343
0.0899 0.2178 0.1273
0.2309 0.2013 0.1117
0.3590 0.2235 0.0692
0.4868 0.2440 0.0268
0.6383 0.2670 0.0000
0.8142 0.2913 0.0000
0.9949 0.3120 0.0000
1.0000 0.3295 0.0000
0.0008 0.3076 0.1456
0.0898 0.3335 0.1305
0.2217 0.3210 0.1162
0.3746 0.2985 0.1049
0.4980 0.3207 0.0630
0.6444 0.3454 0.0140
0.8131 0.3723 0.0000
0.9821 0.3983 0.0000
1.0000 0.4188 0.0000
0.0071 0.4163 0.1547
0.0883 0.4472 0.1321
0.2168 0.4377 0.1132
0.3637 0.4149 0.1118
0.5126 0.3931 0.1043
0.6539 0.4196 0.0570
0.8164 0.4485 0.0038
0.9794 0.4762 0.0000
1.0000 0.5000 0.0000
0.0135 0.5434 0.1638
0.0857 0.5802 0.1329
0.2095 0.5748 0.1066
0.3602 0.5486 0.1149
0.5014 0.5271 0.1147
0.6696 0.5029 0.1135
0.8252 0.5341 0.0639
0.9810 0.5640 0.0158
1.0000 0.5898 0.0000
0.0208 0.6875 0.1732
0.0826 0.7310 0.1332
0.2001 0.7304 0.0982
0.3570 0.7002 0.1138
0.4999 0.6759 0.1236
0.6605 0.6519 0.1297
0.8415 0.6270 0.1394
0.9894 0.6594 0.0961
1.0000 0.6882 0.0609
0.0286 0.8297 0.1824
0.0801 0.8797 0.1339
0.1910 0.8842 0.0903
0.3539 0.8503 0.1115
0.5011 0.8226 0.1292
0.6622 0.7960 0.1451
0.8368 0.7709 0.1613
1.0000 0.7495 0.1826
1.0000 0.7820 0.1549
0.0365 0.9538 0.1909
0.0790 1.0000 0.1352
0.1839 1.0000 0.0842
0.3515 0.9816 0.1098
0.5030 0.9510 0.1334
0.6673 0.9214 0.1572
0.8413 0.8943 0.1811
1.0000 0.8725 0.2074
1.0000 0.8607 0.2441
0.0000 0.0802 0.1771
0.0368 0.0481 0.1990
0.1651 0.0314 0.1878
0.2686 0.0592 0.1786
0.3678 0.0882 0.1564
0.4819 0.1214 0.1366
0.6022 0.1643 0.0877
0.7401 0.1963 0.0790
0.8637 0.2237 0.0686
0.0000 0.1314 0.1952
0.0426 0.1475 0.2031
0.2010 0.1134 0.2168
0.3149 0.1396 0.1878
0.4258 0.1630 0.1749
0.5460 0.1971 0.1223
0.7018 0.2249 0.1005
0.8601 0.2513 0.0760
1.0000 0.2738 0.0524
0.0157 0.1810 0.2063
0.0982 0.2040 0.2223
0.2158 0.2194 0.2271
0.3366 0.2430 0.1957
0.4567 0.2654 0.1626
0.5991 0.2906 0.1214
0.7630 0.3183 0.0719
0.9277 0.3450 0.0204
1.0000 0.3679 0.0000
0.0379 0.2823 0.2349
0.1088 0.3127 0.2393
0.2159 0.3350 0.2301
0.3623 0.3167 0.2131
0.4892 0.3376 0.1696
0.6397 0.3610 0.1186
0.8127 0.3864 0.0587
0.9863 0.4109 0.0000
1.0000 0.4318 0.0000
0.0564 0.3830 0.2556
0.1165 0.4204 0.2494
0.2147 0.4486 0.2317
0.3514 0.4345 0.2164
0.5032 0.4113 0.2047
0.6485 0.4365 0.1548
0.8157 0.4639 0.0986
0.9833 0.4902 0.0418
1.0000 0.5128 0.0000
0.0772 0.5009 0.2769
0.1247 0.5465 0.2595
0.2124 0.5815 0.2325
0.3445 0.5711 0.2122
0.4899 0.5475 0.2122
0.6639 0.5213 0.2044
0.8240 0.5510 0.1513
0.9844 0.5796 0.0995
1.0000 0.6041 0.0538
0.1009 0.6345 0.2996
0.1339 0.6894 0.2701
0.2096 0.7320 0.2329
0.3356 0.7264 0.2046
0.4855 0.6991 0.2148
0.6510 0.6729 0.2174
0.8400 0.6454 0.2187
0.9925 0.6765 0.1716
1.0000 0.7045 0.1332
0.1249 0.7665 0.3215
0.1437 0.8304 0.2805
0.2074 0.8805 0.2337
0.3268 0.8800 0.1971
0.4822 0.8491 0.2141
0.6499 0.8196 0.2279
0.8308 0.7923 0.2374
1.0000 0.7682 0.2503
1.0000 0.7998 0.2194
0.1469 0.8817 0.3410
0.1532 0.9535 0.2901
0.2065 1.0000 0.2353
0.3198 1.0000 0.1914
0.4799 0.9802 0.2131
0.6517 0.9476 0.2350
0.8325 0.9180 0.2539
1.0000 0.8939 0.2720
1.0000 0.8797 0.3021
0.0000 0.1226 0.2584
0.0000 0.0932 0.2789
0.1449 0.0665 0.2648
0.2357 0.0681 0.2467
0.3250 0.0980 0.2504
0.4292 0.1338 0.2454
0.5445 0.1762 0.2299
0.6588 0.2165 0.2233
0.7688 0.2451 0.2490
0.0000 0.1734 0.2755
0.0000 0.1906 0.2855
0.1639 0.1528 0.3079
0.2932 0.1363 0.2936
0.3946 0.1632 0.2838
0.5102 0.1971 0.2573
0.6401 0.2338 0.2392
0.7569 0.2779 0.1852
0.8765 0.3063 0.1783
0.0000 0.2200 0.2772
0.0555 0.2464 0.3036
0.1675 0.2632 0.3116
0.3326 0.2265 0.3244
0.4456 0.2514 0.2942
0.5770 0.2777 0.2795
0.7152 0.3157 0.2188
0.8706 0.3429 0.1960
1.0000 0.3661 0.1741
0.0750 0.2637 0.2853
0.1336 0.2954 0.3122
0.2247 0.3203 0.3292
0.3461 0.3350 0.3327
0.4657 0.3574 0.3001
0.6072 0.3829 0.2598
0.7698 0.4110 0.2116
0.9329 0.4381 0.1616
1.0000 0.4615 0.1163
0.1085 0.3552 0.3214
0.1562 0.3938 0.3394
0.2344 0.4269 0.3443
0.3449 0.4486 0.3340
0.4900 0.4297 0.3165
0.6395 0.4535 0.2645
0.8112 0.4793 0.2055
0.9834 0.5041 0.1457
1.0000 0.5255 0.0918
0.1445 0.4634 0.3568
0.1790 0.5104 0.3630
0.2430 0.5527 0.3546
0.3426 0.5815 0.3347
0.4767 0.5675 0.3187
0.6543 0.5397 0.3062
0.8191 0.5680 0.2498
0.9843 0.5951 0.1948
1.0000 0.6183 0.1460
0.1848 0.5864 0.3933
0.2047 0.6428 0.3871
0.2527 0.6953 0.3652
0.3398 0.7320 0.3351
0.4680 0.7227 0.3127
0.6391 0.6938 0.3154
0.8348 0.6640 0.3089
0.9919 0.6938 0.2580
1.0000 0.7205 0.2161
0.2253 0.7080 0.4283
0.2307 0.7735 0.4103
0.2629 0.8361 0.3757
0.3376 0.8805 0.3359
0.4591 0.8763 0.3055
0.6351 0.8433 0.3193
0.8219 0.8136 0.3241
1.0000 0.7869 0.3285
1.0000 0.8175 0.2941
0.2616 0.8143 0.4588
0.2544 0.8878 0.4308
0.2727 0.9590 0.3855
0.3367 1.0000 0.3375
0.4519 1.0000 0.2999
0.6331 0.9741 0.3206
0.8212 0.9415 0.3364
0.9987 0.9152 0.3471
1.0000 0.8987 0.3700
0.0000 0.1638 0.3378
0.0000 0.1373 0.3508
0.1156 0.1034 0.3418
0.2258 0.1002 0.3097
0.2815 0.1187 0.2842
0.3714 0.1574 0.3008
0.4735 0.2020 0.3130
0.5731 0.2472 0.3189
0.6596 0.2873 0.3203
0.0000 0.2146 0.3540
0.0000 0.2326 0.3658
0.1102 0.1973 0.3883
0.2728 0.1709 0.3690
0.3604 0.1732 0.3489
0.4645 0.2082 0.3516
0.5817 0.2493 0.3434
0.6944 0.2918 0.3265
0.7942 0.3271 0.3238
0.0000 0.2583 0.3460
0.0128 0.2880 0.3827
0.1208 0.3059 0.3937
0.2954 0.2652 0.4150
0.4236 0.2481 0.3997
0.5431 0.2793 0.3845
0.6736 0.3182 0.3491
0.8063 0.3514 0.3459
0.9054 0.3929 0.2841
0.0580 0.2987 0.3446
0.1045 0.3335 0.3816
0.1816 0.3621 0.4099
0.2973 0.3783 0.4166
0.4619 0.3407 0.4287
0.5940 0.3699 0.3884
0.7317 0.4073 0.3352
0.8843 0.4352 0.3139
1.0000 0.4589 0.2930
0.1597 0.3345 0.3497
0.1943 0.3749 0.3876
0.2589 0.4095 0.4168
0.3532 0.4340 0.4327
0.4735 0.4475 0.4350
0.6142 0.4732 0.3955
0.7756 0.5016 0.3485
0.9372 0.5291 0.2999
1.0000 0.5529 0.2560
0.2121 0.4328 0.3994
0.2341 0.4812 0.4282
0.2844 0.5248 0.4460
0.3631 0.5591 0.4477
0.4710 0.5805 0.4354
0.6415 0.5576 0.4151
0.8108 0.5844 0.3560
0.9804 0.6100 0.2980
1.0000 0.6321 0.2464
0.2695 0.5450 0.4505
0.2764 0.6029 0.4672
0.3101 0.6571 0.4706
0.3724 0.7019 0.4579
0.4680 0.7311 0.4356
0.6260 0.7136 0.4183
0.8263 0.6821 0.4063
0.9878 0.7104 0.3519
1.0000 0.7356 0.3064
0.3262 0.6564 0.4986
0.3183 0.7236 0.5033
0.3360 0.7879 0.4936
0.3822 0.8429 0.4679
0.4656 0.8797 0.4363
0.6180 0.8665 0.4140
0.8108 0.8340 0.4177
1.0000 0.8050 0.4141
1.0000 0.8343 0.3758
0.3764 0.7539 0.5402
0.3558 0.8291 0.5347
0.3596 0.9022 0.5139
0.3916 0.9660 0.4773
0.4644 1.0000 0.4378
0.6115 1.0000 0.4094
0.8079 0.9642 0.4246
0.9911 0.9358 0.4296
1.0000 0.9168 0.4449
0.0000 0.2118 0.4303
0.0000 0.1870 0.4366
0.0707 0.1505 0.4241
0.2166 0.1369 0.3831
0.2824 0.1532 0.3433
0.3050 0.1969 0.3021
0.3870 0.2465 0.3372
0.4684 0.2958 0.3690
0.5396 0.3395 0.3948
0.0000 0.2624 0.4457
0.0000 0.2816 0.4591
0.0510 0.2493 0.4734
0.2388 0.2140 0.4586
0.3487 0.2108 0.4222
0.4089 0.2354 0.3877
0.5072 0.2803 0.4082
0.6045 0.3256 0.4228
0.6888 0.3661 0.4315
0.0000 0.3030 0.4262
0.0000 0.3364 0.4747
0.0669 0.3555 0.4890
0.2308 0.3179 0.5100
0.3985 0.2888 0.4889
0.5001 0.2923 0.4620
0.6162 0.3325 0.4650
0.7299 0.3740 0.4578
0.8269 0.4118 0.4452
0.0377 0.3395 0.4130
0.0698 0.3781 0.4618
0.1304 0.4110 0.5035
0.2412 0.4285 0.5138
0.4129 0.3875 0.5358
0.5671 0.3663 0.5153
0.7008 0.4022 0.4981
0.8280 0.4414 0.4642
0.9406 0.4725 0.4559
0.1540 0.3716 0.4065
0.1747 0.4156 0.4563
0.2236 0.4543 0.4987
0.3011 0.4832 0.5283
0.4154 0.4983 0.5339
0.6072 0.4548 0.5456
0.7551 0.4882 0.5020
0.8872 0.5272 0.4445
1.0000 0.5528 0.4280
0.2934 0.4041 0.4079
0.2993 0.4550 0.4591
0.3323 0.5011 0.5029
0.3945 0.5373 0.5337
0.4833 0.5622 0.5506
0.6220 0.5783 0.5538
0.7821 0.6071 0.5081
0.9421 0.6351 0.4611
1.0000 0.6593 0.4188
0.3710 0.5040 0.4745
0.3627 0.5638 0.5162
0.3798 0.6200 0.5487
0.4253 0.6666 0.5668
0.4969 0.7023 0.5687
0.6185 0.7293 0.5536
0.8119 0.7029 0.5315
0.9787 0.7296 0.4735
1.0000 0.7526 0.4239
0.4471 0.6032 0.5379
0.4239 0.6723 0.5687
0.4246 0.7388 0.5882
0.4534 0.7959 0.5923
0.5090 0.8418 0.5806
0.6156 0.8782 0.5540
0.7959 0.8571 0.5364
0.9936 0.8261 0.5254
1.0000 0.8535 0.4821
0.5138 0.6903 0.5925
0.4777 0.7676 0.6132
0.4643 0.8429 0.6214
0.4789 0.9091 0.6140
0.5205 0.9637 0.5915
0.6140 1.0000 0.5553
0.7897 0.9905 0.5349
0.9791 0.9592 0.5370
1.0000 0.9374 0.5429
0.0000 0.2660 0.5349
0.0000 0.2413 0.5387
0.0218 0.2040 0.5100
0.1867 0.1841 0.4674
0.2853 0.1918 0.4097
0.3232 0.2320 0.3495
0.3076 0.3009 0.3016
0.3695 0.3557 0.3516
0.4240 0.4037 0.3953
0.0000 0.3165 0.5494
0.0000 0.3363 0.5645
0.0000 0.3079 0.5663
0.1877 0.2676 0.5509
0.3357 0.2531 0.5057
0.4126 0.2740 0.4510
0.4240 0.3314 0.3976
0.4986 0.3824 0.4371
0.5641 0.4274 0.4704
0.0000 0.3531 0.5164
0.0000 0.3913 0.5782
0.0067 0.4115 0.5962
0.1622 0.3775 0.6067
0.3528 0.3400 0.5909
0.4880 0.3347 0.5430
0.5471 0.3678 0.4986
0.6395 0.4138 0.5224
0.7204 0.4547 0.5398
0.0147 0.3858 0.4901
0.0306 0.4286 0.5523
0.0728 0.4664 0.6087
0.1788 0.4851 0.6229
0.3384 0.4481 0.6411
0.5397 0.4123 0.6148
0.6467 0.4208 0.5795
0.7568 0.4620 0.5863
0.8528 0.4993 0.5854
0.1476 0.4135 0.4702
0.1524 0.4617 0.5334
0.1831 0.5052 0.5906
0.2415 0.5391 0.6355
0.3510 0.5555 0.6447
0.5540 0.5073 0.6650
0.7189 0.4886 0.6371
0.8461 0.5254 0.6256
0.9546 0.5602 0.6037
0.3063 0.4410 0.4557
0.2966 0.4959 0.5204
0.3121 0.5466 0.5790
0.3562 0.5876 0.6252
0.4264 0.6174 0.6571
0.5554 0.6361 0.6664
0.7714 0.5878 0.6773
0.9164 0.6210 0.6383
1.0000 0.6495 0.6169
0.4915 0.4655 0.4517
0.4641 0.5286 0.5183
0.4607 0.5881 0.5790
0.4860 0.6378 0.6270
0.5387 0.6759 0.6607
0.6352 0.7074 0.6836
0.7899 0.7263 0.6882
0.9483 0.7548 0.6429
1.0000 0.7794 0.6021
0.5887 0.5517 0.5295
0.5473 0.6236 0.5874
0.5285 0.6927 0.6379
0.5380 0.7524 0.6750
0.5747 0.8005 0.6970
0.6514 0.8443 0.7036
0.7862 0.8757 0.6881
0.9775 0.8497 0.6663
1.0000 0.8743 0.6173
0.6740 0.6272 0.5977
0.6199 0.7070 0.6467
0.5870 0.7850 0.6870
0.5820 0.8537 0.7129
0.6044 0.9108 0.7232
0.6646 0.9651 0.7161
0.7839 1.0000 0.6889
0.9625 0.9850 0.6718
1.0000 0.9603 0.6677
0.0000 0.3195 0.6380
0.0000 0.2950 0.6391
0.0000 0.2570 0.5918
0.1560 0.2320 0.5438
0.2800 0.2322 0.4772
0.3420 0.2666 0.3959
0.3424 0.3317 0.3297
0.3760 0.3614 0.3568
0.4304 0.4094 0.4005
0.0000 0.3698 0.6516
0.0000 0.3903 0.6685
0.0000 0.3647 0.6589
0.1398 0.3208 0.6352
0.3045 0.3007 0.5874
0.4182 0.3117 0.5132
0.4476 0.3648 0.4378
0.4451 0.4224 0.4123
0.4996 0.4705 0.4559
0.0000 0.4027 0.6053
0.0000 0.4450 0.6802
0.0000 0.4667 0.7016
0.0972 0.4360 0.6992
0.3009 0.3939 0.6810
0.4761 0.3765 0.6239
0.5547 0.4052 0.5564
0.5513 0.4698 0.4988
0.6124 0.5159 0.5369
0.0000 0.4315 0.5661
0.0000 0.4785 0.6411
0.0168 0.5209 0.7121
0.1182 0.5409 0.7299
0.2696 0.5076 0.7367
0.4949 0.4630 0.7143
0.6382 0.4621 0.6552
0.6834 0.5019 0.6072
0.7602 0.5435 0.6316
0.1413 0.4550 0.5330
0.1303 0.5073 0.6091
0.1434 0.5554 0.6809
0.1834 0.5941 0.7408
0.2886 0.6117 0.7532
0.4822 0.5668 0.7686
0.6953 0.5334 0.7305
0.7874 0.5491 0.6919
0.8794 0.5865 0.7022
0.3192 0.4775 0.5025
0.2940 0.5364 0.5803
0.2922 0.5916 0.6536
0.3180 0.6374 0.7146
0.3699 0.6721 0.7614
0.4912 0.6929 0.7766
0.7238 0.6384 0.7934
0.8772 0.6242 0.7638
0.9866 0.6570 0.7565
0.5261 0.4964 0.4799
0.4833 0.5634 0.5600
0.4629 0.6273 0.6354
0.4707 0.6815 0.6986
0.5060 0.7242 0.7470
0.5814 0.7613 0.7871
0.7237 0.7836 0.7999
0.9380 0.7355 0.8107
1.0000 0.7643 0.7779
0.5995 0.5585 0.5358
0.6420 0.5960 0.5698
0.6358 0.6565 0.6318
0.6241 0.7197 0.6971
0.6409 0.7710 0.7476
0.6955 0.8178 0.7900
0.8025 0.8542 0.8168
0.9557 0.8728 0.8214
1.0000 0.8979 0.7821
0.6850 0.6338 0.6042
0.7275 0.6713 0.6382
0.7127 0.7373 0.6948
0.6877 0.8090 0.7512
0.6911 0.8687 0.7927
0.7296 0.9256 0.8238
0.8170 0.9741 0.8351
0.9526 1.0000 0.8217
1.0000 0.9824 0.8057
0.0000 0.3673 0.7313
0.0000 0.3420 0.7265
0.0000 0.3033 0.6620
0.1303 0.2741 0.6073
0.2700 0.2696 0.5340
0.3589 0.2968 0.4368
0.3729 0.3587 0.3543
0.4066 0.3884 0.3814
0.4361 0.4144 0.4050
0.0000 0.4164 0.7406
0.0000 0.4376 0.7592
0.0000 0.4117 0.7464
0.0994 0.3674 0.7064
0.2780 0.3428 0.6534
0.4178 0.3461 0.5690
0.4689 0.3941 0.4729
0.4757 0.4494 0.4368
0.5053 0.4754 0.4605
0.0000 0.4459 0.6831
0.0000 0.4917 0.7689
0.0000 0.5150 0.7934
0.0441 0.4860 0.7814
0.2579 0.4411 0.7549
0.4504 0.4179 0.6942
0.5627 0.4376 0.6065
0.5759 0.4983 0.5298
0.5812 0.5424 0.5212
0.0000 0.4716 0.6324
0.0000 0.5220 0.7188
0.0000 0.5684 0.8022
0.0661 0.5896 0.8229
0.2116 0.5594 0.8182
0.4508 0.5100 0.7926
0.6332 0.4976 0.7212
0.6934 0.5339 0.6539
0.6808 0.5955 0.6019
0.1360 0.4913 0.5876
0.1114 0.5472 0.6751
0.1092 0.5993 0.7594
0.1335 0.6422 0.8322
0.2351 0.6608 0.8474
0.4233 0.6186 0.8518
0.6667 0.5749 0.8140
0.7834 0.5845 0.7539
0.8128 0.6245 0.7104
0.3307 0.5094 0.5434
0.2919 0.5719 0.6326
0.2749 0.6311 0.7184
0.2850 0.6809 0.7924
0.3212 0.7198 0.8520
0.4361 0.7423 0.8720
0.6621 0.6899 0.8859
0.8576 0.6634 0.8438
0.9353 0.6785 0.8103
0.5564 0.5235 0.5047
0.5004 0.5939 0.5962
0.4651 0.6617 0.6844
0.4575 0.7199 0.7605
0.4774 0.7666 0.8217
0.5341 0.8086 0.8769
0.6671 0.8335 0.8967
0.8985 0.7792 0.9126
1.0000 0.7659 0.8888
0.6301 0.5855 0.5603
0.6727 0.6229 0.5943
0.6569 0.6859 0.6647
0.6301 0.7530 0.7432
0.6320 0.8082 0.8066
0.6689 0.8596 0.8640
0.7552 0.9015 0.9079
0.8977 0.9230 0.9193
1.0000 0.8796 0.9307
0.6926 0.6405 0.6103
0.7351 0.6780 0.6443
0.7818 0.7192 0.6817
0.7845 0.7771 0.7403
0.7695 0.8400 0.8056
0.7872 0.9004 0.8652
0.8526 0.9520 0.9116
0.9644 0.9858 0.9354
1.0000 1.0000 0.9385
