assets/luts/LUTs/JD_Yucca.CUBE
TITLE "ColorFinale Export"
# Created by Jeven Dovey on 2021-07-15 17:42:21 +0000
# Color Finale Plugin v.2.3.2 (520)
LUT_3D_SIZE 17
0.0000 0.0004 0.0247
0.0216 0.0120 0.0234
0.0768 0.0227 0.0209
0.1342 0.0342 0.0180
0.1950 0.0460 0.0144
0.2569 0.0575 0.0101
0.3178 0.0685 0.0055
0.3778 0.0789 0.0005
0.4403 0.0894 0.0000
0.5092 0.1007 0.0000
0.5859 0.1129 0.0000
0.6682 0.1256 0.0000
0.7538 0.1383 0.0000
0.8400 0.1509 0.0000
0.9228 0.1626 0.0000
0.9985 0.1736 0.0000
1.0000 0.1842 0.0000
0.0000 0.0488 0.0304
0.0334 0.0437 0.0275
0.0896 0.0547 0.0161
0.1500 0.0655 0.0127
0.2135 0.0764 0.0090
0.2783 0.0870 0.0050
0.3420 0.0971 0.0008
0.4047 0.1067 0.0000
0.4701 0.1163 0.0000
0.5422 0.1265 0.0000
0.6223 0.1375 0.0000
0.7085 0.1488 0.0000
0.7981 0.1602 0.0000
0.8875 0.1717 0.0000
0.9726 0.1829 0.0000
1.0000 0.1931 0.0000
1.0000 0.2030 0.0000
0.0000 0.1016 0.0324
0.0334 0.0964 0.0297
0.1006 0.0884 0.0197
0.1616 0.0994 0.0074
0.2274 0.1098 0.0022
0.2945 0.1200 0.0000
0.3603 0.1295 0.0000
0.4251 0.1385 0.0000
0.4926 0.1476 0.0000
0.5669 0.1572 0.0000
0.6496 0.1675 0.0000
0.7383 0.1781 0.0000
0.8305 0.1887 0.0000
0.9233 0.1990 0.0000
1.0000 0.2086 0.0000
1.0000 0.2173 0.0000
1.0000 0.2254 0.0000
0.0000 0.1567 0.0355
0.0342 0.1520 0.0318
0.0955 0.1459 0.0236
0.1696 0.1356 0.0172
0.2323 0.1474 0.0000
0.2984 0.1581 0.0000
0.3633 0.1681 0.0000
0.4272 0.1775 0.0000
0.4938 0.1870 0.0000
0.5671 0.1970 0.0000
0.6486 0.2077 0.0000
0.7360 0.2189 0.0000
0.8267 0.2301 0.0000
0.9180 0.2409 0.0000
1.0000 0.2511 0.0000
1.0000 0.2603 0.0000
1.0000 0.2689 0.0000
0.0000 0.2146 0.0380
0.0342 0.2107 0.0323
0.0940 0.2052 0.0255
0.1635 0.1957 0.0210
0.2413 0.1847 0.0152
0.3042 0.1967 0.0000
0.3669 0.2078 0.0000
0.4296 0.2177 0.0000
0.4951 0.2276 0.0000
0.5671 0.2382 0.0000
0.6473 0.2495 0.0000
0.7333 0.2612 0.0000
0.8225 0.2730 0.0000
0.9122 0.2844 0.0000
0.9983 0.2952 0.0000
1.0000 0.3049 0.0000
1.0000 0.3140 0.0000
0.0000 0.2732 0.0400
0.0334 0.2702 0.0319
0.0923 0.2653 0.0250
0.1615 0.2552 0.0241
0.2349 0.2452 0.0190
0.3132 0.2340 0.0144
0.3740 0.2458 0.0000
0.4341 0.2569 0.0000
0.4969 0.2680 0.0000
0.5676 0.2791 0.0000
0.6463 0.2910 0.0000
0.7306 0.3034 0.0000
0.8182 0.3158 0.0000
0.9064 0.3278 0.0000
0.9909 0.3391 0.0000
1.0000 0.3494 0.0000
1.0000 0.3591 0.0000
0.0000 0.3305 0.0413
0.0320 0.3284 0.0310
0.0901 0.3242 0.0233
0.1602 0.3134 0.0248
0.2324 0.3030 0.0227
0.3069 0.2927 0.0181
0.3826 0.2818 0.0150
0.4414 0.2934 0.0000
0.5029 0.3051 0.0000
0.5705 0.3175 0.0000
0.6460 0.3308 0.0000
0.7287 0.3438 0.0000
0.8147 0.3568 0.0000
0.9010 0.3695 0.0000
0.9840 0.3815 0.0000
1.0000 0.3923 0.0000
1.0000 0.4024 0.0000
0.0000 0.3865 0.0423
0.0303 0.3853 0.0297
0.0874 0.3819 0.0209
0.1587 0.3702 0.0242
0.2312 0.3592 0.0246
0.3041 0.3489 0.0223
0.3767 0.3388 0.0188
0.4495 0.3284 0.0171
0.5098 0.3405 0.0000
0.5764 0.3533 0.0000
0.6501 0.3672 0.0000
0.7292 0.3818 0.0000
0.8118 0.3963 0.0000
0.8965 0.4096 0.0000
0.9779 0.4221 0.0000
1.0000 0.4334 0.0000
1.0000 0.4441 0.0000
0.0000 0.4445 0.0429
0.0280 0.4443 0.0283
0.0841 0.4417 0.0180
0.1569 0.4292 0.0227
0.2303 0.4174 0.0253
0.3028 0.4066 0.0253
0.3736 0.3966 0.0236
0.4440 0.3868 0.0215
0.5179 0.3763 0.0213
0.5831 0.3897 0.0000
0.6556 0.4040 0.0000
0.7333 0.4190 0.0000
0.8139 0.4342 0.0000
0.8949 0.4492 0.0000
0.9727 0.4633 0.0000
1.0000 0.4753 0.0000
1.0000 0.4865 0.0000
0.0000 0.5079 0.0434
0.0247 0.5090 0.0268
0.0803 0.5072 0.0144
0.1546 0.4938 0.0204
0.2292 0.4811 0.0250
0.3022 0.4696 0.0273
0.3724 0.4593 0.0278
0.4409 0.4496 0.0273
0.5126 0.4396 0.0268
0.5917 0.4286 0.0282
0.6626 0.4435 0.0056
0.7387 0.4590 0.0000
0.8175 0.4748 0.0000
0.8968 0.4902 0.0000
0.9729 0.5048 0.0000
1.0000 0.5182 0.0000
1.0000 0.5307 0.0000
0.0000 0.5778 0.0436
0.0209 0.5803 0.0251
0.0756 0.5795 0.0102
0.1516 0.5651 0.0174
0.2277 0.5515 0.0238
0.3018 0.5391 0.0285
0.3722 0.5281 0.0313
0.4400 0.5181 0.0327
0.5099 0.5082 0.0339
0.5867 0.4977 0.0354
0.6717 0.4861 0.0392
0.7460 0.5022 0.0162
0.8231 0.5185 0.0000
0.9004 0.5346 0.0000
0.9746 0.5498 0.0000
1.0000 0.5636 0.0000
1.0000 0.5766 0.0000
0.0000 0.6523 0.0436
0.0168 0.6562 0.0231
0.0705 0.6565 0.0056
0.1481 0.6411 0.0140
0.2259 0.6265 0.0220
0.3014 0.6132 0.0288
0.3726 0.6013 0.0339
0.4406 0.5907 0.0376
0.5097 0.5805 0.0406
0.5848 0.5700 0.0439
0.6676 0.5587 0.0481
0.7553 0.5472 0.0548
0.8304 0.5642 0.0325
0.9058 0.5808 0.0109
0.9781 0.5965 0.0000
1.0000 0.6109 0.0000
1.0000 0.6244 0.0000
0.0000 0.7289 0.0436
0.0126 0.7344 0.0210
0.0652 0.7358 0.0009
0.1444 0.7195 0.0105
0.2239 0.7039 0.0199
0.3008 0.6895 0.0286
0.3732 0.6768 0.0358
0.4417 0.6654 0.0418
0.5110 0.6546 0.0470
0.5855 0.6437 0.0521
0.6667 0.6324 0.0581
0.7524 0.6210 0.0656
0.8397 0.6101 0.0754
0.9131 0.6274 0.0548
0.9835 0.6437 0.0358
1.0000 0.6586 0.0187
1.0000 0.6730 0.0032
0.0000 0.8053 0.0437
0.0085 0.8123 0.0190
0.0600 0.8148 0.0000
0.1407 0.7976 0.0070
0.2217 0.7810 0.0179
0.3002 0.7657 0.0282
0.3738 0.7521 0.0374
0.4434 0.7399 0.0453
0.5133 0.7284 0.0527
0.5878 0.7169 0.0600
0.6683 0.7052 0.0678
0.7526 0.6937 0.0770
0.8382 0.6827 0.0879
0.9221 0.6727 0.1007
0.9907 0.6897 0.0827
1.0000 0.7051 0.0667
1.0000 0.7208 0.0540
0.0000 0.8780 0.0440
0.0049 0.8864 0.0174
0.0551 0.8901 0.0000
0.1373 0.8721 0.0039
0.2198 0.8546 0.0160
0.2997 0.8384 0.0278
0.3746 0.8239 0.0386
0.4452 0.8109 0.0484
0.5158 0.7986 0.0578
0.5909 0.7864 0.0672
0.6714 0.7742 0.0771
0.7551 0.7623 0.0878
0.8395 0.7512 0.1002
0.9222 0.7411 0.1142
0.9990 0.7325 0.1293
1.0000 0.7484 0.1143
1.0000 0.7654 0.1040
0.0000 0.9453 0.0438
0.0018 0.9546 0.0161
0.0502 0.9594 0.0000
0.1344 0.9405 0.0013
0.2182 0.9222 0.0145
0.2994 0.9052 0.0275
0.3755 0.8899 0.0397
0.4470 0.8762 0.0511
0.5185 0.8632 0.0622
0.5942 0.8503 0.0735
0.6751 0.8374 0.0854
0.7588 0.8251 0.0980
0.8427 0.8137 0.1117
0.9244 0.8033 0.1271
1.0000 0.7946 0.1432
1.0000 0.7877 0.1467
1.0000 0.8060 0.1392
0.0000 1.0000 0.0434
0.0000 1.0000 0.0143
0.0458 1.0000 0.0000
0.1319 1.0000 0.0000
0.2169 0.9863 0.0133
0.2992 0.9685 0.0275
0.3764 0.9525 0.0410
0.4489 0.9381 0.0537
0.5214 0.9244 0.0662
0.5979 0.9108 0.0793
0.6793 0.8973 0.0931
0.7632 0.8844 0.1076
0.8469 0.8725 0.1228
0.9282 0.8620 0.1392
1.0000 0.8529 0.1568
1.0000 0.8466 0.1613
1.0000 0.8443 0.1646
0.0000 0.0190 0.0598
0.0219 0.0049 0.0668
0.0758 0.0159 0.0544
0.1315 0.0272 0.0500
0.1840 0.0429 0.0248
0.2451 0.0543 0.0169
0.3057 0.0649 0.0083
0.3650 0.0753 0.0007
0.4255 0.0863 0.0000
0.4922 0.0981 0.0000
0.5665 0.1109 0.0000
0.6461 0.1242 0.0000
0.7290 0.1377 0.0000
0.8123 0.1509 0.0000
0.8924 0.1634 0.0000
0.9667 0.1747 0.0000
1.0000 0.1858 0.0000
0.0000 0.0445 0.0695
0.0290 0.0519 0.0727
0.0800 0.0640 0.0627
0.1386 0.0754 0.0475
0.1985 0.0877 0.0327
0.2597 0.0997 0.0170
0.3198 0.1112 0.0009
0.3800 0.1216 0.0000
0.4430 0.1320 0.0000
0.5125 0.1431 0.0000
0.5899 0.1550 0.0000
0.6729 0.1673 0.0000
0.7593 0.1797 0.0000
0.8462 0.1918 0.0000
0.9298 0.2031 0.0000
1.0000 0.2134 0.0000
1.0000 0.2236 0.0000
0.0000 0.0951 0.0783
0.0328 0.1023 0.0778
0.0927 0.0965 0.0742
0.1523 0.1082 0.0550
0.2144 0.1199 0.0374
0.2777 0.1315 0.0191
0.3399 0.1425 0.0007
0.4015 0.1528 0.0000
0.4670 0.1625 0.0000
0.5392 0.1728 0.0000
0.6194 0.1838 0.0000
0.7055 0.1953 0.0000
0.7950 0.2068 0.0000
0.8850 0.2180 0.0000
0.9716 0.2285 0.0000
1.0000 0.2379 0.0000
1.0000 0.2468 0.0000
0.0000 0.1491 0.0833
0.0320 0.1586 0.0792
0.0920 0.1527 0.0759
0.1642 0.1438 0.0651
0.2277 0.1553 0.0445
0.2926 0.1666 0.0235
0.3565 0.1772 0.0028
0.4193 0.1873 0.0000
0.4860 0.1969 0.0000
0.5603 0.2067 0.0000
0.6428 0.2172 0.0000
0.7314 0.2279 0.0000
0.8234 0.2387 0.0000
0.9158 0.2493 0.0000
1.0000 0.2591 0.0000
1.0000 0.2680 0.0000
1.0000 0.2762 0.0000
0.0000 0.2057 0.0877
0.0326 0.2164 0.0817
0.0923 0.2112 0.0773
0.1583 0.2041 0.0686
0.2366 0.1928 0.0617
0.3002 0.2046 0.0405
0.3631 0.2156 0.0197
0.4249 0.2261 0.0000
0.4893 0.2367 0.0000
0.5603 0.2481 0.0000
0.6414 0.2591 0.0000
0.7285 0.2705 0.0000
0.8189 0.2819 0.0000
0.9098 0.2930 0.0000
0.9972 0.3034 0.0000
1.0000 0.3128 0.0000
1.0000 0.3216 0.0000
0.0000 0.2631 0.0916
0.0327 0.2749 0.0836
0.0917 0.2706 0.0771
0.1562 0.2641 0.0701
0.2298 0.2537 0.0652
0.3090 0.2422 0.0593
0.3706 0.2537 0.0385
0.4314 0.2646 0.0181
0.4948 0.2756 0.0000
0.5644 0.2874 0.0000
0.6419 0.3000 0.0000
0.7260 0.3128 0.0000
0.8147 0.3249 0.0000
0.9040 0.3366 0.0000
0.9897 0.3476 0.0000
1.0000 0.3576 0.0000
1.0000 0.3669 0.0000
0.0000 0.3191 0.0948
0.0323 0.3321 0.0850
0.0904 0.3287 0.0762
0.1543 0.3228 0.0693
0.2272 0.3119 0.0680
0.3021 0.3013 0.0627
0.3790 0.2900 0.0582
0.4386 0.3014 0.0381
0.5009 0.3128 0.0172
0.5694 0.3249 0.0000
0.6455 0.3381 0.0000
0.7271 0.3519 0.0000
0.8119 0.3657 0.0000
0.8988 0.3785 0.0000
0.9827 0.3901 0.0000
1.0000 0.4006 0.0000
1.0000 0.4104 0.0000
0.0000 0.3739 0.0975
0.0316 0.3881 0.0860
0.0888 0.3856 0.0750
0.1518 0.3803 0.0674
0.2256 0.3686 0.0687
0.2991 0.3579 0.0663
0.3724 0.3475 0.0617
0.4466 0.3366 0.0587
0.5076 0.3484 0.0382
0.5751 0.3610 0.0158
0.6498 0.3746 0.0000
0.7300 0.3888 0.0000
0.8132 0.4032 0.0000
0.8969 0.4173 0.0000
0.9773 0.4306 0.0000
1.0000 0.4419 0.0000
1.0000 0.4523 0.0000
0.0000 0.4306 0.1000
0.0307 0.4460 0.0866
0.0868 0.4446 0.0732
0.1489 0.4399 0.0648
0.2240 0.4274 0.0681
0.2975 0.4160 0.0683
0.3689 0.4057 0.0661
0.4402 0.3955 0.0627
0.5157 0.3846 0.0611
0.5816 0.3977 0.0392
0.6551 0.4117 0.0151
0.7338 0.4264 0.0000
0.8155 0.4412 0.0000
0.8976 0.4559 0.0000
0.9763 0.4697 0.0000
1.0000 0.4822 0.0000
1.0000 0.4941 0.0000
0.0000 0.4926 0.1024
0.0294 0.5093 0.0871
0.0841 0.5091 0.0714
0.1453 0.5052 0.0615
0.2218 0.4918 0.0665
0.2962 0.4796 0.0692
0.3673 0.4688 0.0694
0.4366 0.4588 0.0680
0.5093 0.4484 0.0661
0.5902 0.4369 0.0661
0.6620 0.4515 0.0427
0.7392 0.4667 0.0181
0.8191 0.4821 0.0000
0.8994 0.4973 0.0000
0.9766 0.5115 0.0000
1.0000 0.5246 0.0000
1.0000 0.5369 0.0000
0.0000 0.5610 0.1047
0.0279 0.5792 0.0874
0.0803 0.5804 0.0696
0.1410 0.5774 0.0575
0.2192 0.5629 0.0641
0.2950 0.5498 0.0690
0.3665 0.5382 0.0717
0.4352 0.5278 0.0726
0.5060 0.5176 0.0727
0.5841 0.5066 0.0726
0.6711 0.4944 0.0748
0.7463 0.5102 0.0509
0.8244 0.5262 0.0269
0.9028 0.5420 0.0032
0.9782 0.5568 0.0000
1.0000 0.5704 0.0000
1.0000 0.5831 0.0000
0.0000 0.6338 0.1070
0.0261 0.6535 0.0875
0.0763 0.6562 0.0676
0.1361 0.6542 0.0532
0.2161 0.6387 0.0611
0.2934 0.6246 0.0679
0.3660 0.6121 0.0730
0.4350 0.6011 0.0764
0.5052 0.5904 0.0786
0.5814 0.5795 0.0805
0.6657 0.5677 0.0830
0.7556 0.5555 0.0879
0.8318 0.5722 0.0647
0.9082 0.5885 0.0422
0.9815 0.6039 0.0211
1.0000 0.6180 0.0016
1.0000 0.6313 0.0000
0.0000 0.7087 0.1093
0.0244 0.7301 0.0876
0.0721 0.7344 0.0655
0.1311 0.7333 0.0487
0.2127 0.7168 0.0579
0.2916 0.7017 0.0664
0.3655 0.6883 0.0736
0.4354 0.6764 0.0793
0.5058 0.6652 0.0839
0.5814 0.6538 0.0879
0.6639 0.6420 0.0923
0.7515 0.6301 0.0980
0.8409 0.6184 0.1059
0.9154 0.6354 0.0843
0.9869 0.6514 0.0645
1.0000 0.6660 0.0466
1.0000 0.6806 0.0306
0.0000 0.7834 0.1115
0.0229 0.8063 0.0878
0.0681 0.8122 0.0636
0.1261 0.8122 0.0442
0.2093 0.7948 0.0547
0.2899 0.7787 0.0648
0.3651 0.7644 0.0738
0.4360 0.7516 0.0815
0.5072 0.7396 0.0884
0.5829 0.7276 0.0948
0.6648 0.7154 0.1013
0.7506 0.7034 0.1086
0.8382 0.6918 0.1176
0.9243 0.6811 0.1285
0.9939 0.6977 0.1096
1.0000 0.7129 0.0927
1.0000 0.7287 0.0797
0.0000 0.8546 0.1138
0.0217 0.8790 0.0881
0.0645 0.8863 0.0620
0.1216 0.8873 0.0402
0.2062 0.8691 0.0519
0.2881 0.8520 0.0633
0.3647 0.8369 0.0739
0.4368 0.8233 0.0833
0.5089 0.8105 0.0922
0.5853 0.7977 0.1009
0.6671 0.7850 0.1096
0.7523 0.7726 0.1188
0.8385 0.7609 0.1293
0.9232 0.7502 0.1413
1.0000 0.7409 0.1545
1.0000 0.7566 0.1386
1.0000 0.7736 0.1281
0.0000 0.9199 0.1160
0.0209 0.9457 0.0886
0.0615 0.9545 0.0607
0.1175 0.9564 0.0369
0.2035 0.9373 0.0495
0.2867 0.9195 0.0621
0.3646 0.9035 0.0740
0.4377 0.8892 0.0849
0.5107 0.8757 0.0955
0.5878 0.8622 0.1062
0.6702 0.8487 0.1170
0.7553 0.8359 0.1282
0.8409 0.8239 0.1401
0.9244 0.8130 0.1535
1.0000 0.8037 0.1677
1.0000 0.7960 0.1824
1.0000 0.8141 0.1746
0.0000 0.9824 0.1177
0.0195 1.0000 0.0886
0.0589 1.0000 0.0598
0.1135 1.0000 0.0345
0.2012 1.0000 0.0476
0.2856 0.9835 0.0612
0.3646 0.9668 0.0742
0.4388 0.9518 0.0865
0.5126 0.9375 0.0986
0.5906 0.9233 0.1110
0.6737 0.9092 0.1238
0.7590 0.8957 0.1370
0.8444 0.8833 0.1505
0.9274 0.8722 0.1650
1.0000 0.8626 0.1807
1.0000 0.8549 0.1965
1.0000 0.8524 0.2043
0.0000 0.0384 0.0972
0.0055 0.0225 0.1087
0.0734 0.0093 0.1105
0.1282 0.0217 0.1010
0.1840 0.0357 0.0832
0.2389 0.0495 0.0707
0.2861 0.0667 0.0410
0.3414 0.0780 0.0350
0.3997 0.0893 0.0279
0.4647 0.1012 0.0194
0.5374 0.1140 0.0091
0.6159 0.1272 0.0000
0.6977 0.1405 0.0000
0.7804 0.1536 0.0000
0.8597 0.1659 0.0000
0.9312 0.1779 0.0000
0.9995 0.1892 0.0000
0.0000 0.0637 0.1064
0.0093 0.0712 0.1092
0.0810 0.0561 0.1166
0.1387 0.0676 0.1023
0.1977 0.0790 0.0978
0.2508 0.0948 0.0706
0.3107 0.1057 0.0623
0.3702 0.1158 0.0535
0.4325 0.1261 0.0435
0.5010 0.1372 0.0315
0.5742 0.1506 0.0124
0.6527 0.1647 0.0000
0.7343 0.1791 0.0000
0.8171 0.1927 0.0000
0.8973 0.2050 0.0000
0.9717 0.2162 0.0000
1.0000 0.2268 0.0000
0.0000 0.0902 0.1161
0.0341 0.0976 0.1191
0.0879 0.1050 0.1218
0.1427 0.1175 0.1103
0.2045 0.1292 0.0937
0.2656 0.1412 0.0780
0.3256 0.1527 0.0620
0.3847 0.1637 0.0458
0.4463 0.1749 0.0284
0.5142 0.1869 0.0088
0.5896 0.1999 0.0000
0.6707 0.2135 0.0000
0.7561 0.2265 0.0000
0.8428 0.2388 0.0000
0.9262 0.2503 0.0000
1.0000 0.2607 0.0000
1.0000 0.2705 0.0000
0.0000 0.1419 0.1270
0.0360 0.1516 0.1276
0.0912 0.1587 0.1264
0.1559 0.1521 0.1220
0.2189 0.1640 0.1010
0.2823 0.1755 0.0824
0.3445 0.1865 0.0638
0.4057 0.1970 0.0452
0.4695 0.2076 0.0253
0.5398 0.2190 0.0030
0.6178 0.2314 0.0000
0.7017 0.2442 0.0000
0.7906 0.2562 0.0000
0.8808 0.2675 0.0000
0.9672 0.2780 0.0000
1.0000 0.2876 0.0000
1.0000 0.2966 0.0000
0.0000 0.1971 0.1343
0.0384 0.2082 0.1321
0.0899 0.2178 0.1273
0.1544 0.2112 0.1232
0.2309 0.2013 0.1117
0.2953 0.2127 0.0902
0.3590 0.2235 0.0692
0.4216 0.2337 0.0486
0.4868 0.2440 0.0268
0.5585 0.2551 0.0025
0.6383 0.2670 0.0000
0.7239 0.2794 0.0000
0.8142 0.2913 0.0000
0.9064 0.3020 0.0000
0.9949 0.3120 0.0000
1.0000 0.3210 0.0000
1.0000 0.3295 0.0000
0.0000 0.2530 0.1404
0.0404 0.2654 0.1360
0.0900 0.2763 0.1291
0.1540 0.2704 0.1239
0.2242 0.2624 0.1148
0.3040 0.2506 0.1077
0.3663 0.2619 0.0865
0.4279 0.2725 0.0658
0.4921 0.2832 0.0444
0.5627 0.2946 0.0208
0.6411 0.3070 0.0000
0.7252 0.3200 0.0000
0.8126 0.3330 0.0000
0.9005 0.3458 0.0000
0.9874 0.3564 0.0000
1.0000 0.3660 0.0000
1.0000 0.3750 0.0000
0.0008 0.3076 0.1456
0.0420 0.3213 0.1392
0.0898 0.3335 0.1305
0.1529 0.3285 0.1232
0.2217 0.3210 0.1162
0.2966 0.3102 0.1108
0.3746 0.2985 0.1049
0.4349 0.3096 0.0843
0.4980 0.3207 0.0630
0.5674 0.3326 0.0399
0.6444 0.3454 0.0140
0.7272 0.3588 0.0000
0.8131 0.3723 0.0000
0.8993 0.3857 0.0000
0.9821 0.3983 0.0000
1.0000 0.4092 0.0000
1.0000 0.4188 0.0000
0.0040 0.3610 0.1502
0.0433 0.3760 0.1420
0.0892 0.3893 0.1314
0.1514 0.3854 0.1219
0.2194 0.3783 0.1152
0.2936 0.3670 0.1135
0.3673 0.3564 0.1081
0.4428 0.3451 0.1037
0.5046 0.3566 0.0827
0.5729 0.3689 0.0597
0.6486 0.3822 0.0346
0.7299 0.3960 0.0076
0.8142 0.4101 0.0000
0.8990 0.4239 0.0000
0.9804 0.4369 0.0000
1.0000 0.4487 0.0000
1.0000 0.4599 0.0000
0.0071 0.4163 0.1547
0.0443 0.4326 0.1445
0.0883 0.4472 0.1321
0.1494 0.4443 0.1202
0.2168 0.4377 0.1132
0.2917 0.4256 0.1143
0.3637 0.4149 0.1118
0.4356 0.4045 0.1073
0.5126 0.3931 0.1043
0.5794 0.4058 0.0817
0.6539 0.4196 0.0570
0.7336 0.4339 0.0309
0.8164 0.4485 0.0038
0.8995 0.4628 0.0000
0.9794 0.4762 0.0000
1.0000 0.4885 0.0000
1.0000 0.5000 0.0000
0.0102 0.4768 0.1592
0.0453 0.4945 0.1470
0.0872 0.5104 0.1326
0.1469 0.5088 0.1180
0.2135 0.5028 0.1103
0.2897 0.4899 0.1136
0.3617 0.4785 0.1140
0.4317 0.4681 0.1120
0.5053 0.4575 0.1088
0.5879 0.4454 0.1072
0.6607 0.4597 0.0830
0.7389 0.4745 0.0577
0.8199 0.4896 0.0318
0.9013 0.5044 0.0058
0.9795 0.5184 0.0000
1.0000 0.5312 0.0000
1.0000 0.5432 0.0000
0.0135 0.5434 0.1638
0.0462 0.5628 0.1494
0.0857 0.5802 0.1329
0.1438 0.5800 0.1155
0.2095 0.5748 0.1066
0.2872 0.5608 0.1120
0.3602 0.5486 0.1149
0.4298 0.5377 0.1156
0.5014 0.5271 0.1147
0.5807 0.5157 0.1131
0.6696 0.5029 0.1135
0.7459 0.5185 0.0888
0.8252 0.5341 0.0639
0.9046 0.5495 0.0393
0.9810 0.5640 0.0158
1.0000 0.5773 0.0000
1.0000 0.5898 0.0000
0.0171 0.6144 0.1685
0.0471 0.6354 0.1518
0.0842 0.6545 0.1331
0.1397 0.6559 0.1135
0.2049 0.6514 0.1025
0.2844 0.6364 0.1095
0.3586 0.6233 0.1147
0.4289 0.6116 0.1180
0.5000 0.6006 0.1196
0.5773 0.5892 0.1203
0.6631 0.5770 0.1211
0.7551 0.5641 0.1241
0.8323 0.5804 0.1000
0.9099 0.5964 0.0766
0.9843 0.6115 0.0546
1.0000 0.6253 0.0343
1.0000 0.6386 0.0153
0.0208 0.6875 0.1732
0.0481 0.7102 0.1542
0.0826 0.7310 0.1332
0.1355 0.7340 0.1114
0.2001 0.7304 0.0982
0.2813 0.7144 0.1066
0.3570 0.7002 0.1138
0.4283 0.6877 0.1194
0.4999 0.6759 0.1236
0.5767 0.6641 0.1268
0.6605 0.6519 0.1297
0.7497 0.6394 0.1334
0.8415 0.6270 0.1394
0.9171 0.6437 0.1169
0.9894 0.6594 0.0961
1.0000 0.6737 0.0773
1.0000 0.6882 0.0609
0.0246 0.7603 0.1779
0.0493 0.7848 0.1565
0.0812 0.8072 0.1335
0.1314 0.8119 0.1094
0.1954 0.8092 0.0941
0.2781 0.7922 0.1038
0.3554 0.7771 0.1126
0.4278 0.7637 0.1202
0.5003 0.7511 0.1268
0.5774 0.7385 0.1325
0.6606 0.7259 0.1378
0.7480 0.7134 0.1434
0.8375 0.7012 0.1502
0.9259 0.6897 0.1592
0.9964 0.7061 0.1394
1.0000 0.7210 0.1217
1.0000 0.7367 0.1082
0.0286 0.8297 0.1824
0.0507 0.8558 0.1589
0.0801 0.8797 0.1339
0.1278 0.8861 0.1078
0.1910 0.8842 0.0903
0.2752 0.8663 0.1012
0.3539 0.8503 0.1115
0.4276 0.8361 0.1207
0.5011 0.8226 0.1292
0.5789 0.8093 0.1374
0.6622 0.7960 0.1451
0.7489 0.7832 0.1528
0.8368 0.7709 0.1613
0.9235 0.7596 0.1712
1.0000 0.7495 0.1826
1.0000 0.7650 0.1658
1.0000 0.7820 0.1549
0.0325 0.8934 0.1867
0.0522 0.9210 0.1613
0.0794 0.9463 0.1345
0.1247 0.9542 0.1065
0.1872 0.9531 0.0870
0.2727 0.9345 0.0991
0.3526 0.9177 0.1105
0.4274 0.9027 0.1212
0.5019 0.8885 0.1314
0.5807 0.8744 0.1415
0.6645 0.8604 0.1515
0.7512 0.8470 0.1613
0.8384 0.8345 0.1714
0.9238 0.8230 0.1828
1.0000 0.8130 0.1950
1.0000 0.8046 0.2080
1.0000 0.8228 0.1999
0.0365 0.9538 0.1909
0.0540 0.9828 0.1638
0.0790 1.0000 0.1352
0.1220 1.0000 0.1055
0.1839 1.0000 0.0842
0.2705 0.9990 0.0973
0.3515 0.9816 0.1098
0.4275 0.9659 0.1217
0.5030 0.9510 0.1334
0.5826 0.9361 0.1452
0.6673 0.9214 0.1572
0.7542 0.9073 0.1692
0.8413 0.8943 0.1811
0.9260 0.8827 0.1937
1.0000 0.8725 0.2074
1.0000 0.8644 0.2217
1.0000 0.8607 0.2441
0.0000 0.0589 0.1363
0.0000 0.0444 0.1480
0.0588 0.0274 0.1533
0.1210 0.0184 0.1507
0.1755 0.0317 0.1445
0.2309 0.0456 0.1330
0.2828 0.0601 0.1172
0.3316 0.0749 0.0992
0.3871 0.0858 0.1041
0.4332 0.1078 0.0603
0.4995 0.1223 0.0543
0.5716 0.1373 0.0470
0.6472 0.1524 0.0389
0.7238 0.1670 0.0299
0.7976 0.1809 0.0202
0.8664 0.1934 0.0112
0.9322 0.2051 0.0021
0.0000 0.0841 0.1454
0.0000 0.0920 0.1490
0.0628 0.0749 0.1615
0.1359 0.0605 0.1628
0.1934 0.0733 0.1522
0.2501 0.0873 0.1338
0.3033 0.1011 0.1182
0.3616 0.1098 0.1262
0.4062 0.1295 0.0823
0.4699 0.1418 0.0744
0.5415 0.1549 0.0648
0.6189 0.1684 0.0536
0.6998 0.1820 0.0413
0.7815 0.1953 0.0281
0.8602 0.2078 0.0151
0.9332 0.2191 0.0025
