assets/luts/LUTs/JD_Yucca.CUBE
TITLE "ColorFinale Export"
# Created by Jeven Dovey on 2021-07-15 17:42:21 +0000
# Color Finale Plugin v.2.3.2 (520)
LUT_3D_SIZE 5
0.0000 0.0004 0.0247
0.1950 0.0460 0.0144
0.4403 0.0894 0.0000
0.7538 0.1383 0.0000
1.0000 0.1842 0.0000
0.0000 0.2146 0.0380
0.2413 0.1847 0.0152
0.4951 0.2276 0.0000
0.8225 0.2730 0.0000
1.0000 0.3140 0.0000
0.0000 0.4445 0.0429
0.2303 0.4174 0.0253
0.5179 0.3763 0.0213
0.8139 0.4342 0.0000
1.0000 0.4865 0.0000
0.0000 0.7289 0.0436
0.2239 0.7039 0.0199
0.5110 0.6546 0.0470
0.8397 0.6101 0.0754
1.0000 0.6730 0.0032
0.0000 1.0000 0.0434
0.2169 0.9863 0.0133
0.5214 0.9244 0.0662
0.8469 0.8725 0.1228
1.0000 0.8443 0.1646
0.0000 0.0802 0.1771
0.1651 0.0314 0.1878
0.3678 0.0882 0.1564
0.6022 0.1643 0.0877
0.8637 0.2237 0.0686
0.0157 0.1810 0.2063
0.2158 0.2194 0.2271
0.4567 0.2654 0.1626
0.7630 0.3183 0.0719
1.0000 0.3679 0.0000
0.0564 0.3830 0.2556
0.2147 0.4486 0.2317
0.5032 0.4113 0.2047
0.8157 0.4639 0.0986
1.0000 0.5128 0.0000
0.1009 0.6345 0.2996
0.2096 0.7320 0.2329
0.4855 0.6991 0.2148
0.8400 0.6454 0.2187
1.0000 0.7045 0.1332
0.1469 0.8817 0.3410
0.2065 1.0000 0.2353
0.4799 0.9802 0.2131
0.8325 0.9180 0.2539
1.0000 0.8797 0.3021
0.0000 0.1638 0.3378
0.1156 0.1034 0.3418
0.2815 0.1187 0.2842
0.4735 0.2020 0.3130
0.6596 0.2873 0.3203
0.0000 0.2583 0.3460
0.1208 0.3059 0.3937
0.4236 0.2481 0.3997
0.6736 0.3182 0.3491
0.9054 0.3929 0.2841
0.1597 0.3345 0.3497
0.2589 0.4095 0.4168
0.4735 0.4475 0.4350
0.7756 0.5016 0.3485
1.0000 0.5529 0.2560
0.2695 0.5450 0.4505
0.3101 0.6571 0.4706
0.4680 0.7311 0.4356
0.8263 0.6821 0.4063
1.0000 0.7356 0.3064
0.3764 0.7539 0.5402
0.3596 0.9022 0.5139
0.4644 1.0000 0.4378
0.8079 0.9642 0.4246
1.0000 0.9168 0.4449
0.0000 0.2660 0.5349
0.0218 0.2040 0.5100
0.2853 0.1918 0.4097
0.3076 0.3009 0.3016
0.4240 0.4037 0.3953
0.0000 0.3531 0.5164
0.0067 0.4115 0.5962
0.3528 0.3400 0.5909
0.5471 0.3678 0.4986
0.7204 0.4547 0.5398
0.1476 0.4135 0.4702
0.1831 0.5052 0.5906
0.3510 0.5555 0.6447
0.7189 0.4886 0.6371
0.9546 0.5602 0.6037
0.4915 0.4655 0.4517
0.4607 0.5881 0.5790
0.5387 0.6759 0.6607
0.7899 0.7263 0.6882
1.0000 0.7794 0.6021
0.6740 0.6272 0.5977
0.5870 0.7850 0.6870
0.6044 0.9108 0.7232
0.7839 1.0000 0.6889
1.0000 0.9603 0.6677
0.0000 0.3673 0.7313
0.0000 0.3033 0.6620
0.2700 0.2696 0.5340
0.3729 0.3587 0.3543
0.4361 0.4144 0.4050
0.0000 0.4459 0.6831
0.0000 0.5150 0.7934
0.2579 0.4411 0.7549
0.5627 0.4376 0.6065
0.5812 0.5424 0.5212
0.1360 0.4913 0.5876
0.1092 0.5993 0.7594
0.2351 0.6608 0.8474
0.6667 0.5749 0.8140
0.8128 0.6245 0.7104
0.5564 0.5235 0.5047
0.4651 0.6617 0.6844
0.4774 0.7666 0.8217
0.6671 0.8335 0.8967
1.0000 0.7659 0.8888
0.6926 0.6405 0.6103
0.7818 0.7192 0.6817
0.7695 0.8400 0.8056
0.8526 0.9520 0.9116
1.0000 1.0000 0.9385
