assets/luts/LUTs/Knittel-M2S-No-Filter-MOV-H265-Normal.CUBE
TITLE "Generated by Resolve"
LUT_3D_SIZE 5
0 0 0
0.211002 0.000976577 0.00714122
0.433066 0.00326543 0.0237125
0.655146 0.00709545 0.0514839
0.877226 0.0125887 0.0912947
0.0735027 0.21471 1.5259e-05
0.246433 0.215198 0.00715648
0.452247 0.216358 0.023743
0.667811 0.21828 0.0514992
0.886503 0.221027 0.09131
0.197147 0.439429 6.10361e-05
0.315145 0.439689 0.00720226
0.493904 0.440284 0.0237736
0.696284 0.441291 0.051545
0.907652 0.442725 0.0913405
0.320745 0.664149 0.000122072
0.406256 0.664317 0.00726329
0.556619 0.664714 0.0238346
0.74136 0.66537 0.051606
0.941909 0.666316 0.0914015
0.444343 0.888884 0.000213626
0.509743 0.889006 0.00735485
0.635584 0.889296 0.0239414
0.801358 0.889769 0.0516976
0.98883 0.890455 0.0914931
0.0142977 0.0731365 0.23714
0.218265 0.0741131 0.240452
0.436866 0.0764019 0.24802
0.657633 0.0802167 0.260243
0.879026 0.085893 0.276951
0.0879072 0.249531 0.237156
0.252827 0.249958 0.240467
0.455894 0.25098 0.24802
0.670253 0.252674 0.260243
0.888289 0.2551 0.276967
0.204822 0.458244 0.237171
0.320272 0.458503 0.240482
0.49723 0.459068 0.248035
0.698619 0.460029 0.260258
0.909392 0.461402 0.276982
0.325795 0.676585 0.237201
0.4103 0.676753 0.240513
0.559564 0.677134 0.248066
0.743542 0.677775 0.260288
0.943587 0.678691 0.276997
0.448035 0.897978 0.237247
0.512963 0.8981 0.240558
0.638148 0.89839 0.248112
0.803357 0.898863 0.260334
0.990417 0.899535 0.277043
0.0474708 0.19646 0.477943
0.234424 0.196994 0.479667
0.445563 0.198245 0.483635
0.663355 0.20032 0.490227
0.883223 0.20325 0.499519
0.116915 0.317296 0.477943
0.267155 0.317647 0.479667
0.464225 0.318471 0.483635
0.675868 0.319844 0.490227
0.892439 0.321798 0.499519
0.22179 0.499199 0.477958
0.331914 0.499428 0.479683
0.504875 0.499947 0.48365
0.70399 0.500832 0.490227
0.913436 0.502098 0.499535
0.337255 0.70454 0.477974
0.419532 0.704692 0.479698
0.566339 0.705058 0.483665
0.748577 0.705669 0.490242
0.947463 0.706554 0.49955
0.456519 0.918746 0.477989
0.520378 0.918853 0.479713
0.644053 0.919127 0.48368
0.807996 0.9196 0.490272
0.994095 0.920256 0.499565
0.101884 0.319783 0.718746
0.25951 0.320134 0.71986
0.459739 0.320943 0.722469
0.672847 0.322301 0.726818
0.890211 0.324254 0.732998
0.156954 0.407538 0.718746
0.289708 0.407828 0.719875
0.477852 0.408469 0.722469
0.685161 0.409552 0.726818
0.899336 0.411093 0.732998
0.24799 0.560998 0.718746
0.350607 0.561196 0.719875
0.517418 0.561669 0.722484
0.712886 0.562448 0.726818
0.920165 0.563577 0.733013
0.355688 0.748867 0.718761
0.434562 0.74902 0.71989
0.577508 0.749355 0.722484
0.756909 0.749935 0.726833
0.953933 0.750759 0.733013
0.470375 0.952392 0.718776
0.53254 0.952499 0.719905
0.653834 0.952773 0.722499
0.815671 0.953216 0.726848
1 0.953841 0.733028
0.161044 0.443107 0.959548
0.29218 0.443351 0.960357
0.479377 0.443946 0.962264
0.686213 0.444938 0.965438
0.90013 0.446372 0.969985
0.203738 0.510307 0.959548
0.319554 0.510521 0.960357
0.496757 0.51104 0.962264
0.698283 0.51191 0.965454
0.909148 0.513146 0.969985
0.281865 0.639033 0.959548
0.375891 0.6392 0.960372
0.53489 0.639612 0.96228
0.725475 0.640299 0.965454
0.929732 0.641276 0.970001
0.380636 0.807965 0.959548
0.455283 0.808103 0.960372
0.593149 0.808423 0.96228
0.768719 0.808957 0.965454
0.963119 0.80972 0.970001
0.48957 0.998535 0.959564
0.549523 0.998642 0.960388
0.667613 0.998901 0.962295
0.826581 0.999313 0.965469
1 0.999924 0.970016
