assets/luts/LUTs/Knittel-M2S-No-Filter-MOV-H265-Normal.CUBE
TITLE "Generated by Resolve"
LUT_3D_SIZE 9
0 0 0
0.0999619 0.000366217 0.00267033
0.211002 0.000976577 0.00714122
0.322042 0.0019379 0.0140993
0.433066 0.00326543 0.0237125
0.544106 0.00497444 0.0361486
0.655146 0.00709545 0.0514839
0.766186 0.00961318 0.0698711
0.877226 0.0125887 0.0912947
0.0274357 0.102342 0
0.122713 0.102663 0.00267033
0.224781 0.103197 0.00714122
0.33164 0.104036 0.0140993
0.44033 0.105165 0.0237278
0.549889 0.10663 0.0361486
0.659907 0.108431 0.0514992
0.770214 0.110552 0.0698711
0.88069 0.112993 0.0912947
0.0735027 0.21471 1.5259e-05
0.15552 0.214893 0.00268559
0.246433 0.215198 0.00715648
0.347204 0.215686 0.0141146
0.452247 0.216358 0.023743
0.559442 0.217227 0.0361639
0.667811 0.21828 0.0514992
0.776928 0.219547 0.0698863
0.886503 0.221027 0.09131
0.135332 0.327062 3.0518e-05
0.198154 0.327199 0.00270085
0.27715 0.327413 0.00717174
0.370169 0.327749 0.0141299
0.470192 0.328206 0.0237583
0.573968 0.328801 0.0361791
0.679927 0.329534 0.0515297
0.787243 0.330419 0.0699016
0.895445 0.331441 0.0913252
0.197147 0.439429 6.10361e-05
0.247013 0.439521 0.00271611
0.315145 0.439689 0.00720226
0.399817 0.439933 0.0141604
0.493904 0.440284 0.0237736
0.593439 0.440742 0.0361944
0.696284 0.441291 0.051545
0.801251 0.441947 0.0699321
0.907652 0.442725 0.0913405
0.258946 0.551797 9.15541e-05
0.299748 0.551873 0.00274662
0.358648 0.551995 0.00723278
0.435187 0.552193 0.0141909
0.522911 0.552468 0.0238041
0.617639 0.552834 0.0362249
0.716823 0.553262 0.0515755
0.818982 0.553796 0.0699474
0.923156 0.554406 0.091371
0.320745 0.664149 0.000122072
0.354971 0.66421 0.0027924
0.406256 0.664317 0.00726329
0.475273 0.664485 0.0142214
0.556619 0.664714 0.0238346
0.64622 0.665003 0.0362554
0.74136 0.66537 0.051606
0.840314 0.665797 0.0699931
0.941909 0.666316 0.0914015
0.382544 0.776516 0.000167849
0.411841 0.776577 0.00282292
0.456886 0.776654 0.00730907
0.519173 0.776806 0.0142672
0.594369 0.776989 0.0238804
0.678767 0.777234 0.0363012
0.76965 0.777539 0.0516518
0.865095 0.777905 0.0700389
0.963851 0.778347 0.0914473
0.444343 0.888884 0.000213626
0.469841 0.88893 0.00288396
0.509743 0.889006 0.00735485
0.566125 0.889128 0.014313
0.635584 0.889296 0.0239414
0.714855 0.889509 0.0363622
0.801358 0.889769 0.0516976
0.893141 0.890089 0.0700847
0.98883 0.890455 0.0914931
0.00534066 0.0272984 0.116747
0.104631 0.0276646 0.118868
0.213733 0.028275 0.122393
0.323919 0.0292363 0.127733
0.434501 0.0305638 0.134874
0.545235 0.0322728 0.143709
0.656077 0.0343938 0.154131
0.766964 0.0369116 0.165942
0.877897 0.0398718 0.178988
0.0327764 0.124681 0.116747
0.126818 0.124971 0.118883
0.22739 0.125444 0.122393
0.333486 0.126177 0.127733
0.441733 0.127184 0.134874
0.551003 0.128481 0.143725
0.660822 0.130068 0.154131
0.770993 0.131945 0.165942
0.881376 0.134127 0.179004
0.0788434 0.228229 0.116747
0.158999 0.228412 0.118883
0.248844 0.228702 0.122408
0.348974 0.22916 0.127749
0.45362 0.229801 0.13489
0.560525 0.230625 0.143725
0.668727 0.231632 0.154131
0.777691 0.232837 0.165957
0.887175 0.234241 0.179004
0.139178 0.336492 0.116762
0.201038 0.336614 0.118898
0.279316 0.336828 0.122423
0.371832 0.337148 0.127764
0.471504 0.337606 0.13489
0.575036 0.338186 0.14374
0.680812 0.338903 0.154147
0.787991 0.339757 0.165957
0.896101 0.340749 0.179019
0.200031 0.44654 0.116793
0.249409 0.446647 0.118914
0.317067 0.446799 0.122438
0.401358 0.447044 0.127779
0.495155 0.447395 0.134905
0.594461 0.447837 0.143755
0.697154 0.448371 0.154162
0.801999 0.449027 0.165972
0.908309 0.44979 0.179019
0.261234 0.557458 0.116808
0.301762 0.557534 0.118944
0.360357 0.557656 0.122454
0.436591 0.557855 0.127794
0.524086 0.558129 0.134936
0.618616 0.55848 0.143771
0.717678 0.558907 0.154177
0.819699 0.559442 0.165988
0.923796 0.560037 0.179049
0.322637 0.668818 0.116838
0.356695 0.668879 0.118959
0.407767 0.668986 0.122484
0.47657 0.669154 0.127825
0.557717 0.669383 0.134966
0.647166 0.669673 0.143801
0.742184 0.670024 0.154208
0.841016 0.670466 0.166018
0.942535 0.670954 0.179065
0.384146 0.780468 0.116869
0.413336 0.780514 0.119005
0.458228 0.780606 0.122515
0.520348 0.780743 0.127855
0.595392 0.780941 0.134997
0.679667 0.781186 0.143832
0.770428 0.781491 0.154238
0.865782 0.781857 0.166049
0.964462 0.782284 0.179095
0.445731 0.892287 0.116915
0.471138 0.892332 0.119036
0.510948 0.892409 0.12256
0.567208 0.892531 0.127901
0.63653 0.892699 0.135027
0.715709 0.892912 0.143862
0.802106 0.893172 0.154269
0.893812 0.893492 0.166079
0.989425 0.893858 0.179126
0.0142977 0.0731365 0.23714
0.112184 0.0735027 0.238392
0.218265 0.0741131 0.240452
0.327077 0.0750744 0.243656
0.436866 0.0764019 0.24802
0.547127 0.0781109 0.253544
0.657633 0.0802167 0.260243
0.768277 0.0829938 0.268055
0.879026 0.085893 0.276951
0.0417334 0.157046 0.23714
0.133501 0.15729 0.238392
0.231693 0.157687 0.240467
0.336553 0.158312 0.243656
0.444068 0.159167 0.24802
0.552865 0.160266 0.253544
0.662364 0.161624 0.260243
0.772305 0.163226 0.268055
0.882506 0.165103 0.276951
0.0879072 0.249531 0.237156
0.164706 0.249683 0.238392
0.252827 0.249958 0.240467
0.351904 0.250385 0.243656
0.455894 0.25098 0.24802
0.562371 0.251743 0.253559
0.670253 0.252674 0.260243
0.778988 0.253788 0.26807
0.888289 0.2551 0.276967
0.145449 0.351781 0.237156
0.205798 0.351888 0.238407
0.282918 0.352102 0.240482
0.374594 0.352407 0.243671
0.473686 0.352834 0.248035
0.576822 0.353399 0.253559
0.682307 0.354086 0.260258
0.789273 0.35491 0.26807
0.897215 0.355856 0.276967
0.204822 0.458244 0.237171
0.253391 0.458335 0.238407
0.320272 0.458503 0.240482
0.403922 0.458732 0.243687
0.49723 0.459068 0.248035
0.596185 0.459495 0.253574
0.698619 0.460029 0.260258
0.80325 0.46067 0.268086
0.909392 0.461402 0.276982
0.265064 0.566827 0.237186
0.305135 0.566903 0.238422
0.36321 0.567025 0.240497
0.438956 0.567224 0.243702
0.526055 0.567483 0.248051
0.620279 0.567834 0.25359
0.719081 0.568261 0.260273
0.820935 0.56878 0.268086
0.924865 0.569375 0.276982
0.325795 0.676585 0.237201
0.359579 0.676646 0.238437
0.4103 0.676753 0.240513
0.478721 0.676905 0.243717
0.559564 0.677134 0.248066
0.648737 0.677424 0.253605
0.743542 0.677775 0.260288
0.842206 0.678203 0.268101
0.943587 0.678691 0.276997
0.386816 0.787045 0.237217
0.415824 0.787106 0.238468
0.460487 0.787198 0.240528
0.522332 0.787335 0.243732
0.597116 0.787518 0.248081
0.681163 0.787762 0.25362
0.77174 0.788067 0.260304
0.866941 0.788418 0.268132
0.965484 0.788846 0.277028
0.448035 0.897978 0.237247
0.473335 0.898024 0.238483
0.512963 0.8981 0.240558
0.569024 0.898222 0.243748
0.638148 0.89839 0.248112
0.717128 0.898604 0.253635
0.803357 0.898863 0.260334
0.894926 0.899168 0.268147
0.990417 0.899535 0.277043
0.0282292 0.134798 0.357534
0.123323 0.135073 0.358404
0.225162 0.135515 0.359823
0.331914 0.136217 0.362051
0.440543 0.137163 0.365087
0.550042 0.138399 0.368994
0.660044 0.139895 0.373754
0.770321 0.141695 0.37937
0.880796 0.143755 0.385855
0.0556649 0.199222 0.357549
0.143465 0.19942 0.358404
0.238254 0.199756 0.359838
0.341253 0.200275 0.362051
0.447669 0.200977 0.365087
0.555749 0.201892 0.368994
0.664759 0.203021 0.373754
0.774334 0.204379 0.37937
0.88426 0.205936 0.385855
0.10071 0.279789 0.357549
0.173297 0.279927 0.358404
0.25893 0.280186 0.359838
0.35642 0.280568 0.362051
0.459403 0.281102 0.365103
0.565209 0.281788 0.368994
0.672618 0.282643 0.373754
0.781003 0.28365 0.37937
0.890043 0.284825 0.385855
0.154849 0.374365 0.357549
0.213046 0.374472 0.358404
0.288441 0.374655 0.359838
0.378851 0.37496 0.362051
0.477073 0.375357 0.365103
0.579583 0.375891 0.368994
0.684627 0.376532 0.373754
0.791257 0.37731 0.379385
0.898939 0.37821 0.385855
0.212085 0.475868 0.357565
0.259464 0.475959 0.358419
0.325216 0.476112 0.359854
0.407889 0.476341 0.362066
0.50045 0.476661 0.365103
0.598871 0.477073 0.369009
0.700877 0.477592 0.37377
0.805203 0.478202 0.379385
0.911101 0.47892 0.38587
0.270909 0.581094 0.357565
0.310292 0.581155 0.358419
0.36759 0.581277 0.359854
0.442618 0.581476 0.362081
0.529091 0.581735 0.365118
0.622843 0.582071 0.369009
0.721279 0.582483 0.37377
0.822828 0.582986 0.3794
0.926528 0.583566 0.38587
0.330648 0.688457 0.35758
0.364004 0.688518 0.358434
0.414191 0.688624 0.359869
0.482078 0.688777 0.362081
0.562417 0.689006 0.365133
0.651179 0.689281 0.369024
0.745663 0.689632 0.373785
0.844053 0.690044 0.3794
0.94522 0.690532 0.385885
0.390951 0.797177 0.357595
0.419684 0.797223 0.35845
0.463966 0.797314 0.359884
0.525399 0.797452 0.362097
0.599786 0.797635 0.365148
0.683482 0.797879 0.369039
0.77377 0.798169 0.3738
0.868727 0.79852 0.379416
0.967071 0.798947 0.385901
0.451621 0.906752 0.35761
0.476722 0.906798 0.358465
0.516091 0.906874 0.359899
0.571817 0.906996 0.362112
0.640635 0.907164 0.365164
0.719326 0.907362 0.369055
0.80531 0.907622 0.373816
0.896651 0.907942 0.379431
0.991958 0.908293 0.385916
0.0474708 0.19646 0.477943
0.137667 0.196658 0.478584
0.234424 0.196994 0.479667
0.338491 0.197528 0.481331
0.445563 0.198245 0.483635
0.554055 0.199176 0.486595
0.663355 0.20032 0.490227
0.773144 0.201678 0.49453
0.883223 0.20325 0.499519
0.0749065 0.247669 0.477943
0.156451 0.247837 0.478584
0.247074 0.248112 0.479667
0.347677 0.248539 0.481331
0.452613 0.249134 0.483635
0.559731 0.249897 0.486595
0.668055 0.250843 0.490227
0.777127 0.251972 0.49453
0.886687 0.253285 0.499519
0.116915 0.317296 0.477943
0.184649 0.317433 0.478584
0.267155 0.317647 0.479667
0.362585 0.317998 0.481346
0.464225 0.318471 0.483635
0.5691 0.319081 0.486595
0.675868 0.319844 0.490227
0.78378 0.320745 0.49453
0.892439 0.321798 0.499519
0.167163 0.403571 0.477943
0.222721 0.403662 0.478599
0.295918 0.403845 0.479667
0.384665 0.40412 0.481346
0.481712 0.404501 0.48365
0.583383 0.40499 0.486595
0.687816 0.405585 0.490227
0.793988 0.406302 0.49453
0.90132 0.407141 0.499535
0.22179 0.499199 0.477958
0.267674 0.499275 0.478599
0.331914 0.499428 0.479683
0.413306 0.499641 0.481346
0.504875 0.499947 0.48365
0.602533 0.500343 0.48661
0.70399 0.500832 0.490227
0.807889 0.501411 0.494545
0.913436 0.502098 0.499535
0.278813 0.600229 0.477958
0.317296 0.60029 0.478599
0.373571 0.600412 0.479683
0.447608 0.600595 0.481361
0.533272 0.600855 0.48365
0.626368 0.601175 0.48661
0.7243 0.601572 0.490242
0.825452 0.60206 0.494545
0.928832 0.602625 0.499535
0.337255 0.70454 0.477974
0.370047 0.704585 0.478614
0.419532 0.704692 0.479698
0.486671 0.704845 0.481361
0.566339 0.705058 0.483665
0.654551 0.705333 0.486625
0.748577 0.705669 0.490242
0.846601 0.706081 0.49456
0.947463 0.706554 0.49955
0.396597 0.810941 0.477974
0.424949 0.810987 0.47863
0.468727 0.811078 0.479698
0.529595 0.8112 0.481376
0.603464 0.811383 0.48368
0.686687 0.811627 0.486625
0.776562 0.811917 0.490257
0.871199 0.812268 0.49456
0.969268 0.81268 0.499565
0.456519 0.918746 0.477989
0.481361 0.918776 0.47863
0.520378 0.918853 0.479713
0.575677 0.918975 0.481392
0.644053 0.919127 0.48368
0.722347 0.919341 0.486641
0.807996 0.9196 0.490272
0.899031 0.919905 0.494575
0.994095 0.920256 0.499565
0.072343 0.258122 0.598337
0.154772 0.258274 0.598856
0.245914 0.258549 0.59971
0.346822 0.258961 0.601038
0.451957 0.259541 0.602869
0.559197 0.260273 0.605219
0.667613 0.261189 0.608118
0.776761 0.262272 0.611582
0.886351 0.263539 0.615595
0.0989853 0.300053 0.598337
0.172122 0.300206 0.598856
0.258091 0.300435 0.59971
0.355795 0.300801 0.601038
0.458915 0.301289 0.602869
0.564813 0.301946 0.605234
0.672282 0.302739 0.608118
0.780728 0.303685 0.611582
0.889799 0.304799 0.615595
0.135851 0.360357 0.598337
0.19855 0.360479 0.598856
0.27744 0.360678 0.59971
0.370398 0.360983 0.601038
0.470359 0.361395 0.602869
0.574105 0.361944 0.605234
0.680034 0.362615 0.608133
0.787335 0.363409 0.611582
0.895537 0.364355 0.615595
0.182116 0.438453 0.598352
0.234714 0.43856 0.598856
0.305333 0.438712 0.59971
0.39205 0.438972 0.601038
0.487633 0.439323 0.602869
0.588251 0.439765 0.605234
0.69192 0.44033 0.608133
0.797513 0.440986 0.611582
0.904387 0.441764 0.615595
0.233829 0.527764 0.598352
0.277958 0.52784 0.598856
0.340398 0.527977 0.599725
0.420188 0.528191 0.601053
0.510521 0.528481 0.602884
0.607248 0.528847 0.605234
0.707988 0.529305 0.608133
0.811337 0.529854 0.611582
0.916457 0.530495 0.615595
0.288731 0.624033 0.598352
0.326131 0.624094 0.598871
0.38117 0.624216 0.599725
0.453986 0.624384 0.601053
0.538613 0.624628 0.602884
0.6309 0.624933 0.605234
0.728176 0.62533 0.608133
0.828824 0.625788 0.611597
0.931792 0.626337 0.61561
0.345617 0.724727 0.598367
0.377707 0.724788 0.598871
0.426322 0.72488 0.599725
0.492531 0.725032 0.601053
0.571359 0.725231 0.602884
0.658869 0.725505 0.605249
0.752316 0.725826 0.608148
0.849882 0.726223 0.611597
0.950362 0.726696 0.61561
0.403769 0.828336 0.598367
0.431647 0.828397 0.598886
0.474815 0.828473 0.599741
0.534981 0.828611 0.601068
0.608164 0.828779 0.602899
0.690791 0.829023 0.605249
0.780163 0.829297 0.608148
0.874372 0.829648 0.611612
0.972091 0.830045 0.615625
0.46276 0.933959 0.598383
0.487282 0.934005 0.598886
0.525856 0.934081 0.599756
0.580621 0.934188 0.601083
0.648447 0.93434 0.602914
0.726238 0.934554 0.605264
0.811444 0.934798 0.608164
0.902098 0.935103 0.611612
0.996841 0.935454 0.615625
0.101884 0.319783 0.718746
0.174105 0.319905 0.719158
0.25951 0.320134 0.71986
0.356863 0.32047 0.720958
0.459739 0.320943 0.722469
0.565484 0.321553 0.724422
0.672847 0.322301 0.726818
0.781201 0.323201 0.729671
0.890211 0.324254 0.732998
0.124407 0.354986 0.718746
0.190066 0.355093 0.719158
0.271138 0.355291 0.719875
0.365591 0.355612 0.720958
0.46659 0.356039 0.722469
0.571023 0.356588 0.724422
0.67747 0.357275 0.726818
0.785138 0.358083 0.729671
0.893629 0.35903 0.732998
0.156954 0.407538 0.718746
0.214679 0.407645 0.719158
0.289708 0.407828 0.719875
0.379828 0.408087 0.720958
0.477852 0.408469 0.722469
0.580224 0.408957 0.724422
0.685161 0.409552 0.726818
0.791714 0.410254 0.729671
0.899336 0.411093 0.732998
0.199344 0.47808 0.718746
0.248829 0.478157 0.719173
0.316594 0.478309 0.719875
0.400992 0.478538 0.720974
0.49485 0.478859 0.722484
0.594217 0.479271 0.724422
0.696941 0.479789 0.726818
0.801831 0.480385 0.729671
0.908141 0.481102 0.733013
0.24799 0.560998 0.718746
0.290196 0.561074 0.719173
0.350607 0.561196 0.719875
0.42855 0.561395 0.720974
0.517418 0.561669 0.722484
0.613016 0.56202 0.724422
0.712886 0.562448 0.726818
0.815564 0.562966 0.729686
0.920165 0.563577 0.733013
0.300572 0.652171 0.718761
0.336751 0.652247 0.719173
0.390341 0.652354 0.719875
0.461738 0.652522 0.720974
0.545144 0.65275 0.722484
0.636439 0.65304 0.724437
0.732937 0.653422 0.726833
0.832959 0.653849 0.729686
0.935439 0.654368 0.733013
0.355688 0.748867 0.718761
0.386969 0.748913 0.719188
0.434562 0.74902 0.71989
0.499672 0.749157 0.720974
0.577508 0.749355 0.722484
0.664164 0.749615 0.724437
0.756909 0.749935 0.726833
0.85391 0.750317 0.729686
0.953933 0.750759 0.733013
0.412451 0.849317 0.718761
0.439796 0.849363 0.719188
0.482231 0.849439 0.71989
0.541558 0.849561 0.720989
0.613916 0.849744 0.722499
0.695827 0.849973 0.724437
0.784588 0.850248 0.726833
0.878279 0.850584 0.729702
0.97557 0.850965 0.733028
0.470375 0.952392 0.718776
0.494514 0.952438 0.719188
0.53254 0.952499 0.719905
0.586664 0.952621 0.720989
0.653834 0.952773 0.722499
0.731014 0.952972 0.724453
0.815671 0.953216 0.726848
0.905882 0.953506 0.729702
1 0.953841 0.733028
0.131472 0.381445 0.839139
0.19527 0.381552 0.83949
0.274998 0.381735 0.840085
0.368521 0.382025 0.841016
0.468894 0.382422 0.842298
0.5729 0.38294 0.843946
0.679042 0.383581 0.845975
0.78648 0.384344 0.848402
0.894789 0.385229 0.851225
0.15082 0.411582 0.839139
0.209918 0.411673 0.83949
0.286046 0.411856 0.840101
0.377005 0.412116 0.841016
0.475608 0.412497 0.842298
0.578378 0.41297 0.843946
0.683619 0.413565 0.845975
0.790402 0.414267 0.848402
0.898192 0.415091 0.851225
0.179706 0.457786 0.839139
0.232761 0.457877 0.839506
0.303792 0.45803 0.840101
0.390829 0.458274 0.841016
0.486656 0.45861 0.842298
0.587457 0.459037 0.843946
0.691234 0.459571 0.845975
0.796918 0.460212 0.848402
0.903868 0.460945 0.85124
0.218479 0.521523 0.839139
0.264881 0.521599 0.839506
0.329625 0.521737 0.840101
0.411444 0.52195 0.841016
0.503349 0.52224 0.842298
0.601282 0.522622 0.843946
0.702922 0.523079 0.845975
0.806958 0.523644 0.848402
0.912627 0.5243 0.85124
0.264088 0.598291 0.839155
0.304265 0.598352 0.839506
0.362478 0.598474 0.840101
0.438346 0.598657 0.841031
0.525551 0.598917 0.842298
0.619852 0.599237 0.843946
0.718715 0.599634 0.845991
0.820615 0.600122 0.848417
0.92459 0.600687 0.85124
0.314214 0.684276 0.839155
0.349065 0.684337 0.839506
0.401068 0.684428 0.840101
0.470848 0.684596 0.841031
0.55285 0.68481 0.842313
0.643 0.6851 0.843961
0.738598 0.68545 0.845991
0.837888 0.685863 0.848417
0.939773 0.686351 0.85124
0.367391 0.776715 0.839155
0.397772 0.776761 0.839506
0.444236 0.776852 0.840116
0.508095 0.776989 0.841031
0.584772 0.777188 0.842313
0.670451 0.777432 0.843961
0.762387 0.777737 0.845991
0.858701 0.778103 0.848417
0.958175 0.778531 0.85124
0.422629 0.873701 0.83917
0.449348 0.873747 0.839521
0.490959 0.873823 0.840116
0.549325 0.873945 0.841047
0.620737 0.874113 0.842313
0.701808 0.874327 0.843961
0.789837 0.874601 0.846006
0.882933 0.874922 0.848417
0.979706 0.875303 0.851255
0.479316 0.973953 0.83917
0.503014 0.973999 0.839521
0.540444 0.974075 0.840116
0.593805 0.974182 0.841047
0.660227 0.974319 0.842329
0.73669 0.974517 0.843976
0.820722 0.974762 0.846006
0.910384 0.975052 0.848432
1 0.975372 0.851255
0.161044 0.443107 0.959548
0.217884 0.443198 0.959854
0.29218 0.443351 0.960357
0.38175 0.44361 0.961166
0.479377 0.443946 0.962264
0.581476 0.444389 0.963684
0.686213 0.444938 0.965438
0.792615 0.445594 0.967544
0.90013 0.446372 0.969985
0.17792 0.469322 0.959548
0.231312 0.469413 0.959854
0.302663 0.469566 0.960357
0.389944 0.469795 0.961166
0.485939 0.47013 0.962264
0.586862 0.470542 0.963684
0.690745 0.471061 0.965454
0.796506 0.471687 0.967544
0.903502 0.472404 0.969985
0.203738 0.510307 0.959548
0.252491 0.510384 0.959854
0.319554 0.510521 0.960357
0.403342 0.510735 0.961166
0.496757 0.51104 0.962264
0.595804 0.511421 0.963699
0.698283 0.51191 0.965454
0.802976 0.512474 0.967544
0.909148 0.513146 0.969985
0.239231 0.568048 0.959548
0.282612 0.568124 0.959854
0.344274 0.568246 0.960372
0.423346 0.568444 0.961166
0.513115 0.568704 0.962264
0.60943 0.569055 0.963699
0.709834 0.569482 0.965454
0.812924 0.569986 0.967544
0.917845 0.570596 0.970001
0.281865 0.639033 0.959548
0.319997 0.639094 0.959854
0.375891 0.6392 0.960372
0.449546 0.639368 0.961166
0.53489 0.639612 0.96228
0.627741 0.639918 0.963699
0.725475 0.640299 0.965454
0.826474 0.640742 0.967544
0.929732 0.641276 0.970001
0.329503 0.71989 0.959548
0.362951 0.719951 0.959854
0.413275 0.720043 0.960372
0.481285 0.720195 0.961166
0.56173 0.720409 0.96228
0.650599 0.720668 0.963699
0.745159 0.721004 0.965454
0.84361 0.721401 0.967559
0.944839 0.721874 0.970001
0.380636 0.807965 0.959548
0.410071 0.808026 0.959869
0.455283 0.808103 0.960372
0.517769 0.80824 0.961181
0.593149 0.808423 0.96228
0.677714 0.808667 0.963699
0.768719 0.808957 0.965454
0.864286 0.809308 0.967559
0.963119 0.80972 0.970001
0.434226 0.90132 0.959564
0.460288 0.901366 0.959869
0.500969 0.901442 0.960388
0.558267 0.901549 0.961181
0.628626 0.901717 0.96228
0.708736 0.90193 0.963714
0.795956 0.90219 0.965469
0.88835 0.902495 0.967559
0.984543 0.902861 0.970016
0.48957 0.998535 0.959564
0.512795 0.998581 0.959869
0.549523 0.998642 0.960388
0.60206 0.998749 0.961181
0.667613 0.998901 0.962295
0.743267 0.999084 0.963714
0.826581 0.999313 0.965469
0.915618 0.999588 0.967575
1 0.999924 0.970016
