assets/luts/LUTs/Knittel-M2S-Creative-Speed-Cinema.CUBE
LUT_3D_SIZE 16
0.021287 0.157168 0.257553
0.030181 0.157168 0.257553
0.045522 0.157168 0.257553
0.071141 0.157168 0.257553
0.113388 0.157168 0.257553
0.171207 0.157168 0.257553
0.242681 0.157168 0.257553
0.324866 0.157168 0.257553
0.414943 0.157168 0.257553
0.509261 0.157168 0.257553
0.604013 0.157168 0.257553
0.695714 0.157168 0.257553
0.780445 0.157168 0.257553
0.858039 0.157168 0.257553
0.930558 0.157169 0.257553
1.004385 0.157171 0.257553
0.021287 0.175729 0.257553
0.030172 0.175729 0.257553
0.045522 0.165709 0.257553
0.071141 0.163778 0.257553
0.113388 0.163421 0.257553
0.171207 0.163699 0.257553
0.242681 0.164260 0.257553
0.324866 0.164875 0.257553
0.414943 0.165490 0.257553
0.509261 0.166045 0.257553
0.604013 0.166435 0.257553
0.695714 0.166669 0.257553
0.780445 0.166704 0.257553
0.858039 0.166582 0.257553
0.930558 0.166399 0.257553
1.004385 0.166148 0.257553
0.021287 0.200848 0.257553
0.025131 0.200848 0.257553
0.045486 0.200848 0.257553
0.071141 0.191143 0.257553
0.113388 0.189315 0.257553
0.171207 0.190805 0.257553
0.242681 0.193590 0.257553
0.324866 0.196746 0.257553
0.414943 0.199822 0.257553
0.509261 0.202436 0.257553
0.604013 0.204357 0.257553
0.695714 0.205452 0.257553
0.780445 0.205589 0.257553
0.858039 0.205029 0.257553
0.930558 0.204083 0.257553
1.004385 0.202939 0.257553
0.021287 0.232774 0.257553
0.024224 0.232774 0.257553
0.039097 0.232774 0.257553
0.071101 0.232775 0.257553
0.113388 0.229164 0.257553
0.171207 0.232155 0.257553
0.242681 0.237633 0.257553
0.324866 0.243734 0.257553
0.414943 0.249608 0.257553
0.509261 0.254557 0.257553
0.604013 0.258168 0.257553
0.695714 0.260187 0.257553
0.780445 0.260476 0.257553
0.858039 0.259384 0.257553
0.930558 0.257657 0.257553
1.004385 0.255524 0.257553
0.021287 0.275923 0.257553
0.024062 0.275923 0.257553
0.037963 0.275923 0.257553
0.067847 0.275923 0.257553
0.113388 0.275923 0.257553
0.171207 0.280355 0.257553
0.242681 0.288439 0.257553
0.324866 0.297369 0.257553
0.414943 0.305883 0.257553
0.509261 0.313060 0.257553
0.604013 0.318248 0.257553
0.695714 0.321157 0.257553
0.780445 0.321527 0.257553
0.858039 0.319988 0.257553
0.930558 0.317483 0.257553
1.004385 0.314438 0.257553
0.021287 0.331639 0.257553
0.024197 0.331639 0.257553
0.038902 0.331639 0.257553
0.070551 0.331639 0.257553
0.117890 0.331639 0.257553
0.171209 0.331638 0.257553
0.242679 0.342162 0.257553
0.324866 0.353774 0.257553
0.414943 0.364790 0.257553
0.509261 0.374026 0.257553
0.604013 0.380744 0.257553
0.695714 0.384468 0.257553
0.780445 0.384939 0.257553
0.858039 0.383000 0.257553
0.930558 0.379749 0.257553
1.004385 0.375825 0.257553
0.021287 0.397212 0.257553
0.024450 0.397212 0.257553
0.040676 0.397212 0.257553
0.075693 0.397212 0.257553
0.126148 0.397212 0.257553
0.182509 0.397211 0.257553
0.242784 0.397216 0.257553
0.324867 0.411379 0.257553
0.414943 0.424763 0.257553
0.509261 0.436012 0.257553
0.604013 0.444133 0.257553
0.695714 0.448724 0.257553
0.780445 0.449302 0.257553
0.858039 0.446878 0.257553
0.930558 0.443030 0.257553
1.004385 0.438219 0.257553
0.021287 0.469561 0.257553
0.024741 0.469561 0.257553
0.042728 0.469561 0.257553
0.081571 0.469561 0.257553
0.135342 0.469561 0.257553
0.195065 0.469561 0.257553
0.258627 0.469562 0.257553
0.325010 0.469564 0.257553
0.414943 0.485225 0.257553
0.509261 0.498374 0.257553
0.604013 0.507938 0.257553
0.695714 0.513273 0.257553
0.780445 0.513968 0.257553
0.858039 0.511155 0.257553
0.930558 0.506597 0.257553
1.004385 0.500993 0.257553
0.021287 0.545976 0.257553
0.025036 0.545976 0.257553
0.044802 0.545976 0.257553
0.087273 0.545976 0.257553
0.144175 0.545976 0.257553
0.207031 0.545976 0.257553
0.273809 0.545976 0.257553
0.343353 0.545975 0.257553
0.415060 0.545972 0.257553
0.509260 0.560894 0.257553
0.604013 0.571860 0.257553
0.695714 0.577925 0.257553
0.780445 0.578760 0.257553
0.858039 0.575502 0.257553
0.930558 0.570269 0.257553
1.004385 0.563871 0.257553
0.021287 0.623486 0.257553
0.025291 0.623486 0.257553
0.046614 0.623486 0.257553
0.092121 0.623486 0.257553
0.151651 0.623486 0.257553
0.217148 0.623486 0.257553
0.286568 0.623486 0.257553
0.358824 0.623486 0.257553
0.433222 0.623485 0.257553
0.509423 0.623484 0.257553
0.604013 0.635635 0.257553
0.695714 0.642435 0.257553
0.780445 0.643385 0.257553
0.858039 0.639755 0.257553
0.930558 0.633899 0.257553
1.004385 0.626652 0.257553
0.021287 0.699442 0.257553
0.025484 0.699442 0.257553
0.047990 0.699442 0.257553
0.095701 0.699442 0.257553
0.157110 0.699442 0.257553
0.224516 0.699442 0.257553
0.295872 0.699442 0.257553
0.369971 0.699442 0.257553
0.446426 0.699442 0.257553
0.524605 0.699442 0.257553
0.604210 0.699442 0.257553
0.695714 0.706919 0.257553
0.780445 0.707806 0.257553
0.858039 0.703858 0.257553
0.930558 0.697280 0.257553
1.004385 0.689340 0.257553
0.021287 0.771226 0.257553
0.025595 0.771226 0.257553
0.048773 0.771226 0.257553
0.097691 0.771226 0.257553
0.160169 0.771226 0.257553
0.228650 0.771226 0.257553
0.301045 0.771226 0.257553
0.376275 0.771226 0.257553
0.453782 0.771226 0.257553
0.533072 0.771226 0.257553
0.613753 0.771227 0.257553
0.695980 0.771223 0.257553
0.780444 0.772339 0.257553
0.858039 0.767808 0.257553
0.930558 0.760729 0.257553
1.004385 0.751847 0.257553
0.021287 0.836420 0.257553
0.025608 0.836420 0.257553
0.048874 0.836420 0.257553
0.097931 0.836420 0.257553
0.160526 0.836420 0.257553
0.229122 0.836420 0.257553
0.301684 0.836420 0.257553
0.377078 0.836420 0.257553
0.454661 0.836420 0.257553
0.534026 0.836420 0.257553
0.614920 0.836420 0.257553
0.697224 0.836419 0.257553
0.780489 0.836417 0.257553
0.858039 0.831489 0.257553
0.930558 0.823712 0.257553
1.004385 0.814191 0.257553
0.021287 0.895141 0.257553
0.025548 0.895141 0.257553
0.048433 0.895141 0.257553
0.096850 0.895141 0.257553
0.158876 0.895141 0.257553
0.226900 0.895141 0.257553
0.298820 0.895141 0.257553
0.373635 0.895141 0.257553
0.450646 0.895141 0.257553
0.529478 0.895141 0.257553
0.609699 0.895141 0.257553
0.691451 0.895141 0.257553
0.774017 0.895141 0.257553
0.858024 0.895148 0.257553
0.930561 0.886797 0.257553
1.004385 0.876449 0.257553
0.021287 0.949282 0.257553
0.025451 0.949282 0.257553
0.047776 0.949282 0.257553
0.095139 0.949282 0.257553
0.156250 0.949282 0.257553
0.223322 0.949282 0.257553
0.294414 0.949282 0.257553
0.368225 0.949282 0.257553
0.444330 0.949282 0.257553
0.522203 0.949282 0.257553
0.601489 0.949282 0.257553
0.682145 0.949282 0.257553
0.763785 0.949282 0.257553
0.846843 0.949285 0.257553
0.930438 0.949377 0.257553
1.004398 0.938395 0.257553
0.021288 1.039116 0.256846
0.025338 1.039116 0.256846
0.046970 1.039116 0.256846
0.093047 1.039116 0.256846
0.153036 1.039116 0.256846
0.219034 1.039116 0.256846
0.288939 1.039116 0.256846
0.361684 1.039116 0.256846
0.436604 1.039116 0.256846
0.513308 1.039116 0.256846
0.591461 1.039116 0.256846
0.670956 1.039116 0.256846
0.751381 1.039116 0.256846
0.833199 1.039116 0.256846
0.915583 1.039128 0.256837
1.004411 1.039153 0.256838
0.021287 -0.341489 0.273156
0.028569 -0.341488 0.273159
0.045508 -0.341485 0.265796
0.071116 -0.341476 0.263720
0.113366 -0.341476 0.263373
0.171155 -0.341470 0.263690
0.242665 -0.341467 0.264274
0.324874 -0.341465 0.264970
0.414999 -0.341462 0.265657
0.509256 -0.341458 0.266241
0.604067 -0.341455 0.266698
0.695838 -0.341450 0.266965
0.780496 -0.341446 0.267002
0.858109 -0.341440 0.266883
0.930564 -0.341434 0.266692
1.004398 -0.341430 0.266452
0.021293 0.173205 0.272619
0.030179 0.175706 0.272635
0.045599 0.175537 0.271897
0.071402 0.175033 0.271307
0.113888 0.174388 0.270839
0.171709 0.174091 0.270722
0.243113 0.173995 0.270801
0.325291 0.173831 0.270860
0.415272 0.173683 0.270904
0.509474 0.173479 0.270905
0.604281 0.173259 0.270843
0.696078 0.172992 0.270723
0.780554 0.172673 0.270496
0.858094 0.172353 0.270222
0.930541 0.171941 0.269877
1.004385 0.171454 0.269461
0.021302 0.200821 0.265196
0.029988 0.201004 0.271747
0.045627 0.201004 0.272467
0.071390 0.197977 0.272259
0.113845 0.197736 0.271858
0.171670 0.199283 0.271693
0.243110 0.201551 0.271619
0.325224 0.203964 0.271543
0.415202 0.206243 0.271455
0.509472 0.208180 0.271353
0.604263 0.209554 0.271221
0.696055 0.210258 0.271079
0.780542 0.210194 0.270920
0.858085 0.209597 0.270729
0.930536 0.208671 0.270518
1.004384 0.207530 0.270259
0.021321 0.232769 0.263278
0.029697 0.233111 0.271139
0.043506 0.233099 0.272119
0.071435 0.233109 0.272138
0.113850 0.233260 0.271884
0.171670 0.237247 0.271696
0.243109 0.242751 0.271620
0.325223 0.248481 0.271543
0.415202 0.253854 0.271456
0.509471 0.258358 0.271354
0.604263 0.261637 0.271222
0.696055 0.263396 0.271079
0.780542 0.263534 0.270920
0.858085 0.262438 0.270730
0.930536 0.260736 0.270519
1.004384 0.258640 0.270260
0.021341 0.275884 0.262944
0.029371 0.276433 0.270706
0.043350 0.276411 0.271747
0.071532 0.276418 0.271754
0.113923 0.276432 0.271780
0.171671 0.282786 0.271682
0.243108 0.291444 0.271623
0.325223 0.300401 0.271544
0.415202 0.308670 0.271456
0.509471 0.315595 0.271354
0.604263 0.320597 0.271222
0.696055 0.323345 0.271079
0.780542 0.323657 0.270920
0.858085 0.322110 0.270730
0.930536 0.319665 0.270519
1.004384 0.316621 0.270260
0.021350 0.331606 0.263241
0.029249 0.332146 0.270644
0.044404 0.332114 0.271612
0.075274 0.332114 0.271613
0.120388 0.332121 0.271615
0.171784 0.332146 0.271623
0.243087 0.343661 0.271593
0.325223 0.355576 0.271547
0.415202 0.366626 0.271456
0.509471 0.375763 0.271354
0.604263 0.382377 0.271222
0.696055 0.386027 0.271079
0.780542 0.386458 0.270920
0.858085 0.384501 0.270730
0.930536 0.381324 0.270519
1.004384 0.377444 0.270260
0.021351 0.397207 0.263789
0.029211 0.397608 0.270731
0.045980 0.397621 0.271578
0.080589 0.397620 0.271579
0.129227 0.397620 0.271579
0.184146 0.397609 0.271579
0.243197 0.397614 0.271585
0.325270 0.412299 0.271512
0.415202 0.425966 0.271459
0.509471 0.437217 0.271354
0.604263 0.445334 0.271222
0.696055 0.449876 0.271079
0.780542 0.450408 0.270920
0.858085 0.448049 0.270730
0.930536 0.444139 0.270519
1.004384 0.439433 0.270260
0.021356 0.469581 0.264443
0.029156 0.469908 0.270806
0.047684 0.469868 0.271518
0.086180 0.469868 0.271519
0.138467 0.469868 0.271519
0.197045 0.469868 0.271519
0.259743 0.469876 0.271520
0.325413 0.469911 0.271512
0.415221 0.485868 0.271440
0.509471 0.499162 0.271350
0.604263 0.508801 0.271223
0.696055 0.514115 0.271079
0.780542 0.514818 0.270920
0.858085 0.512003 0.270730
0.930536 0.507439 0.270519
1.004384 0.501883 0.270260
0.021363 0.545901 0.265079
0.029079 0.546229 0.270871
0.049334 0.546233 0.271439
0.091452 0.546233 0.271435
0.147101 0.546233 0.271435
0.209073 0.546233 0.271435
0.275096 0.546233 0.271435
0.344119 0.546241 0.271437
0.415394 0.546225 0.271437
0.509456 0.561350 0.271330
0.604263 0.572433 0.271216
0.696055 0.578517 0.271080
0.780542 0.579332 0.270920
0.858085 0.576137 0.270730
0.930536 0.570968 0.270519
1.004384 0.564535 0.270260
0.021366 0.623469 0.265625
0.028980 0.623701 0.270881
0.050759 0.623685 0.271322
0.095880 0.623685 0.271323
0.154333 0.623685 0.271323
0.219065 0.623685 0.271323
0.287915 0.623685 0.271323
0.359700 0.623685 0.271323
0.433772 0.623687 0.271330
0.509708 0.623700 0.271344
0.604267 0.636028 0.271204
0.696056 0.642949 0.271072
0.780542 0.643835 0.270921
0.858085 0.640244 0.270730
0.930536 0.634391 0.270519
1.004384 0.627199 0.270260
0.021376 0.699425 0.266044
0.028867 0.699523 0.270817
0.051784 0.699507 0.271200
0.099110 0.699507 0.271200
0.159546 0.699507 0.271200
0.226332 0.699507 0.271200
0.297184 0.699507 0.271200
0.370985 0.699507 0.271200
0.447043 0.699507 0.271200
0.525024 0.699510 0.271203
0.604457 0.699526 0.271219
0.696062 0.707131 0.271065
0.780543 0.708182 0.270911
0.858085 0.704158 0.270728
0.930536 0.697701 0.270519
1.004384 0.689746 0.270260
0.021381 0.771204 0.266285
0.028731 0.771227 0.270705
0.052307 0.771222 0.271064
0.100828 0.771222 0.271060
0.162435 0.771222 0.271060
0.230306 0.771222 0.271060
0.302263 0.771222 0.271060
0.377137 0.771222 0.271060
0.454336 0.771222 0.271060
0.533428 0.771222 0.271060
0.613937 0.771226 0.271064
0.696006 0.771229 0.271083
0.780545 0.772356 0.270910
0.858085 0.768004 0.270733
0.930536 0.760924 0.270517
1.004384 0.752156 0.270260
0.021395 0.836410 0.266318
0.028581 0.836461 0.270477
0.052268 0.836451 0.270903
0.100988 0.836451 0.270904
0.162751 0.836451 0.270904
0.230791 0.836451 0.270904
0.302947 0.836451 0.270904
0.378019 0.836451 0.270904
0.455376 0.836451 0.270904
0.534581 0.836451 0.270904
0.615245 0.836451 0.270904
0.697484 0.836453 0.270908
0.780550 0.836463 0.270925
0.858089 0.831603 0.270718
0.930536 0.823889 0.270513
1.004384 0.814363 0.270257
0.021402 0.895134 0.266220
0.028397 0.895138 0.270203
0.051800 0.895132 0.270725
0.099866 0.895132 0.270726
0.161088 0.895132 0.270726
0.228563 0.895132 0.270726
0.300156 0.895132 0.270726
0.374613 0.895132 0.270726
0.451368 0.895132 0.270726
0.529983 0.895132 0.270726
0.610094 0.895132 0.270726
0.691602 0.895132 0.270726
0.774178 0.895134 0.270730
0.858033 0.895153 0.270739
0.930543 0.886838 0.270516
1.004384 0.876598 0.270255
0.021411 0.949279 0.266037
0.028191 0.949330 0.269846
0.051104 0.949326 0.270502
0.098167 0.949327 0.270503
0.158494 0.949327 0.270503
0.225068 0.949327 0.270503
0.295697 0.949327 0.270503
0.369303 0.949327 0.270503
0.445105 0.949327 0.270503
0.522837 0.949327 0.270503
0.601965 0.949327 0.270503
0.682555 0.949327 0.270503
0.764107 0.949327 0.270503
0.846944 0.949331 0.270508
0.930522 0.949357 0.270536
1.004398 0.938440 0.270256
0.021390 1.039115 0.262977
0.027537 1.039115 0.266185
0.049403 1.039114 0.266411
0.095322 1.039114 0.266411
0.154728 1.039114 0.266412
0.220326 1.039114 0.266412
0.289925 1.039114 0.266412
0.362465 1.039114 0.266412
0.437239 1.039114 0.266412
0.513811 1.039114 0.266412
0.591814 1.039114 0.266412
0.671249 1.039114 0.266412
0.751629 1.039114 0.266411
0.833361 1.039114 0.266411
0.915695 1.039128 0.266422
1.004411 1.039154 0.266451
0.021330 -0.341488 0.291990
0.025046 -0.341484 0.292035
0.044319 -0.341481 0.292032
0.071200 -0.341475 0.285468
0.113444 -0.341476 0.283966
0.171251 -0.341470 0.285238
0.242746 -0.341467 0.287578
0.324951 -0.341464 0.290264
0.415009 -0.341462 0.292842
0.509300 -0.341458 0.295073
0.604165 -0.341455 0.296719
0.695965 -0.341450 0.297647
0.780516 -0.341446 0.297780
0.858124 -0.341440 0.297319
0.930572 -0.341434 0.296529
1.004398 -0.341430 0.295569
0.021300 0.165505 0.290819
0.029978 0.175328 0.290962
0.045383 0.175407 0.290962
0.071385 0.175045 0.288228
0.113795 0.174592 0.287991
0.171590 0.174463 0.289327
0.243008 0.174463 0.291347
0.325149 0.174394 0.293492
0.415150 0.174297 0.295520
0.509394 0.174199 0.297228
0.604204 0.174059 0.298475
0.695981 0.173908 0.299106
0.780504 0.173726 0.299111
0.858117 0.173499 0.298620
0.930521 0.173278 0.297899
1.004383 0.172939 0.296949
0.021306 0.199837 0.290820
0.030037 0.200615 0.290970
0.045514 0.200775 0.290889
0.071718 0.200430 0.290608
0.115044 0.199219 0.289742
0.173296 0.198306 0.289171
0.244691 0.197797 0.288981
0.326754 0.197380 0.288850
0.416499 0.196958 0.288703
0.510581 0.196498 0.288511
0.605098 0.195999 0.288278
0.696483 0.195464 0.287922
0.780805 0.194843 0.287481
0.858282 0.194169 0.286919
0.930773 0.193399 0.286303
1.004381 0.192466 0.285540
0.021321 0.232769 0.283830
0.029840 0.233050 0.288279
0.044348 0.233843 0.289600
0.072223 0.233840 0.289780
0.114947 0.234523 0.289875
0.173183 0.237127 0.289133
0.244649 0.240589 0.288759
0.326648 0.244187 0.288442
0.416478 0.247569 0.288150
0.510518 0.250374 0.287837
0.605007 0.252298 0.287494
0.696432 0.253191 0.287129
0.780756 0.252940 0.286690
0.858247 0.251764 0.286224
0.930754 0.250174 0.285700
1.004379 0.248221 0.285088
0.021341 0.275884 0.282407
0.029634 0.276318 0.288047
0.043279 0.278015 0.288514
0.072305 0.277917 0.288646
0.115598 0.278029 0.288645
0.173251 0.283469 0.289109
0.244625 0.290732 0.288797
0.326646 0.298106 0.288454
0.416478 0.304901 0.288151
0.510518 0.310529 0.287838
0.605007 0.314513 0.287496
0.696432 0.316575 0.287131
0.780756 0.316505 0.286692
0.858247 0.314849 0.286225
0.930754 0.312387 0.285702
1.004379 0.309397 0.285090
0.021350 0.331606 0.283621
0.029571 0.332018 0.289414
0.042948 0.333915 0.288283
0.074632 0.333821 0.288285
0.120999 0.333830 0.288278
0.173740 0.333953 0.288236
0.244680 0.344052 0.288515
0.326636 0.354725 0.288491
0.416473 0.364566 0.288159
0.510518 0.372612 0.287838
0.605007 0.378392 0.287496
0.696432 0.381394 0.287131
0.780756 0.381466 0.286692
0.858247 0.379314 0.286225
0.930754 0.376112 0.285702
1.004379 0.372209 0.285090
0.021351 0.397207 0.285874
0.029552 0.397521 0.291408
0.042882 0.399240 0.288360
0.078073 0.399152 0.288185
0.128300 0.399150 0.288188
0.184587 0.399157 0.288180
0.245057 0.399338 0.288172
0.326753 0.412638 0.288147
0.416457 0.425133 0.288188
0.510517 0.435415 0.287848
0.605007 0.442764 0.287497
0.696432 0.446684 0.287131
0.780756 0.446834 0.286692
0.858247 0.444245 0.286225
0.930754 0.440311 0.285702
1.004379 0.435516 0.285090
0.021356 0.469581 0.288420
0.029510 0.469816 0.293529
0.042748 0.471292 0.288427
0.081664 0.471184 0.288027
0.135901 0.471183 0.288030
0.196036 0.471183 0.288030
0.260067 0.471188 0.288031
0.327035 0.471339 0.288042
0.416566 0.486103 0.287867
0.510521 0.498442 0.287831
0.605005 0.507269 0.287494
0.696432 0.512003 0.287133
0.780756 0.512274 0.286692
0.858247 0.509248 0.286225
0.930754 0.504604 0.285702
1.004379 0.498900 0.285090
0.021363 0.545901 0.290872
0.029458 0.546121 0.295564
0.042565 0.547294 0.288363
0.085009 0.547228 0.287834
0.142962 0.547227 0.287837
0.206670 0.547227 0.287837
0.274109 0.547227 0.287837
0.344322 0.547196 0.287839
0.416739 0.547294 0.287853
0.510562 0.561477 0.287578
0.605014 0.571745 0.287438
0.696430 0.577199 0.287138
0.780755 0.577650 0.286690
0.858247 0.574128 0.286225
0.930754 0.568801 0.285702
1.004379 0.562276 0.285090
0.021366 0.623469 0.292993
0.029393 0.623657 0.297260
0.042330 0.624606 0.288285
0.087786 0.624560 0.287567
0.148854 0.624560 0.287570
0.215511 0.624560 0.287570
0.285825 0.624560 0.287570
0.358829 0.624560 0.287570
0.433880 0.624575 0.287576
0.510786 0.624611 0.287609
0.605082 0.636029 0.287286
0.696445 0.642180 0.287052
0.780754 0.642707 0.286694
0.858247 0.638785 0.286230
0.930754 0.632849 0.285703
1.004379 0.625464 0.285090
0.021376 0.699425 0.294565
0.029318 0.699468 0.298495
0.042042 0.700136 0.288084
0.089701 0.700117 0.287292
0.153013 0.700116 0.287295
0.221791 0.700116 0.287295
0.294135 0.700116 0.287295
0.369114 0.700116 0.287295
0.446196 0.700116 0.287295
0.525004 0.700132 0.287291
0.605235 0.700164 0.287318
0.696449 0.707017 0.286949
0.780763 0.707619 0.286636
0.858247 0.703159 0.286229
0.930754 0.696609 0.285705
1.004379 0.688393 0.285091
0.021381 0.771204 0.295427
0.029235 0.771263 0.299133
0.041722 0.771817 0.287776
0.090596 0.771857 0.286944
0.155190 0.771856 0.286947
0.225144 0.771856 0.286947
0.298615 0.771856 0.286947
0.374714 0.771856 0.286947
0.452897 0.771856 0.286947
0.532730 0.771856 0.286947
0.613995 0.771873 0.286956
0.696571 0.771850 0.287003
0.780785 0.772289 0.286546
0.858252 0.767487 0.286130
0.930755 0.760191 0.285675
1.004379 0.751311 0.285088
0.021395 0.836410 0.295558
0.029138 0.836463 0.299127
0.041343 0.836588 0.287339
0.090354 0.836594 0.286552
0.155116 0.836593 0.286556
0.225198 0.836593 0.286556
0.298762 0.836593 0.286556
0.374996 0.836593 0.286556
0.453233 0.836593 0.286556
0.533174 0.836593 0.286556
0.614475 0.836593 0.286556
0.697196 0.836606 0.286550
0.780803 0.836624 0.286599
0.858273 0.831417 0.286103
0.930757 0.823477 0.285604
1.004379 0.813688 0.285055
0.021402 0.895134 0.295092
0.029025 0.895118 0.298635
0.040913 0.895300 0.286809
0.089223 0.895274 0.286097
0.153348 0.895274 0.286098
0.222824 0.895274 0.286098
0.295749 0.895274 0.286098
0.371343 0.895274 0.286098
0.448970 0.895274 0.286098
0.528269 0.895274 0.286098
0.608900 0.895274 0.286098
0.690973 0.895274 0.286098
0.773863 0.895286 0.286110
0.858207 0.895294 0.286164
0.930708 0.886746 0.285605
1.004379 0.876196 0.284991
0.021411 0.949279 0.294355
0.028899 0.949315 0.297900
0.040428 0.949448 0.286189
0.087671 0.949434 0.285573
0.150807 0.949434 0.285573
0.219274 0.949434 0.285573
0.291255 0.949434 0.285573
0.365823 0.949434 0.285573
0.442483 0.949434 0.285573
0.520812 0.949434 0.285573
0.600518 0.949434 0.285573
0.681472 0.949434 0.285573
0.763547 0.949434 0.285573
0.846753 0.949449 0.285596
0.930507 0.949431 0.285655
1.004397 0.938192 0.284986
0.021390 1.039115 0.289267
0.028397 1.039113 0.292596
0.040086 1.039110 0.281212
0.086680 1.039108 0.281520
0.148344 1.039108 0.281523
0.215453 1.039108 0.281524
0.286189 1.039108 0.281523
0.359441 1.039108 0.281524
0.434916 1.039108 0.281524
0.511954 1.039108 0.281524
0.590452 1.039108 0.281524
0.670162 1.039108 0.281523
0.750881 1.039108 0.281523
0.832879 1.039108 0.281523
0.915472 1.039126 0.281540
1.004413 1.039161 0.281574
0.021330 -0.341485 0.317118
0.024359 -0.341477 0.317224
0.039190 -0.341473 0.317373
0.070723 -0.341471 0.317446
0.113765 -0.341475 0.315307
0.171546 -0.341470 0.317783
0.242980 -0.341467 0.322300
0.325142 -0.341464 0.327324
0.415127 -0.341462 0.332155
0.509431 -0.341458 0.336287
0.604255 -0.341455 0.339304
0.696093 -0.341451 0.341001
0.780586 -0.341446 0.341243
0.858186 -0.341440 0.340345
0.930606 -0.341434 0.338901
1.004401 -0.341430 0.337144
0.021315 0.163764 0.315246
0.029710 0.174833 0.315525
0.043031 0.175019 0.315498
0.071305 0.175120 0.315499
0.113791 0.174646 0.315447
0.171584 0.174496 0.318582
0.243005 0.174468 0.323045
0.325148 0.174402 0.327754
0.415150 0.174301 0.332150
0.509394 0.174200 0.335850
0.604204 0.174062 0.338587
0.695980 0.173905 0.340042
0.780504 0.173725 0.340182
0.858117 0.173501 0.339298
0.930521 0.173277 0.337922
1.004383 0.172937 0.336205
0.021320 0.190946 0.315238
0.029806 0.197192 0.315497
0.044301 0.199071 0.316128
0.072244 0.199215 0.316180
0.115213 0.198749 0.316626
0.173298 0.198218 0.318895
0.244665 0.197923 0.321910
0.326608 0.197619 0.325012
0.416377 0.197310 0.327921
0.510436 0.196935 0.330358
0.604950 0.196542 0.332038
0.696348 0.196093 0.332853
0.780765 0.195558 0.332665
0.858214 0.194974 0.331770
0.930736 0.194332 0.330450
1.004377 0.193508 0.328882
0.021329 0.232392 0.315245
0.029893 0.232967 0.315507
0.044490 0.233931 0.316251
0.071159 0.232610 0.315436
0.115018 0.232099 0.315194
0.174391 0.230500 0.314034
0.246543 0.229114 0.313038
0.328765 0.227883 0.312266
0.418463 0.226794 0.311612
0.512275 0.225732 0.310955
0.606413 0.224646 0.310243
0.697590 0.223517 0.309426
0.781477 0.222291 0.308464
0.858735 0.220946 0.307439
0.930899 0.219465 0.306242
1.004372 0.217776 0.304884
0.021341 0.275884 0.312688
0.029634 0.276318 0.315463
0.043534 0.277937 0.316528
0.066606 0.279093 0.311848
0.117056 0.279174 0.311823
0.174292 0.280992 0.314062
0.246298 0.284751 0.312698
0.328602 0.288589 0.311731
0.418332 0.292109 0.310909
0.512120 0.294940 0.310110
0.606356 0.296795 0.309361
0.697582 0.297386 0.308516
0.781434 0.296532 0.307631
0.858671 0.294628 0.306665
0.930862 0.292176 0.305584
1.004369 0.289252 0.304307
0.021350 0.331606 0.315086
0.029571 0.332018 0.318626
0.043295 0.333763 0.318748
0.064920 0.336093 0.310587
0.117566 0.335990 0.310416
0.176284 0.336249 0.310301
0.246622 0.342238 0.312271
0.328563 0.350082 0.311862
0.418310 0.357192 0.310955
0.512119 0.362935 0.310112
0.606355 0.366933 0.309363
0.697581 0.368665 0.308518
0.781434 0.367939 0.307634
0.858670 0.365471 0.306669
0.930862 0.362018 0.305577
1.004369 0.358059 0.304311
0.021351 0.397207 0.319433
0.029552 0.397521 0.323124
0.043244 0.399037 0.321801
0.064644 0.401629 0.310442
0.120850 0.401403 0.310093
0.182650 0.401529 0.310077
0.247862 0.401756 0.309972
0.329080 0.411577 0.310632
0.418267 0.421505 0.311050
0.512111 0.429715 0.310155
0.606355 0.435361 0.309366
0.697581 0.438010 0.308518
0.781434 0.437406 0.307634
0.858670 0.434320 0.306669
0.930862 0.430132 0.305577
1.004369 0.425067 0.304311
0.021356 0.469581 0.324321
0.029510 0.469816 0.327812
0.043118 0.471094 0.324951
0.064298 0.473506 0.310270
0.124891 0.473329 0.309758
0.190493 0.473328 0.309763
