assets/luts/LUTs/Knittel-M2S-Creative-Clear-Blue.CUBE
LUT_3D_SIZE 16
-0.057626 -0.057626 -0.057626
0.041952 -0.057926 -0.057926
0.167926 -0.060409 -0.060409
0.235436 -0.063167 -0.063167
0.294309 -0.061070 -0.061070
0.346608 -0.043964 -0.043964
0.393180 0.052962 0.052962
0.435357 0.089698 0.089698
0.474431 0.117778 0.117778
0.511891 0.140723 0.140723
0.552804 0.159995 0.159995
0.604009 0.176566 0.176566
0.669120 0.196751 0.196751
0.748758 0.221209 0.221209
0.837195 0.248249 0.248249
0.924862 0.274943 0.274943
-0.064179 0.044505 -0.064179
0.040398 0.040398 -0.059448
0.166428 0.038489 -0.059197
0.234648 0.031975 -0.062666
0.294917 0.030026 -0.063091
0.348489 0.047686 -0.051649
0.396132 0.072674 0.039568
0.438888 0.098541 0.082312
0.478002 0.123163 0.112491
0.514851 0.145338 0.137412
0.554301 0.165613 0.159289
0.604043 0.183327 0.177919
0.669153 0.202562 0.197891
0.748700 0.226171 0.222194
0.837222 0.252499 0.249091
0.924888 0.278634 0.275659
-0.108664 0.191268 -0.108664
-0.089143 0.190893 -0.109642
0.153133 0.187090 -0.104793
0.223195 0.170325 0.080709
0.284034 0.160167 0.061480
0.342343 0.153065 0.051672
0.394230 0.150599 0.064541
0.440169 0.153831 0.088236
0.481130 0.162368 0.113595
0.518484 0.174485 0.137704
0.556916 0.189615 0.161101
0.603559 0.207148 0.184009
0.668013 0.224686 0.204269
0.747608 0.246204 0.227831
0.836254 0.270845 0.254172
0.923969 0.295575 0.280299
-0.131720 0.267625 -0.131720
-0.121975 0.267939 -0.135759
0.090504 0.267095 -0.140887
0.217983 0.263379 -0.131384
0.286354 0.250127 0.115280
0.333254 0.240000 0.130858
0.384940 0.232031 0.125173
0.433576 0.226496 0.127825
0.477411 0.224466 0.138892
0.516889 0.226161 0.154621
0.556447 0.232716 0.173713
0.602771 0.244963 0.195606
0.665877 0.260800 0.216630
0.745791 0.280231 0.238929
0.834398 0.303199 0.264315
0.922342 0.326375 0.289682
-0.132873 0.331339 -0.132873
-0.128890 0.332139 -0.140946
-0.052879 0.332784 -0.152247
0.181331 0.331490 -0.155126
0.278654 0.328237 -0.136628
0.344766 0.317234 0.141869
0.383061 0.305798 0.182459
0.426820 0.297329 0.181890
0.470729 0.290380 0.181817
0.511871 0.285772 0.187069
0.553167 0.285907 0.198487
0.600399 0.292885 0.215863
0.662846 0.306479 0.235787
0.742893 0.324392 0.256241
0.831706 0.346158 0.280233
0.919762 0.368075 0.304405
-0.109798 0.387481 -0.109798
-0.109821 0.388446 -0.123497
-0.053163 0.389825 -0.142689
0.160834 0.389873 -0.151051
0.252756 0.388635 -0.149263
0.336372 0.386023 -0.112899
0.398542 0.376861 0.177526
0.431684 0.363751 0.227044
0.468249 0.354371 0.231669
0.507242 0.346496 0.230546
0.548718 0.342629 0.234237
0.596852 0.345861 0.245372
0.659502 0.357327 0.261797
0.739462 0.374644 0.279969
0.828371 0.395935 0.302169
0.916477 0.417229 0.324862
-0.042799 0.438362 -0.042799
-0.041915 0.439146 -0.075335
0.081451 0.440534 -0.108746
0.162503 0.441185 -0.124130
0.239803 0.441079 -0.129418
0.316467 0.440034 -0.116833
0.391119 0.438129 0.068874
0.448790 0.430042 0.218355
0.478109 0.415420 0.267071
0.509109 0.405156 0.275394
0.547047 0.399120 0.276195
0.594291 0.400169 0.282039
0.656878 0.410345 0.293820
0.736272 0.427805 0.309668
0.824899 0.449425 0.329938
0.912912 0.470729 0.350906
0.085237 0.485789 0.085237
0.096866 0.486017 0.078370
0.126325 0.486840 0.041480
0.177114 0.487512 -0.057552
0.238608 0.487866 -0.075607
0.305229 0.487690 -0.070097
0.374157 0.486903 0.066219
0.442895 0.485629 0.154276
0.495947 0.477731 0.257715
0.522283 0.462131 0.302922
0.552829 0.453983 0.315693
0.596017 0.453874 0.321229
0.656834 0.463683 0.329950
0.734550 0.481966 0.344239
0.822125 0.504589 0.362894
0.909569 0.526508 0.382157
0.096385 0.530417 0.096385
0.111126 0.530424 0.096613
0.145553 0.530409 0.098087
0.189577 0.530595 0.095508
0.241841 0.530881 0.090873
0.300045 0.530971 0.092174
0.362285 0.530815 0.108347
0.427067 0.530243 0.144303
0.491827 0.529445 0.202912
0.540605 0.521074 0.291343
0.568339 0.508080 0.336026
0.605310 0.506462 0.354653
0.661465 0.516595 0.366607
0.735728 0.536161 0.381694
0.821274 0.560272 0.399757
0.907448 0.583307 0.417871
0.106278 0.573456 0.106278
0.119397 0.573460 0.106476
0.149643 0.573447 0.107774
0.191112 0.573426 0.110215
0.241052 0.573378 0.114282
0.295840 0.573337 0.120659
0.353811 0.573261 0.130625
0.414570 0.573048 0.148609
0.477340 0.572644 0.180587
0.539792 0.572126 0.235417
0.587020 0.564598 0.319764
0.622482 0.559051 0.368370
0.672680 0.568895 0.396829
0.741922 0.589851 0.418252
0.823919 0.615732 0.438391
0.907798 0.640201 0.456588
0.116690 0.619828 0.116690
0.128380 0.619832 0.116868
0.155287 0.619820 0.117955
0.193122 0.619800 0.119980
0.240000 0.619772 0.123338
0.292182 0.619705 0.128439
0.347895 0.619664 0.136234
0.406609 0.619533 0.148833
0.467700 0.619280 0.170143
0.530154 0.618848 0.205659
0.591702 0.618322 0.266273
0.640928 0.614326 0.351697
0.690351 0.621669 0.408308
0.754592 0.643089 0.446992
0.831684 0.670677 0.474916
0.911896 0.696864 0.495970
0.128678 0.674364 0.128678
0.139009 0.674333 0.128839
0.163255 0.674357 0.129772
0.198409 0.674337 0.131501
0.243081 0.674309 0.134375
0.293597 0.674272 0.138675
0.347978 0.674180 0.144973
0.405445 0.674120 0.154540
0.465597 0.673979 0.169900
0.527753 0.673666 0.194994
0.590658 0.673115 0.234795
0.652013 0.672585 0.302456
0.708943 0.677117 0.391880
0.772972 0.697088 0.457058
0.845757 0.725587 0.502422
0.921328 0.753193 0.532180
0.143183 0.741516 0.143183
0.152181 0.741522 0.143315
0.174299 0.741506 0.144138
0.207606 0.741479 0.145663
0.250949 0.741438 0.148196
0.300652 0.741383 0.151970
0.354648 0.741313 0.157341
0.411992 0.741250 0.165141
0.472212 0.741135 0.177003
0.534702 0.740914 0.195681
0.598760 0.740529 0.225167
0.663154 0.740032 0.269989
0.725014 0.739468 0.345823
0.792181 0.753860 0.440854
0.864997 0.781412 0.511207
0.936929 0.809699 0.557908
0.159929 0.820171 0.159929
0.167705 0.820175 0.160035
0.188053 0.820164 0.160773
0.220014 0.820146 0.162161
0.262495 0.820118 0.164458
0.311971 0.820081 0.167843
0.366100 0.820035 0.172605
0.423973 0.820004 0.179311
0.484927 0.819895 0.189005
0.548361 0.819772 0.203629
0.613763 0.819480 0.226176
0.680324 0.819039 0.260509
0.746542 0.818498 0.310655
0.809480 0.817969 0.395389
0.884985 0.840459 0.494495
0.957216 0.867787 0.564616
0.178259 0.907334 0.178259
0.184989 0.907337 0.178352
0.203822 0.907327 0.179030
0.234640 0.907308 0.180293
0.276440 0.907279 0.182397
0.325807 0.907240 0.185505
0.380354 0.907192 0.189818
0.439033 0.907189 0.195773
0.501017 0.907095 0.204070
0.565699 0.906972 0.216058
0.632535 0.906772 0.233942
0.701071 0.906410 0.260798
0.770265 0.905922 0.300293
0.838557 0.905397 0.356932
0.901782 0.904895 0.448412
0.977828 0.929021 0.546189
0.196841 0.996473 0.196841
0.202715 0.996476 0.196916
0.220182 0.996466 0.197518
0.249825 0.996446 0.198700
0.290793 0.996418 0.200644
0.339855 0.996378 0.203525
0.394612 0.996328 0.207488
0.453834 0.996321 0.212869
0.516663 0.996230 0.220167
0.582344 0.996094 0.230359
0.650394 0.995971 0.244965
0.720436 0.995680 0.266438
0.791594 0.995277 0.297804
0.862985 0.994757 0.342325
0.932134 0.994200 0.405413
0.993841 0.993841 0.498648
-0.058537 -0.058537 0.055495
0.051245 -0.060706 0.051245
0.169105 -0.061911 0.036010
0.236115 -0.064452 0.028420
0.295194 -0.063223 0.029838
0.347800 -0.049189 0.050007
0.394711 0.045799 0.075324
0.437093 0.085495 0.100871
0.476112 0.114683 0.124989
0.513244 0.138655 0.146417
0.553387 0.159263 0.165560
0.604037 0.176661 0.182136
0.669149 0.196823 0.201527
0.748699 0.221269 0.225286
0.837225 0.248301 0.251734
0.924893 0.274974 0.277957
-0.070652 0.046276 0.046276
0.040156 0.040156 0.040156
0.167661 0.035514 0.035514
0.235446 0.027764 0.027764
0.296142 0.018744 0.018744
0.350324 0.038403 0.038403
0.398427 0.065507 0.065507
0.441515 0.092665 0.092665
0.480670 0.118383 0.118383
0.517201 0.141702 0.141702
0.555836 0.163433 0.163433
0.604239 0.183187 0.183187
0.669355 0.202462 0.202462
0.748861 0.226091 0.226091
0.837256 0.252412 0.252412
0.924924 0.278565 0.278565
-0.109371 0.191198 -0.088738
-0.089719 0.190789 -0.089719
0.152962 0.187026 -0.084824
0.223309 0.170404 0.095772
0.284867 0.159785 0.080952
0.344358 0.151503 0.071163
0.397302 0.147506 0.076042
0.443949 0.149451 0.093126
0.485219 0.157359 0.115424
0.522450 0.169592 0.138517
0.560195 0.185638 0.162150
0.605380 0.205108 0.186620
0.668152 0.224587 0.208585
0.747741 0.246123 0.231560
0.836399 0.270775 0.257380
0.924075 0.295508 0.283113
-0.136798 0.268292 -0.123088
-0.127212 0.268558 -0.127212
0.084885 0.267501 -0.132154
0.217400 0.263627 -0.123388
0.286976 0.250129 0.120979
0.334997 0.239513 0.133571
0.387946 0.230654 0.125939
0.437627 0.224030 0.126523
0.482087 0.221037 0.136332
0.521726 0.222174 0.151901
0.560873 0.228799 0.171735
0.605856 0.242147 0.195570
0.666109 0.260637 0.220406
0.745804 0.280156 0.242369
0.834539 0.303147 0.267323
0.922344 0.326334 0.292331
-0.143573 0.332535 -0.131762
-0.140494 0.333387 -0.140494
-0.082255 0.334030 -0.152771
0.175589 0.332576 -0.156846
0.277522 0.328945 -0.141195
0.345822 0.317322 0.137389
0.385377 0.305346 0.179176
0.430369 0.296106 0.177532
0.475272 0.288314 0.176647
0.516904 0.283006 0.181871
0.558034 0.282793 0.194127
0.604238 0.290212 0.213597
0.663843 0.305805 0.237916
0.742988 0.324357 0.259291
0.831841 0.346131 0.282935
0.919891 0.368056 0.306874
-0.128154 0.388883 -0.115147
-0.130214 0.389990 -0.130214
-0.097016 0.391550 -0.151295
0.145654 0.391591 -0.161244
0.247105 0.390101 -0.161964
0.335063 0.387016 -0.133715
0.399728 0.377115 0.166231
0.434212 0.363393 0.220627
0.471898 0.353435 0.225400
0.511683 0.344860 0.224292
0.553391 0.340550 0.228648
0.600812 0.343824 0.241751
0.660887 0.356569 0.262586
0.739657 0.374620 0.282591
0.828498 0.395938 0.304535
0.916600 0.417196 0.327041
-0.084373 0.439478 -0.058836
-0.090793 0.440529 -0.090793
-0.056527 0.442341 -0.126136
0.141294 0.443176 -0.143432
0.229360 0.443005 -0.151428
0.311559 0.441658 -0.144861
0.389944 0.439182 -0.082988
0.449939 0.430354 0.205624
0.480488 0.415167 0.259708
0.512390 0.404419 0.269035
0.550843 0.397963 0.270576
0.597644 0.398883 0.278251
0.658025 0.409860 0.294393
0.736351 0.427806 0.311861
0.825012 0.449417 0.331980
0.912931 0.470743 0.352840
0.073031 0.486161 0.093022
0.075022 0.486802 0.075022
0.099936 0.488216 -0.059662
0.158565 0.489230 -0.096913
0.226377 0.489732 -0.114720
0.297759 0.489501 -0.117749
0.370476 0.488367 -0.090613
0.442061 0.486569 0.124277
0.496917 0.478026 0.247427
0.524193 0.461980 0.296634
0.555220 0.453519 0.310962
0.598206 0.453270 0.318423
0.657305 0.463596 0.331119
0.734565 0.481985 0.346048
0.822186 0.504598 0.364607
0.909669 0.526512 0.383805
0.096297 0.530428 0.110874
0.111014 0.530436 0.111014
0.138461 0.530861 0.101448
0.179440 0.531521 0.082783
0.232431 0.532129 0.055348
0.292815 0.532396 0.026069
0.357550 0.532157 0.058687
0.424779 0.531263 0.116539
0.491416 0.530050 0.189487
0.541181 0.521239 0.286041
0.569426 0.508023 0.333083
0.606113 0.506353 0.354107
0.661520 0.516644 0.368175
0.735828 0.536215 0.383192
0.821317 0.560296 0.401185
0.907532 0.583319 0.419260
0.106203 0.573462 0.119158
0.119307 0.573467 0.119307
0.149598 0.573454 0.120422
0.190976 0.573441 0.122287
0.239297 0.573606 0.120902
0.292876 0.573838 0.118859
0.350995 0.573907 0.122837
0.412725 0.573651 0.140164
0.476605 0.573034 0.176016
0.539774 0.572267 0.235581
0.587128 0.564642 0.321161
0.622492 0.559102 0.370010
0.672709 0.568929 0.398291
0.741987 0.589884 0.419570
0.823976 0.615758 0.439614
0.907827 0.640254 0.457794
0.116623 0.619834 0.128167
0.128308 0.619839 0.128308
0.155235 0.619827 0.129257
0.193085 0.619807 0.131029
0.239976 0.619778 0.133999
0.292163 0.619711 0.138544
0.347895 0.619671 0.145555
0.406595 0.619541 0.157059
0.467695 0.619289 0.176927
0.530158 0.618859 0.210772
0.591715 0.618307 0.269649
0.640948 0.614329 0.353770
0.690412 0.621702 0.409844
0.754615 0.643124 0.448229
0.831681 0.670747 0.476013
0.911944 0.696892 0.497034
0.128619 0.674335 0.138818
0.138941 0.674339 0.138941
0.163226 0.674363 0.139784
0.198387 0.674343 0.141341
0.243060 0.674315 0.143939
0.293578 0.674278 0.147838
0.347923 0.674186 0.153593
0.405432 0.674126 0.162420
0.465610 0.673987 0.176770
0.527751 0.673675 0.200606
0.590662 0.673126 0.239037
0.652028 0.672600 0.305271
0.708971 0.677139 0.393696
0.772974 0.697119 0.458347
0.845778 0.725634 0.503493
0.921359 0.753224 0.533095
0.143133 0.741525 0.152019
0.152117 0.741530 0.152117
0.174261 0.741514 0.152876
0.207577 0.741487 0.154284
0.250923 0.741446 0.156621
0.300632 0.741391 0.160106
0.354630 0.741321 0.165093
0.411977 0.741259 0.172384
0.472203 0.741149 0.183558
0.534696 0.740926 0.201349
0.598760 0.740542 0.229744
0.663160 0.740047 0.273442
0.725035 0.739490 0.348114
0.792198 0.753881 0.442338
0.865012 0.781440 0.512309
0.936948 0.809730 0.558856
0.159885 0.820176 0.167567
0.167663 0.820180 0.167663
0.188006 0.820169 0.168349
0.219986 0.820151 0.169633
0.262470 0.820123 0.171788
0.311950 0.820086 0.174981
0.366082 0.820040 0.179468
0.423963 0.820009 0.185804
0.484917 0.819901 0.195021
0.548353 0.819778 0.209029
0.613759 0.819488 0.230794
0.680324 0.819048 0.264233
0.746552 0.818508 0.313495
0.809494 0.817984 0.397262
0.885001 0.840479 0.495772
0.957231 0.867813 0.565563
0.178215 0.907339 0.184871
0.184967 0.907342 0.184967
0.203777 0.907332 0.185573
0.234608 0.907313 0.186779
0.276428 0.907284 0.188780
0.325793 0.907244 0.191751
0.380334 0.907197 0.195878
0.439033 0.907134 0.201551
0.501007 0.907101 0.209517
0.565693 0.906978 0.221079
0.632530 0.906778 0.238391
0.701068 0.906417 0.264596
0.770267 0.905931 0.303317
0.838565 0.905407 0.359232
0.901796 0.904909 0.449977
0.977844 0.929040 0.547288
0.196810 0.996477 0.202611
0.202704 0.996481 0.202704
0.220161 0.996470 0.203270
0.249802 0.996451 0.204399
0.290763 0.996423 0.206274
0.339843 0.996382 0.209022
0.394599 0.996332 0.212858
0.453827 0.996325 0.218033
0.516656 0.996235 0.225113
0.582340 0.996099 0.234945
0.650390 0.995977 0.249175
0.720432 0.995686 0.270151
0.791594 0.995285 0.300922
0.862988 0.994766 0.344855
0.932142 0.994210 0.407339
0.993854 0.993854 0.499999
-0.069396 -0.069396 0.227730
0.033896 -0.071314 0.227066
0.165655 -0.081272 0.221923
0.252992 -0.093906 0.201843
0.310455 -0.094294 0.176717
0.359285 -0.083376 0.161822
0.403906 -0.057289 0.156056
0.444836 0.060571 0.157920
0.482752 0.101166 0.165625
0.518717 0.129734 0.176631
0.557440 0.153633 0.189924
0.606420 0.173715 0.204041
0.671124 0.194491 0.221093
0.750258 0.219429 0.243128
0.838471 0.246888 0.268257
0.925842 0.273929 0.293429
-0.076315 0.004719 0.226908
-0.022474 -0.022474 0.226032
0.163868 -0.050681 0.220802
0.252906 -0.073298 0.201079
0.312095 -0.077581 0.175982
0.362737 -0.068881 0.160362
0.408769 -0.041053 0.153105
0.450571 0.065642 0.153537
0.488679 0.101787 0.160561
0.524128 0.130171 0.171946
0.561252 0.155688 0.186809
0.607121 0.179583 0.204289
0.671152 0.200408 0.222034
0.750285 0.224459 0.243955
0.838497 0.251166 0.268985
0.925868 0.277633 0.294086
-0.151686 0.188498 0.221917
-0.137200 0.187528 0.221212
0.151645 0.185778 0.212813
0.239952 0.180751 0.197984
0.300573 0.177338 0.190842
0.357306 0.174471 0.186053
0.410958 0.172465 0.182745
0.459910 0.172761 0.181716
0.503320 0.177117 0.184543
0.541938 0.185634 0.191586
0.579660 0.198714 0.203393
0.622092 0.217662 0.221320
0.675842 0.242677 0.245589
0.750420 0.265204 0.267772
0.838726 0.286000 0.288400
0.926045 0.307477 0.309689
-0.151041 0.269295 0.160325
-0.140672 0.269208 0.159250
0.124550 0.267914 0.173022
0.226339 0.264402 0.178685
0.288433 0.257958 0.211184
0.342328 0.253154 0.206671
0.398484 0.247303 0.200843
0.451908 0.241469 0.196656
0.499720 0.237622 0.196522
0.541828 0.237108 0.201018
0.582182 0.241561 0.210710
0.626152 0.253354 0.227409
0.679415 0.274233 0.252441
0.749225 0.298988 0.279549
0.837280 0.318779 0.299595
0.924703 0.338957 0.320122
-0.165639 0.334895 0.110442
-0.163409 0.335728 0.099926
0.033198 0.336854 0.125033
0.196222 0.334553 0.138936
0.284284 0.331010 0.146336
0.348108 0.321661 0.214122
0.391616 0.314470 0.228424
0.441765 0.306955 0.221062
0.491120 0.299231 0.215279
0.536064 0.293130 0.214830
0.579326 0.291474 0.220919
0.625779 0.297400 0.235433
0.680395 0.313760 0.260232
0.748267 0.337949 0.290609
0.834572 0.358974 0.312608
0.922070 0.378634 0.332648
-0.164200 0.392198 0.077153
-0.168688 0.393597 -0.020075
-0.116180 0.397289 -0.028290
0.155821 0.396216 0.066586
0.252785 0.393975 0.060485
0.338624 0.390210 0.100433
0.403326 0.380234 0.210458
0.442012 0.369663 0.247250
0.484885 0.360776 0.245662
0.528981 0.352036 0.240927
0.573762 0.346775 0.241882
0.622498 0.348735 0.252356
0.679278 0.361384 0.275035
0.747005 0.383820 0.306373
0.831103 0.406330 0.331070
0.918753 0.425915 0.350404
-0.142501 0.442826 0.094898
-0.153193 0.444494 0.040730
-0.132568 0.449830 -0.090778
0.114767 0.450358 -0.090747
0.220821 0.449407 -0.108137
0.308745 0.447146 -0.110320
0.390988 0.443341 -0.024993
0.454513 0.433270 0.213232
0.489757 0.419893 0.266623
0.526402 0.409823 0.273236
0.568735 0.402941 0.272686
0.617934 0.402823 0.279249
0.676259 0.413407 0.298643
0.745120 0.434291 0.328727
0.827439 0.457895 0.355160
0.915036 0.477893 0.373525
-0.093914 0.488546 0.131215
-0.112390 0.490055 0.105309
-0.116091 0.496089 -0.071254
0.099523 0.497780 -0.095201
0.199431 0.497848 -0.121545
0.283410 0.496931 -0.135718
0.364223 0.494696 -0.131014
0.442120 0.491111 0.026747
0.501969 0.480870 0.231244
0.534059 0.465838 0.290045
0.569275 0.457610 0.305207
0.615251 0.456913 0.313119
0.673315 0.466918 0.330391
0.742795 0.487156 0.358270
0.824537 0.511446 0.384524
0.911575 0.532383 0.401806
0.076304 0.531089 0.158009
0.061979 0.531980 0.145328
-0.020009 0.537588 0.091560
0.123840 0.539864 0.029834
0.196005 0.540623 -0.093739
0.268777 0.540736 -0.122859
0.343060 0.539787 -0.133662
0.418190 0.537643 -0.115200
0.491471 0.534423 0.117980
0.546355 0.524014 0.261470
0.578909 0.511329 0.320508
0.618631 0.509819 0.345852
0.673422 0.520064 0.366600
0.742198 0.540741 0.393550
0.823332 0.565856 0.418286
0.909243 0.588167 0.434862
0.104405 0.573546 0.166669
0.116731 0.573594 0.166136
0.131350 0.577366 0.149713
0.163224 0.579752 0.128620
0.210441 0.580825 0.093456
0.268145 0.581525 -0.038825
0.332471 0.581554 -0.090762
0.401070 0.580643 -0.094098
0.471619 0.578686 0.065180
0.540343 0.575996 0.185622
0.591701 0.567122 0.301051
0.630129 0.562153 0.361770
0.679977 0.572316 0.399407
0.745825 0.593884 0.430453
0.825639 0.620221 0.454417
0.909294 0.644270 0.471326
0.115144 0.619910 0.170619
0.127018 0.619891 0.170687
0.177711 0.620991 0.188954
0.203849 0.622709 0.182699
0.237511 0.623707 0.166438
0.282344 0.624684 0.145502
0.336030 0.625296 0.122872
0.396456 0.625285 0.108563
0.461415 0.624450 0.122752
0.528132 0.622833 0.171571
0.592852 0.620781 0.251176
0.644138 0.616447 0.350617
0.693867 0.624388 0.416041
0.756295 0.646357 0.461218
0.832990 0.674264 0.489240
0.913077 0.700133 0.508940
0.127364 0.674407 0.177328
0.137819 0.674411 0.177428
0.193645 0.674779 0.203199
0.233459 0.674827 0.217058
0.266154 0.675222 0.213326
0.305977 0.675857 0.205959
0.352784 0.676477 0.196885
0.406170 0.676937 0.189881
0.465007 0.676895 0.191256
0.527605 0.676255 0.208722
0.591491 0.675150 0.247618
0.653268 0.673797 0.316765
0.710137 0.678623 0.408001
0.773664 0.699463 0.473470
0.846626 0.728214 0.516078
0.922154 0.755793 0.543956
0.142030 0.741530 0.187518
0.151117 0.741535 0.187600
0.201448 0.741768 0.210495
0.240696 0.741773 0.224354
0.276521 0.741730 0.225715
0.320133 0.741676 0.227753
0.369351 0.741608 0.230689
0.422927 0.741652 0.234801
0.479798 0.741645 0.239986
0.539788 0.741481 0.250421
0.602179 0.740999 0.271417
0.665257 0.740448 0.307751
0.725762 0.739871 0.372742
0.792555 0.754959 0.458860
0.865651 0.783201 0.525087
0.937440 0.811581 0.569340
0.158913 0.820241 0.200661
0.166744 0.820244 0.200722
0.211469 0.820406 0.220104
0.249287 0.820407 0.232591
0.285444 0.820378 0.233943
0.329685 0.820340 0.235982
0.379728 0.820294 0.238878
0.434389 0.820277 0.243017
0.492782 0.820174 0.249196
0.554094 0.819984 0.258946
0.617757 0.819706 0.274925
0.683077 0.819277 0.301223
0.748149 0.818810 0.342539
0.810000 0.818308 0.417333
0.885418 0.841457 0.509682
0.957599 0.869145 0.576353
0.177332 0.907404 0.215915
0.184110 0.907407 0.215982
0.223498 0.907468 0.231722
0.259850 0.907466 0.242732
0.296469 0.907436 0.244104
0.341452 0.907397 0.246141
0.392534 0.907438 0.249004
0.448415 0.907377 0.252988
0.508210 0.907287 0.258669
0.571128 0.907132 0.267128
0.636504 0.906952 0.280237
0.703902 0.906632 0.301070
0.771988 0.906154 0.333453
0.839441 0.905600 0.382683
0.902095 0.905115 0.466420
0.978052 0.929732 0.558972
0.195996 0.996542 0.231752
0.201912 0.996545 0.231819
0.236548 0.996552 0.244288
0.271338 0.996548 0.253941
0.308073 0.996517 0.255310
0.353524 0.996476 0.257347
0.405372 0.996427 0.260169
0.462219 0.996365 0.264029
0.523175 0.996337 0.269345
0.587369 0.996201 0.276883
0.654149 0.996086 0.288050
0.723117 0.995805 0.305035
0.793502 0.995419 0.330946
0.864163 0.994900 0.369522
0.932795 0.994298 0.426476
0.993888 0.993888 0.513740
-0.078124 -0.078124 0.316163
-0.035416 -0.079999 0.316610
0.142160 -0.085868 0.313790
0.231655 -0.095192 0.308152
0.312729 -0.105038 0.297833
0.368506 -0.105958 0.272052
0.414875 -0.093326 0.251181
0.454532 -0.054250 0.237195
0.491102 0.078154 0.230269
0.526037 0.116156 0.228861
0.563812 0.143845 0.232659
0.611934 0.165963 0.240926
0.675920 0.187893 0.254545
0.754686 0.213626 0.274149
0.842463 0.241656 0.297374
0.929629 0.269133 0.320880
-0.084772 -0.046837 0.318098
-0.050806 -0.050806 0.318541
0.140535 -0.062434 0.315955
0.232826 -0.079106 0.310924
0.316200 -0.095971 0.300937
0.373561 -0.100752 0.274280
0.421073 -0.091381 0.252161
0.461414 -0.057151 0.236730
0.498015 0.073817 0.228519
0.532209 0.114126 0.226405
0.568299 0.144634 0.230567
0.613006 0.171627 0.240875
0.675939 0.194125 0.255231
0.754705 0.218872 0.274782
0.842483 0.246076 0.297967
0.929650 0.272939 0.321410
-0.134922 0.157193 0.328072
-0.118480 0.156186 0.327598
0.151910 0.173961 0.314182
0.237006 0.173758 0.305817
0.313761 0.163803 0.297375
0.375343 0.155588 0.279271
0.427369 0.153296 0.263548
0.473773 0.155052 0.251657
0.515220 0.161351 0.243878
0.552366 0.171983 0.240643
0.588998 0.187059 0.243264
0.630352 0.208068 0.253708
0.682585 0.235539 0.273113
0.754384 0.261311 0.295026
0.842231 0.282436 0.315075
0.929150 0.304249 0.335730
-0.204459 0.266390 0.312513
-0.197679 0.266166 0.312836
-0.083813 0.267611 0.309629
0.211752 0.262195 0.301737
0.302392 0.256160 0.285011
0.362323 0.251629 0.274935
0.415375 0.248593 0.268632
0.465718 0.245811 0.263569
0.512662 0.243830 0.259576
0.554565 0.244505 0.258143
0.595156 0.248828 0.260483
0.639122 0.258933 0.268798
0.691218 0.277925 0.286188
0.756081 0.303309 0.310317
0.840714 0.322186 0.328829
0.927377 0.339646 0.345964
-0.186600 0.336262 0.261990
-0.185370 0.337026 0.260951
-0.088771 0.337371 0.264692
0.187446 0.336322 0.256862
0.288466 0.332375 0.260469
0.348233 0.325054 0.288853
0.398150 0.321049 0.285058
0.450884 0.315642 0.279438
0.501489 0.309934 0.274746
0.548070 0.305193 0.272000
0.592865 0.303542 0.272848
0.640625 0.307563 0.279412
0.695351 0.320799 0.295425
0.759242 0.343635 0.320919
0.838756 0.365657 0.343776
0.925684 0.382099 0.359812
-0.182749 0.393605 0.229307
-0.188113 0.395113 0.224014
-0.137750 0.397866 0.227216
0.147501 0.398514 0.223015
0.261408 0.395791 0.233686
0.343876 0.392197 0.237104
0.404261 0.382400 0.287494
0.444633 0.375941 0.300961
0.491028 0.368943 0.294497
0.538236 0.361346 0.287704
0.585528 0.356241 0.285126
0.636377 0.356726 0.289296
0.694243 0.366689 0.304184
0.759743 0.387278 0.330713
0.835742 0.411569 0.358611
0.922147 0.428989 0.375172
-0.168841 0.444805 0.212002
-0.180846 0.446727 0.201109
-0.162137 0.451537 0.192188
0.089084 0.453350 0.188462
0.233060 0.451535 0.205512
0.316103 0.449056 0.204264
0.395528 0.445266 0.216535
0.456114 0.435121 0.282792
0.492388 0.425192 0.313386
0.532659 0.416763 0.311237
0.578339 0.410376 0.306434
0.630342 0.409384 0.307683
0.690650 0.417686 0.320433
0.758498 0.436648 0.346537
0.833555 0.461291 0.377161
0.918203 0.480603 0.395596
-0.136680 0.490631 0.210674
