assets/luts/LUTs/Knittel-M2S-Creative-Speed-Cinema.CUBE
LUT_3D_SIZE 6
0.021287 0.157168 0.257553
0.071141 0.157168 0.257553
0.242681 0.157168 0.257553
0.509261 0.157168 0.257553
0.780445 0.157168 0.257553
1.004385 0.157171 0.257553
0.021287 0.232774 0.257553
0.071101 0.232775 0.257553
0.242681 0.237633 0.257553
0.509261 0.254557 0.257553
0.780445 0.260476 0.257553
1.004385 0.255524 0.257553
0.021287 0.397212 0.257553
0.075693 0.397212 0.257553
0.242784 0.397216 0.257553
0.509261 0.436012 0.257553
0.780445 0.449302 0.257553
1.004385 0.438219 0.257553
0.021287 0.623486 0.257553
0.092121 0.623486 0.257553
0.286568 0.623486 0.257553
0.509423 0.623484 0.257553
0.780445 0.643385 0.257553
1.004385 0.626652 0.257553
0.021287 0.836420 0.257553
0.097931 0.836420 0.257553
0.301684 0.836420 0.257553
0.534026 0.836420 0.257553
0.780489 0.836417 0.257553
1.004385 0.814191 0.257553
0.021288 1.039116 0.256846
0.093047 1.039116 0.256846
0.288939 1.039116 0.256846
0.513308 1.039116 0.256846
0.751381 1.039116 0.256846
1.004411 1.039153 0.256838
0.021330 -0.341485 0.317118
0.070723 -0.341471 0.317446
0.242980 -0.341467 0.322300
0.509431 -0.341458 0.336287
0.780586 -0.341446 0.341243
1.004401 -0.341430 0.337144
0.021329 0.232392 0.315245
0.071159 0.232610 0.315436
0.246543 0.229114 0.313038
0.512275 0.225732 0.310955
0.781477 0.222291 0.308464
1.004372 0.217776 0.304884
0.021351 0.397207 0.319433
0.064644 0.401629 0.310442
0.247862 0.401756 0.309972
0.512111 0.429715 0.310155
0.781434 0.437406 0.307634
1.004369 0.425067 0.304311
0.021366 0.623469 0.332973
0.063316 0.626118 0.309702
0.279058 0.626000 0.308880
0.512782 0.626221 0.308957
0.781426 0.639780 0.307681
1.004369 0.620853 0.304311
0.021395 0.836410 0.337716
0.061014 0.837098 0.307769
0.287586 0.837084 0.306855
0.529372 0.837084 0.306855
0.781521 0.837223 0.306972
1.004369 0.811891 0.304186
0.021390 1.039115 0.329053
0.058295 1.039100 0.299106
0.274449 1.039097 0.299484
0.506313 1.039097 0.299484
0.748520 1.039097 0.299483
1.004416 1.039174 0.299564
0.021341 -0.341481 0.452682
0.077953 -0.341466 0.453342
0.247120 -0.341466 0.454806
0.510816 -0.341459 0.486946
0.781006 -0.341446 0.498428
1.004428 -0.341430 0.488786
0.021351 0.237850 0.448340
0.064570 0.225454 0.452070
0.248175 0.226083 0.452086
0.512186 0.225612 0.475917
0.781521 0.222831 0.482646
1.004368 0.218720 0.472196
0.021352 0.397505 0.448352
0.065259 0.402064 0.452107
0.243008 0.396971 0.448615
0.515501 0.391173 0.443687
0.784060 0.377373 0.432327
1.004327 0.359543 0.417489
0.021366 0.623469 0.481006
0.063951 0.625983 0.475868
0.216956 0.631676 0.430056
0.520492 0.632314 0.429672
0.783949 0.622465 0.432543
1.004321 0.594938 0.417776
0.021395 0.836410 0.492357
0.061777 0.837041 0.482501
0.204993 0.839822 0.420871
0.503872 0.839739 0.420967
0.785390 0.840158 0.421273
1.004314 0.801902 0.417192
0.021390 1.039115 0.477833
0.057395 1.039095 0.466455
0.185692 1.039038 0.398728
0.468275 1.039031 0.399373
0.733253 1.039031 0.399370
1.004441 1.039238 0.399675
0.021341 -0.341479 0.650961
0.094563 -0.341458 0.651318
0.291796 -0.341459 0.652739
0.515388 -0.341460 0.654219
0.781855 -0.341448 0.670591
1.004476 -0.341432 0.655257
0.021366 0.254746 0.645549
0.063186 0.223917 0.647934
0.279699 0.224654 0.647752
0.512958 0.224666 0.647876
0.781432 0.222581 0.660194
1.004367 0.218615 0.643075
0.021366 0.436313 0.645549
0.063932 0.430118 0.647747
0.216569 0.373891 0.652998
0.520298 0.374730 0.653389
0.784431 0.372775 0.643723
1.004319 0.358011 0.619197
0.021367 0.623776 0.645552
0.063978 0.626382 0.647873
0.218317 0.632373 0.653409
0.509855 0.623326 0.645797
0.784030 0.617667 0.640240
1.004296 0.597362 0.621915
0.021395 0.836410 0.663316
0.061777 0.837041 0.660151
0.206161 0.839730 0.641850
0.474340 0.841609 0.620474
0.788515 0.842252 0.620659
1.004277 0.803237 0.623123
0.021390 1.039115 0.642979
0.057395 1.039095 0.637651
0.185633 1.039031 0.609474
0.437119 1.038964 0.586726
0.721270 1.038959 0.587103
1.004481 1.039369 0.587573
0.021350 -0.341476 0.847271
0.099967 -0.341446 0.847442
0.305490 -0.341447 0.847954
0.537862 -0.341448 0.848858
0.782150 -0.341448 0.849188
1.004514 -0.341433 0.828260
0.021394 0.260548 0.842795
0.060808 0.221100 0.843566
0.288252 0.222110 0.843427
0.529471 0.222110 0.843427
0.781426 0.222173 0.843564
1.004367 0.218452 0.819712
0.021394 0.449310 0.842795
0.061744 0.437665 0.843471
0.204424 0.362789 0.846101
0.504083 0.364086 0.845989
0.784933 0.364208 0.846305
1.004313 0.354675 0.809769
0.021394 0.643371 0.842795
0.061744 0.639762 0.843471
0.206069 0.619306 0.845979
0.473950 0.594840 0.847811
0.787667 0.595391 0.848333
1.004271 0.587454 0.807758
0.021392 0.836287 0.842797
0.061842 0.837068 0.843563
0.206489 0.839818 0.846270
0.475542 0.842045 0.848442
0.780913 0.836440 0.842907
1.004319 0.831348 0.837873
0.021390 1.039115 0.816474
0.057394 1.039095 0.814268
0.185631 1.039031 0.802984
0.438375 1.038961 0.794838
0.751915 1.038964 0.817260
1.004500 1.039286 0.817310
0.021357 -0.341471 1.006391
0.095124 -0.341428 1.006428
0.292907 -0.341429 1.006561
0.517446 -0.341431 1.006753
0.753491 -0.341431 1.006798
1.004481 -0.341430 1.006559
0.021421 0.255684 1.001092
0.057421 0.216930 1.001099
0.274466 0.218317 1.001099
0.506438 0.218317 1.001099
0.748730 0.218317 1.001099
1.004466 0.218317 1.001099
0.021421 0.438339 1.001092
0.058644 0.425595 1.001099
0.188363 0.347916 1.001129
0.470084 0.349865 1.001127
0.734169 0.349865 1.001127
1.004580 0.349865 1.001127
0.021421 0.626769 1.001092
0.058644 0.621104 1.001099
0.190662 0.591619 1.001127
0.443636 0.569847 1.001171
0.724599 0.570857 1.001170
1.004743 0.570857 1.001170
0.021421 0.814272 1.001092
0.058644 0.812072 1.001099
0.190662 0.800984 1.001127
0.444748 0.793548 1.001170
0.755615 0.817302 1.001184
1.004776 0.817259 1.001185
0.021421 1.005412 1.001092
0.058644 1.005450 1.001099
0.190662 1.005588 1.001127
0.444748 1.005788 1.001170
0.755345 1.005836 1.001185
1.004614 1.005584 1.001086
