assets/luts/LUTs/Knittel-M2S-No-Filter-MOV-H265-Dlog.CUBE
TITLE "Generated by Resolve"
LUT_3D_SIZE 5
0 0 0
0.257038 0 0
0.512093 0 0
0.767132 0 0
1 0 0
0.00210575 0.280934 0.00148013
0.257954 0.202441 0
0.512566 0 0
0.767452 0 0
1 0 0
0.00701915 0.553109 0.00489815
0.260075 0.51632 0
0.513664 0.418372 0
0.76817 0.158785 0
1 0 0
0.0152285 0.825284 0.0106355
0.2636 0.801724 0
0.515511 0.743893 0
0.769375 0.634318 0
1 0.427619 0
0.0270237 1 0.0188602
0.268589 1 0
0.518135 1 0
0.771099 0.966812 0
1 0.850263 0
0 0.0941634 0.31281
0.252689 0 0.238788
0.50985 0 0
0.765682 0 0
1 0 0
0 0.316869 0.313344
0.25362 0.248539 0.239475
0.510323 0 0
0.765988 0 0
1 0 0
0 0.572412 0.31458
0.255772 0.536995 0.241062
0.511437 0.443687 0
0.766705 0.212833 0
1 0 0
0.0053254 0.837995 0.316655
0.259342 0.814847 0.243687
0.513283 0.758099 0
0.767926 0.651102 0
1 0.452415 0
0.0171206 1 0.319615
0.264408 1 0.247425
0.515923 1 0
0.76965 0.977523 0
1 0.862577 0
0 0.232547 0.607813
0.242329 0.133791 0.572641
0.504616 0 0.480766
0.76228 0 0.263569
1 0 0
0 0.388327 0.608087
0.24329 0.333928 0.572931
0.505104 0.15346 0.481117
0.7626 0 0.264195
1 0 0
0 0.614786 0.608728
0.245533 0.582055 0.573617
0.506218 0.497505 0.481941
0.763317 0.307347 0.265644
1 0 0
0 0.866743 0.609812
0.249226 0.84445 0.574762
0.508095 0.790036 0.483314
0.764538 0.688411 0.26807
1 0.505287 0
0 1 0.611353
0.254459 1 0.57641
0.510765 1 0.485283
0.766278 1 0.271504
1 0.890455 0
0 0.370916 0.902815
0.224048 0.31368 0.880232
0.495735 0.111147 0.825193
0.756558 0 0.722759
1 0 0.539879
0 0.48542 0.902998
0.225086 0.442939 0.880415
0.496223 0.323812 0.825391
0.756878 0 0.722988
1 0 0.540185
0 0.679591 0.90341
0.227481 0.650324 0.880858
0.497368 0.576288 0.825864
0.75761 0.423041 0.723522
1 0 0.540917
0 0.912703 0.904112
0.231418 0.891661 0.881575
0.49926 0.840589 0.826642
0.758831 0.746471 0.724422
1 0.583001 0.542138
0 1 0.905135
0.237003 1 0.882612
0.501991 1 0.827756
0.760586 1 0.725704
1 0.935134 0.543877
0 0.5093 1
0.195361 0.469001 1
0.482689 0.358404 1
0.748257 0 1
1 0 0.964736
0 0.597574 1
0.196521 0.563806 1
0.483192 0.475898 1
0.748562 0.271672 1
1 0 0.964904
0 0.762509 1
0.199176 0.736767 1
0.484352 0.672908 1
0.74931 0.548379 1
1 0.284764 0.965286
0 0.974533 1
0.203586 0.955001 1
0.486305 0.907866 1
0.750546 0.822202 1
1 0.678614 0.965942
0 1 1
0.209781 1 1
0.489097 1 1
0.752316 1 1
1 0.995438 0.966888
