assets/luts/LUTs/Knittel-M2S-No-Filter-MOV-H265-HLG.CUBE
TITLE "Generated by Resolve"
LUT_3D_SIZE 33
0 0 0
0.000518807 0 6.10361e-05
0.00274662 4.57771e-05 0.000320439
0.00724804 0.000106813 0.000823987
0.0144656 0.000198367 0.00164797
0.0247044 0.000350958 0.00282292
0.0382696 0.000549325 0.00437934
0.0554055 0.000793469 0.00633249
0.0763409 0.00108339 0.00872816
0.100313 0.00143435 0.0115816
0.124346 0.0018616 0.0149081
0.148547 0.00233463 0.0187381
0.172946 0.0028687 0.0230869
0.197498 0.00347906 0.027985
0.222202 0.00416571 0.0334325
0.247059 0.00491341 0.0394446
0.272038 0.00573739 0.0460517
0.298604 0.00668345 0.0537118
0.328389 0.0078584 0.0630655
0.3617 0.00927749 0.0745098
0.398871 0.011017 0.0885939
0.440269 0.0131685 0.104204
0.486275 0.0157931 0.121538
0.537346 0.0190127 0.14078
0.593942 0.0229801 0.162112
0.656596 0.027863 0.185718
0.725872 0.0338598 0.211826
0.802396 0.0412299 0.240665
0.88687 0.050309 0.272496
0.980056 0.0614939 0.307607
1 0.0752728 0.346303
1 0.0921035 0.388968
1 0.110491 0.43595
0 0.000411994 0
0.00062562 0.000442512 1.5259e-05
0.00299077 0.000534066 0.000274662
0.00758373 0.000671397 0.000793469
0.014847 0.000823987 0.00161746
0.0251469 0.00102235 0.00277714
0.0387427 0.0012665 0.00433356
0.0559091 0.00154116 0.00628672
0.0768749 0.00187686 0.00868238
0.100816 0.00227359 0.0115358
0.124788 0.00273136 0.0148623
0.148974 0.00323491 0.0186923
0.173327 0.00381476 0.0230411
0.197864 0.00445563 0.027924
0.222553 0.00515755 0.0333715
0.247379 0.00593576 0.0393988
0.272343 0.00677501 0.0460059
0.298878 0.00776684 0.0536507
0.328649 0.00895705 0.0630045
0.361944 0.0104067 0.0744488
0.3991 0.012192 0.0885328
0.440482 0.0143587 0.104143
0.486488 0.0170291 0.121492
0.537545 0.0202945 0.140734
0.594125 0.0243076 0.162066
0.656764 0.029221 0.185672
0.726024 0.0352636 0.21178
0.802548 0.0426795 0.24062
0.887007 0.0518196 0.27245
0.980179 0.0630503 0.307576
1 0.0768749 0.346288
1 0.0936446 0.388937
1 0.111925 0.43592
0 0.00218204 0
0.000656138 0.00222782 0
0.00334173 0.00236515 7.62951e-05
0.00823987 0.00257877 0.000610361
0.0157473 0.00285344 0.00144961
0.0262303 0.00315862 0.00262455
0.0399939 0.00350958 0.00418097
0.0572976 0.00390631 0.00613413
0.0783856 0.00434882 0.00852979
0.10222 0.00483711 0.011368
0.126085 0.00538643 0.0146944
0.150179 0.00598154 0.0185245
0.174456 0.00665293 0.0228733
0.198901 0.00737011 0.0277562
0.223529 0.00816358 0.0332036
0.248295 0.00901808 0.0392157
0.273213 0.00994888 0.0458228
0.299718 0.0110018 0.0534676
0.329427 0.0122835 0.0628061
0.362676 0.0138247 0.0742504
0.399786 0.0157015 0.0883497
0.441123 0.0179904 0.103975
0.487083 0.0207523 0.121324
0.538094 0.0241398 0.140581
0.594644 0.0282597 0.161929
0.657252 0.0333104 0.18555
0.726482 0.0394903 0.211658
0.80296 0.0470436 0.240513
0.887404 0.0563211 0.272358
0.980545 0.0677043 0.307469
1 0.0819409 0.346197
1 0.0981765 0.388861
1 0.116136 0.435843
0 0.00575265 0
0.000488289 0.00581369 0
0.00350958 0.0059968 0
0.00883497 0.00627146 0.000183108
0.0167544 0.00663767 0.00105287
0.0276036 0.00706493 0.00225834
0.0416876 0.00753796 0.00383001
0.0592508 0.00807202 0.00579843
0.0805676 0.00865187 0.00819409
0.104311 0.00929274 0.0110475
0.128054 0.0099794 0.0143893
0.152026 0.0107118 0.018204
0.176196 0.0115053 0.0225528
0.200549 0.0123598 0.027451
0.225086 0.0132753 0.0328832
0.249775 0.0142519 0.0388952
0.274617 0.0153048 0.0455024
0.301045 0.0164797 0.0531472
0.330694 0.0178988 0.0624857
0.363867 0.0195926 0.0739147
0.400916 0.021622 0.0880293
0.442176 0.0240635 0.10367
0.488075 0.0270085 0.12105
0.539025 0.0305791 0.140322
0.595514 0.0348974 0.161685
0.658061 0.0401617 0.185336
0.72723 0.0465553 0.21146
0.803662 0.0543374 0.24033
0.888045 0.063859 0.272175
0.98114 0.0755016 0.307317
1 0.0897536 0.346044
1 0.105486 0.388724
1 0.122942 0.435721
0 0.0114748 0
0.000106813 0.0115511 0
0.00344854 0.0117647 0
0.00920119 0.0120851 0
0.0176089 0.0125277 0.000366217
0.0289464 0.0130465 0.00161746
0.043473 0.0136568 0.00321965
0.0614633 0.014313 0.00521859
0.0833753 0.0150454 0.00764477
0.106798 0.0158389 0.0105135
0.130449 0.0166781 0.0138552
0.15433 0.0175784 0.0176852
0.178393 0.0185245 0.0220493
0.20267 0.0195468 0.0269322
0.2271 0.0206149 0.0323796
0.251713 0.0217441 0.0383917
0.276463 0.0229496 0.0449989
0.302815 0.0242924 0.0526436
0.332372 0.0258793 0.0619821
0.365469 0.0277562 0.0734112
0.402426 0.0299992 0.087541
0.44361 0.0326696 0.103212
0.489418 0.0358434 0.120638
0.540291 0.0396735 0.139956
0.596689 0.0442664 0.161349
0.659159 0.0498054 0.185016
0.728252 0.0564889 0.21117
0.804623 0.0646067 0.240055
0.88893 0.0744488 0.271931
0.981964 0.0865949 0.307088
1 0.100114 0.345846
1 0.115221 0.388525
1 0.132097 0.435554
0 0.0196231 0
0 0.0196994 0
0.0031281 0.0199283 0
0.009308 0.0202945 0
0.0182193 0.0207828 0
0.0300908 0.0213931 0.00062562
0.0451514 0.0221103 0.00227359
0.0636606 0.0229038 0.0043183
0.0859998 0.0237583 0.00677501
0.109453 0.0247044 0.00968948
0.133089 0.0257115 0.0130465
0.156909 0.0267796 0.016907
0.180911 0.0278935 0.0212863
0.205112 0.0290837 0.0261845
0.229465 0.0303349 0.0316472
0.254002 0.0316472 0.0376593
0.278676 0.0330358 0.0442664
0.304952 0.0345617 0.0519112
0.334432 0.036347 0.061265
0.367422 0.0384527 0.072694
0.404288 0.04094 0.0868544
0.44538 0.0438697 0.102586
0.491096 0.0473487 0.120073
0.541863 0.0514839 0.139437
0.598184 0.0564126 0.160876
0.660548 0.0623026 0.184588
0.729564 0.0693675 0.210773
0.805829 0.0778668 0.239704
0.890074 0.0882277 0.271611
0.983017 0.0996719 0.306798
1 0.112566 0.345571
1 0.127031 0.388281
1 0.143267 0.435309
0 0.0303807 0
0 0.0304723 0
0.00254826 0.0307164 0
0.0091249 0.0311284 0
0.0185245 0.0316625 0
0.0309606 0.0323491 0
0.0466011 0.0331426 0.000961318
0.0656901 0.0340429 0.0030518
0.0885176 0.03505 0.00556954
0.112078 0.0361181 0.00851453
0.13576 0.0372778 0.0119173
0.159594 0.0385138 0.0158236
0.183597 0.039826 0.0202182
0.207752 0.0411841 0.0251469
0.232059 0.0426184 0.0306249
0.256535 0.0441291 0.0366674
0.281163 0.0457008 0.0432898
0.307362 0.047425 0.0509346
0.336751 0.0494392 0.0602884
0.36968 0.0518044 0.0717327
0.406455 0.0545663 0.0859236
0.44744 0.0578012 0.101762
0.49305 0.0616159 0.119326
0.543725 0.0661021 0.138766
0.599939 0.0714122 0.160266
0.662211 0.0777142 0.184039
0.731121 0.08542 0.210285
0.807294 0.0939193 0.239246
0.891432 0.103548 0.271199
0.984298 0.114427 0.306416
1 0.126711 0.34522
1 0.140566 0.387961
1 0.156161 0.435035
0 0.0439918 0
0 0.0440833 0
0.00169375 0.0443427 0
0.00863661 0.0447852 0
0.0185245 0.0453651 0
0.0315099 0.0461128 0
0.0477607 0.0469825 0
0.0674754 0.0479896 0.00138857
0.0907912 0.0491035 0.00395209
0.114549 0.050309 0.00695811
0.138369 0.0516213 0.0104219
0.16228 0.0530098 0.0143587
0.186313 0.0544747 0.0187991
0.210483 0.0560311 0.0237583
0.234791 0.0576486 0.0292668
0.259236 0.0593423 0.0353399
0.283818 0.0611124 0.0419776
0.309972 0.0630503 0.0496681
0.3393 0.0653086 0.0590372
0.372152 0.0679332 0.0704967
0.40885 0.0710002 0.0847334
0.449744 0.0745708 0.100694
0.495262 0.0787366 0.118364
0.54583 0.0838483 0.137911
0.601938 0.0894026 0.159503
0.664103 0.0957046 0.183337
0.732906 0.102831 0.209659
0.808972 0.110933 0.238682
0.893004 0.120104 0.270695
0.985779 0.130495 0.305959
1 0.142245 0.344808
1 0.15552 0.387579
1 0.170489 0.434684
0 0.0606088 0
0 0.0607004 0
0.000549325 0.0609903 0
0.00784314 0.0614481 0
0.0181888 0.0620737 0
0.0317082 0.0628672 0
0.0485695 0.0638132 0
0.068925 0.0648966 0
0.0927749 0.0661173 0.00192264
0.116808 0.0674449 0.00497444
0.140826 0.0688945 0.00849927
0.164874 0.0704204 0.0124971
0.188998 0.0720531 0.0169833
0.213214 0.0737774 0.0219883
0.237537 0.0755779 0.0275425
0.261997 0.0774701 0.0336461
0.286564 0.0794232 0.0403296
0.312703 0.0818341 0.0480354
0.342 0.0843061 0.0574502
0.374792 0.087129 0.068925
0.411429 0.0903487 0.0832227
0.452247 0.0939956 0.0993515
0.497688 0.098146 0.117174
0.54815 0.102846 0.136843
0.604166 0.108171 0.158556
0.666209 0.114214 0.182498
0.734905 0.121065 0.208896
0.810864 0.128817 0.23801
0.894789 0.137621 0.270085
0.987442 0.14757 0.305409
1 0.158846 0.344305
1 0.171603 0.387137
1 0.186007 0.434272
0 0.080415 0
0 0.0805066 0
0 0.0808118 0
0.00674449 0.0815442 0
0.0175174 0.0822003 0
0.0315709 0.0830396 0
0.0490272 0.0840314 0
0.0700389 0.0851759 0
0.0944228 0.0864424 0
0.118791 0.0878309 0.00254826
0.143053 0.0893111 0.00613413
0.1673 0.090898 0.0101778
0.191546 0.0925612 0.0147402
0.215869 0.094316 0.0198062
0.240269 0.0961166 0.0254063
0.264759 0.0979782 0.0315557
0.289357 0.0999008 0.0382696
0.315496 0.101991 0.0460212
0.344778 0.104387 0.0554665
0.377554 0.107118 0.0670024
0.41413 0.110231 0.0813458
0.454902 0.113771 0.0976883
0.500267 0.117769 0.115709
0.550652 0.122332 0.135546
0.606561 0.127474 0.157397
0.668513 0.133318 0.181476
0.737102 0.139925 0.207996
0.812955 0.147402 0.237201
0.896757 0.155871 0.269352
0.989303 0.165454 0.304753
1 0.176318 0.343725
1 0.188617 0.386603
1 0.202518 0.433799
0 0.102312 0
0 0.102403 0
0 0.102663 0
0.0053254 0.103105 0
0.0165103 0.103716 0
0.0310826 0.104494 0
0.0491188 0.105409 0
0.0707561 0.106462 0
0.0957198 0.107637 0
0.12047 0.108934 0
0.145037 0.110338 0.00328069
0.169512 0.111849 0.00740063
0.193957 0.11342 0.0120241
0.218418 0.115084 0.0171511
0.242908 0.116823 0.0228122
0.267475 0.118608 0.0290074
0.292119 0.120455 0.0357977
0.318288 0.122484 0.043595
0.347601 0.124788 0.0530861
0.380362 0.127428 0.0646677
0.416938 0.130449 0.0788128
0.457664 0.133883 0.0956741
0.502968 0.137774 0.113924
0.553292 0.142199 0.133974
0.609125 0.147204 0.156024
0.670985 0.152865 0.180255
0.739467 0.159258 0.206912
0.815198 0.166506 0.23624
0.898894 0.174716 0.268498
0.991318 0.183993 0.30399
1 0.194491 0.343038
1 0.206378 0.385992
1 0.219837 0.433249
0 0.124147 0
0 0.124224 0
0 0.124468 0
0.00357061 0.12488 0
0.0151675 0.125429 0
0.0302129 0.126146 0
0.0488136 0.127001 0
0.071107 0.127977 0
0.0966506 0.129076 0
0.121843 0.130297 0
0.146746 0.131624 0
0.171496 0.133043 0.00411994
0.196155 0.134554 0.00880446
0.220798 0.136126 0.0140078
0.245426 0.137789 0.0197299
0.2701 0.139513 0.0260014
0.29482 0.141299 0.0328374
0.32105 0.143236 0.0406958
0.350408 0.14548 0.0502632
0.3832 0.148028 0.0619059
0.419776 0.150958 0.076112
0.460487 0.154299 0.0932479
0.50576 0.158083 0.111803
0.556039 0.162387 0.132128
0.611795 0.167269 0.154391
0.673579 0.172778 0.17882
0.74197 0.179019 0.205661
0.817609 0.186069 0.235126
0.901198 0.194034 0.267521
0.9935 0.203052 0.30312
1 0.213245 0.34226
1 0.224765 0.385306
1 0.237827 0.432624
0 0.14612 0
0 0.146197 0
0 0.146426 0
0.00148013 0.146807 0
0.0134585 0.147326 0
0.0289769 0.147982 0
0.0481422 0.148775 0
0.071046 0.149691 0
0.0972 0.150729 0
0.122881 0.151873 0
0.14818 0.153124 0
0.173236 0.154467 0.00030518
0.198154 0.155901 0.00508125
0.222995 0.157412 0.0103456
0.247791 0.158999 0.016144
0.272602 0.160662 0.0224918
0.297429 0.162371 0.0293889
0.323735 0.164248 0.0373236
0.35317 0.166415 0.046952
0.386023 0.168902 0.0586709
0.422629 0.17174 0.0729534
0.463355 0.17499 0.0903639
0.508614 0.178683 0.109285
0.558862 0.182879 0.129931
0.614572 0.187625 0.152483
0.676295 0.193011 0.177157
0.744595 0.1991 0.204196
0.820142 0.205982 0.233845
0.903624 0.213748 0.266377
0.995819 0.222522 0.302113
1 0.232456 0.341375
1 0.243671 0.384512
1 0.256367 0.431907
0 0.168261 0
0 0.168338 0
0 0.168536 0
0 0.168887 0
0.0113832 0.169375 0
0.0273594 0.169986 0
0.0470588 0.170733 0
0.070573 0.171603 0
0.0973831 0.172564 0
0.123583 0.173648 0
0.14931 0.174838 0
0.174716 0.17612 0
0.199908 0.177478 0.000793469
0.224979 0.178927 0.00614939
0.249989 0.180438 0.0120241
0.274952 0.182025 0.0184482
0.299916 0.183688 0.0254215
0.326329 0.185489 0.0334173
0.355856 0.187579 0.0431373
0.388785 0.18999 0.0549325
0.425452 0.192752 0.0692912
0.466224 0.195911 0.0869612
0.511498 0.199512 0.10634
0.56173 0.203601 0.127367
0.617426 0.208255 0.150256
0.679088 0.213519 0.175219
0.747326 0.219471 0.202502
0.822782 0.2262 0.232364
0.906172 0.233799 0.26508
0.998276 0.242374 0.300969
1 0.252064 0.340368
1 0.26302 0.383612
1 0.275395 0.431113
0 0.190539 0
0 0.1906 0
0 0.190799 0
0 0.191119 0
0.00894179 0.191577 0
0.0253605 0.192157 0
0.0455787 0.192844 0
0.069688 0.193668 0
0.0971695 0.194583 0
0.123964 0.195605 0
0.150149 0.196735 0
0.175921 0.19794 0
0.201434 0.199252 0
0.226764 0.200626 0.00138857
0.251987 0.20209 0.00735485
0.277134 0.203601 0.0138399
0.302251 0.205203 0.0208896
0.328801 0.206943 0.0289769
0.35845 0.208972 0.0387732
0.391485 0.211307 0.05066
0.428229 0.213977 0.0651255
0.469062 0.21706 0.0829786
0.514382 0.220569 0.102922
0.56463 0.224567 0.124407
0.62031 0.229114 0.147692
0.681941 0.234272 0.172992
0.750134 0.240101 0.200565
0.825528 0.246677 0.230671
0.908827 0.254124 0.263615
1 0.262531 0.299687
1 0.272023 0.339223
1 0.282734 0.382605
1 0.294835 0.430228
0 0.212924 0
0 0.212985 0
0 0.213184 0
0 0.213489 0
0.00613413 0.213916 0
0.0229801 0.21445 0
0.0437018 0.215106 0
0.0683909 0.215885 0
0.0965744 0.216754 0
0.123995 0.217731 0
0.150668 0.218784 0
0.176867 0.219944 0
0.202716 0.221195 0
0.228321 0.222507 0
0.253788 0.223911 0.00209049
0.279133 0.225376 0.00866712
0.304417 0.226902 0.0158083
0.331136 0.228595 0.0239719
0.360922 0.230549 0.0338598
0.39408 0.232807 0.0458534
0.430945 0.235416 0.0604105
0.471855 0.238407 0.0781415
0.51725 0.241825 0.0989548
0.567544 0.245731 0.121004
0.623224 0.250187 0.144762
0.684855 0.255238 0.170459
0.753017 0.260945 0.198367
0.828351 0.267414 0.228763
0.911589 0.274708 0.261952
1 0.282963 0.298222
1 0.292256 0.337957
1 0.302754 0.381491
1 0.314611 0.429236
0 0.235447 0
0 0.235508 0
0 0.235676 0
0 0.235966 0
0.00294499 0.236378 0
0.0202029 0.236881 0
0.041413 0.237507 0
0.0666667 0.238239 0
0.0955825 0.239063 0
0.123674 0.239994 0
0.150896 0.241001 0
0.177523 0.242115 0
0.203738 0.243305 0
0.229664 0.244572 0
0.255375 0.245899 0
0.280949 0.247318 0.00289921
0.306432 0.248798 0.0101167
0.333318 0.250416 0.0183871
0.363272 0.252308 0.0283665
0.396582 0.254505 0.0404517
0.43357 0.257038 0.0551308
0.474601 0.259953 0.0729839
0.520073 0.263279 0.0943923
0.570428 0.267109 0.117113
0.626154 0.271458 0.141405
0.687785 0.276402 0.167575
0.755932 0.282002 0.19588
0.831235 0.28835 0.226612
0.914397 0.295521 0.260075
1 0.303624 0.296605
1 0.312764 0.336522
1 0.323064 0.38024
1 0.334691 0.428138
0 0.259388 0
0 0.259449 0
0 0.259602 0
0 0.259876 0
0 0.260258 0
0.0168307 0.260746 0
0.0385443 0.261341 0
0.0643778 0.262028 0
0.0940871 0.262806 0
0.122957 0.263691 0
0.15079 0.264652 0
0.177905 0.265705 0
0.204532 0.26685 0
0.230808 0.268055 0
0.256825 0.269337 0
0.282658 0.270695 0
0.30837 0.272114 0.00344854
0.335454 0.273686 0.0118105
0.365591 0.275517 0.0218967
0.399084 0.277638 0.0341039
0.43624 0.280095 0.0489052
0.477409 0.282918 0.0668956
0.522988 0.286168 0.0888228
0.573434 0.289891 0.112383
0.629221 0.294148 0.137377
0.690898 0.298985 0.164126
0.759045 0.304494 0.19292
0.834318 0.310719 0.224048
0.917449 0.317754 0.257862
1 0.325719 0.294682
1 0.334691 0.334859
1 0.344808 0.378775
1 0.356237 0.426856
0 0.286229 0
0 0.28629 0
0 0.286442 0
0 0.286702 0
0 0.287053 0
0.0125277 0.28751 0
0.0347906 0.288075 0
0.0612497 0.288716 0
0.0918441 0.289464 0
0.121691 0.290288 0
0.150256 0.291218 0
0.177966 0.29221 0
0.205097 0.293294 0
0.231785 0.294453 0
0.258167 0.295674 0
0.284306 0.296971 0
0.310277 0.298344 0
0.337621 0.29984 0.00364691
0.368002 0.30161 0.0138552
0.401709 0.303655 0.026215
0.439063 0.30602 0.0411536
0.480415 0.308766 0.0592966
0.526162 0.311925 0.08159
0.57673 0.315541 0.10631
0.632624 0.319692 0.132235
0.694362 0.324422 0.159731
0.762539 0.329793 0.189166
0.837812 0.335897 0.220829
0.920913 0.342809 0.255085
1 0.350607 0.292271
1 0.359426 0.332769
1 0.36936 0.376959
1 0.38056 0.425254
0 0.316258 0
0 0.316304 0
0 0.316457 0
0 0.316701 0
0 0.317037 0
0.00706493 0.317464 0
0.0299229 0.317983 0
0.0570535 0.318593 0
0.0886091 0.319295 0
0.119661 0.320089 0
0.149126 0.320958 0
0.177569 0.321904 0
0.205295 0.322927 0
0.232486 0.324025 0
0.259281 0.3252 0
0.285801 0.326436 0
0.312108 0.327733 0
0.339742 0.329168 0
0.370413 0.330861 0.00387579
0.404395 0.33283 0.0163729
0.442008 0.335103 0.0314946
0.483589 0.337758 0.0498207
0.529549 0.34081 0.0720684
0.580301 0.34432 0.0983749
0.636316 0.348363 0.125582
0.698161 0.352972 0.154116
0.766415 0.358221 0.184375
0.841718 0.364187 0.216739
0.924819 0.370947 0.25156
1 0.378592 0.289235
1 0.387228 0.330144
1 0.396979 0.374685
1 0.40798 0.42327
0 0.349767 0
0 0.349813 0
0 0.34995 0
0 0.350179 0
0 0.350484 0
0.000167849 0.350896 0
0.0236515 0.351385 0
0.0515145 0.351965 0
0.0840467 0.352621 0
0.116625 0.353353 0
0.147219 0.354177 0
0.176532 0.355077 0
0.204974 0.356039 0
0.232761 0.357076 0
0.26009 0.35819 0
0.287053 0.359365 0
0.313741 0.360601 0
0.341741 0.36199 0
0.372763 0.363592 0
0.40708 0.365484 0.0041352
0.445014 0.367666 0.0194553
0.4869 0.370214 0.037995
0.53312 0.373159 0.0604715
0.5841 0.376562 0.0878767
0.640314 0.380468 0.116915
0.702312 0.384939 0.146853
0.770672 0.390051 0.178225
0.846052 0.39588 0.211505
0.929183 0.402487 0.247105
1 0.409964 0.285405
1 0.418433 0.326848
1 0.427985 0.371817
1 0.438773 0.420798
0 0.387076 0
0 0.387121 0
0 0.387243 0
0 0.387457 0
0 0.387762 0
0 0.388128 0
0.01561 0.388586 0
0.0442512 0.389136 0
0.0774395 0.389746 0
0.11223 0.390448 0
0.144244 0.391211 0
0.17464 0.392065 0
0.203952 0.392981 0
0.232471 0.393957 0
0.26041 0.39501 0
0.287907 0.396124 0
0.315068 0.397299 0
0.343496 0.398611 0
0.374945 0.400137 0
0.409674 0.401938 0
0.448005 0.404028 0.00444038
0.490242 0.40647 0.0232395
0.536797 0.409308 0.0459907
0.588083 0.412573 0.073579
0.644556 0.416358 0.105394
0.706783 0.420691 0.137331
0.775311 0.42565 0.170275
0.850813 0.431312 0.204791
0.934005 0.437766 0.241398
1 0.445075 0.280537
1 0.453346 0.322652
1 0.462699 0.368215
1 0.473259 0.417685
0 0.428565 0
0 0.428595 0
0 0.428717 0
0 0.428916 0
0 0.429191 0
0 0.429541 0
0.00537118 0.429969 0
0.0348516 0.430472 0
0.0689708 0.431052 0
0.106004 0.431708 0
0.139849 0.432425 0
0.171603 0.433219 0
0.201984 0.434089 0
0.231388 0.435004 0
0.260075 0.435996 0
0.288212 0.437049 0
0.315923 0.438163 0
0.344884 0.439399 0
0.376837 0.440864 0
0.41207 0.442573 0
0.450858 0.444572 0
0.493553 0.446891 0.00480659
0.540536 0.449607 0.0278782
0.592187 0.45275 0.0558175
0.649012 0.456382 0.0897231
0.711513 0.460563 0.124697
0.780285 0.46537 0.159854
0.855985 0.470863 0.196078
0.939315 0.477134 0.234043
1 0.48426 0.274296
1 0.492348 0.317327
1 0.501488 0.363653
1 0.511818 0.413748
0 0.474586 0
0 0.474632 0
0 0.474739 0
0 0.474922 0
0 0.475181 0
0 0.475517 0
0 0.475914 0
0.0227512 0.476387 0
0.0578775 0.476921 0
0.0972305 0.477531 0
0.133532 0.478202 0
0.167041 0.47895 0
0.198764 0.479759 0
0.229267 0.480629 0
0.258854 0.481559 0
0.28777 0.482551 0
0.316152 0.483604 0
0.345724 0.484779 0
0.378302 0.486152 0
0.414115 0.48777 0
0.453483 0.489662 0
0.496727 0.49189 0
0.544198 0.494469 0.00523384
0.596338 0.497475 0.0335699
0.65359 0.500969 0.0678874
0.716472 0.504982 0.107469
0.785565 0.509621 0.145983
0.861524 0.514946 0.184665
0.945052 0.521019 0.224506
1 0.527947 0.266255
1 0.535821 0.310506
1 0.544747 0.357824
1 0.554849 0.408743
0 0.525612 0
0 0.525643 0
0 0.52575 0
0 0.525917 0
0 0.526162 0
0 0.526467 0
0 0.526833 0
0.00729381 0.527276 0
0.0434882 0.527779 0
0.0848402 0.528344 0
0.124605 0.528984 0
0.160433 0.529671 0
0.193881 0.530434 0
0.225727 0.531243 0
0.256428 0.532128 0
0.28629 0.533059 0
0.31548 0.534035 0
0.345815 0.535149 0
0.37911 0.536446 0
0.415641 0.537972 0
0.455695 0.539773 0
0.499596 0.541878 0
0.547692 0.544335 0
0.600397 0.547204 0.00575265
0.658183 0.55053 0.0405737
0.721553 0.554391 0.0829938
0.791074 0.558846 0.127062
0.867384 0.563973 0.169436
0.951217 0.569848 0.211978
1 0.576562 0.255802
1 0.584222 0.301686
1 0.59292 0.350347
1 0.602777 0.402365
0 0.582086 0
0 0.582116 0
0 0.582208 0
0 0.582376 0
0 0.582589 0
0 0.582879 0
0 0.58323 0
0 0.583627 0
0.024979 0.5841 0
0.0673838 0.584634 0
0.111955 0.585229 0
0.151019 0.58587 0
0.186725 0.586572 0
0.22031 0.587335 0
0.252415 0.588159 0
0.283436 0.589029 0
0.313634 0.58996 0
0.344869 0.590997 0
0.379049 0.592218 0
0.416434 0.593652 0
0.457298 0.595361 0
0.501976 0.597345 0
0.55082 0.59968 0
0.604242 0.602396 0
0.662669 0.60557 0.00636301
0.726635 0.609262 0.0491646
0.796704 0.613519 0.10013
0.873487 0.618448 0.148638
0.957717 0.624109 0.19527
1 0.63061 0.242054
1 0.638025 0.290227
1 0.646479 0.340703
1 0.656077 0.394186
0 0.644526 0
0 0.644556 0
0 0.644648 0
0 0.644785 0
0 0.644999 0
0 0.645258 0
0 0.645579 0
0 0.64596 0
0.00132753 0.646403 0
0.0450599 0.646891 0
0.0937819 0.64744 0
0.137652 0.648051 0
0.176516 0.648707 0
0.21239 0.649424 0
0.246296 0.650187 0
0.278767 0.650996 0
0.310185 0.651865 0
0.342535 0.652842 0
0.377783 0.653986 0
0.416205 0.655344 0
0.458061 0.656931 0
0.50367 0.658808 0
0.553414 0.661021 0
0.607675 0.6636 0
0.666911 0.666606 0
0.731609 0.670115 0.00708019
0.802335 0.674189 0.0597543
0.879728 0.678904 0.119005
0.964477 0.684352 0.172412
1 0.690608 0.223713
1 0.697765 0.275166
1 0.705959 0.32813
1 0.715282 0.383612
0 0.713512 0
0 0.713527 0
0 0.713619 0
0 0.713756 0
0 0.713939 0
0 0.714183 0
0 0.714488 0
0 0.714839 0
0 0.715251 0
