assets/luts/LUTs/Knittel-M2S-No-Filter-MOV-H264-Norma.CUBE
TITLE "Generated by Resolve"
LUT_3D_SIZE 9
0 0 0
0.0998093 0.000259403 0.00244144
0.210758 0.000686656 0.00654612
0.321706 0.00135805 0.0129091
0.432654 0.00227359 0.0217288
0.543603 0.00347906 0.0331121
0.654551 0.00494392 0.0471656
0.765499 0.00671397 0.0640116
0.876448 0.0087892 0.0839399
0.0272831 0.102266 0
0.122454 0.102495 0.00218204
0.224475 0.102861 0.00628672
0.331258 0.103441 0.012665
0.439872 0.10425 0.0214694
0.54934 0.105272 0.0328527
0.659281 0.106538 0.0469062
0.769497 0.108034 0.0637522
0.879896 0.109773 0.0836805
0.0730755 0.214588 0
0.155123 0.214725 0.00175479
0.246036 0.214939 0.00585946
0.346761 0.215274 0.0122225
0.451743 0.215747 0.0210422
0.558846 0.216358 0.0324254
0.667155 0.21709 0.046479
0.776181 0.21799 0.0633249
0.885679 0.219013 0.0832532
0.134737 0.326909 0
0.197604 0.327001 0.00108339
0.276616 0.327153 0.00518807
0.369619 0.327382 0.0115511
0.469596 0.327703 0.0203708
0.573312 0.32813 0.031754
0.679194 0.328634 0.0458076
0.78645 0.329259 0.0626535
0.894575 0.329976 0.0825971
0.196368 0.439231 0
0.246296 0.439307 0.00015259
0.314458 0.439414 0.00425727
0.399145 0.439582 0.0106355
0.493202 0.439826 0.01944
0.592691 0.440146 0.0308232
0.695491 0.440528 0.0448768
0.800397 0.441001 0.0617227
0.906722 0.441535 0.0816663
0.258015 0.551553 0
0.298863 0.551614 0
0.357809 0.551705 0.0030518
0.434363 0.551843 0.00943008
0.522087 0.552026 0.0182498
0.616785 0.552285 0.0296178
0.715938 0.55259 0.0436866
0.818036 0.552956 0.0605173
0.922164 0.553384 0.0802167
0.319646 0.663874 0
0.353933 0.66392 0
0.405249 0.663996 0.00157168
0.474296 0.664103 0.00794995
0.555657 0.664271 0.0167697
0.645243 0.664469 0.0281529
0.740368 0.664729 0.0422065
0.839277 0.665034 0.0590372
0.940826 0.665385 0.0787366
0.381292 0.776196 0
0.410636 0.776242 0
0.455711 0.776303 0
0.518044 0.776394 0.0061799
0.593256 0.776532 0.0149996
0.677668 0.776699 0.0263676
0.768536 0.776913 0.0404364
0.863951 0.777173 0.0572671
0.962676 0.777478 0.0769665
0.442924 0.888518 0
0.468452 0.888548 0
0.508415 0.888609 0
0.564828 0.888685 0.00410468
0.634318 0.888808 0.0129244
0.713619 0.88896 0.0243076
0.800122 0.889143 0.0383612
0.89189 0.889357 0.0551919
0.987549 0.889616 0.0748913
0.00575265 0.0273747 0.116686
0.104845 0.0276341 0.118639
0.213703 0.0280613 0.121874
0.323735 0.0287327 0.126787
0.43418 0.0296635 0.133364
0.544808 0.0308537 0.141543
0.655543 0.0323339 0.151202
0.766339 0.0340887 0.162203
0.87718 0.0361639 0.17438
0.0330358 0.124681 0.116472
0.126879 0.12488 0.118425
0.227283 0.125216 0.12166
0.333242 0.125719 0.126589
0.441382 0.126436 0.133181
0.550546 0.127337 0.14136
0.660273 0.12845 0.151034
0.770352 0.129778 0.162036
0.880629 0.131319 0.174228
0.0788434 0.228168 0.116136
0.158892 0.22829 0.11809
0.248631 0.228489 0.121324
0.348653 0.228809 0.126253
0.453208 0.229267 0.13286
0.560037 0.229831 0.141054
0.668132 0.230549 0.150744
0.77702 0.231388 0.161761
0.886397 0.23238 0.173968
0.138888 0.33637 0.115587
0.200717 0.336446 0.117556
0.27895 0.336599 0.120806
0.371405 0.336828 0.12575
0.471 0.337148 0.132357
0.574456 0.337545 0.140581
0.680171 0.338048 0.150286
0.787274 0.338643 0.161334
0.895293 0.339345 0.173556
0.199496 0.446372 0.114839
0.24889 0.446433 0.116808
0.316533 0.446555 0.120073
0.400809 0.446723 0.125032
0.494545 0.446967 0.13167
0.593805 0.447272 0.139925
0.696437 0.447654 0.14966
0.801205 0.448112 0.160739
0.907439 0.448646 0.173007
0.260502 0.557229 0.113863
0.301045 0.55729 0.115846
0.359655 0.557382 0.119127
0.435889 0.557519 0.124117
0.523354 0.557702 0.130785
0.617853 0.557946 0.139071
0.716854 0.558251 0.148852
0.81883 0.558618 0.15996
0.92285 0.559045 0.172274
0.321706 0.668559 0.112642
0.355795 0.668605 0.114641
0.406882 0.668681 0.117952
0.4757 0.668788 0.122972
0.556848 0.668956 0.129686
0.646265 0.669154 0.138018
0.741253 0.669398 0.147845
0.84004 0.669703 0.159014
0.941512 0.670054 0.171374
0.383032 0.780163 0.111177
0.412238 0.780194 0.113191
0.457176 0.780255 0.116533
0.51931 0.780362 0.121584
0.594369 0.780484 0.128359
0.67863 0.780667 0.136751
0.769375 0.78088 0.146624
0.864698 0.781125 0.15787
0.963333 0.78143 0.170291
0.444434 0.891936 0.109453
0.469871 0.891981 0.111482
0.509712 0.892027 0.114855
0.566003 0.892119 0.119951
0.635355 0.892226 0.126787
0.714534 0.892378 0.135241
0.800931 0.892561 0.145205
0.892607 0.892775 0.156512
0.98819 0.893034 0.169024
0.0154269 0.0733501 0.237049
0.112978 0.0735943 0.238193
0.218601 0.0740368 0.240101
0.327138 0.0746929 0.24303
0.436744 0.0756237 0.247028
0.546853 0.0768139 0.252125
0.657221 0.078294 0.258289
0.767758 0.0800641 0.265507
0.878401 0.0823682 0.273732
0.04271 0.157137 0.236927
0.134081 0.157305 0.238071
0.231922 0.15758 0.239979
0.336553 0.158007 0.242908
0.4439 0.158618 0.246921
0.55256 0.15938 0.252003
0.661952 0.160342 0.258183
0.771756 0.161471 0.2654
0.881849 0.162783 0.273625
0.0885786 0.249516 0.236728
0.165042 0.249638 0.237873
0.252934 0.249821 0.23978
0.351827 0.250126 0.24271
0.455665 0.250538 0.246723
0.56202 0.251072 0.25182
0.669779 0.251728 0.257984
0.778424 0.252506 0.265217
0.887617 0.253422 0.273442
0.145663 0.351705 0.236408
0.205859 0.351781 0.237552
0.282841 0.351919 0.23946
0.374395 0.352148 0.242405
0.473365 0.352438 0.246418
0.576394 0.352834 0.251514
0.681788 0.353307 0.257694
0.788647 0.353887 0.264927
0.896498 0.354559 0.273167
0.204669 0.458122 0.235981
0.253193 0.458183 0.237125
0.320012 0.458289 0.239033
0.403571 0.458457 0.241978
0.496803 0.458686 0.246006
0.595666 0.458991 0.251102
0.698009 0.459358 0.257298
0.802563 0.4598 0.26453
0.908614 0.460319 0.272786
0.264637 0.566644 0.235416
0.304692 0.56669 0.236561
0.362737 0.566781 0.238483
0.438453 0.566918 0.241428
0.525475 0.567102 0.245457
0.619638 0.567346 0.250568
0.718379 0.567636 0.256779
0.820157 0.568002 0.264027
0.92401 0.568414 0.272297
0.325124 0.676341 0.234714
0.358907 0.676387 0.235874
0.409628 0.676463 0.237781
0.478035 0.67657 0.240742
0.558831 0.676722 0.244785
0.647974 0.676936 0.249912
0.742718 0.67718 0.256123
0.841337 0.67747 0.263401
0.942641 0.677821 0.271687
0.385931 0.78677 0.23389
0.414939 0.786801 0.235035
0.459602 0.786862 0.236957
0.521462 0.786969 0.239933
0.596231 0.787091 0.243977
0.680247 0.787259 0.249119
0.770794 0.787472 0.255344
0.86595 0.787732 0.262638
0.964431 0.788022 0.270939
0.446937 0.897658 0.232898
0.472236 0.897688 0.234058
0.511894 0.897734 0.235996
0.567956 0.897826 0.238972
0.637095 0.897932 0.24303
0.71606 0.898085 0.248188
0.802274 0.898268 0.254444
0.893812 0.898482 0.261753
0.989258 0.898741 0.270085
0.030457 0.135119 0.357427
0.12491 0.135302 0.358206
0.226032 0.135607 0.359518
0.332357 0.136095 0.361547
0.440711 0.136767 0.36434
0.550011 0.137621 0.367926
0.659831 0.138674 0.37229
0.76997 0.13994 0.377478
0.880308 0.141405 0.383444
0.0577401 0.199405 0.357336
0.144778 0.199542 0.358129
0.239002 0.199771 0.359442
0.341634 0.200137 0.361471
0.447791 0.200641 0.364263
0.555688 0.201282 0.367849
0.66453 0.20206 0.372213
0.773953 0.203006 0.377386
0.883741 0.204105 0.383368
0.102296 0.279866 0.357198
0.174289 0.279973 0.357977
0.25951 0.28014 0.359304
0.35671 0.280415 0.361334
0.459464 0.280781 0.364126
0.565087 0.28127 0.367712
0.672328 0.281865 0.372091
0.780591 0.282567 0.377264
0.889494 0.283391 0.38323
0.155764 0.37435 0.356985
0.213657 0.374426 0.357763
0.288808 0.374563 0.359091
0.378988 0.374777 0.36112
0.477028 0.375051 0.363912
0.579385 0.375418 0.367498
0.684291 0.375875 0.371878
0.790799 0.37641 0.37705
0.89836 0.37705 0.383032
0.212512 0.475792 0.35668
0.259754 0.475853 0.357473
0.325338 0.475959 0.358785
0.407858 0.476127 0.36083
0.500282 0.476341 0.363622
0.598566 0.476631 0.367208
0.70045 0.476997 0.371588
0.804669 0.477424 0.376776
0.910445 0.477913 0.382742
0.270954 0.580957 0.356298
0.310262 0.581003 0.357092
0.367468 0.581079 0.358404
0.44239 0.581216 0.360449
0.528771 0.581399 0.363241
0.622415 0.581643 0.366827
0.720745 0.581933 0.371221
0.822202 0.582269 0.37641
0.925811 0.582681 0.382391
0.330373 0.688258 0.355825
0.363684 0.688304 0.356603
0.41384 0.68838 0.357931
0.481651 0.688487 0.359976
0.561913 0.68864 0.362768
0.650614 0.688838 0.366369
0.745007 0.689082 0.370764
0.84332 0.689372 0.375952
0.944411 0.689708 0.381949
0.390387 0.796918 0.355245
0.419104 0.796963 0.356039
0.463371 0.797024 0.357351
0.524773 0.797116 0.359396
0.599115 0.797238 0.362219
0.682765 0.797406 0.365805
0.772992 0.79762 0.370214
0.867887 0.797864 0.375402
0.966155 0.798154 0.381415
0.450797 0.906462 0.354574
0.475898 0.906493 0.355367
0.515267 0.906538 0.356695
0.570993 0.90663 0.35874
0.63978 0.906737 0.361547
0.718441 0.906889 0.365164
0.804379 0.907073 0.369558
0.895674 0.907286 0.374777
0.990936 0.90753 0.380774
0.0512398 0.196857 0.477791
0.14023 0.196994 0.478386
0.235966 0.197223 0.479362
0.339452 0.197589 0.480903
0.446113 0.198093 0.483009
0.554345 0.198749 0.485725
0.663417 0.199542 0.489052
0.773007 0.200504 0.493004
0.882933 0.201602 0.497597
0.0785229 0.247959 0.477729
0.158679 0.248066 0.478309
0.248493 0.248264 0.479301
0.348547 0.248554 0.480842
0.453132 0.248981 0.482948
0.559976 0.249516 0.485664
0.668086 0.250172 0.488991
0.776974 0.25095 0.492943
0.886366 0.251881 0.497536
0.11957 0.317479 0.477623
0.186465 0.317571 0.478218
0.268345 0.317723 0.479194
0.363348 0.317968 0.480735
0.464652 0.318303 0.482841
0.569299 0.31873 0.485557
0.675853 0.319249 0.488884
0.783581 0.31989 0.492851
0.892088 0.320623 0.497444
0.168978 0.403647 0.477455
0.224063 0.403708 0.47805
0.296864 0.40383 0.479042
0.38526 0.404028 0.480568
0.482033 0.404288 0.482689
0.58349 0.404639 0.485405
0.687724 0.405051 0.488731
0.793744 0.405554 0.492699
0.900923 0.406149 0.497292
0.22295 0.499184 0.477241
0.268589 0.499245 0.477821
0.33257 0.499352 0.478813
0.413687 0.499504 0.480354
0.505043 0.499718 0.48246
0.602533 0.499992 0.485176
0.703807 0.500328 0.488518
0.807553 0.50074 0.49247
0.912978 0.501213 0.497063
0.279469 0.600153 0.476951
0.317815 0.600198 0.477531
0.373922 0.600275 0.478523
0.447776 0.600397 0.480064
0.533272 0.60058 0.48217
0.626215 0.600809 0.484901
0.72401 0.601083 0.488228
0.82504 0.601419 0.492195
0.928298 0.601816 0.496788
0.337499 0.704387 0.476585
0.370214 0.704433 0.47718
0.419593 0.704494 0.478172
0.48661 0.704601 0.479713
0.566155 0.704753 0.481819
0.654246 0.704952 0.484535
0.74815 0.70518 0.487877
0.846082 0.70547 0.491844
0.946838 0.705806 0.496452
0.39649 0.810727 0.476158
0.424796 0.810773 0.476753
0.468513 0.810819 0.477745
0.52932 0.81091 0.479286
0.603082 0.811048 0.481392
0.686213 0.811215 0.484123
0.776013 0.811414 0.487465
0.870542 0.811658 0.491432
0.968521 0.811948 0.49604
0.456092 0.918471 0.475654
0.480919 0.918502 0.476249
0.519905 0.918563 0.477241
0.575158 0.918639 0.478782
0.643473 0.918746 0.480903
0.721706 0.918898 0.483619
0.807279 0.919081 0.486976
0.898253 0.919295 0.490944
0.99324 0.919539 0.495552
0.0780804 0.258595 0.598154
0.158389 0.258701 0.598627
0.248295 0.2589 0.599405
0.348409 0.259174 0.600626
0.45301 0.259586 0.602304
0.559884 0.26009 0.604471
0.668009 0.260731 0.607126
0.776913 0.261494 0.6103
0.886305 0.262379 0.613977
0.103883 0.300435 0.598108
0.175387 0.300542 0.598581
0.260288 0.300694 0.599359
0.35729 0.300954 0.60058
0.459922 0.301305 0.602258
0.565454 0.301747 0.604425
0.672648 0.302312 0.60708
0.78085 0.302968 0.610254
0.889723 0.303746 0.613931
0.139666 0.360632 0.598032
0.201312 0.360723 0.598489
0.279408 0.360845 0.599283
0.371756 0.361059 0.600488
0.471275 0.361364 0.602182
0.574685 0.361746 0.604334
0.680354 0.362203 0.607004
0.787427 0.362768 0.610162
0.89543 0.363424 0.613855
0.184955 0.438636 0.597894
0.236927 0.438697 0.598367
0.306981 0.438804 0.599145
0.39321 0.438987 0.600366
0.488411 0.439231 0.602045
0.588739 0.439536 0.604212
0.692149 0.439933 0.606867
0.797528 0.440391 0.61004
0.904234 0.44094 0.613733
0.235859 0.52784 0.597711
0.279637 0.527901 0.598184
0.341695 0.527993 0.598978
0.421118 0.52813 0.600183
0.511147 0.528328 0.601877
0.607614 0.528603 0.604028
0.708125 0.528923 0.606699
0.811276 0.529305 0.609873
0.916243 0.529747 0.61355
0.29015 0.624018 0.597482
0.327321 0.624063 0.597955
0.382101 0.62414 0.598749
0.454658 0.624262 0.59997
0.53904 0.624445 0.601648
0.631098 0.624659 0.603815
0.728191 0.624933 0.60647
0.828672 0.625254 0.609644
0.931487 0.625635 0.613336
0.346502 0.724636 0.597208
0.37847 0.724681 0.597681
0.426917 0.724743 0.598459
0.492927 0.724849 0.59968
0.571572 0.725002 0.601358
0.658915 0.725185 0.603525
0.752194 0.725414 0.606195
0.849622 0.725689 0.609369
0.949966 0.726009 0.613062
0.404211 0.828199 0.596857
0.432029 0.828229 0.59733
0.47509 0.82829 0.598123
0.535119 0.828382 0.599344
0.608164 0.828504 0.601022
0.690654 0.828656 0.603189
0.779889 0.828855 0.605859
0.873976 0.829099 0.609033
0.971572 0.829374 0.612726
0.462837 0.933745 0.59646
0.487312 0.933776 0.596933
0.525811 0.933822 0.597726
0.580499 0.933913 0.598947
0.648219 0.93402 0.600626
0.725917 0.934157 0.602792
0.811002 0.93434 0.605463
0.901564 0.934539 0.608637
0.996201 0.934783 0.612329
0.108904 0.320333 0.718532
0.178882 0.320424 0.718914
0.262806 0.320577 0.719554
0.359182 0.320821 0.720562
0.461387 0.321141 0.72195
0.566644 0.321569 0.723735
0.67364 0.322103 0.725933
0.781704 0.322728 0.728542
0.890455 0.323461 0.731609
0.130465 0.355459 0.718486
0.19443 0.355535 0.718868
0.27425 0.355673 0.719509
0.367819 0.355886 0.720516
0.468177 0.356191 0.721904
0.572152 0.356573 0.72369
0.678233 0.357046 0.725887
0.785626 0.357626 0.728511
0.893858 0.358282 0.731563
0.161944 0.407919 0.71841
0.218509 0.407996 0.718807
0.292531 0.408118 0.719448
0.381888 0.408301 0.720455
0.479332 0.40856 0.721843
0.581277 0.408896 0.723613
0.685878 0.409323 0.725826
0.792157 0.409812 0.728435
0.899535 0.410391 0.731502
0.203281 0.47834 0.718303
0.252018 0.478401 0.7187
0.319066 0.478508 0.719341
0.402823 0.478676 0.720348
0.496193 0.478889 0.721736
0.595163 0.479179 0.723522
0.697581 0.47953 0.725719
0.802197 0.479957 0.728344
0.908293 0.480461 0.731395
0.251026 0.561166 0.718166
0.29276 0.561212 0.718547
0.352667 0.561303 0.719203
0.430121 0.56144 0.720195
0.518563 0.561624 0.721584
0.613825 0.561883 0.723369
0.71342 0.562173 0.725567
0.815854 0.562539 0.728191
0.920241 0.562966 0.731243
0.302846 0.652247 0.717983
0.338735 0.652293 0.718364
0.391989 0.652369 0.719005
0.463004 0.652491 0.720012
0.546075 0.652644 0.721401
0.637079 0.652857 0.723186
0.733333 0.653117 0.725383
0.833143 0.653422 0.728008
0.935424 0.653788 0.73106
0.357336 0.748852 0.717739
0.388434 0.748898 0.71812
0.435798 0.748959 0.718776
0.500633 0.749065 0.719783
0.578195 0.749203 0.721172
0.664622 0.749386 0.722957
0.757168 0.749599 0.725155
0.853971 0.749874 0.727779
0.953811 0.750179 0.730831
0.413581 0.849226 0.717464
0.440803 0.849256 0.717845
0.48307 0.849317 0.718502
0.542214 0.849409 0.719493
0.614374 0.849531 0.720882
0.696086 0.849683 0.722667
0.784665 0.849882 0.72488
0.878202 0.850111 0.727504
0.975326 0.850385 0.730556
0.471046 0.952239 0.717128
0.495109 0.95227 0.717525
0.533028 0.952316 0.718166
0.587015 0.952392 0.719173
0.654032 0.952499 0.720562
0.731075 0.952636 0.722347
0.815579 0.952819 0.724544
0.905638 0.953017 0.727184
0.999847 0.953262 0.730236
0.139513 0.382071 0.838895
0.201205 0.382147 0.839216
0.279316 0.382284 0.839765
0.371679 0.382483 0.84062
0.471229 0.382757 0.841779
0.574639 0.383124 0.84329
0.680308 0.383566 0.845167
0.787396 0.3841 0.847379
0.895415 0.38471 0.849973
0.158022 0.412146 0.838865
0.215427 0.412222 0.839185
0.290166 0.412329 0.839734
0.380041 0.412528 0.840574
0.477867 0.412787 0.841749
0.580072 0.413123 0.843259
0.684855 0.413535 0.845121
0.791287 0.414023 0.847349
0.898787 0.414603 0.849943
0.185885 0.458259 0.838804
0.23769 0.45832 0.839124
0.307591 0.458427 0.839673
0.393698 0.458595 0.840528
0.488807 0.458839 0.841688
0.589059 0.459129 0.843214
0.692424 0.45951 0.845075
0.797772 0.459953 0.847288
0.904433 0.460472 0.849882
0.223575 0.521889 0.838712
0.269123 0.52195 0.839033
0.332998 0.522042 0.839582
0.414038 0.522194 0.840436
0.505333 0.522393 0.841611
0.602762 0.522652 0.843122
0.704005 0.522988 0.844984
0.807736 0.523369 0.847211
0.91313 0.523827 0.849805
0.268177 0.59855 0.83859
0.307805 0.598596 0.838911
0.365377 0.598672 0.83946
0.44065 0.59881 0.840314
0.527321 0.598978 0.841489
0.621195 0.599207 0.843
0.719707 0.599496 0.844862
0.821302 0.599832 0.847089
0.925017 0.600229 0.849683
0.317449 0.684428 0.838422
0.351934 0.684474 0.838758
0.403494 0.68455 0.839307
0.472801 0.684657 0.840146
0.554376 0.68481 0.841321
0.64416 0.685008 0.842832
0.739437 0.685252 0.844694
0.838453 0.685542 0.846922
0.940108 0.685893 0.849515
0.369894 0.776776 0.838224
0.400046 0.776822 0.83856
0.446189 0.776883 0.839109
0.509697 0.776974 0.839948
0.586038 0.777111 0.841123
0.671397 0.777279 0.842634
0.763058 0.777493 0.844495
0.859144 0.777752 0.846723
0.958404 0.778058 0.849332
0.424521 0.873686 0.837995
0.451087 0.873716 0.838315
0.49247 0.873777 0.838865
0.550576 0.873854 0.839719
0.621729 0.873976 0.840894
0.702541 0.874128 0.842405
0.790341 0.874311 0.844266
0.883223 0.87454 0.846494
0.979797 0.874815 0.849088
0.480674 0.973877 0.83772
0.50428 0.973892 0.838041
0.541543 0.973953 0.83859
0.59472 0.974029 0.839445
0.660929 0.974121 0.84062
0.737194 0.974258 0.84213
0.821027 0.974426 0.843992
0.910506 0.974624 0.84622
1 0.974868 0.848814
0.170123 0.443824 0.959258
0.224979 0.443885 0.959548
0.297566 0.443992 0.960021
0.385809 0.444175 0.960754
0.482475 0.444404 0.961761
0.583856 0.444724 0.963058
0.688045 0.445106 0.964675
0.794003 0.445563 0.966598
0.901152 0.446097 0.968841
0.186267 0.469978 0.959228
0.237995 0.470039 0.959518
0.307836 0.470146 0.959991
0.393881 0.470314 0.960723
0.48896 0.470542 0.96173
0.589181 0.470832 0.963027
0.692531 0.471199 0.964645
0.797864 0.471626 0.966567
0.904509 0.472129 0.968811
0.211109 0.510872 0.959182
0.258579 0.510933 0.959457
0.324376 0.511025 0.95993
0.40708 0.511177 0.960662
0.499641 0.511391 0.961685
0.598032 0.511666 0.962982
0.700008 0.511986 0.964599
0.804288 0.512383 0.966522
0.910124 0.512856 0.968765
0.245502 0.568521 0.959106
0.287968 0.568566 0.959381
0.348638 0.568658 0.959854
0.426795 0.568795 0.960586
0.515831 0.568978 0.961608
0.611536 0.569223 0.962905
0.711467 0.569512 0.964523
0.81416 0.569879 0.966445
0.918761 0.570291 0.968688
0.287068 0.639384 0.958999
0.324575 0.639429 0.959274
0.379736 0.639506 0.959747
0.452659 0.639628 0.960479
0.537362 0.639796 0.961501
0.629679 0.640009 0.962798
0.726986 0.640269 0.964416
0.827619 0.640589 0.966339
0.930556 0.640955 0.968582
0.333776 0.72015 0.958862
0.366796 0.72018 0.959136
0.416571 0.720256 0.959609
0.484016 0.720363 0.960342
0.563928 0.7205 0.961364
0.652338 0.720684 0.962661
0.746502 0.720928 0.964279
0.844633 0.721202 0.966201
0.945556 0.721523 0.968444
0.3841 0.808133 0.958694
0.41323 0.808164 0.958968
0.458061 0.808225 0.959442
0.520104 0.808316 0.960174
0.595056 0.808438 0.961196
0.679225 0.808606 0.962493
0.769894 0.80882 0.964111
0.865156 0.809064 0.966033
0.963729 0.809354 0.968277
0.436973 0.901381 0.95848
0.462837 0.901411 0.95877
0.503243 0.901473 0.959243
0.560189 0.901549 0.959976
0.630213 0.901671 0.960983
0.710002 0.901808 0.962295
0.796918 0.901991 0.963897
0.889052 0.90222 0.965835
0.985016 0.902464 0.968078
0.491707 0.99852 0.958251
0.514794 0.99855 0.958526
0.551324 0.998596 0.958999
0.603616 0.998672 0.959731
0.668894 0.998779 0.960754
0.744289 0.998901 0.962051
0.827344 0.999069 0.963668
0.916136 0.999268 0.965591
1 0.999481 0.967834
