assets/luts/LUTs/Knittel-M2S-Creative-Fake Golden Hour.CUBE
LUT_3D_SIZE 6
0.000000 0.000000 0.000000
0.074357 0.067856 0.067856
0.278299 0.176426 0.176426
0.588489 0.256158 0.256158
0.812337 0.257103 0.257103
1.057213 0.238125 0.238125
0.085445 0.107260 0.085445
0.126913 0.117403 0.077616
0.394125 0.169395 -0.064364
0.679407 0.230305 0.137818
0.883487 0.204087 0.075196
1.126809 0.057068 -0.197488
0.107635 0.334186 0.107635
0.178323 0.340031 -0.099076
0.399561 0.346348 -0.195917
0.717215 0.403628 -0.199691
0.907080 0.377557 -0.192747
1.142235 0.341053 -0.269536
0.109229 0.625919 0.109229
0.266402 0.623930 0.160445
0.477354 0.624935 0.172501
0.705537 0.620049 -0.250495
0.927140 0.576108 -0.347260
1.164377 0.548249 -0.392405
-0.173198 0.840718 -0.173198
0.192415 0.840085 -0.162691
0.464615 0.838772 -0.133284
0.704930 0.838563 -0.155044
0.903848 0.788505 -0.393116
1.164557 0.763502 -0.513175
-0.204195 0.991244 -0.204195
0.114817 0.991148 -0.205227
0.418759 0.990850 -0.209636
0.656521 0.990247 -0.218770
0.886789 0.989210 -0.233952
1.109559 0.979352 -0.325452
0.034605 0.034605 0.035318
0.080998 0.072239 0.077387
0.291616 0.172408 0.190630
0.600369 0.247210 0.275908
0.818218 0.249891 0.281522
1.065442 0.219576 0.261219
0.085232 0.109822 0.104512
0.129026 0.117737 0.108097
0.381190 0.131247 0.117476
0.654486 0.205689 0.198908
0.860843 0.194084 0.189044
1.109481 -0.043210 -0.068838
-0.072703 0.339142 0.140949
0.062099 0.343396 -0.095796
0.407101 0.345347 -0.229104
0.724662 0.382209 -0.203559
0.897745 0.365099 -0.112135
1.133307 0.328088 -0.223417
0.165110 0.623316 0.231692
0.209740 0.622942 0.190836
0.460507 0.624994 0.186375
0.704015 0.619570 -0.213209
0.918693 0.572401 -0.299441
1.154710 0.544347 -0.352302
-0.153485 0.839889 0.126332
-0.038626 0.839303 -0.100376
0.455058 0.836028 0.165442
0.700141 0.836601 0.170741
0.900045 0.788479 -0.344895
1.161705 0.760462 -0.494202
-0.204151 0.991208 -0.120419
-0.174083 0.991208 -0.186110
0.392000 0.990803 -0.188082
0.647089 0.989737 -0.181399
0.882482 0.989126 -0.209172
1.109560 0.979371 -0.316138
0.097259 0.097259 0.110583
0.143011 0.120275 0.177516
0.302350 0.178972 0.259212
0.609857 0.245131 0.370798
0.821314 0.249170 0.381432
1.066393 0.219218 0.380054
0.099213 0.165356 0.265113
0.137811 0.126752 0.259327
0.379217 0.133467 0.300499
0.653003 0.210376 0.357230
0.855749 0.207819 0.352571
1.105566 0.085678 0.325897
-0.098870 0.340009 0.300158
-0.095259 0.344257 0.297514
0.412813 0.334029 0.250308
0.741166 0.305211 0.232274
0.882887 0.326788 0.299080
1.111440 0.301514 0.275267
0.177614 0.622927 0.387539
0.142653 0.627046 0.355902
0.353422 0.636231 0.189518
0.722556 0.615604 -0.268974
0.922726 0.554348 -0.081208
1.128890 0.539149 0.177327
0.044442 0.837418 0.373055
0.210839 0.834287 0.375912
0.403543 0.832270 0.348186
0.680844 0.834382 0.353989
0.895546 0.790002 0.066847
1.145610 0.757282 -0.333048
-0.203974 0.991068 0.313166
-0.148970 0.990425 0.299773
0.347426 0.987350 0.295487
0.638000 0.984617 0.343414
0.874045 0.985812 0.346219
1.104379 0.979635 0.231530
0.180454 0.180454 0.238451
0.217821 0.186010 0.353082
0.394405 0.217460 0.451543
0.626543 0.239674 0.510424
0.831735 0.239783 0.518206
1.068285 0.218136 0.529167
0.144559 0.219175 0.493710
0.171453 0.162522 0.461913
0.422768 0.179673 0.512418
0.658423 0.212018 0.527935
0.859566 0.204407 0.517038
1.101380 0.118166 0.514730
0.095226 0.415050 0.550131
-0.117345 0.401382 0.574925
0.398388 0.326657 0.595456
0.727615 0.308020 0.555842
0.876845 0.348663 0.517398
1.088026 0.356882 0.516412
0.182326 0.623435 0.558163
0.105853 0.628246 0.556788
0.283387 0.641366 0.541430
0.736334 0.612609 0.488854
0.948456 0.561170 0.505173
1.108821 0.581067 0.548639
0.132423 0.836103 0.562063
0.244456 0.832633 0.564520
0.370535 0.839818 0.538409
0.608492 0.849878 0.470390
0.922601 0.802596 0.312928
1.160743 0.762145 0.403753
-0.199044 0.990685 0.511597
0.110815 0.987921 0.517279
0.442103 0.981432 0.557440
0.630692 0.986253 0.562462
0.859812 0.989542 0.527532
1.102442 0.982091 0.548443
0.249749 0.249749 0.401784
0.272066 0.231490 0.564510
0.456409 0.228601 0.681778
0.706897 0.229264 0.742361
0.844132 0.226808 0.676070
1.075776 0.202180 0.690309
0.175076 0.249354 0.712844
0.204998 0.199126 0.669745
0.453327 0.200593 0.731354
0.723773 0.190425 0.770306
0.871619 0.179027 0.692187
1.105348 0.082538 0.694408
0.147399 0.445763 0.774899
0.181507 0.421924 0.774218
0.380211 0.339034 0.788288
0.707967 0.346998 0.783010
0.869735 0.358700 0.698056
1.088469 0.357551 0.692639
0.169899 0.666414 0.785737
0.226198 0.657357 0.781950
0.315232 0.643710 0.822906
0.688884 0.618644 0.832508
0.933279 0.601687 0.763701
1.112782 0.620150 0.743175
0.121992 0.836481 0.744586
0.248551 0.833079 0.744905
0.331845 0.842878 0.746743
0.654328 0.847843 0.767338
0.914883 0.828941 0.754867
1.178600 0.802133 0.737573
-0.189048 0.990117 0.697111
0.173768 0.986458 0.701579
0.448786 0.981189 0.719544
0.624648 1.002631 0.727391
0.858942 0.998509 0.725175
1.134980 0.981243 0.694581
0.283883 0.283883 0.504667
0.287775 0.253759 0.676993
0.437723 0.235202 0.795701
0.659681 0.231254 0.854555
0.896992 0.214542 0.886570
1.082461 0.185605 0.859435
0.180150 0.245134 0.840271
0.214599 0.210497 0.802785
0.429371 0.196491 0.861872
0.674672 0.176982 0.898633
0.923262 0.123204 0.916735
1.107395 0.031996 0.874188
0.116677 0.415547 0.907869
0.176668 0.394474 0.900688
0.371713 0.345604 0.896714
0.647260 0.352273 0.900181
0.900258 0.355720 0.908620
1.096648 0.346238 0.872227
0.124008 0.620673 0.914667
0.212124 0.609972 0.905045
0.381676 0.597663 0.927048
0.663491 0.618700 0.968731
0.918169 0.607652 0.952369
1.104042 0.625653 0.899214
-0.076647 0.828554 0.921038
0.228600 0.821619 0.914302
0.379443 0.816977 0.922617
0.652557 0.835103 0.953623
0.897548 0.831659 0.941271
1.152017 0.813933 0.923489
-0.196001 0.989982 0.877627
0.165874 0.986722 0.878146
0.449556 0.981965 0.884379
0.605722 1.003084 0.903136
0.858717 0.995795 0.905223
1.144047 0.975911 0.872029
