assets/luts/LUTs/Knittel-M2S-No-Filter-MOV-H265-Normal.CUBE
TITLE "Generated by Resolve"
LUT_3D_SIZE 33
0 0 0
0.0240024 9.15541e-05 0.000640879
0.0480201 0.000167849 0.0012665
0.0722515 0.000259403 0.00190738
0.0999619 0.000366217 0.00267033
0.127718 0.000488289 0.00355535
0.155474 0.000640879 0.00460822
0.183246 0.000793469 0.00579843
0.211002 0.000976577 0.00714122
0.238758 0.0011902 0.00863661
0.266514 0.00141909 0.0102998
0.29427 0.00166323 0.0121157
0.322042 0.0019379 0.0140993
0.349798 0.00224308 0.0162509
0.377554 0.00256352 0.0185702
0.40531 0.00289921 0.0210575
0.433066 0.00326543 0.0237125
0.460838 0.00366217 0.0265507
0.488594 0.00407416 0.029572
0.51635 0.00451667 0.0327611
0.544106 0.00497444 0.0361486
0.571862 0.00546273 0.039704
0.599634 0.00598154 0.0434424
0.62739 0.0065156 0.0473793
0.655146 0.00709545 0.0514839
0.682902 0.00769055 0.0558022
0.710658 0.00830091 0.0602884
0.73843 0.00894179 0.0649882
0.766186 0.00961318 0.0698711
0.793942 0.0103151 0.0749523
0.821698 0.0110475 0.0802319
0.849454 0.0117952 0.0858778
0.877226 0.0125887 0.0912947
0.00653086 0.0246433 0
0.0305333 0.0247349 0.000640879
0.054551 0.0248264 0.0012665
0.0787671 0.0249027 0.00190738
0.105653 0.0250095 0.00267033
0.132601 0.0251316 0.00357061
0.159731 0.0252842 0.00460822
0.186984 0.025452 0.00579843
0.214343 0.0256352 0.00714122
0.241779 0.0258335 0.00863661
0.269261 0.0260624 0.0102998
0.296788 0.0263218 0.0121157
0.324346 0.0265812 0.0140993
0.351934 0.0268864 0.0162509
0.379538 0.0272068 0.0185702
0.407172 0.0275425 0.0210575
0.434806 0.0279088 0.0237125
0.46247 0.0283055 0.0265507
0.490135 0.0287175 0.029572
0.5178 0.02916 0.0327611
0.545495 0.0296178 0.0361486
0.573175 0.0301213 0.039704
0.60087 0.0306249 0.0434424
0.62858 0.0311742 0.0473793
0.656275 0.0317388 0.0514839
0.683986 0.0323339 0.0558022
0.711711 0.0329442 0.0602884
0.739422 0.0336004 0.0649882
0.767147 0.0342718 0.0698711
0.794873 0.0349737 0.0749523
0.822599 0.0356909 0.0802319
0.850324 0.0364538 0.0858778
0.87805 0.037232 0.0912947
0.0130617 0.0493019 0
0.0370642 0.0493935 0.000640879
0.0610819 0.049485 0.0012665
0.0854963 0.0495766 0.00190738
0.111162 0.0496681 0.00267033
0.137346 0.0497902 0.00357061
0.163897 0.0499428 0.00460822
0.190677 0.0501106 0.00579843
0.217655 0.0502937 0.00714122
0.24477 0.0504921 0.00863661
0.271977 0.050721 0.0102998
0.299275 0.0509804 0.0121157
0.32665 0.0512551 0.0140993
0.354055 0.051545 0.0162509
0.381521 0.0518654 0.0185702
0.409018 0.0522011 0.0210575
0.436545 0.0525673 0.0237278
0.464088 0.0529641 0.026566
0.491661 0.0533761 0.029572
0.519265 0.0538186 0.0327764
0.546868 0.0542763 0.0361486
0.574487 0.0547799 0.039704
0.602121 0.0552834 0.0434424
0.62977 0.0558328 0.0473793
0.65742 0.0563973 0.0514992
0.685084 0.0569924 0.0558022
0.712749 0.0576028 0.0603037
0.740429 0.0582589 0.0649882
0.768109 0.0589303 0.0698711
0.795789 0.0596323 0.0749523
0.823484 0.0603494 0.0802319
0.851179 0.0611124 0.0858778
0.878874 0.0618906 0.0912947
0.0196536 0.0741741 0
0.0436561 0.0742657 0.000640879
0.0676738 0.0743572 0.0012665
0.091783 0.0744335 0.00190738
0.116548 0.0745403 0.00267033
0.142031 0.0746624 0.00357061
0.168017 0.074815 0.00460822
0.194339 0.0749676 0.00579843
0.220951 0.0751659 0.00714122
0.247745 0.0753643 0.00865187
0.274693 0.0755932 0.0102998
0.301778 0.0758373 0.0121157
0.328939 0.076112 0.0140993
0.356191 0.0764172 0.0162509
0.383505 0.0767376 0.0185702
0.410864 0.0770733 0.0210575
0.438285 0.0774395 0.0237278
0.465736 0.0778363 0.026566
0.493217 0.0782483 0.029572
0.520714 0.0786908 0.0327764
0.548257 0.0791485 0.0361486
0.575799 0.0796368 0.039704
0.603372 0.0801556 0.0434424
0.630961 0.080705 0.0473793
0.658564 0.0815137 0.0514992
0.686168 0.0821088 0.0558022
0.713787 0.0827192 0.0603037
0.741421 0.08336 0.0649882
0.76907 0.0840162 0.0698711
0.796719 0.0847028 0.0749523
0.824384 0.08542 0.0802319
0.852049 0.0861524 0.0858778
0.879713 0.0869001 0.0912947
0.0274357 0.102342 0
0.0514382 0.102419 0.000640879
0.0754559 0.102495 0.00128176
0.0988937 0.102571 0.00190738
0.122713 0.102663 0.00267033
0.147433 0.10277 0.00357061
0.172778 0.102892 0.00460822
0.198611 0.103029 0.00579843
0.224781 0.103197 0.00714122
0.251225 0.10338 0.00865187
0.277882 0.103578 0.0102998
0.304692 0.103792 0.0121157
0.33164 0.104036 0.0140993
0.358694 0.10428 0.0162509
0.38584 0.104555 0.0185702
0.413046 0.10486 0.0210575
0.44033 0.105165 0.0237278
0.467658 0.105501 0.026566
0.495033 0.105867 0.029572
0.522438 0.106233 0.0327764
0.549889 0.10663 0.0361486
0.577356 0.107057 0.039704
0.604852 0.107485 0.0434424
0.632364 0.107942 0.0473793
0.659907 0.108431 0.0514992
0.687465 0.108934 0.0558022
0.715038 0.109453 0.0603037
0.742611 0.109987 0.0649882
0.770214 0.110552 0.0698711
0.797818 0.111131 0.0749523
0.825437 0.111727 0.0802319
0.853056 0.112352 0.085893
0.88069 0.112993 0.0912947
0.0366674 0.130434 1.5259e-05
0.0606851 0.130495 0.000640879
0.0849012 0.130556 0.00128176
0.10695 0.130632 0.00192264
0.129763 0.130709 0.00267033
0.153643 0.1308 0.00357061
0.178317 0.130907 0.00460822
0.203571 0.131029 0.00579843
0.229267 0.131167 0.00715648
0.255314 0.131319 0.00865187
0.281621 0.131487 0.0102998
0.308125 0.13167 0.0121309
0.334813 0.131868 0.0141146
0.361654 0.132097 0.0162509
0.388586 0.132326 0.0185702
0.415625 0.132586 0.0210575
0.442741 0.132845 0.0237278
0.469932 0.133135 0.026566
0.497185 0.13344 0.0295872
0.524468 0.133761 0.0327764
0.551812 0.134112 0.0361486
0.579187 0.134463 0.039704
0.606592 0.134844 0.0434577
0.634043 0.135225 0.0473793
0.661494 0.135637 0.0514992
0.688991 0.13608 0.0558022
0.716487 0.136522 0.0603037
0.744015 0.13698 0.0649882
0.771557 0.137469 0.0698711
0.799115 0.137972 0.0749523
0.826688 0.138491 0.0802319
0.854276 0.139025 0.085893
0.881865 0.13959 0.0912947
0.0474098 0.158526 1.5259e-05
0.0714122 0.158572 0.000640879
0.0950484 0.158633 0.00128176
0.115846 0.158694 0.00192264
0.137621 0.158755 0.00267033
0.160632 0.158831 0.00357061
0.184573 0.158938 0.00462348
0.209216 0.15903 0.00581369
0.234379 0.159152 0.00715648
0.259968 0.159289 0.00865187
0.285893 0.159442 0.0103151
0.312078 0.159594 0.0121309
0.338476 0.159777 0.0141146
0.365042 0.15996 0.0162661
0.39176 0.160174 0.0185702
0.418601 0.160388 0.0210727
0.445533 0.160632 0.0237278
0.472557 0.160876 0.026566
0.499657 0.161135 0.0295872
0.526833 0.161425 0.0327764
0.55404 0.161715 0.0361486
0.581308 0.162036 0.039704
0.608621 0.162356 0.0434577
0.635966 0.162707 0.0473793
0.66334 0.163058 0.0514992
0.690761 0.163439 0.0558022
0.718196 0.163836 0.0603037
0.745647 0.164233 0.0649882
0.773129 0.16466 0.0698863
0.800626 0.165103 0.0749523
0.828138 0.16556 0.0802319
0.85568 0.166033 0.085893
0.883223 0.166522 0.0912947
0.059678 0.186618 1.5259e-05
0.0839094 0.186664 0.000640879
0.105898 0.186709 0.00128176
0.12549 0.186755 0.00192264
0.146227 0.186816 0.00268559
0.168353 0.186892 0.00357061
0.191531 0.186969 0.00462348
0.215503 0.18706 0.00581369
0.240116 0.187167 0.00715648
0.265217 0.187289 0.00865187
0.290715 0.187427 0.0103151
0.316533 0.187564 0.0121309
0.342611 0.187716 0.0141146
0.368887 0.187884 0.0162661
0.395361 0.188067 0.0185855
0.421973 0.188266 0.0210727
0.448707 0.188464 0.0237278
0.475547 0.188693 0.026566
0.50248 0.188922 0.0295872
0.529503 0.189166 0.0327764
0.556588 0.189441 0.0361486
0.583734 0.189715 0.0397192
0.610925 0.190005 0.0434577
0.638163 0.190311 0.0473793
0.665446 0.190616 0.0514992
0.692775 0.190951 0.0558175
0.720119 0.191302 0.0603037
0.747509 0.191669 0.0650034
0.774914 0.192035 0.0698863
0.80235 0.192432 0.0749676
0.829801 0.192828 0.0802319
0.857267 0.193256 0.085893
0.884764 0.193683 0.09131
0.0735027 0.21471 1.5259e-05
0.0969406 0.21474 0.000656138
0.117342 0.214786 0.00128176
0.13579 0.214832 0.00192264
0.15552 0.214893 0.00268559
0.176745 0.214954 0.00358587
0.19913 0.21503 0.00462348
0.222431 0.215106 0.00581369
0.246433 0.215198 0.00715648
0.271031 0.215305 0.00865187
0.296071 0.215427 0.0103151
0.321492 0.215549 0.0121309
0.347204 0.215686 0.0141146
0.37319 0.215839 0.0162661
0.399374 0.216007 0.0185855
0.425742 0.216175 0.0210727
0.452247 0.216358 0.023743
0.478904 0.216556 0.026566
0.505653 0.21677 0.0295872
0.532509 0.216983 0.0327764
0.559442 0.217227 0.0361639
0.586435 0.217472 0.0397192
0.613519 0.217731 0.0434577
0.640635 0.218006 0.0473945
0.667811 0.21828 0.0514992
0.695033 0.218585 0.0558175
0.722301 0.218891 0.0603037
0.749599 0.219211 0.0650034
0.776928 0.219547 0.0698863
0.804288 0.219898 0.0749676
0.831662 0.220264 0.0802472
0.859068 0.22063 0.085893
0.886503 0.221027 0.09131
0.0889906 0.242786 1.5259e-05
0.110323 0.242832 0.000656138
0.129305 0.242878 0.00128176
0.14667 0.242908 0.00192264
0.165423 0.242954 0.00268559
0.185763 0.243015 0.00358587
0.207355 0.243076 0.00462348
0.229938 0.243153 0.00581369
0.25333 0.243244 0.00715648
0.277378 0.243336 0.00866712
0.30193 0.243442 0.0103151
0.326925 0.243549 0.0121309
0.35227 0.243687 0.0141146
0.37792 0.243809 0.0162661
0.4038 0.243961 0.0185855
0.429908 0.244114 0.0210727
0.456184 0.244282 0.023743
0.482597 0.244465 0.0265812
0.509163 0.244648 0.0295872
0.535836 0.244846 0.0327916
0.5626 0.24506 0.0361639
0.589456 0.245289 0.0397192
0.616388 0.245518 0.0434577
0.643381 0.245762 0.0473945
0.670436 0.246021 0.0515145
0.697551 0.246296 0.0558175
0.724712 0.246571 0.0603189
0.751919 0.24686 0.0650034
0.779156 0.247166 0.0698863
0.806439 0.247486 0.0749676
0.833738 0.247807 0.0802472
0.861082 0.248142 0.085893
0.888441 0.248493 0.09131
0.104433 0.270878 3.0518e-05
0.12401 0.270924 0.000656138
0.141695 0.270954 0.00129702
0.158038 0.271 0.0019379
0.175875 0.271031 0.00268559
0.195331 0.271092 0.00358587
0.216129 0.271153 0.00462348
0.23801 0.271214 0.00581369
0.260777 0.27129 0.00717174
0.284245 0.271382 0.00866712
0.308309 0.271473 0.0103151
0.332845 0.27158 0.0121462
0.357794 0.271687 0.0141299
0.383093 0.271809 0.0162661
0.408652 0.271946 0.0185855
0.43447 0.272084 0.021088
0.460472 0.272236 0.023743
0.486671 0.272404 0.0265812
0.513008 0.272572 0.0296025
0.539483 0.272755 0.0327916
0.566079 0.272953 0.0361639
0.592767 0.273152 0.0397192
0.619547 0.273365 0.043473
0.646403 0.273579 0.0473945
0.673335 0.273823 0.0515145
0.700328 0.274067 0.0558175
0.727382 0.274311 0.0603189
0.754482 0.274586 0.0650034
0.781613 0.274861 0.0698863
0.808804 0.275151 0.0749676
0.836027 0.275441 0.0802472
0.863279 0.275746 0.0859083
0.890578 0.276066 0.09131
0.11989 0.29897 3.0518e-05
0.137926 0.299001 0.000656138
0.154437 0.299046 0.00129702
0.169863 0.299077 0.0019379
0.186801 0.299107 0.00270085
0.205417 0.299168 0.00358587
0.225437 0.299214 0.00463874
0.246601 0.299275 0.00582895
0.268711 0.299351 0.00717174
0.291615 0.299428 0.00866712
0.31516 0.299519 0.0103304
0.339239 0.299611 0.0121462
0.363775 0.299718 0.0141299
0.388678 0.299825 0.0162814
0.413916 0.299947 0.0186007
0.439414 0.300069 0.021088
0.465156 0.300221 0.023743
0.491081 0.300359 0.0265812
0.517205 0.300526 0.0296025
0.543465 0.300679 0.0327916
0.569863 0.300862 0.0361639
0.596384 0.301045 0.0397345
0.622995 0.301244 0.043473
0.649699 0.301442 0.0473945
0.676493 0.301656 0.0515145
0.703365 0.301885 0.0558328
0.730282 0.302113 0.0603189
0.757275 0.302358 0.0650187
0.784314 0.302617 0.0699016
0.811399 0.302876 0.0749828
0.838529 0.303151 0.0802472
0.865705 0.303426 0.0859083
0.892912 0.303731 0.0913252
0.135332 0.327062 3.0518e-05
0.152056 0.327092 0.000671397
0.167514 0.327123 0.00129702
0.182055 0.327153 0.0019379
0.198154 0.327199 0.00270085
0.215961 0.32723 0.00360113
0.235218 0.327291 0.00463874
0.25568 0.327352 0.00582895
0.27715 0.327413 0.00717174
0.299458 0.327474 0.00866712
0.322469 0.327565 0.0103304
0.346075 0.327642 0.0121462
0.370169 0.327749 0.0141299
0.39469 0.32784 0.0162814
0.419562 0.327962 0.0186007
0.444739 0.328084 0.021088
0.470192 0.328206 0.0237583
0.495857 0.328344 0.0265965
0.521737 0.328481 0.0296025
0.547768 0.328634 0.0328069
0.573968 0.328801 0.0361791
0.60029 0.328969 0.0397345
0.626734 0.329152 0.043473
0.653284 0.329335 0.0474098
0.679927 0.329534 0.0515297
0.706645 0.329747 0.0558328
0.73344 0.329961 0.0603342
0.760311 0.33019 0.0650187
0.787243 0.330419 0.0699016
0.814221 0.330663 0.0749828
0.841245 0.330907 0.0802625
0.86833 0.331167 0.0859083
0.895445 0.331441 0.0913252
0.15079 0.355154 4.57771e-05
0.166323 0.355184 0.000671397
0.180835 0.355215 0.00131228
0.194583 0.355245 0.00195315
0.209903 0.355276 0.00270085
0.226932 0.355322 0.00360113
0.245441 0.355367 0.00463874
0.265217 0.355413 0.00582895
0.28603 0.355474 0.00717174
0.307759 0.355535 0.00868238
0.330236 0.355612 0.0103304
0.353338 0.355703 0.0121614
0.376989 0.355779 0.0141451
0.401099 0.355886 0.0162814
0.425605 0.355978 0.0186007
0.450462 0.3561 0.021088
0.475593 0.356207 0.0237583
0.500984 0.356344 0.0265965
0.526589 0.356466 0.0296025
0.552392 0.356619 0.0328069
0.578378 0.356756 0.0361791
0.604501 0.356924 0.0397345
0.630762 0.357092 0.0434882
0.65713 0.357259 0.0474098
0.683619 0.357443 0.0515297
0.710185 0.357641 0.0558328
0.736843 0.357839 0.0603342
0.763592 0.358038 0.0650187
0.790387 0.358251 0.0699016
0.817258 0.35848 0.0749828
0.84419 0.358709 0.0802625
0.871168 0.358953 0.0859236
0.898192 0.359213 0.0913252
0.166232 0.383246 4.57771e-05
0.180743 0.383276 0.000671397
0.194385 0.383307 0.00131228
0.207416 0.383322 0.00195315
0.221973 0.383352 0.00271611
0.23827 0.383398 0.00360113
0.256077 0.383444 0.004654
0.275166 0.38349 0.00584421
0.295354 0.383536 0.007187
0.316487 0.383612 0.00868238
0.338415 0.383673 0.0103456
0.361028 0.383749 0.0121614
0.384222 0.383825 0.0141451
0.407919 0.383917 0.0162966
0.432044 0.384009 0.018616
0.456535 0.384115 0.0211032
0.481346 0.384222 0.0237583
0.506447 0.384344 0.0265965
0.531792 0.384466 0.0296178
0.557351 0.384604 0.0328069
0.583093 0.384741 0.0361791
0.609003 0.384894 0.0397498
0.635065 0.385046 0.0434882
0.661265 0.385199 0.0474098
0.687572 0.385367 0.0515297
0.713985 0.38555 0.0558328
0.740505 0.385733 0.0603342
0.767102 0.385931 0.0650339
0.793774 0.38613 0.0699168
0.820523 0.386343 0.0749981
0.847349 0.386557 0.0802625
0.87422 0.386786 0.0859236
0.901137 0.387015 0.0913252
0.181689 0.411337 4.57771e-05
0.19527 0.411368 0.000686656
0.208148 0.411383 0.00131228
0.220478 0.411414 0.00195315
0.234363 0.411444 0.00271611
0.249958 0.411475 0.00361639
0.267063 0.411521 0.004654
0.285496 0.411566 0.00584421
0.305058 0.411612 0.007187
0.325597 0.411673 0.00868238
0.34699 0.411734 0.0103456
0.3691 0.41181 0.0121614
0.391836 0.411887 0.0141451
0.415106 0.411963 0.0162966
0.438834 0.412055 0.018616
0.462974 0.412146 0.0211032
0.487449 0.412253 0.0237736
0.512245 0.41236 0.0266117
0.537316 0.412482 0.0296178
0.5626 0.412604 0.0328222
0.588113 0.412726 0.0361944
0.613809 0.412863 0.0397498
0.639658 0.413016 0.0434882
0.66566 0.413169 0.047425
0.691798 0.413321 0.051545
0.718044 0.413489 0.055848
0.744411 0.413657 0.0603494
0.770855 0.41384 0.0650339
0.797406 0.414023 0.0699168
0.824018 0.414221 0.0749981
0.850721 0.41442 0.0802777
0.87747 0.414633 0.0859236
0.904295 0.414847 0.0913405
0.197147 0.439429 6.10361e-05
0.209903 0.439445 0.000686656
0.222065 0.439475 0.00132753
0.233783 0.43949 0.00196841
0.247013 0.439521 0.00271611
0.261952 0.439551 0.00361639
0.278401 0.439597 0.004654
0.296178 0.439643 0.00585946
0.315145 0.439689 0.00720226
0.335103 0.439734 0.00869764
0.355947 0.439796 0.0103609
0.377554 0.439872 0.0121767
0.399817 0.439933 0.0141604
0.42266 0.440009 0.0163119
0.445991 0.440101 0.018616
0.469764 0.440192 0.0211185
0.493904 0.440284 0.0237736
0.51838 0.440391 0.0266117
0.543145 0.440497 0.029633
0.568185 0.44062 0.0328222
0.593439 0.440742 0.0361944
0.618891 0.440864 0.0397498
0.644541 0.441001 0.0435035
0.670344 0.441138 0.047425
0.696284 0.441291 0.051545
0.722362 0.441444 0.055848
0.748562 0.441611 0.0603494
0.774853 0.441779 0.0650339
0.801251 0.441947 0.0699321
0.827741 0.44213 0.0749981
0.854307 0.442329 0.0802777
0.880949 0.442527 0.0859388
0.907652 0.442725 0.0913405
0.212589 0.467521 6.10361e-05
0.224613 0.467536 0.000701915
0.236133 0.467567 0.00132753
0.247272 0.467582 0.00196841
0.259892 0.467613 0.00273136
0.274205 0.467643 0.00363165
0.290028 0.467674 0.00466926
0.30721 0.46772 0.00585946
0.325567 0.467765 0.00720226
0.344961 0.467811 0.00869764
0.36527 0.467872 0.0103609
0.386374 0.467933 0.0121767
0.408164 0.467994 0.0141604
0.430564 0.468071 0.0163119
0.453498 0.468147 0.0186313
0.47689 0.468238 0.0211185
0.500679 0.46833 0.0237736
0.524834 0.468421 0.0266117
0.54931 0.468528 0.029633
0.57406 0.468635 0.0328222
0.599054 0.468742 0.0362097
0.624277 0.468864 0.039765
0.649683 0.469001 0.0435035
0.675288 0.469123 0.0474403
0.70103 0.469261 0.051545
0.726925 0.469413 0.0558633
0.752956 0.469566 0.0603494
0.779095 0.469718 0.0650492
0.805341 0.469886 0.0699321
0.831678 0.470054 0.0750134
0.858122 0.470237 0.080293
0.884627 0.47042 0.0859388
0.911223 0.470619 0.0913558
0.228046 0.495613 7.62951e-05
0.239399 0.495628 0.000701915
0.250324 0.495644 0.00134279
0.260929 0.495674 0.00198367
0.272999 0.495689 0.00273136
0.286717 0.49572 0.00363165
0.301946 0.49575 0.00466926
0.318517 0.495796 0.00585946
0.336294 0.495842 0.00721752
0.355138 0.495888 0.0087129
0.374929 0.495933 0.0103609
0.395529 0.495995 0.012192
0.416846 0.496056 0.0141756
0.438819 0.496132 0.0163119
0.461326 0.496208 0.0186313
0.484337 0.496284 0.0211185
0.507774 0.496376 0.0237888
0.531609 0.496468 0.026627
0.555764 0.496559 0.0296483
0.58024 0.496666 0.0328374
0.604959 0.496773 0.0362097
0.629938 0.49688 0.039765
0.655116 0.497002 0.0435187
0.680491 0.497124 0.0474403
0.70605 0.497261 0.0515602
0.731746 0.497398 0.0558633
0.757595 0.497536 0.0603647
0.783566 0.497688 0.0650492
0.809659 0.497841 0.0699321
0.835859 0.498009 0.0750134
0.86215 0.498177 0.080293
0.888533 0.498344 0.0859541
0.914992 0.498527 0.0913558
0.243488 0.523705 7.62951e-05
0.254246 0.52372 0.000717174
0.264637 0.523735 0.00134279
0.274754 0.523766 0.00198367
0.28629 0.523781 0.00274662
0.299458 0.523812 0.00364691
0.314107 0.523842 0.00468452
0.330114 0.523873 0.00587472
0.347341 0.523919 0.00721752
0.365637 0.523964 0.0087129
0.384894 0.52401 0.0103761
0.405005 0.524071 0.012192
0.425864 0.524132 0.0141756
0.447379 0.524193 0.0163272
0.46949 0.524269 0.0186465
0.492119 0.524346 0.0211337
0.51519 0.524422 0.0237888
0.538689 0.524498 0.026627
0.562524 0.52459 0.0296483
0.586694 0.524697 0.0328374
0.611154 0.524788 0.0362249
0.635874 0.524895 0.0397803
0.660822 0.525017 0.0435187
0.685969 0.525139 0.0474556
0.711315 0.525261 0.0515602
0.736812 0.525383 0.0558785
0.762478 0.525521 0.0603647
0.788281 0.525673 0.0650645
0.814206 0.525811 0.0699474
0.840238 0.525963 0.0750286
0.866392 0.526131 0.0803082
0.892638 0.526284 0.0859541
0.918975 0.526467 0.091371
0.258946 0.551797 9.15541e-05
0.269154 0.551812 0.000717174
0.279042 0.551827 0.00135805
0.288701 0.551843 0.00199893
0.299748 0.551873 0.00274662
0.312398 0.551888 0.00364691
0.326513 0.551919 0.00468452
0.34197 0.551965 0.00587472
0.358648 0.551995 0.00723278
0.376425 0.552041 0.00872816
0.395163 0.552087 0.0103761
0.414786 0.552132 0.0122072
0.435187 0.552193 0.0141909
0.45626 0.552254 0.0163272
0.477958 0.552331 0.0186465
0.500191 0.552392 0.0211337
0.522911 0.552468 0.0238041
0.546059 0.55256 0.0266423
0.569589 0.552636 0.0296635
0.593454 0.552728 0.0328527
0.617639 0.552834 0.0362249
0.642084 0.552926 0.0397803
0.666789 0.553033 0.043534
0.691707 0.553155 0.0474556
0.716823 0.553262 0.0515755
0.742138 0.553384 0.0558785
0.767605 0.553521 0.0603799
0.793225 0.553658 0.0650645
0.818982 0.553796 0.0699474
0.844862 0.553933 0.0750286
0.870848 0.554086 0.0803082
0.896956 0.554253 0.0859693
0.923156 0.554406 0.091371
0.274388 0.579889 9.15541e-05
0.284108 0.579904 0.000732433
0.293538 0.579919 0.00135805
0.30277 0.579934 0.00199893
0.313359 0.57995 0.00276188
0.325521 0.57998 0.00366217
0.339117 0.580011 0.00469978
0.354055 0.580041 0.00588998
0.370214 0.580072 0.00723278
0.387472 0.580118 0.00872816
0.405722 0.580163 0.0103914
0.424857 0.580209 0.0122072
0.4448 0.58027 0.0141909
0.465446 0.580331 0.0163424
0.486732 0.580392 0.0186618
0.508568 0.580453 0.021149
0.530922 0.58053 0.0238193
0.553719 0.580606 0.0266575
0.576928 0.580682 0.0296635
0.600488 0.580774 0.0328527
0.624384 0.580865 0.0362402
0.648569 0.580957 0.0397955
0.673014 0.581064 0.043534
0.697704 0.58117 0.0474708
0.722591 0.581277 0.0515908
0.747692 0.581399 0.0558938
0.772961 0.581521 0.0603952
0.798398 0.581659 0.0650797
0.823972 0.581781 0.0699626
0.849683 0.581918 0.0750439
0.875532 0.582071 0.0803235
0.901488 0.582208 0.0859693
0.927535 0.582361 0.0913863
0.289845 0.607965 0.000106813
0.299092 0.607996 0.000732433
0.30811 0.608011 0.00137331
0.316945 0.608026 0.00201419
0.327123 0.608042 0.00276188
0.338811 0.608072 0.00366217
0.351919 0.608087 0.00471504
0.366354 0.608118 0.00590524
0.38201 0.608164 0.00724804
0.398779 0.608194 0.00874342
0.416541 0.60824 0.0104067
0.435218 0.608286 0.0122225
0.454688 0.608331 0.0142061
0.474907 0.608392 0.0163577
0.495781 0.608454 0.0186618
0.517235 0.608515 0.0211643
0.539208 0.608591 0.0238193
0.561669 0.608667 0.0266575
0.584543 0.608743 0.0296788
0.607797 0.60882 0.0328679
0.631403 0.608911 0.0362402
0.655314 0.609003 0.0397955
0.6795 0.609094 0.0435492
0.703944 0.609201 0.0474708
0.728618 0.609308 0.0515908
0.753491 0.609415 0.0558938
0.778561 0.609537 0.0603952
0.8038 0.609659 0.0650797
0.829206 0.609781 0.0699779
0.854749 0.609918 0.0750439
0.880415 0.610056 0.0803235
0.906218 0.610193 0.0859846
0.932128 0.610346 0.0913863
0.305287 0.636057 0.000106813
0.314122 0.636072 0.000747692
0.322744 0.636088 0.00137331
0.331228 0.636118 0.00201419
0.340993 0.636133 0.00277714
0.352239 0.636149 0.00367742
0.364904 0.636179 0.00471504
0.378866 0.63621 0.00590524
0.394034 0.63624 0.00724804
0.410315 0.636271 0.00875868
0.427604 0.636316 0.0104067
0.445823 0.636362 0.0122225
0.464851 0.636408 0.0142061
0.484642 0.636469 0.0163577
0.505104 0.63653 0.018677
0.526162 0.636591 0.0211643
0.547784 0.636652 0.0238346
0.569879 0.636713 0.0266728
0.592432 0.63679 0.0296788
0.615381 0.636881 0.0328832
0.638682 0.636957 0.0362554
0.662318 0.637049 0.0398108
0.686244 0.63714 0.0435492
0.71043 0.637232 0.0474861
0.734874 0.637339 0.051606
0.759533 0.637446 0.0559091
0.78439 0.637552 0.0604105
0.80943 0.637675 0.065095
0.834638 0.637797 0.0699779
0.860014 0.637919 0.0750591
0.885527 0.638041 0.0803388
0.911162 0.638178 0.0859846
0.936919 0.638315 0.0914015
0.320745 0.664149 0.000122072
0.329198 0.664164 0.000762951
0.337453 0.664179 0.00138857
0.345586 0.664195 0.00202945
0.354971 0.66421 0.0027924
0.36582 0.66424 0.00367742
0.378042 0.664256 0.0047303
0.391546 0.664286 0.0059205
0.406256 0.664317 0.00726329
0.42208 0.664363 0.00875868
0.438911 0.664393 0.0104219
0.456672 0.664439 0.0122377
0.475273 0.664485 0.0142214
0.494636 0.664546 0.0163729
0.514687 0.664591 0.0186923
0.535363 0.664652 0.0211795
0.556619 0.664714 0.0238346
0.578363 0.664775 0.0266728
0.60058 0.664851 0.0296941
0.623209 0.664927 0.0328832
0.64622 0.665003 0.0362554
0.669566 0.665095 0.039826
0.693233 0.665187 0.0435645
0.717174 0.665278 0.0475013
0.74136 0.66537 0.051606
0.765805 0.665476 0.0559243
0.790448 0.665583 0.0604105
0.81529 0.66569 0.0651102
0.840314 0.665797 0.0699931
0.865492 0.665919 0.0750744
0.890837 0.666041 0.0803388
0.916304 0.666178 0.0859998
0.941909 0.666316 0.0914015
0.336187 0.692241 0.000137331
0.344289 0.692256 0.000762951
0.352209 0.692271 0.00140383
0.360021 0.692287 0.00204471
0.36907 0.692302 0.0027924
0.379522 0.692332 0.00369268
0.391318 0.692348 0.0047303
0.404395 0.692378 0.00593576
0.418662 0.692409 0.00727855
0.434028 0.692439 0.00877394
0.450416 0.692485 0.0104219
0.46775 0.692515 0.012253
0.485924 0.692561 0.0142367
0.50486 0.692607 0.0163729
0.524529 0.692668 0.0186923
0.544823 0.692714 0.0211948
0.565698 0.692775 0.0238499
0.587091 0.692851 0.026688
0.608972 0.692912 0.0297093
0.631296 0.692988 0.0328985
0.654002 0.693065 0.0362707
0.677058 0.693141 0.039826
0.70045 0.693233 0.0435798
0.724132 0.693309 0.0475013
0.748089 0.693416 0.0516213
