assets/luts/LUTs/Knittel-M2S-Creative-Clear-Blue.CUBE
LUT_3D_SIZE 6
-0.057626 -0.057626 -0.057626
0.235436 -0.063167 -0.063167
0.393180 0.052962 0.052962
0.511891 0.140723 0.140723
0.669120 0.196751 0.196751
0.924862 0.274943 0.274943
-0.131720 0.267625 -0.131720
0.217983 0.263379 -0.131384
0.384940 0.232031 0.125173
0.516889 0.226161 0.154621
0.665877 0.260800 0.216630
0.922342 0.326375 0.289682
-0.042799 0.438362 -0.042799
0.162503 0.441185 -0.124130
0.391119 0.438129 0.068874
0.509109 0.405156 0.275394
0.656878 0.410345 0.293820
0.912912 0.470729 0.350906
0.106278 0.573456 0.106278
0.191112 0.573426 0.110215
0.353811 0.573261 0.130625
0.539792 0.572126 0.235417
0.672680 0.568895 0.396829
0.907798 0.640201 0.456588
0.143183 0.741516 0.143183
0.207606 0.741479 0.145663
0.354648 0.741313 0.157341
0.534702 0.740914 0.195681
0.725014 0.739468 0.345823
0.936929 0.809699 0.557908
0.196841 0.996473 0.196841
0.249825 0.996446 0.198700
0.394612 0.996328 0.207488
0.582344 0.996094 0.230359
0.791594 0.995277 0.297804
0.993841 0.993841 0.498648
-0.078124 -0.078124 0.316163
0.231655 -0.095192 0.308152
0.414875 -0.093326 0.251181
0.526037 0.116156 0.228861
0.675920 0.187893 0.254545
0.929629 0.269133 0.320880
-0.204459 0.266390 0.312513
0.211752 0.262195 0.301737
0.415375 0.248593 0.268632
0.554565 0.244505 0.258143
0.691218 0.277925 0.286188
0.927377 0.339646 0.345964
-0.168841 0.444805 0.212002
0.089084 0.453350 0.188462
0.395528 0.445266 0.216535
0.532659 0.416763 0.311237
0.690650 0.417686 0.320433
0.918203 0.480603 0.395596
0.094563 0.573906 0.226908
0.119578 0.583817 0.177669
0.327153 0.586341 0.129510
0.542140 0.578871 0.208515
0.688451 0.575386 0.404536
0.911079 0.646317 0.486204
0.139684 0.741619 0.239608
0.245355 0.742688 0.266805
0.372920 0.744012 0.273315
0.536833 0.744999 0.261352
0.727353 0.741656 0.382821
0.937699 0.812920 0.582216
0.194276 0.996567 0.279854
0.269892 0.996549 0.290346
0.411049 0.996555 0.306895
0.589850 0.996346 0.319876
0.794332 0.995489 0.364069
0.994077 0.994077 0.530654
-0.075624 -0.075624 0.482050
0.181163 -0.082568 0.483540
0.383135 -0.075465 0.471791
0.546334 0.024147 0.429671
0.702506 0.136545 0.408906
0.951997 0.234814 0.457395
-0.146126 0.204577 0.512435
0.201685 0.229138 0.521592
0.416135 0.222604 0.508417
0.585621 0.204715 0.457799
0.722330 0.243781 0.426436
0.950083 0.315975 0.469900
-0.278183 0.441467 0.495695
-0.243189 0.452219 0.509317
0.379865 0.440578 0.491332
0.565983 0.427963 0.457151
0.735322 0.417168 0.443524
0.939222 0.458318 0.479669
-0.125303 0.577227 0.419744
-0.188582 0.590106 0.406163
0.317133 0.592746 0.399857
0.549891 0.583162 0.420966
0.707412 0.584383 0.485164
0.935884 0.632650 0.525999
0.115557 0.742609 0.418606
0.203943 0.745706 0.421051
0.313440 0.756639 0.386156
0.510424 0.758696 0.355181
0.733560 0.749418 0.421637
0.943498 0.811016 0.620664
0.180707 0.997175 0.460551
0.261928 0.997135 0.466142
0.392197 0.996925 0.449016
0.578786 0.996735 0.455416
0.789165 0.996114 0.477907
0.994647 0.994647 0.600165
-0.071311 -0.071311 0.607819
0.161025 -0.070494 0.606391
0.339496 -0.065296 0.602300
0.529877 -0.057631 0.600155
0.720167 0.049431 0.589731
0.981487 0.161352 0.633988
-0.100023 0.182667 0.618182
0.200730 0.219564 0.643058
0.372850 0.222881 0.643510
0.557629 0.212714 0.628754
0.729866 0.231411 0.600586
0.980639 0.272628 0.639107
-0.232221 0.383770 0.651290
-0.179919 0.397732 0.682119
0.366313 0.406163 0.662083
0.573646 0.402469 0.642050
0.767095 0.386948 0.622461
0.976881 0.428368 0.636696
-0.291381 0.578248 0.618693
-0.331654 0.591727 0.636584
0.159625 0.597022 0.640147
0.531664 0.578405 0.620331
0.743591 0.564758 0.599095
0.982662 0.569400 0.605692
-0.142938 0.745867 0.592767
-0.096734 0.750753 0.592863
0.205509 0.763474 0.582093
0.461914 0.765173 0.553851
0.734920 0.752911 0.558007
0.961569 0.787062 0.651014
0.126196 0.998766 0.642020
0.235496 0.998754 0.645331
0.380599 0.998317 0.639713
0.517931 0.999582 0.596339
0.737933 1.003351 0.539628
0.996935 0.996935 0.645372
-0.079926 -0.079926 0.774535
0.157535 -0.079078 0.773374
0.337943 -0.075415 0.769818
0.527897 -0.063705 0.765678
0.730264 -0.057283 0.764769
0.995279 0.086920 0.814769
-0.092364 0.181443 0.777054
0.208066 0.222860 0.775777
0.362762 0.233564 0.776055
0.539380 0.235410 0.769794
0.732583 0.239334 0.765662
0.995218 0.243830 0.816830
-0.175260 0.376353 0.797177
0.122224 0.389269 0.810891
0.358874 0.395376 0.818150
0.560531 0.392676 0.813985
0.761168 0.387405 0.794675
0.994742 0.408400 0.814729
-0.333847 0.574090 0.821760
-0.323382 0.582332 0.840872
0.046637 0.586200 0.864766
0.510333 0.558735 0.836545
0.773082 0.535635 0.811576
1.020667 0.537112 0.808933
-0.350530 0.760779 0.780599
-0.319321 0.763738 0.783407
-0.287614 0.776858 0.797911
0.343994 0.778507 0.801504
0.709313 0.746757 0.781776
1.014374 0.730688 0.758541
-0.208008 1.002883 0.815507
0.075267 1.002694 0.816947
0.334871 1.001990 0.814890
0.440726 1.008736 0.789405
0.629643 1.014379 0.704970
1.000530 1.000530 0.731608
-0.094384 -0.094384 1.012751
0.162282 -0.093386 1.011711
0.360021 -0.090447 1.008572
0.564913 -0.079850 1.003615
0.780844 -0.060921 1.000256
0.999798 -0.052490 0.999798
-0.104879 0.188983 1.014550
0.196037 0.212980 1.012768
0.375526 0.224200 1.009015
0.571658 0.226784 1.003833
0.783321 0.230508 1.000282
0.999808 0.231706 0.999808
-0.168036 0.399494 1.028589
0.159599 0.407802 1.025318
0.356630 0.392373 1.013479
0.563607 0.394907 1.005349
0.779971 0.396855 1.000463
0.999834 0.397514 0.999834
-0.316506 0.605178 1.062223
-0.244058 0.608200 1.059125
0.284578 0.598621 1.050695
0.504411 0.551753 1.032678
0.764127 0.533117 1.022711
1.002418 0.540472 1.002419
-0.468338 0.816941 1.066460
-0.431662 0.817664 1.065717
-0.320439 0.813794 1.070915
0.263253 0.795113 1.100108
0.680045 0.719176 1.071035
1.037925 0.694603 1.037925
-0.440479 1.015423 1.015423
-0.402995 1.015066 1.015066
-0.259030 1.014080 1.014080
0.243286 1.018844 1.018844
0.498255 1.025832 1.025832
1.000015 1.000015 1.000015
