assets/luts/LUTs/Knittel-M2S-No-Filter-MOV-H265-Dlog.CUBE
TITLE "Generated by Resolve"
LUT_3D_SIZE 33
0 0 0
0.0326543 0 0
0.0653239 0 0
0.0976272 0 0
0.129503 0 0
0.161395 0 0
0.193271 0 0
0.225147 0 0
0.257038 0 0
0.288914 0 0
0.32079 0 0
0.352682 0 0
0.384558 0 0
0.416434 0 0
0.448325 0 0
0.480201 0 0
0.512093 0 0
0.543969 0 0
0.575845 0 0
0.607736 0 0
0.639612 0 0
0.671489 0 0
0.70338 0 0
0.735256 0 0
0.767132 0 0
0.799023 0 0
0.8309 0 0
0.862776 0 0
0.894667 0 0
0.926543 0 0
0.958419 0 0
0.990311 0 0
1 0 0
0.000183108 0.0377203 0.000137331
0.0328374 0.0225528 0
0.065507 0.00738537 0
0.0977951 0 0
0.129656 0 0
0.161517 0 0
0.193378 0 0
0.225238 0 0
0.257115 0 0
0.288991 0 0
0.320867 0 0
0.352743 0 0
0.384619 0 0
0.416495 0 0
0.448371 0 0
0.480247 0 0
0.512123 0 0
0.543999 0 0
0.575891 0 0
0.607767 0 0
0.639643 0 0
0.671519 0 0
0.70341 0 0
0.735286 0 0
0.767163 0 0
0.799039 0 0
0.83093 0 0
0.862806 0 0
0.894682 0 0
0.926574 0 0
0.95845 0 0
0.990326 0 0
1 0 0
0.000381476 0.0754711 0.000259403
0.0330358 0.0603037 0
0.0657054 0.0451209 0
0.0979629 0.0298161 0
0.129793 0.0117189 0
0.161624 0 0
0.193484 0 0
0.22533 0 0
0.257191 0 0
0.289067 0 0
0.320928 0 0
0.352804 0 0
0.38468 0 0
0.416541 0 0
0.448417 0 0
0.480293 0 0
0.512169 0 0
0.544045 0 0
0.575921 0 0
0.607797 0 0
0.639673 0 0
0.67155 0 0
0.703441 0 0
0.735317 0 0
0.767193 0 0
0.799069 0 0
0.830945 0 0
0.862837 0 0
0.894713 0 0
0.926589 0 0
0.958465 0 0
0.990341 0 0
1 0 0
0.000564584 0.110826 0.000396735
0.0332189 0.0977188 0
0.0658885 0.0834211 0
0.0981308 0.0678874 0
0.129931 0.0497902 0
0.161746 0.0283207 0
0.193591 0.0033875 0
0.225422 0 0
0.257282 0 0
0.289143 0 0
0.321004 0 0
0.352865 0 0
0.384726 0 0
0.416602 0 0
0.448463 0 0
0.480339 0 0
0.512215 0 0
0.544091 0 0
0.575967 0 0
0.607843 0 0
0.639719 0 0
0.671595 0 0
0.703471 0 0
0.735348 0 0
0.767224 0 0
0.7991 0 0
0.830976 0 0
0.862852 0 0
0.894728 0 0
0.926604 0 0
0.958495 0 0
0.990372 0 0
1 0 0
0.000793469 0.144854 0.000549325
0.0334478 0.134066 0
0.0661173 0.122621 0
0.0983291 0.110292 0
0.130098 0.0944686 0
0.161898 0.0733349 0
0.193713 0.0484016 0
0.225544 0.0198978 0
0.257374 0 0
0.289219 0 0
0.32108 0 0
0.352941 0 0
0.384802 0 0
0.416663 0 0
0.448524 0 0
0.4804 0 0
0.512261 0 0
0.544137 0 0
0.576013 0 0
0.607874 0 0
0.63975 0 0
0.671626 0 0
0.703502 0 0
0.735378 0 0
0.767254 0 0
0.79913 0 0
0.831006 0 0
0.862882 0 0
0.894759 0 0
0.926635 0 0
0.958511 0 0
0.990387 0 0
1 0 0
0.00105287 0.178866 0.000732433
0.0337072 0.169741 0
0.0663767 0.160204 0
0.0985733 0.150134 0
0.130297 0.137545 0
0.162066 0.121462 0
0.193851 0.100755 0
0.225666 0.0732891 0
0.257496 0.0411536 0
0.289326 0.00529488 0
0.321172 0 0
0.353017 0 0
0.384878 0 0
0.416739 0 0
0.4486 0 0
0.480461 0 0
0.512322 0 0
0.544182 0 0
0.576059 0 0
0.607935 0 0
0.639796 0 0
0.671672 0 0
0.703548 0 0
0.735424 0 0
0.767285 0 0
0.799161 0 0
0.831037 0 0
0.862913 0 0
0.894789 0 0
0.926665 0 0
0.958541 0 0
0.990417 0 0
1 0 0
0.00135805 0.212894 0.000946059
0.0340124 0.205005 0
0.0666819 0.196841 0
0.0988479 0.188327 0
0.130526 0.177844 0
0.162264 0.164752 0
0.194018 0.148455 0
0.225818 0.128054 0
0.257633 0.101976 0
0.289448 0.0673075 0
0.321279 0.0276646 0
0.353124 0 0
0.38497 0 0
0.416815 0 0
0.448676 0 0
0.480537 0 0
0.512398 0 0
0.544259 0 0
0.57612 0 0
0.60798 0 0
0.639857 0 0
0.671717 0 0
0.703593 0 0
0.73547 0 0
0.76733 0 0
0.799207 0 0
0.831083 0 0
0.862959 0 0
0.894835 0 0
0.926711 0 0
0.958587 0 0
0.990463 0 0
1 0 0
0.00170901 0.246906 0.0011902
0.0343633 0.239979 0
0.0670329 0.232868 0
0.0991684 0.225498 0
0.130785 0.21651 0
0.162478 0.205432 0
0.194217 0.191913 0
0.225986 0.175448 0
0.257786 0.155291 0
0.289586 0.13022 0
0.321401 0.0978714 0
0.353231 0.055024 0
0.385077 0.00759899 0
0.416922 0 0
0.448768 0 0
0.480613 0 0
0.512474 0 0
0.544335 0 0
0.576196 0 0
0.608057 0 0
0.639918 0 0
0.671778 0 0
0.703655 0 0
0.735515 0 0
0.767391 0 0
0.799252 0 0
0.831128 0 0
0.863005 0 0
0.894881 0 0
0.926757 0 0
0.958618 0 0
0.990494 0 0
1 0 0
0.00210575 0.280934 0.00148013
0.0347601 0.274769 0
0.0674296 0.268467 0
0.0995193 0.261982 0
0.13109 0.254124 0
0.162737 0.244511 0
0.194446 0.232929 0
0.226184 0.219043 0
0.257954 0.202441 0
0.289738 0.182483 0
0.321553 0.15819 0
0.353368 0.127794 0
0.385199 0.0876478 0
0.417029 0.0361334 0
0.448859 0 0
0.480705 0 0
0.512566 0 0
0.544411 0 0
0.576272 0 0
0.608133 0 0
0.639994 0 0
0.671855 0 0
0.703716 0 0
0.735576 0 0
0.767452 0 0
0.799313 0 0
0.831189 0 0
0.86305 0 0
0.894926 0 0
0.926802 0 0
0.958663 0 0
0.990539 0 0
1 0 0
0.00254826 0.314961 0.00178531
0.0352026 0.309407 0
0.0678721 0.303777 0
0.0999161 0.297978 0
0.131411 0.291005 0
0.163012 0.282521 0
0.19469 0.272374 0
0.226398 0.260349 0
0.258152 0.246159 0
0.289921 0.229435 0
0.321706 0.209628 0
0.353506 0.185962 0
0.385321 0.157046 0
0.417151 0.120348 0
0.448981 0.0698558 0
0.480812 0.0103151 0
0.512657 0 0
0.544503 0 0
0.576364 0 0
0.608209 0 0
0.64007 0 0
0.671931 0 0
0.703792 0 0
0.735653 0 0
0.767514 0 0
0.799374 0 0
0.83125 0 0
0.863111 0 0
0.894987 0 0
0.926848 0 0
0.958724 0 0
0.990585 0 0
1 0 0
0.0030518 0.348974 0.002121
0.0357061 0.343954 0
0.0683757 0.338857 0
0.100343 0.333639 0
0.131777 0.327367 0
0.163333 0.319768 0
0.194949 0.31075 0
0.226642 0.300114 0
0.258366 0.287709 0
0.290105 0.273243 0
0.321874 0.256428 0
0.353674 0.236759 0
0.385473 0.213581 0
0.417288 0.185824 0
0.449104 0.151598 0
0.480934 0.10695 0
0.512764 0.045243 0
0.54461 0 0
0.576455 0 0
0.608301 0 0
0.640162 0 0
0.672007 0 0
0.703868 0 0
0.735729 0 0
0.76759 0 0
0.799451 0 0
0.831312 0 0
0.863172 0 0
0.895048 0 0
0.926909 0 0
0.95877 0 0
0.990646 0 0
1 0 0
0.00358587 0.383001 0.00250248
0.0362402 0.378408 0
0.0689097 0.373754 0
0.100816 0.369009 0
0.132174 0.363317 0
0.163668 0.356466 0
0.195254 0.348333 0
0.226902 0.338811 0
0.258595 0.327764 0
0.290318 0.315007 0
0.322072 0.300328 0
0.353841 0.283421 0
0.385626 0.263874 0
0.417441 0.241108 0
0.449241 0.214282 0
0.481071 0.181918 0
0.512886 0.141283 0
0.544732 0.0857557 0
0.576562 0.0134585 0
0.608408 0 0
0.640253 0 0
0.672099 0 0
0.70396 0 0
0.735805 0 0
0.767666 0 0
0.799527 0 0
0.831388 0 0
0.863249 0 0
0.895109 0 0
0.92697 0 0
0.958831 0 0
0.990707 0 0
1 0 0
0.00416571 0.417014 0.00291447
0.03682 0.412802 0
0.0694896 0.40853 0
0.101335 0.404181 0
0.132601 0.398993 0
0.164034 0.392737 0
0.195575 0.385336 0
0.227176 0.376715 0
0.258839 0.366766 0
0.290547 0.355337 0
0.322286 0.34229 0
0.35404 0.327398 0
0.385809 0.310414 0
0.417594 0.290959 0
0.449393 0.268559 0
0.481209 0.242481 0
0.513024 0.211582 0
0.544854 0.173846 0
0.576684 0.125093 0
0.608515 0.0550088 0
0.64036 0 0
0.672206 0 0
0.704051 0 0
0.735897 0 0
0.767742 0 0
0.799603 0 0
0.831464 0 0
0.863325 0 0
0.895186 0 0
0.927047 0 0
0.958907 0 0
0.990768 0 0
1 0 0
0.00480659 0.451041 0.00335698
0.0374609 0.447135 0
0.0701305 0.443198 0
0.1019 0.4392 0
0.133074 0.434409 0
0.164431 0.428672 0
0.195926 0.421897 0
0.227497 0.414023 0
0.259129 0.404959 0
0.290791 0.394614 0
0.322499 0.382849 0
0.354238 0.369528 0
0.385992 0.354467 0
0.417777 0.337407 0
0.449561 0.318029 0
0.481361 0.295933 0
0.513161 0.270497 0
0.544976 0.240772 0
0.576806 0.205249 0
0.608637 0.161013 0
0.640467 0.101061 0
0.672312 0.0170138 0
0.704143 0 0
0.735988 0 0
0.767849 0 0
0.799695 0 0
0.83154 0 0
0.863401 0 0
0.895262 0 0
0.927123 0 0
0.958984 0 0
0.990845 0 0
1 0 0
0.00549325 0.485069 0.00383001
0.0381476 0.481437 0
0.0708171 0.477791 0
0.102495 0.474067 0
0.133577 0.469642 0
0.164874 0.464332 0
0.196292 0.458091 0
0.227817 0.450843 0
0.259419 0.442542 0
0.291066 0.433082 0
0.322744 0.42237 0
0.354467 0.410315 0
0.386206 0.39675 0
0.41796 0.381506 0
0.449729 0.364385 0
0.481529 0.345098 0
0.513313 0.323262 0
0.545129 0.29836 0
0.576944 0.269627 0
0.608759 0.235828 0
0.640589 0.194873 0
0.672419 0.142306 0
0.704265 0.0653849 0
0.736095 0 0
0.767941 0 0
0.799786 0 0
0.831632 0 0
0.863493 0 0
0.895338 0 0
0.927199 0 0
0.95906 0 0
0.990921 0 0
1 0 0
0.00622568 0.519081 0.00434882
0.03888 0.515709 0
0.0715496 0.512306 0
0.103136 0.508843 0
0.134112 0.504723 0
0.165331 0.499794 0
0.196704 0.494011 0
0.228183 0.487297 0
0.259739 0.479622 0
0.291356 0.470909 0
0.323003 0.461097 0
0.354696 0.450065 0
0.386419 0.43772 0
0.418158 0.423941 0
0.449928 0.40856 0
0.481697 0.391379 0
0.513481 0.372168 0
0.545281 0.350561 0
0.577096 0.326116 0
0.608896 0.298192 0
0.640726 0.265812 0
0.672541 0.227344 0
0.704372 0.179767 0
0.736217 0.115694 0
0.768048 0.0209964 0
0.799893 0 0
0.831739 0 0
0.863584 0 0
0.89543 0 0
0.927291 0 0
0.959136 0 0
0.990997 0 0
1 0 0
0.00701915 0.553109 0.00489815
0.0396735 0.549935 0
0.072343 0.546761 0
0.103822 0.543526 0
0.134691 0.539681 0
0.16582 0.535073 0
0.197131 0.529686 0
0.228565 0.523445 0
0.260075 0.51632 0
0.291661 0.508247 0
0.323293 0.499168 0
0.354955 0.489006 0
0.386664 0.477684 0
0.418387 0.465095 0
0.450126 0.451118 0
0.481895 0.435599 0
0.513664 0.418372 0
0.545449 0.399207 0
0.577249 0.377813 0
0.609049 0.35378 0
0.640864 0.326543 0
0.672679 0.295338 0
0.704509 0.258854 0
0.736339 0.214878 0
0.76817 0.158785 0
0.8 0.0763714 0
0.831846 0 0
0.863691 0 0
0.895537 0 0
0.927382 0 0
0.959228 0 0
0.991089 0 0
1 0 0
0.0078584 0.587121 0.00547799
0.0405127 0.584161 0
0.0731823 0.58117 0
0.104555 0.578134 0
0.135302 0.574533 0
0.166354 0.570214 0
0.197589 0.565164 0
0.228962 0.55935 0
0.260441 0.552697 0
0.291981 0.545174 0
0.323583 0.536736 0
0.35523 0.527321 0
0.386908 0.516854 0
0.418616 0.505257 0
0.45034 0.492424 0
0.482094 0.478264 0
0.513848 0.462638 0
0.545632 0.445365 0
0.577417 0.426261 0
0.609216 0.405035 0
0.641016 0.381353 0
0.672831 0.354742 0
0.704646 0.324498 0
0.736461 0.289631 0
0.768292 0.248432 0
0.800122 0.197696 0
0.831952 0.129793 0
0.863798 0.0254368 0
0.895644 0 0
0.927489 0 0
0.959335 0 0
0.99118 0 0
1 0 0
0.00874342 0.621149 0.00610361
0.0413977 0.618341 0
0.0740673 0.615534 0
0.105318 0.61268 0
0.135958 0.609293 0
0.166903 0.605234 0
0.198077 0.600488 0
0.229389 0.595026 0
0.260822 0.5888 0
0.292332 0.581765 0
0.323903 0.573892 0
0.35552 0.565118 0
0.387167 0.555383 0
0.41886 0.544625 0
0.450568 0.532769 0
0.482307 0.519738 0
0.514046 0.505409 0
0.545815 0.489677 0
0.577585 0.472358 0
0.609369 0.4533 0
0.641169 0.432242 0
0.672969 0.408865 0
0.704784 0.382773 0
0.736599 0.353384 0
0.768429 0.31986 0
0.800244 0.280842 0
0.832074 0.234043 0
0.863905 0.174609 0
0.89575 0.0880751 0
0.927596 0 0
0.959426 0 0
0.991272 0 0
1 0 0
0.00968948 0.655177 0.00675975
0.0423438 0.652522 0
0.0750134 0.649866 0
0.106126 0.647166 0
0.136629 0.643977 0
0.167498 0.640146 0
0.198581 0.635691 0
0.229847 0.630533 0
0.261234 0.624689 0
0.292699 0.618082 0
0.324239 0.610697 0
0.355825 0.602472 0
0.387457 0.593378 0
0.41912 0.583352 0
0.450813 0.572335 0
0.482536 0.56025 0
0.51426 0.547021 0
0.546014 0.53254 0
0.577783 0.516701 0
0.609552 0.499352 0
0.641337 0.480339 0
0.673136 0.459419 0
0.704936 0.436332 0
0.736751 0.410697 0
0.768566 0.38204 0
0.800381 0.349645 0
0.832212 0.312428 0
0.864027 0.268635 0
0.895872 0.214954 0
0.927703 0.143435 0
0.959548 0.0303044 0
0.991379 0 0
1 0 0
0.0106966 0.689189 0.00746166
0.0433509 0.686687 0
0.0760204 0.684169 0
0.106981 0.68162 0
0.137362 0.678584 0
0.168109 0.674983 0
0.19913 0.670756 0
0.23032 0.665904 0
0.261662 0.66038 0
0.29308 0.654154 0
0.32459 0.647196 0
0.356146 0.639475 0
0.387747 0.630945 0
0.419394 0.621546 0
0.451072 0.611261 0
0.482765 0.599985 0
0.514488 0.587686 0
0.546227 0.574273 0
0.577981 0.559655 0
0.609735 0.543725 0
0.64152 0.526345 0
0.673304 0.507362 0
0.705104 0.48658 0
0.736904 0.463737 0
0.768704 0.438529 0
0.800519 0.410513 0
0.832334 0.37908 0
0.864164 0.343359 0
0.895994 0.301976 0
0.927825 0.252491 0
0.959655 0.189914 0
0.991501 0.0993362 0
1 0 0
0.0117494 0.723217 0.00819409
0.0444038 0.720836 0
0.0770733 0.718441 0
0.107866 0.71603 0
0.138109 0.713146 0
0.168765 0.709728 0
0.199695 0.70573 0
0.230838 0.701122 0
0.262104 0.695903 0
0.293492 0.690028 0
0.324956 0.683452 0
0.356481 0.676173 0
0.388067 0.668132 0
0.419684 0.659312 0
0.451331 0.649638 0
0.483024 0.639094 0
0.514717 0.627604 0
0.546441 0.615091 0
0.57818 0.601511 0
0.609934 0.58677 0
0.641703 0.570748 0
0.673487 0.553338 0
0.705272 0.534386 0
0.737057 0.513726 0
0.768856 0.491112 0
0.800671 0.46627 0
0.832486 0.438819 0
0.864302 0.408225 0
0.896117 0.373785 0
0.927947 0.334356 0
0.959777 0.288106 0
0.991608 0.231617 0
1 0.15668 0
0.0128481 0.757229 0.0089723
0.0455024 0.754971 0
0.078172 0.752697 0
0.108812 0.750393 0
0.138903 0.747662 0
0.169451 0.744411 0
0.20029 0.740612 0
0.231357 0.736248 0
0.262577 0.731289 0
0.293919 0.725719 0
0.325353 0.719493 0
0.356847 0.712612 0
0.388388 0.705013 0
0.419989 0.696681 0
0.451621 0.687587 0
0.483284 0.677653 0
0.514977 0.666865 0
0.546685 0.655161 0
0.578408 0.642481 0
0.610147 0.628733 0
0.641901 0.61387 0
0.673671 0.597772 0
0.70544 0.580331 0
0.737224 0.561425 0
0.769024 0.540856 0
0.800824 0.518456 0
0.832624 0.49395 0
0.864439 0.466987 0
0.896254 0.43714 0
0.928084 0.403784 0
0.959899 0.365988 0
0.99173 0.322332 0
1 0.270314 0
0.0140078 0.791257 0.00978103
0.0466621 0.78909 0
0.0793317 0.786923 0
0.109789 0.784741 0
0.139727 0.782132 0
0.170153 0.779034 0
0.200916 0.775418 0
0.231922 0.771267 0
0.263081 0.766552 0
0.294362 0.761257 0
0.32575 0.755367 0
0.357214 0.748821 0
0.388739 0.741634 0
0.42031 0.733745 0
0.451911 0.725139 0
0.483558 0.71577 0
0.515236 0.705608 0
0.546929 0.694591 0
0.578637 0.682689 0
0.610361 0.669825 0
0.642115 0.65594 0
0.673869 0.640955 0
0.705638 0.624796 0
0.737408 0.607324 0
0.769192 0.588434 0
0.800992 0.567987 0
0.832792 0.545769 0
0.864591 0.521553 0
0.896406 0.495048 0
0.928222 0.465858 0
0.960037 0.433448 0
0.991867 0.39704 0
1 0.355505 0
0.0152285 0.825284 0.0106355
0.0478828 0.823209 0
0.0805524 0.821149 0
0.110796 0.819059 0
0.140597 0.816571 0
0.170901 0.813611 0
0.201572 0.810162 0
0.232502 0.80621 0
0.2636 0.801724 0
0.294835 0.796674 0
0.326177 0.791058 0
0.35761 0.784848 0
0.389105 0.778012 0
0.420645 0.770535 0
0.452232 0.762371 0
0.483848 0.753506 0
0.515511 0.743893 0
0.547173 0.733501 0
0.578882 0.722271 0
0.61059 0.710185 0
0.642329 0.697154 0
0.674067 0.683131 0
0.705821 0.66804 0
0.737591 0.651804 0
0.769375 0.634318 0
0.80116 0.615457 0
0.832944 0.595102 0
0.864744 0.573053 0
0.896559 0.549111 0
0.928359 0.523018 0
0.960174 0.494408 0
0.992004 0.462821 0
1 0.427619 0
0.0165103 0.859297 0.0115206
0.0491646 0.857328 0
0.0820783 0.855344 0
0.111849 0.853346 0
0.141497 0.850965 0
0.171679 0.848142 0
0.202258 0.844862 0
0.233097 0.841077 0
0.264134 0.836789 0
0.295323 0.831983 0
0.326635 0.826627 0
0.358022 0.820706 0
0.389471 0.814191 0
0.420996 0.80708 0
0.452552 0.799313 0
0.484154 0.790906 0
0.515785 0.781781 0
0.547448 0.771939 0
0.579126 0.761334 0
0.610834 0.74992 0
0.642557 0.737636 0
0.674281 0.724453 0
0.706035 0.710307 0
0.737789 0.695125 0
0.769558 0.678828 0
0.801343 0.661311 0
0.833127 0.642481 0
0.864912 0.622202 0
0.896712 0.600305 0
0.928512 0.576623 0
0.960327 0.550896 0
0.992142 0.522805 0
1 0.491966 0
0.0178378 0.893324 0.0124514
0.0504921 0.891432 0
0.0833906 0.88954 0
0.112947 0.887617 0
0.142428 0.885344 0
0.172488 0.882643 0
0.20296 0.879484 0
0.233738 0.875868 0
0.264698 0.871778 0
0.295842 0.86717 0
0.327092 0.862058 0
0.35845 0.856397 0
0.389868 0.850187 0
0.421363 0.843412 0
0.452888 0.836011 0
0.484474 0.828 0
0.516091 0.819333 0
0.547723 0.809995 0
0.5794 0.799924 0
0.611078 0.78912 0
0.642786 0.777508 0
0.67451 0.765072 0
0.706249 0.751751 0
0.738003 0.737469 0
0.769757 0.722194 0
0.801526 0.705837 0
0.833295 0.688304 0
0.86508 0.66949 0
0.89688 0.649287 0
0.928679 0.627558 0
0.960479 0.604089 0
0.992279 0.578698 0
1 0.55108 0
0.0192264 0.927337 0.0134127
0.0518807 0.925536 0
0.0847639 0.923705 0
0.114092 0.921874 0
0.143389 0.919692 0
0.173327 0.917098 0
0.203708 0.914076 0
0.234394 0.910613 0
0.265293 0.906691 0
