assets/luts/LUTs/Knittel-M2S-No-Filter-MOV-H264-Norma.CUBE
TITLE "Generated by Resolve"
LUT_3D_SIZE 5
0 0 0
0.210758 0.000686656 0.00654612
0.432654 0.00227359 0.0217288
0.654551 0.00494392 0.0471656
0.876448 0.0087892 0.0839399
0.0730755 0.214588 0
0.246036 0.214939 0.00585946
0.451743 0.215747 0.0210422
0.667155 0.21709 0.046479
0.885679 0.219013 0.0832532
0.196368 0.439231 0
0.314458 0.439414 0.00425727
0.493202 0.439826 0.01944
0.695491 0.440528 0.0448768
0.906722 0.441535 0.0816663
0.319646 0.663874 0
0.405249 0.663996 0.00157168
0.555657 0.664271 0.0167697
0.740368 0.664729 0.0422065
0.940826 0.665385 0.0787366
0.442924 0.888518 0
0.508415 0.888609 0
0.634318 0.888808 0.0129244
0.800122 0.889143 0.0383612
0.987549 0.889616 0.0748913
0.0154269 0.0733501 0.237049
0.218601 0.0740368 0.240101
0.436744 0.0756237 0.247028
0.657221 0.078294 0.258289
0.878401 0.0823682 0.273732
0.0885786 0.249516 0.236728
0.252934 0.249821 0.23978
0.455665 0.250538 0.246723
0.669779 0.251728 0.257984
0.887617 0.253422 0.273442
0.204669 0.458122 0.235981
0.320012 0.458289 0.239033
0.496803 0.458686 0.246006
0.698009 0.459358 0.257298
0.908614 0.460319 0.272786
0.325124 0.676341 0.234714
0.409628 0.676463 0.237781
0.558831 0.676722 0.244785
0.742718 0.67718 0.256123
0.942641 0.677821 0.271687
0.446937 0.897658 0.232898
0.511894 0.897734 0.235996
0.637095 0.897932 0.24303
0.802274 0.898268 0.254444
0.989258 0.898741 0.270085
0.0512398 0.196857 0.477791
0.235966 0.197223 0.479362
0.446113 0.198093 0.483009
0.663417 0.199542 0.489052
0.882933 0.201602 0.497597
0.11957 0.317479 0.477623
0.268345 0.317723 0.479194
0.464652 0.318303 0.482841
0.675853 0.319249 0.488884
0.892088 0.320623 0.497444
0.22295 0.499184 0.477241
0.33257 0.499352 0.478813
0.505043 0.499718 0.48246
0.703807 0.500328 0.488518
0.912978 0.501213 0.497063
0.337499 0.704387 0.476585
0.419593 0.704494 0.478172
0.566155 0.704753 0.481819
0.74815 0.70518 0.487877
0.946838 0.705806 0.496452
0.456092 0.918471 0.475654
0.519905 0.918563 0.477241
0.643473 0.918746 0.480903
0.807279 0.919081 0.486976
0.99324 0.919539 0.495552
0.108904 0.320333 0.718532
0.262806 0.320577 0.719554
0.461387 0.321141 0.72195
0.67364 0.322103 0.725933
0.890455 0.323461 0.731609
0.161944 0.407919 0.71841
0.292531 0.408118 0.719448
0.479332 0.40856 0.721843
0.685878 0.409323 0.725826
0.899535 0.410391 0.731502
0.251026 0.561166 0.718166
0.352667 0.561303 0.719203
0.518563 0.561624 0.721584
0.71342 0.562173 0.725567
0.920241 0.562966 0.731243
0.357336 0.748852 0.717739
0.435798 0.748959 0.718776
0.578195 0.749203 0.721172
0.757168 0.749599 0.725155
0.953811 0.750179 0.730831
0.471046 0.952239 0.717128
0.533028 0.952316 0.718166
0.654032 0.952499 0.720562
0.815579 0.952819 0.724544
0.999847 0.953262 0.730236
0.170123 0.443824 0.959258
0.297566 0.443992 0.960021
0.482475 0.444404 0.961761
0.688045 0.445106 0.964675
0.901152 0.446097 0.968841
0.211109 0.510872 0.959182
0.324376 0.511025 0.95993
0.499641 0.511391 0.961685
0.700008 0.511986 0.964599
0.910124 0.512856 0.968765
0.287068 0.639384 0.958999
0.379736 0.639506 0.959747
0.537362 0.639796 0.961501
0.726986 0.640269 0.964416
0.930556 0.640955 0.968582
0.3841 0.808133 0.958694
0.458061 0.808225 0.959442
0.595056 0.808438 0.961196
0.769894 0.80882 0.964111
0.963729 0.809354 0.968277
0.491707 0.99852 0.958251
0.551324 0.998596 0.958999
0.668894 0.998779 0.960754
0.827344 0.999069 0.963668
1 0.999481 0.967834
