assets/luts/LUTs/Knittel-M2S-No-Filter-MOV-H265-HLG.CUBE
TITLE "Generated by Resolve"
LUT_3D_SIZE 9
0 0 0
0.0144656 0.000198367 0.00164797
0.0763409 0.00108339 0.00872816
0.172946 0.0028687 0.0230869
0.272038 0.00573739 0.0460517
0.398871 0.011017 0.0885939
0.593942 0.0229801 0.162112
0.88687 0.050309 0.272496
1 0.110491 0.43595
0 0.0114748 0
0.0176089 0.0125277 0.000366217
0.0833753 0.0150454 0.00764477
0.178393 0.0185245 0.0220493
0.276463 0.0229496 0.0449989
0.402426 0.0299992 0.087541
0.596689 0.0442664 0.161349
0.88893 0.0744488 0.271931
1 0.132097 0.435554
0 0.0606088 0
0.0181888 0.0620737 0
0.0927749 0.0661173 0.00192264
0.188998 0.0720531 0.0169833
0.286564 0.0794232 0.0403296
0.411429 0.0903487 0.0832227
0.604166 0.108171 0.158556
0.894789 0.137621 0.270085
1 0.186007 0.434272
0 0.14612 0
0.0134585 0.147326 0
0.0972 0.150729 0
0.198154 0.155901 0.00508125
0.297429 0.162371 0.0293889
0.422629 0.17174 0.0729534
0.614572 0.187625 0.152483
0.903624 0.213748 0.266377
1 0.256367 0.431907
0 0.235447 0
0.00294499 0.236378 0
0.0955825 0.239063 0
0.203738 0.243305 0
0.306432 0.248798 0.0101167
0.43357 0.257038 0.0551308
0.626154 0.271458 0.141405
0.914397 0.295521 0.260075
1 0.334691 0.428138
0 0.349767 0
0 0.350484 0
0.0840467 0.352621 0
0.204974 0.356039 0
0.313741 0.360601 0
0.445014 0.367666 0.0194553
0.640314 0.380468 0.116915
0.929183 0.402487 0.247105
1 0.438773 0.420798
0 0.525612 0
0 0.526162 0
0.0434882 0.527779 0
0.193881 0.530434 0
0.31548 0.534035 0
0.455695 0.539773 0
0.658183 0.55053 0.0405737
0.951217 0.569848 0.211978
1 0.602777 0.402365
0 0.789654 0
0 0.790051 0
0 0.791272 0
0.141131 0.793256 0
0.2963 0.796002 0
0.455665 0.800458 0
0.673716 0.809033 0
0.978256 0.825101 0.0888685
1 0.853803 0.351659
0 1 0
0 1 0
0 1 0
0 1 0
0.205478 1 0
0.419211 1 0
0.671275 1 0
1 1 0
1 1 0.171527
0 0 0.00613413
0.0113222 0 0.0103304
0.0723888 0.00062562 0.019852
0.170138 0.00233463 0.0361028
0.269902 0.00512703 0.0606241
0.397208 0.0103456 0.103365
0.592706 0.0222171 0.17348
0.885954 0.0494392 0.28101
1 0.109667 0.442237
0 0.0112306 0.00848402
0.013138 0.0122072 0.0111696
0.0784314 0.0146181 0.0198367
0.175387 0.0180056 0.0356909
0.274235 0.0223545 0.0599832
0.400717 0.0293278 0.102632
0.595422 0.0435035 0.172854
0.887999 0.073579 0.280507
1 0.13135 0.441855
0 0.0603037 0.00445563
0.0124056 0.061738 0.00723278
0.0872511 0.0657054 0.0160525
0.185595 0.0715801 0.0320134
0.284123 0.0788739 0.0563363
0.409598 0.0897536 0.0993668
0.602838 0.107561 0.170504
0.893843 0.136995 0.278828
1 0.185443 0.44065
0 0.145876 0
0.00666819 0.147066 0
0.0909285 0.150454 0.00492866
0.1944 0.155596 0.0216678
0.294759 0.162036 0.0466773
0.420676 0.171374 0.0911116
0.613184 0.187228 0.165209
0.902632 0.213321 0.275425
1 0.25594 0.438392
0 0.235264 0
0 0.236179 0
0.0884871 0.238865 0
0.199634 0.243076 0.00263981
0.303563 0.248554 0.0287327
0.431479 0.256779 0.074464
0.624689 0.271168 0.155367
0.913375 0.295216 0.269551
1 0.334371 0.434775
0 0.349615 0
0 0.350332 0
0.0753338 0.352468 0
0.200443 0.355871 0
0.310628 0.360433 0
0.442786 0.367483 0.0402075
0.638758 0.380255 0.133532
0.9281 0.402258 0.257374
1 0.438514 0.427695
0 0.525505 0
0 0.52604 0
0.0339055 0.527672 0
0.18851 0.530312 0
0.311986 0.533913 0
0.453254 0.539635 0
0.656504 0.550393 0.0640116
0.950072 0.569696 0.224323
1 0.602594 0.409873
0 0.789563 0
0 0.789975 0
0 0.79118 0
0.133272 0.793179 0
0.292088 0.795926 0
0.452888 0.800366 0
0.671855 0.808942 0
0.97702 0.824994 0.112459
1 0.853681 0.360723
0 1 0
0 1 0
0 1 0
0 1 0
0.198795 1 0
0.415763 1 0
0.669154 1 0
0.999466 1 0
1 1 0.189441
0 0 0.0324254
9.15541e-05 0 0.0395056
0.0597543 0 0.0545663
0.161227 0.000656138 0.0758831
0.263264 0.00328069 0.10341
0.392126 0.00828565 0.141512
0.588907 0.019913 0.204623
0.883162 0.0468147 0.305303
1 0.107134 0.460594
0 0.0103456 0.0407111
0 0.0111696 0.0450446
0.063798 0.0132906 0.0573281
0.165866 0.016434 0.0771954
0.267308 0.0205692 0.103883
0.395499 0.0273289 0.141482
0.591577 0.0412299 0.204349
0.885191 0.0709697 0.304967
1 0.129122 0.460273
0 0.0593118 0.04477
0 0.0606699 0.0482643
0.0693217 0.0644541 0.0589914
0.174945 0.0700999 0.0775158
0.27657 0.0771801 0.103288
0.404059 0.0879225 0.140383
0.59884 0.105669 0.203052
0.890959 0.135149 0.303731
1 0.183749 0.459251
0 0.145098 0.0392157
0 0.146273 0.0426795
0.0704051 0.149584 0.053315
0.182666 0.15465 0.0717479
0.286564 0.160998 0.0980697
0.414725 0.170245 0.136004
0.608972 0.186007 0.199588
0.899672 0.212039 0.301106
1 0.254673 0.457298
0 0.234668 0.0235447
0 0.235584 0.0271763
0.0654459 0.238239 0.0382086
0.186862 0.242405 0.0571756
0.294743 0.247837 0.084947
0.425162 0.255985 0.126024
0.620249 0.270298 0.192569
0.910292 0.29427 0.296376
1 0.333379 0.454109
0 0.349172 0
0 0.349889 0
0.0498207 0.351995 0.00444038
0.186267 0.355383 0.0244144
0.301076 0.359915 0.0531624
0.435996 0.366918 0.101442
0.634058 0.379644 0.17641
0.92488 0.401572 0.286229
1 0.437781 0.447791
0 0.525154 0
0 0.525704 0
0.00512703 0.527321 0
0.171603 0.529961 0
0.301274 0.533547 0
0.445823 0.539254 0.0245518
0.651423 0.549966 0.127382
0.946624 0.569223 0.258305
1 0.602075 0.431617
0 0.789319 0
0 0.789715 0
0 0.790921 0
0.107469 0.79292 0
0.279088 0.795651 0
0.444434 0.800092 0
0.666255 0.808652 0
0.973266 0.824689 0.16907
1 0.853346 0.386679
0 1 0
0 1 0
0 1 0
0 1 0
0.177539 1 0
0.405203 1 0
0.66273 1 0
0.995315 1 0
1 1 0.236423
0 0 0.0859693
0 0 0.094667
0.0365301 0 0.112963
0.144549 0 0.134798
0.251484 0.000122072 0.159152
0.383352 0.00482185 0.192874
0.582467 0.016022 0.249546
0.878462 0.0424201 0.342382
1 0.102815 0.489708
0 0.00851453 0.0984817
0 0.00914015 0.104036
0.0379644 0.0109102 0.118196
0.148272 0.0137026 0.137621
0.25507 0.0175174 0.160662
0.386496 0.0239261 0.193561
0.585031 0.0373846 0.249683
0.880461 0.0666056 0.342229
1 0.125322 0.489479
0 0.057496 0.111238
0 0.0587472 0.114977
0.03888 0.0622568 0.125673
0.15555 0.0675669 0.142138
0.26334 0.0743114 0.163195
0.394507 0.0847791 0.194598
0.592035 0.102449 0.249622
0.886122 0.131991 0.341619
1 0.180865 0.488716
0 0.14374 0.114885
0 0.144869 0.118196
0.0356603 0.148089 0.12784
0.161395 0.153002 0.143145
0.272251 0.159228 0.163241
0.404547 0.168322 0.193835
0.601846 0.183932 0.248249
0.894667 0.209873 0.340032
1 0.252506 0.487221
0 0.233677 0.109194
0 0.234562 0.112551
0.0268864 0.237156 0.122347
0.163668 0.24126 0.137911
0.279393 0.246601 0.158328
0.414328 0.254658 0.189319
0.612757 0.268849 0.244312
0.905119 0.292683 0.336782
1 0.331731 0.484688
0 0.348409 0.0865797
0 0.349111 0.090547
0.00709545 0.351186 0.101946
0.160388 0.354543 0.119631
0.284428 0.35903 0.14229
0.424414 0.365988 0.17586
0.626108 0.378607 0.23389
0.919448 0.400427 0.329274
1 0.436545 0.479454
0 0.52459 0.0124208
0 0.525139 0.016846
0 0.526741 0.0301823
0.140032 0.529351 0.0526894
0.282536 0.532921 0.0849012
0.433112 0.538598 0.130724
0.642832 0.549264 0.201373
0.940826 0.568444 0.307576
1 0.601221 0.465644
0 0.788907 0
0 0.789303 0
0 0.790509 0
0.0548257 0.792493 0
0.256077 0.795224 0
0.429969 0.799634 0
0.656779 0.808179 0.0769055
0.96698 0.82417 0.239887
1 0.852766 0.426566
0 1 0
0 1 0
0 1 0
0 1 0
0.136797 1 0
0.386984 1 0
0.65185 1 0
0.988342 1 0
1 1 0.300542
0 0 0.153368
0 0 0.160433
0.000503548 0 0.176883
0.116625 0 0.197314
0.23331 0 0.220005
0.370352 0 0.251072
0.573159 0.010544 0.303029
0.871778 0.0362249 0.388876
1 0.0965591 0.527825
0 0.00541695 0.164691
0 0.00588998 0.169772
0 0.00729381 0.182956
0.119158 0.00967422 0.201053
0.236316 0.0131228 0.222309
0.373205 0.019089 0.252369
0.575601 0.0319677 0.303548
0.873716 0.0604562 0.388952
1 0.119875 0.527703
0 0.0546426 0.180606
0 0.0557565 0.183993
0 0.0589456 0.193637
0.123888 0.0638437 0.208392
0.243259 0.0701762 0.227176
0.380499 0.079942 0.255177
0.582269 0.0977798 0.304662
0.87924 0.127474 0.388998
1 0.176761 0.527276
0 0.141695 0.190265
0 0.142763 0.193011
0 0.145846 0.201068
0.126787 0.150607 0.213931
0.250645 0.156649 0.230991
0.389639 0.16556 0.257343
0.591592 0.180987 0.305257
0.887572 0.20679 0.38851
1 0.249454 0.526314
0 0.232197 0.192828
0 0.233066 0.195377
0 0.235599 0.202884
0.125765 0.239597 0.21503
0.256275 0.244831 0.231373
0.398535 0.252766 0.256962
0.602014 0.266773 0.304097
0.897765 0.290455 0.386847
1 0.329397 0.524529
0 0.347295 0.185916
0 0.347997 0.188495
0 0.350042 0.196094
0.117372 0.353353 0.208408
0.259358 0.357778 0.224979
0.407523 0.364645 0.250874
0.61474 0.377142 0.298543
0.911742 0.39881 0.382025
1 0.434791 0.520592
0 0.523781 0.150546
0 0.524315 0.153658
0 0.525902 0.162768
0.0842451 0.528511 0.177295
0.254124 0.532052 0.196414
0.414618 0.537667 0.225635
0.630564 0.548272 0.277836
0.932616 0.567346 0.366384
1 0.6 0.509514
0 0.788312 0
0 0.788708 0
0 0.789914 0.0149233
0 0.791882 0.0402075
0.22031 0.794598 0.0759289
0.408804 0.798993 0.128435
0.643244 0.807507 0.205112
0.958083 0.823438 0.316075
1 0.851942 0.476921
0 1 0
0 1 0
0 1 0
0 1 0
0.0595102 1 0
0.359945 1 0
0.636286 1 0
0.978485 1 0.107652
1 1 0.373434
0 0 0.239643
0 0 0.245319
0 0 0.259693
0.0534981 0 0.278599
0.198138 0 0.299947
0.346883 0 0.32903
0.557046 0.00131228 0.377096
0.860456 0.0259098 0.456168
1 0.0855726 0.585534
0 0 0.249424
0 0 0.253971
0 0.000717174 0.266056
0.0537423 0.00260929 0.282994
0.200259 0.00552377 0.302937
0.349294 0.0108492 0.330907
0.559274 0.0228428 0.378042
0.862303 0.0502022 0.456519
1 0.110414 0.585565
0 0.0492714 0.266758
0 0.0502174 0.269917
0 0.0529641 0.278889
0.0530861 0.0572976 0.292561
0.205081 0.0630198 0.30985
0.355459 0.0720684 0.335439
0.565393 0.089601 0.380423
0.867582 0.119661 0.457359
1 0.169772 0.58555
0 0.137942 0.280842
0 0.138949 0.283299
0 0.141848 0.290486
0.049134 0.146365 0.30193
0.209857 0.152163 0.317067
0.36318 0.1608 0.340444
0.573983 0.175937 0.383108
0.875563 0.201572 0.458213
1 0.244312 0.585321
0 0.229603 0.289525
0 0.230442 0.291646
0 0.232868 0.297948
0.0402533 0.236728 0.308202
0.21265 0.241794 0.322057
0.370581 0.249516 0.343938
0.583566 0.263264 0.384863
0.885344 0.286671 0.458412
1 0.325475 0.584543
0 0.345403 0.292576
0 0.346075 0.29456
0 0.348074 0.30045
0.0207523 0.351308 0.310094
0.211872 0.355627 0.323278
0.377707 0.362356 0.344305
0.59527 0.37467 0.384161
0.898772 0.396109 0.456718
1 0.431876 0.582315
0 0.522408 0.280629
0 0.522942 0.282658
0 0.524514 0.288685
0 0.527062 0.298543
0.199405 0.530556 0.312016
0.381903 0.536126 0.333471
0.609598 0.546593 0.37406
0.918822 0.565515 0.447745
1 0.597971 0.574777
0 0.78732 0.218875
0 0.787717 0.221485
0 0.788907 0.229191
0 0.79086 0.241642
0.1467 0.793561 0.258289
0.371084 0.797925 0.28423
0.620096 0.806378 0.331624
0.943114 0.822217 0.414054
1 0.850599 0.550195
0 1 0
0 1 0
0 1 0
0 1 0
0 1 0
0.310262 1 0.0363317
0.609567 1 0.154498
0.961913 1 0.292546
1 1 0.470542
0 0 0.372335
0 0 0.37673
0 0 0.388586
0 0 0.405356
0.093904 0 0.425025
0.290806 0 0.452171
0.521599 0 0.496757
0.836606 0.00480659 0.569146
1 0.0616465 0.687205
0 0 0.380301
0 0 0.384131
0 0 0.39469
0 0 0.41004
0.0939956 0 0.42855
0.292393 0 0.454612
0.523461 0.00399786 0.498207
0.838285 0.0292363 0.569833
1 0.0894026 0.687434
0 0.0366064 0.397391
0 0.0373236 0.40029
0 0.0394293 0.408576
0 0.0428931 0.421256
0.0934005 0.0476692 0.437293
0.296407 0.0554971 0.460929
0.528542 0.0712444 0.502068
0.843107 0.102556 0.57174
1 0.154864 0.68806
0 0.129137 0.41474
0 0.130037 0.416999
0 0.132662 0.423575
0 0.136782 0.434028
0.0903182 0.142184 0.447791
0.301244 0.150393 0.46891
0.535714 0.165087 0.507179
0.850416 0.190524 0.574319
1 0.233585 0.688884
0 0.223804 0.428809
0 0.224567 0.430686
0 0.226825 0.436225
0 0.230442 0.445228
0.0829328 0.235233 0.457374
0.30544 0.242588 0.476509
0.543694 0.255863 0.512291
0.859388 0.278828 0.576928
1 0.317403 0.689601
0 0.341314 0.440589
0 0.341955 0.442222
0 0.343862 0.447089
0 0.346944 0.455055
0.0651713 0.351095 0.46598
0.308263 0.35758 0.483513
0.553307 0.369528 0.517037
0.871717 0.390509 0.579202
1 0.425895 0.689815
0 0.519539 0.446021
0 0.520058 0.447517
0 0.521569 0.451972
0 0.524071 0.459358
0.0192569 0.527474 0.469535
0.305257 0.532891 0.48603
0.564492 0.543145 0.518013
0.890089 0.56173 0.578302
1 0.59382 0.687297
0 0.78529 0.426856
0 0.785687 0.428397
0 0.786847 0.43299
0 0.788769 0.440589
0 0.79144 0.451057
0.280507 0.795743 0.468009
0.570275 0.804074 0.500816
0.912032 0.81973 0.562493
1 0.847852 0.673472
0 1 0.326848
0 1 0.328923
0 1 0.335103
0 1 0.345205
0 1 0.358953
0.176471 1 0.380758
0.551537 1 0.421744
0.927474 1 0.495491
1 1 0.621347
0 0 0.571572
0 0 0.574868
0 0 0.584207
0 0 0.598245
0 0 0.615595
0.102602 0 0.640375
0.435477 0 0.681773
0.783948 0 0.748592
1 0.0131228 0.855985
0 0 0.577768
0 0 0.580819
0 0 0.589517
0 0 0.602747
0 0 0.619287
0.101946 0 0.643229
0.436637 0 0.68368
0.785336 0 0.749676
1 0.0410163 0.856489
0 0.00593576 0.593027
0 0.00637827 0.59556
0 0.00775158 0.602899
0 0.010132 0.614328
0 0.0135805 0.629023
0.0995956 0.0195773 0.650889
0.439811 0.0325322 0.688945
0.789319 0.0611124 0.752743
1 0.12047 0.857939
0 0.106325 0.611475
0 0.107103 0.61355
0 0.109407 0.619577
0 0.113115 0.629206
0 0.118074 0.641917
0.0944991 0.125826 0.661372
0.444205 0.140169 0.696452
0.795346 0.16582 0.757275
1 0.210193 0.860105
0 0.209918 0.629282
0 0.210605 0.631006
0 0.212604 0.636072
0 0.215854 0.644282
0 0.220203 0.655344
0.0852369 0.227008 0.672679
0.448905 0.239567 0.70489
0.802762 0.26186 0.76257
1 0.300237 0.862715
0 0.332036 0.648173
0 0.332631 0.649607
0 0.334371 0.653895
0 0.337224 0.660899
0 0.34107 0.670497
0.0653239 0.347143 0.685832
0.454032 0.35845 0.715114
0.812955 0.378683 0.769238
1 0.413382 0.866026
0 0.513313 0.667643
0 0.513802 0.668864
0 0.515236 0.672511
0 0.517601 0.678538
0 0.520836 0.68687
0.0170138 0.526024 0.700389
0.457969 0.535866 0.726772
0.82797 0.553872 0.777035
1 0.58526 0.869688
0 0.781018 0.676402
0 0.781399 0.677516
0 0.782528 0.680827
0 0.784405 0.686336
0 0.786984 0.69398
0 0.791165 0.706493
0.451652 0.799298 0.731136
0.844984 0.814603 0.778836
1 0.842222 0.868498
0 1 0.647013
0 1 0.648157
0 1 0.651591
0 1 0.657282
0 1 0.665187
0 1 0.678096
0.408881 1 0.703517
0.853086 1 0.752605
1 1 0.844541
0 0 0.866636
0 0 0.869062
0 0 0.876158
0 0 0.887297
0 0 0.901732
0 0 0.923323
0.110567 0 0.960845
0.65478 0 1
1 0 1
0 0 0.87129
0 0 0.87364
0 0 0.880446
0 0 0.891203
0 0 0.905196
0 0 0.926238
0.109377 0 0.963043
0.655619 0 1
1 0 1
0 0 0.883848
0 0 0.885939
0 0 0.892088
0 0 0.901869
0 0 0.914733
0 0 0.93434
0.105577 0 0.969238
0.65803 0 1
1 0.0261234 1
0 0.0385748 0.901137
0 0.0391699 0.902953
0 0.0409552 0.908293
0 0.0439765 0.916899
0 0.0482338 0.928389
0 0.055436 0.946166
0.098497 0.0703899 0.978485
0.661677 0.100984 1
1 0.153079 1
0 0.172961 0.92018
0 0.173556 0.921736
0 0.175311 0.92636
0 0.17818 0.933883
0 0.182101 0.944015
0 0.188373 0.959976
0.0870069 0.20029 0.989609
0.666087 0.222263 1
1 0.261418 1
0 0.309346 0.943511
0 0.309865 0.944823
0 0.311406 0.94873
0 0.313909 0.955154
0 0.317342 0.963912
0 0.32282 0.977905
0.0641184 0.333242 1
0.671946 0.352361 1
1 0.386175 1
0 0.499046 0.973754
0 0.499474 0.974838
0 0.500801 0.978058
0 0.502953 0.983368
0 0.505928 0.990692
0 0.510704 1
0.0119783 0.519875 1
0.679744 0.536873 1
1 0.567071 1
0 0.77171 1
0 0.772076 1
0 0.773144 1
0 0.774914 1
0 0.777356 1
0 0.781338 1
0 0.789075 1
0.685267 0.803738 1
1 0.830442 1
0 1 1
0 1 1
0 1 1
0 1 1
0 1 1
0 1 1
0 1 1
0.674357 1 1
1 1 1
