assets/luts/LUTs/Knittel-M2S-Creative-Highlight-Enhance.CUBE
LUT_3D_SIZE 16
0.000000 0.000000 0.000000
0.071568 -0.019153 -0.019153
0.143139 -0.038306 -0.038306
0.214703 -0.057458 -0.057458
0.286265 -0.076611 -0.076611
0.357830 -0.095760 -0.095760
0.429399 -0.114913 -0.114913
0.500943 -0.134071 -0.134071
0.572544 -0.153222 -0.153222
0.644112 -0.172380 -0.172380
0.715604 -0.191524 -0.191524
0.787301 -0.210705 -0.210705
0.858762 -0.229829 -0.229829
0.930494 -0.249015 -0.249015
1.001899 -0.268142 -0.268142
1.073529 -0.287311 -0.287311
0.015163 0.066351 0.015163
0.066658 0.066658 0.006461
0.149317 0.053848 -0.063202
0.218972 0.026954 -0.072340
0.289254 -0.053692 -0.086681
0.360036 -0.080846 -0.103165
0.431125 -0.103888 -0.120659
0.502361 -0.125392 -0.138703
0.573723 -0.146136 -0.157081
0.645095 -0.166435 -0.175668
0.716522 -0.186429 -0.194342
0.788046 -0.206249 -0.213180
0.859464 -0.225905 -0.232017
0.931041 -0.245508 -0.250969
1.002434 -0.264982 -0.269903
1.074012 -0.284444 -0.288902
0.030326 0.132699 0.030326
0.069874 0.132789 0.031027
0.133317 0.133317 0.012920
0.225174 0.122960 -0.122313
0.298611 0.107701 -0.126403
0.368243 0.088805 -0.133588
0.437945 0.053902 -0.144669
0.508032 -0.069229 -0.158241
0.578515 -0.107385 -0.173364
0.649251 -0.136287 -0.189496
0.720053 -0.161688 -0.206321
0.791181 -0.185307 -0.223660
0.862253 -0.207765 -0.241324
0.933570 -0.229570 -0.259303
1.004700 -0.250785 -0.277411
1.076042 -0.271681 -0.295725
0.045484 0.199042 0.045484
0.075964 0.199083 0.045886
0.135757 0.199313 0.047548
0.199972 0.199972 0.019380
0.294793 0.192434 -0.174672
0.376210 0.176744 -0.186006
0.447923 0.161538 -0.189609
0.517645 0.143966 -0.196002
0.587186 0.120239 -0.205396
0.656979 0.080796 -0.217002
0.727006 -0.074497 -0.230252
0.797313 -0.125893 -0.244717
0.867722 -0.161069 -0.260034
0.938536 -0.190785 -0.276059
1.009193 -0.217517 -0.292554
1.080153 -0.242554 -0.309509
0.060650 0.265399 0.060650
0.084483 0.265424 0.060920
0.139751 0.265582 0.062053
0.202102 0.265872 0.064266
0.266640 0.266640 0.025842
0.360638 0.261681 -0.216851
0.450318 0.245910 -0.244628
0.526052 0.230673 -0.249056
0.597271 0.215394 -0.252811
0.667025 0.198363 -0.258822
0.736472 0.177604 -0.267174
0.806104 0.150109 -0.277507
0.875911 0.107809 -0.289335
0.945989 -0.069188 -0.302455
1.016064 -0.138460 -0.316475
1.086476 -0.180614 -0.331295
0.075811 0.331754 0.075811
0.094833 0.331777 0.076010
0.145167 0.331869 0.076842
0.205394 0.332094 0.078502
0.268574 0.332434 0.081054
0.333292 0.333292 0.032301
0.425424 0.330275 -0.252014
0.521291 0.315331 -0.299679
0.601955 0.299630 -0.308737
0.675709 0.284576 -0.312112
0.746572 0.269240 -0.316003
0.816416 0.252464 -0.321791
0.885876 0.233121 -0.329447
0.955465 0.209562 -0.338860
1.025020 0.179162 -0.349687
1.094894 0.134700 -0.361707
0.090969 0.398075 0.090969
0.106491 0.398075 0.091129
0.151929 0.398167 0.091773
0.209629 0.398352 0.093085
0.271521 0.398613 0.095098
0.335095 0.398991 0.097879
0.399932 0.399932 0.038760
0.489996 0.398364 -0.282374
0.589564 0.384871 -0.349342
0.675532 0.368826 -0.366959
0.752439 0.353509 -0.372012
0.825220 0.338487 -0.375165
0.895856 0.323100 -0.379214
0.965765 0.306489 -0.384824
1.035261 0.287935 -0.392017
1.104834 0.266400 -0.400733
0.106138 0.464423 0.106138
0.119049 0.464442 0.106261
0.159918 0.464501 0.106784
0.214805 0.464634 0.107833
0.275153 0.464848 0.109493
0.337810 0.465156 0.111787
0.401645 0.465580 0.114719
0.466584 0.466584 0.045217
0.554792 0.466059 -0.309323
0.655998 0.454262 -0.393692
0.746930 0.438235 -0.422706
0.827450 0.422513 -0.431283
0.902384 0.407437 -0.435051
0.974615 0.392376 -0.438284
1.045136 0.376928 -0.442399
1.115119 0.360437 -0.447893
0.121304 0.530795 0.121304
0.132247 0.530812 0.121402
0.168962 0.530843 0.121842
0.220898 0.530993 0.122721
0.279504 0.531160 0.124103
0.341095 0.531394 0.126033
0.404200 0.531732 0.128525
0.468175 0.532189 0.131592
0.533276 0.533276 0.051683
0.619723 0.533539 -0.333639
0.721235 0.523393 -0.433707
0.816549 0.507749 -0.475373
0.900604 0.491844 -0.489254
0.978369 0.476389 -0.494829
1.052124 0.461360 -0.498092
1.123961 0.446296 -0.501429
0.136465 0.597149 0.136465
0.145876 0.597160 0.136553
0.178930 0.597207 0.136925
0.227897 0.597306 0.137673
0.284567 0.597457 0.138854
0.344951 0.597681 0.140507
0.407251 0.597957 0.142660
0.470663 0.598306 0.145306
0.534785 0.598763 0.148457
0.599969 0.599969 0.058144
0.684872 0.600813 -0.355797
0.786279 0.592124 -0.470335
0.884298 0.577359 -0.524030
0.972403 0.561199 -0.545375
1.052679 0.545515 -0.553768
1.128622 0.530276 -0.558001
0.151624 0.663494 0.151624
0.159836 0.663504 0.151698
0.189659 0.663549 0.152021
0.235667 0.663639 0.152664
0.290326 0.663736 0.153688
0.349361 0.663947 0.155131
0.410792 0.664162 0.157004
0.473536 0.664509 0.159333
0.537172 0.664885 0.162107
0.601344 0.665294 0.165317
0.666570 0.666570 0.064603
0.750351 0.667954 -0.376674
0.850827 0.660535 -0.504012
0.951069 0.646710 -0.569169
1.042583 0.630674 -0.599360
1.125829 0.614734 -0.611563
0.166790 0.729841 0.166790
0.174032 0.729855 0.166863
0.201063 0.729831 0.167137
0.244226 0.729954 0.167710
0.296775 0.730064 0.168604
0.354418 0.730258 0.169865
0.414744 0.730458 0.171527
0.476811 0.730751 0.173582
0.539915 0.731067 0.176051
0.603698 0.731487 0.178934
0.667899 0.731981 0.182211
0.733305 0.733305 0.071067
0.815755 0.734987 -0.395714
0.915548 0.728733 -0.535496
1.016628 0.716013 -0.611123
1.111494 0.700257 -0.650589
0.181935 0.796188 0.181935
0.188386 0.796168 0.182003
0.212974 0.796146 0.182246
0.253434 0.796224 0.182764
0.303852 0.796348 0.183543
0.359925 0.796502 0.184654
0.419271 0.796734 0.186156
0.480509 0.796910 0.187971
0.543024 0.797247 0.190198
0.606366 0.797534 0.192781
0.670203 0.798011 0.195763
0.734551 0.798445 0.199084
0.799876 0.799876 0.077520
0.881699 0.801875 -0.414479
0.980015 0.796752 -0.564751
1.082011 0.785037 -0.650630
0.197123 0.862572 0.197123
0.202898 0.862581 0.197190
0.225362 0.862617 0.197390
0.263282 0.862691 0.197859
0.311541 0.862751 0.198558
0.366053 0.862918 0.199562
0.424202 0.863081 0.200899
0.484624 0.863244 0.202540
0.546492 0.863547 0.204553
0.609344 0.863896 0.206887
0.672746 0.864255 0.209584
0.736843 0.864704 0.212628
0.801000 0.865148 0.215995
0.866634 0.866634 0.083991
0.947272 0.868889 -0.431195
1.044708 0.864619 -0.592337
0.212271 0.928840 0.212271
0.217489 0.928848 0.212315
0.238090 0.928883 0.212529
0.273626 0.928916 0.212913
0.319822 0.928959 0.213574
0.372654 0.929120 0.214471
0.429608 0.929264 0.215660
0.489103 0.929428 0.217172
0.550317 0.929688 0.218989
0.612580 0.929982 0.221103
0.675608 0.930300 0.223565
0.739286 0.930694 0.226343
0.803253 0.931151 0.229442
0.867742 0.931620 0.232865
0.933173 0.933173 0.090435
1.013336 0.935629 -0.448278
0.227445 0.995228 0.227445
0.232203 0.995236 0.227487
0.251160 0.995269 0.227658
0.284505 0.995283 0.228027
0.328646 0.995398 0.228613
0.379835 0.995552 0.229445
0.435492 0.995653 0.230542
0.494022 0.995804 0.231899
0.554468 0.996016 0.233552
0.616189 0.996290 0.235503
0.678733 0.996565 0.237756
0.742102 0.996973 0.240311
0.805706 0.997333 0.243161
0.869945 0.997710 0.246317
0.934130 0.998219 0.249758
0.999858 0.999858 0.096909
0.005832 0.005832 0.065623
0.065867 0.010331 0.065867
0.134574 -0.016429 0.066510
0.209536 -0.048243 0.057159
0.282995 -0.071199 0.014197
0.355661 -0.092305 -0.065803
0.427964 -0.112688 -0.094338
0.500029 -0.132703 -0.118646
0.572044 -0.152526 -0.141195
0.643947 -0.172218 -0.162772
0.715626 -0.191619 -0.183546
0.787263 -0.210766 -0.203750
0.858721 -0.229885 -0.223707
0.930451 -0.249060 -0.243549
1.001867 -0.268178 -0.263210
1.073495 -0.287338 -0.282852
0.015782 0.066428 0.066428
0.066668 0.066668 0.066668
0.141350 0.060290 0.060290
0.213688 0.043055 0.043055
0.285602 -0.042844 -0.042844
0.357336 -0.075198 -0.075198
0.429022 -0.099972 -0.099972
0.500669 -0.122393 -0.122393
0.572305 -0.143722 -0.143722
0.643919 -0.164426 -0.164426
0.715531 -0.184697 -0.184697
0.787105 -0.204765 -0.204765
0.858632 -0.224594 -0.224594
0.930316 -0.244346 -0.244346
1.001782 -0.263936 -0.263936
1.073448 -0.283501 -0.283501
0.030565 0.132728 0.069731
0.069954 0.132819 0.069954
0.133320 0.133320 0.067106
0.223992 0.122875 -0.098492
0.296258 0.109486 -0.103636
0.366072 0.092217 -0.114020
0.436077 0.061285 -0.128175
0.506460 -0.062710 -0.144275
0.577166 -0.103891 -0.161419
0.648044 -0.133752 -0.179170
0.719039 -0.159681 -0.197298
0.790260 -0.183618 -0.215685
0.861460 -0.206331 -0.234206
0.932827 -0.228325 -0.252899
1.004058 -0.249678 -0.271610
1.075495 -0.270689 -0.290461
0.045620 0.199050 0.075836
0.076031 0.199106 0.076031
0.135785 0.199335 0.076867
0.199974 0.199974 0.067976
0.294969 0.192030 -0.163617
0.375239 0.177024 -0.173617
0.446651 0.162494 -0.177727
0.516374 0.145542 -0.185096
0.586003 0.122598 -0.195500
0.655872 0.085172 -0.208103
0.725989 -0.068845 -0.222232
0.796456 -0.123196 -0.237462
0.867008 -0.159129 -0.253457
0.937833 -0.189232 -0.270075
1.008568 -0.216209 -0.287081
1.079623 -0.241421 -0.304469
0.060743 0.265412 0.084373
0.084539 0.265438 0.084539
0.139780 0.265582 0.085261
0.202124 0.265885 0.086697
0.266641 0.266641 0.069342
0.360964 0.261428 -0.210061
0.449961 0.245833 -0.236723
0.525344 0.230967 -0.240995
0.596425 0.216024 -0.245036
0.666165 0.199286 -0.251490
0.735767 0.178882 -0.260334
0.805429 0.151885 -0.271143
0.875153 0.110771 -0.283463
0.945338 -0.062942 -0.297024
1.015462 -0.136147 -0.311430
1.085938 -0.179017 -0.326619
0.075878 0.331761 0.094744
0.094883 0.331785 0.094883
0.145195 0.331877 0.095503
0.205401 0.332102 0.096718
0.268587 0.332442 0.098646
0.333292 0.333292 0.071231
0.425674 0.330127 -0.247076
0.521224 0.315184 -0.294184
0.601574 0.299677 -0.302914
0.675157 0.284849 -0.306284
0.745955 0.269695 -0.310383
0.815795 0.253108 -0.316402
0.885264 0.233953 -0.324350
0.954914 0.210612 -0.334044
1.024477 0.180585 -0.345119
1.094383 0.136880 -0.357431
0.091021 0.398085 0.106411
0.106537 0.398085 0.106537
0.151954 0.398177 0.107055
0.209651 0.398363 0.108099
0.271518 0.398623 0.109757
0.335103 0.399002 0.112043
0.399933 0.399933 0.073607
0.490194 0.398267 -0.278405
0.589670 0.384714 -0.345354
0.675351 0.368756 -0.362522
0.752024 0.353581 -0.367477
0.824743 0.338703 -0.370732
0.895354 0.323444 -0.374871
0.965342 0.306966 -0.380606
1.034769 0.288530 -0.388012
1.104327 0.267125 -0.396930
0.106172 0.464430 0.118979
0.119077 0.464448 0.119077
0.159932 0.464507 0.119529
0.214827 0.464640 0.120431
0.275166 0.464855 0.121849
0.337838 0.465162 0.123832
0.401655 0.465586 0.126392
0.466585 0.466585 0.076478
0.554885 0.466016 -0.305946
0.656107 0.454133 -0.390609
0.746896 0.438154 -0.419247
0.827248 0.422522 -0.427699
0.902062 0.407521 -0.431426
0.974285 0.392564 -0.434693
1.044765 0.377201 -0.438901
1.114736 0.360842 -0.444507
0.121333 0.530801 0.132182
0.132263 0.530818 0.132263
0.168976 0.530849 0.132656
0.220920 0.530999 0.133439
0.279517 0.531166 0.134669
0.341103 0.531400 0.136398
0.404210 0.531738 0.138639
0.468181 0.532195 0.141391
0.533276 0.533276 0.079791
0.619844 0.533493 -0.330651
0.721442 0.523268 -0.431202
0.816555 0.507679 -0.472644
0.900487 0.491803 -0.486322
0.978156 0.476405 -0.491843
1.051844 0.461465 -0.495134
1.123621 0.446460 -0.498472
0.136498 0.597153 0.145826
0.145902 0.597164 0.145902
0.178954 0.597210 0.146237
0.227896 0.597310 0.146926
0.284580 0.597461 0.147999
0.344959 0.597685 0.149514
0.407261 0.597960 0.151499
0.470669 0.598310 0.153926
0.534792 0.598766 0.156854
0.599969 0.599969 0.083503
0.684988 0.600790 -0.353135
0.786393 0.592052 -0.468235
0.884363 0.577264 -0.521741
0.972354 0.561128 -0.542973
1.052556 0.545512 -0.551322
1.128457 0.530344 -0.555471
0.151653 0.663498 0.159784
0.159850 0.663508 0.159850
0.189682 0.663552 0.160155
0.235689 0.663642 0.160740
0.290339 0.663740 0.161697
0.349368 0.663950 0.163037
0.410801 0.664165 0.164786
0.473542 0.664512 0.166972
0.537178 0.664889 0.169566
0.601348 0.665297 0.172616
0.666571 0.666571 0.087555
0.750407 0.667899 -0.374257
0.850855 0.660519 -0.502164
0.951162 0.646666 -0.567268
1.042543 0.630614 -0.597317
1.125726 0.614710 -0.609447
0.166823 0.729846 0.173996
0.174042 0.729860 0.174042
0.201073 0.729836 0.174303
0.244239 0.729959 0.174854
0.296788 0.730069 0.175688
0.354361 0.730263 0.176902
0.414755 0.730463 0.178466
0.476817 0.730756 0.180411
0.539920 0.731071 0.182761
0.603701 0.731491 0.185478
0.667902 0.731986 0.188602
0.733305 0.733305 0.091929
0.815801 0.734969 -0.393439
0.915597 0.728745 -0.533823
1.016701 0.716035 -0.609499
1.111507 0.700187 -0.648812
0.181959 0.796191 0.188340
0.188404 0.796171 0.188404
0.212996 0.796149 0.188635
0.253448 0.796227 0.189117
0.303864 0.796351 0.189869
0.359935 0.796505 0.190942
0.419229 0.796737 0.192342
0.480515 0.796913 0.194108
0.543030 0.797250 0.196233
0.606370 0.797537 0.198723
0.670206 0.798014 0.201546
0.734555 0.798448 0.204764
0.799877 0.799877 0.096554
0.881737 0.801865 -0.412365
0.980014 0.796712 -0.563256
1.082086 0.784972 -0.649193
0.197146 0.862575 0.202875
0.202920 0.862584 0.202920
0.225373 0.862620 0.203139
0.263295 0.862694 0.203564
0.311553 0.862754 0.204243
0.366064 0.862921 0.205233
0.424209 0.863084 0.206494
0.484630 0.863247 0.208084
0.546499 0.863550 0.210001
0.609347 0.863899 0.212278
0.672749 0.864258 0.214870
0.736848 0.864707 0.217815
0.801003 0.865151 0.221069
0.866634 0.866634 0.101421
0.947304 0.868881 -0.429184
1.044767 0.864586 -0.590966
0.212293 0.928843 0.217471
0.217497 0.928851 0.217497
0.238104 0.928886 0.217700
0.273639 0.928918 0.218081
0.319830 0.928962 0.218716
0.372664 0.929123 0.219586
0.429615 0.929267 0.220746
0.489109 0.929431 0.222216
0.550323 0.929691 0.223966
0.612584 0.929985 0.226019
0.675611 0.930303 0.228403
0.739291 0.930697 0.231102
0.803256 0.931153 0.234124
0.867745 0.931623 0.237446
0.933174 0.933174 0.106466
1.013354 0.935623 -0.446397
0.227445 0.995230 0.232187
0.232224 0.995238 0.232224
0.251174 0.995272 0.232380
0.284518 0.995286 0.232744
0.328654 0.995400 0.233305
0.379846 0.995555 0.234127
0.435499 0.995656 0.235181
0.494028 0.995807 0.236510
0.554473 0.996018 0.238117
0.616193 0.996293 0.240020
0.678736 0.996568 0.242206
0.742107 0.996976 0.244697
0.805709 0.997336 0.247481
0.869948 0.997713 0.250561
0.934133 0.998221 0.253922
0.999858 0.999858 0.111693
0.011664 0.011664 0.131247
0.066216 0.014031 0.131340
0.131737 0.020662 0.131737
0.197417 0.028852 0.132516
0.269140 -0.032861 0.133017
0.344524 -0.069675 0.127322
0.419082 -0.096491 0.114313
0.492801 -0.120179 0.090922
0.565984 -0.142400 0.028352
0.638790 -0.163776 -0.093925
0.711304 -0.184609 -0.131605
0.783760 -0.205118 -0.161836
0.855918 -0.225355 -0.188665
0.928100 -0.245484 -0.213632
1.000051 -0.265409 -0.237297
1.072088 -0.285285 -0.260166
0.018116 0.066776 0.131559
0.067007 0.067007 0.131649
0.132029 0.068004 0.132029
0.197640 0.069915 0.132828
0.271268 0.056169 0.132293
0.346503 -0.040476 0.125004
0.420712 -0.081709 0.110489
0.494156 -0.109896 0.084572
0.567118 -0.134476 -0.036648
0.639758 -0.157338 -0.100272
0.712121 -0.179208 -0.135808
0.784450 -0.200497 -0.165091
0.856556 -0.221319 -0.191351
0.928739 -0.241901 -0.215917
1.000583 -0.262201 -0.239297
1.072603 -0.282389 -0.261941
0.031565 0.132858 0.132858
0.070270 0.132949 0.132949
0.133333 0.133333 0.133333
0.209307 0.128637 0.128637
0.282708 0.120573 0.120573
0.355212 0.107629 0.107629
0.427386 0.086105 0.086105
0.499317 0.033683 0.033683
0.571216 -0.085693 -0.085693
0.642972 -0.121643 -0.121643
0.714671 -0.150397 -0.150397
0.786386 -0.176060 -0.176060
0.858008 -0.199934 -0.199934
0.929763 -0.222790 -0.222790
1.001286 -0.244794 -0.244794
1.072974 -0.266319 -0.266319
0.046204 0.199136 0.135456
0.076319 0.199192 0.135539
0.135913 0.199387 0.135913
0.199984 0.199984 0.133672
0.294135 0.190830 -0.084348
0.369800 0.179161 -0.093984
0.440447 0.167372 -0.106445
0.510519 0.152707 -0.123676
0.580772 0.132610 -0.142847
0.651258 0.101696 -0.162655
0.721848 -0.024068 -0.182602
0.792791 -0.110263 -0.202554
0.863677 -0.150255 -0.222419
0.934805 -0.182279 -0.242259
1.005871 -0.210426 -0.261957
1.077149 -0.236446 -0.281628
0.061130 0.265455 0.139460
0.084784 0.265493 0.139549
0.139900 0.265638 0.139900
0.202207 0.265928 0.140631
0.266647 0.266647 0.134207
0.362293 0.260286 -0.175043
0.447995 0.245757 -0.196992
0.521890 0.232509 -0.201270
0.592556 0.218974 -0.207274
0.662353 0.203484 -0.216392
0.732168 0.184436 -0.228036
0.802114 0.159360 -0.241544
0.872153 0.122576 -0.256340
0.942571 0.024999 -0.272128
1.012895 -0.125415 -0.288545
1.083610 -0.171751 -0.305504
0.076167 0.331787 0.144891
0.095098 0.331811 0.144973
0.145308 0.331923 0.145308
0.205462 0.332136 0.145994
0.268650 0.332476 0.147087
0.333296 0.333296 0.134963
0.426800 0.329448 -0.223689
0.520707 0.314591 -0.268386
0.599735 0.300000 -0.275863
0.672612 0.286087 -0.279478
0.743195 0.271757 -0.284546
0.813051 0.255926 -0.291841
0.882620 0.237555 -0.301208
0.952424 0.215162 -0.312316
1.022106 0.186500 -0.324765
1.092162 0.145806 -0.338319
0.091240 0.398099 0.151675
0.106714 0.398129 0.151745
0.152062 0.398220 0.152062
0.209710 0.398406 0.152711
0.271573 0.398666 0.153734
0.335137 0.399045 0.155173
0.399938 0.399938 0.135953
0.490988 0.397890 -0.260351
0.589940 0.384067 -0.327241
0.674391 0.368651 -0.342604
0.750460 0.354056 -0.347233
0.822781 0.339739 -0.350692
0.893237 0.324998 -0.355453
0.963256 0.309024 -0.361962
1.032703 0.291090 -0.370205
1.102385 0.270236 -0.379918
0.106354 0.464437 0.159669
0.119241 0.464455 0.159744
0.160033 0.464534 0.160033
0.214884 0.464667 0.160635
0.275202 0.464867 0.161594
0.337871 0.465188 0.162935
0.401659 0.465592 0.164682
0.466587 0.466587 0.137196
0.555507 0.465754 -0.290918
0.656620 0.453583 -0.376855
0.746421 0.437838 -0.403933
0.826231 0.422594 -0.411771
0.900683 0.407983 -0.415426
0.972694 0.393438 -0.418907
1.043079 0.378451 -0.423510
1.113033 0.362393 -0.429582
0.121487 0.530826 0.168748
0.132406 0.530843 0.168800
0.169073 0.530875 0.169073
0.220994 0.530982 0.169625
0.279550 0.531191 0.170506
0.341127 0.531426 0.171755
0.404255 0.531763 0.173388
0.468208 0.532220 0.175422
0.533279 0.533279 0.138688
0.620228 0.533332 -0.317572
0.721896 0.522864 -0.420132
0.816528 0.507305 -0.460527
0.899887 0.491675 -0.473449
0.977226 0.476590 -0.478683
1.050695 0.461944 -0.481986
1.122336 0.447206 -0.485531
0.136625 0.597169 0.178737
0.146016 0.597180 0.178776
0.179025 0.597226 0.179025
0.227953 0.597326 0.179561
0.284642 0.597477 0.180374
0.344981 0.597687 0.181519
0.407304 0.597976 0.183035
0.470684 0.598325 0.184921
0.534817 0.598782 0.187181
0.599970 0.599970 0.140439
0.685217 0.600690 -0.341429
0.786842 0.591746 -0.458952
0.884522 0.576904 -0.511981
0.972014 0.560956 -0.532364
1.051885 0.545513 -0.540313
1.127544 0.530564 -0.544432
0.151760 0.663513 0.189493
0.159952 0.663523 0.189527
0.189774 0.663567 0.189774
0.235751 0.663657 0.190244
0.290383 0.663792 0.191004
0.349401 0.663965 0.192058
0.410799 0.664180 0.193447
0.473569 0.664527 0.195187
0.537218 0.664903 0.197297
0.601364 0.665313 0.199751
0.666572 0.666572 0.142453
0.750657 0.667824 -0.363565
0.851338 0.660251 -0.494147
0.951360 0.646357 -0.559084
1.042417 0.630364 -0.588382
1.125323 0.614635 -0.600130
0.166923 0.729866 0.200890
0.174134 0.729880 0.200944
0.201157 0.729856 0.201157
0.244298 0.729979 0.201585
0.296819 0.730089 0.202282
0.354386 0.730283 0.203271
0.414798 0.730483 0.204570
0.476843 0.730776 0.206164
0.539945 0.731092 0.208116
0.603701 0.731512 0.210400
0.667955 0.731920 0.213045
0.733307 0.733307 0.144715
0.815968 0.734976 -0.383554
0.915938 0.728642 -0.526742
1.017017 0.715719 -0.602491
1.111551 0.699941 -0.641300
0.182038 0.796175 0.212813
0.188478 0.796184 0.212864
0.213076 0.796162 0.213076
0.253497 0.796240 0.213450
0.303904 0.796364 0.214115
0.359981 0.796518 0.215005
0.419272 0.796750 0.216194
0.480522 0.796926 0.217697
0.543056 0.797263 0.219512
0.606386 0.797550 0.221643
0.670221 0.798027 0.224084
0.734576 0.798461 0.226838
0.799878 0.799878 0.147218
0.881829 0.801823 -0.403175
0.980390 0.796540 -0.556848
1.082364 0.784713 -0.643032
0.197233 0.862588 0.225204
0.202994 0.862596 0.225247
0.225444 0.862633 0.225444
0.263346 0.862706 0.225826
0.311619 0.862766 0.226405
0.366109 0.862933 0.227237
0.424237 0.863096 0.228367
0.484635 0.863260 0.229749
0.546524 0.863562 0.231416
0.609363 0.863911 0.233397
0.672764 0.864211 0.235678
0.736868 0.864719 0.238258
0.801016 0.865163 0.241139
0.866635 0.866635 0.149972
0.947439 0.868849 -0.420493
1.045000 0.864482 -0.585082
0.212337 0.928855 0.237953
0.217573 0.928863 0.237994
0.238163 0.928898 0.238163
0.273694 0.928930 0.238510
0.319864 0.928973 0.239058
0.372709 0.929135 0.239836
0.429643 0.929279 0.240863
0.489135 0.929442 0.242148
0.550348 0.929702 0.243707
0.612599 0.929997 0.245545
0.675626 0.930315 0.247665
0.739266 0.930709 0.250080
0.803269 0.931165 0.252781
0.867757 0.931635 0.255770
0.933175 0.933175 0.152956
1.013431 0.935597 -0.438172
0.227514 0.995242 0.251036
0.232280 0.995250 0.251069
0.251225 0.995284 0.251225
0.284572 0.995297 0.251550
0.328683 0.995412 0.252058
0.379850 0.995566 0.252783
0.435527 0.995668 0.253736
0.494054 0.995818 0.254931
0.554498 0.996030 0.256381
0.616209 0.996304 0.258096
0.678751 0.996580 0.260070
0.742127 0.996987 0.262327
0.805722 0.997347 0.264854
0.869960 0.997725 0.267665
0.934145 0.998233 0.270723
0.999859 0.999859 0.156166
0.017497 0.017497 0.196875
0.066914 0.018948 0.196909
0.132003 0.023895 0.197133
0.197579 0.030993 0.197579
0.263289 0.039062 0.198303
0.329882 0.043445 0.199447
0.403716 -0.049293 0.199522
0.479181 -0.089004 0.194999
0.554212 -0.118738 0.185760
0.628642 -0.144745 0.171462
0.702474 -0.168766 0.150509
0.775935 -0.191584 0.118152
0.848942 -0.213585 0.042552
0.921924 -0.235094 -0.116053
0.994475 -0.256130 -0.161800
1.066992 -0.276927 -0.197418
0.021873 0.067463 0.197048
0.067697 0.067697 0.197082
0.132297 0.068671 0.197305
0.197751 0.070607 0.197751
0.263414 0.073549 0.198484
0.330516 0.074134 0.199653
0.404842 0.043918 0.199215
0.480327 -0.071425 0.194051
0.555242 -0.108097 0.184261
0.629528 -0.136950 0.169386
0.703246 -0.162568 0.147681
0.776668 -0.186447 0.113789
0.849600 -0.209191 -0.013181
0.922455 -0.231269 -0.120725
0.994921 -0.252752 -0.164879
1.067493 -0.273902 -0.199834
0.033469 0.133123 0.197779
0.070921 0.133214 0.197836
0.133597 0.133597 0.198057
0.198506 0.134368 0.198506
0.263906 0.135592 0.199219
0.334887 0.131658 0.199896
0.410449 0.117967 0.196518
0.485548 0.094147 0.188708
0.559861 0.036734 0.176528
0.633589 -0.092921 0.159046
0.706848 -0.131374 0.133522
0.779791 -0.161884 0.090142
0.852353 -0.188836 -0.081870
0.924945 -0.213864 -0.138966
0.997164 -0.237551 -0.177573
1.069535 -0.260431 -0.209889
0.047346 0.199277 0.199277
0.076893 0.199332 0.199332
0.136170 0.199539 0.199539
0.200004 0.200004 0.200004
0.276688 0.195782 0.195782
0.350884 0.189557 0.189557
0.424025 0.180869 0.180869
0.496637 0.168951 0.168951
0.568996 0.152588 0.152588
0.641107 0.129129 0.129129
0.713019 0.090374 0.090374
0.785063 -0.070992 -0.070992
0.856712 -0.128534 -0.128534
0.928664 -0.166313 -0.166313
1.000276 -0.197571 -0.197571
1.072030 -0.225618 -0.225618
0.061912 0.265556 0.201642
0.085278 0.265587 0.201699
0.140147 0.265738 0.201909
0.202342 0.266028 0.202342
0.266644 0.266644 0.200306
0.362727 0.258244 0.104075
0.441137 0.247327 0.089860
0.512931 0.237342 0.071491
0.583474 0.226236 -0.040436
0.653889 0.212850 -0.095242
0.724315 0.196059 -0.129532
0.794973 0.174120 -0.158496
0.865683 0.143577 -0.184695
0.936676 0.091487 -0.209328
1.007549 -0.097282 -0.232769
1.078676 -0.155046 -0.255486
0.076742 0.331856 0.204941
0.095522 0.331898 0.204988
0.145547 0.331992 0.205194
0.205630 0.332199 0.205630
0.268738 0.332537 0.206304
0.333302 0.333302 0.200714
0.429067 0.327899 -0.155550
0.518699 0.313913 -0.197687
0.594992 0.301341 -0.204054
0.666808 0.289273 -0.210036
0.737084 0.276494 -0.219149
0.807123 0.262058 -0.231104
0.876957 0.245113 -0.245165
0.947112 0.224412 -0.260734
1.017170 0.198231 -0.277266
1.087550 0.162389 -0.294548
0.091688 0.398151 0.209184
0.107073 0.398180 0.209231
0.152283 0.398272 0.209432
0.209836 0.398414 0.209836
