assets/luts/LUTs/Knittel-M2S-No-Filter-MOV-H264-Norma.CUBE
TITLE "Generated by Resolve"
LUT_3D_SIZE 33
0 0 0
0.0239567 6.10361e-05 0.000579843
0.0479438 0.000122072 0.00115969
0.0721141 0.000183108 0.00175479
0.0998093 0.000259403 0.00244144
0.127535 0.000335698 0.00326543
0.155276 0.000442512 0.00421149
0.183017 0.000564584 0.00531014
0.210758 0.000686656 0.00654612
0.238483 0.000823987 0.00791943
0.266224 0.000991836 0.00943008
0.293965 0.00115969 0.0110933
0.321706 0.00135805 0.0129091
0.349432 0.00155642 0.0148928
0.377172 0.00178531 0.0170138
0.404913 0.00202945 0.0192874
0.432654 0.00227359 0.0217288
0.46038 0.00254826 0.0243229
0.488121 0.00283818 0.0270848
0.515862 0.00314336 0.0300145
0.543603 0.00347906 0.0331121
0.571328 0.00381476 0.0363622
0.599069 0.00418097 0.0397955
0.62681 0.00454719 0.0433967
0.654551 0.00494392 0.0471656
0.682277 0.00535592 0.0511177
0.710018 0.00579843 0.0552377
0.737758 0.00624094 0.0595254
0.765499 0.00671397 0.0640116
0.793225 0.00720226 0.0686656
0.820966 0.00770581 0.0734875
0.848707 0.00823987 0.0785077
0.876448 0.0087892 0.0839399
0.00648508 0.0246281 0
0.030457 0.0246891 0.000518807
0.0544289 0.0247501 0.00109865
0.0786145 0.0248112 0.00169375
0.10547 0.0248875 0.00238041
0.132387 0.0249638 0.00320439
0.159503 0.0250706 0.00415045
0.18674 0.0251774 0.0052491
0.214084 0.0253147 0.00648508
0.241489 0.025452 0.0078584
0.268956 0.0256199 0.00936904
0.296468 0.0257877 0.0110323
0.323995 0.0259861 0.0128481
0.351568 0.0261845 0.0148165
0.379156 0.0264134 0.0169528
0.40676 0.0266575 0.0192264
0.434379 0.0269017 0.0216678
0.462013 0.0271763 0.0242618
0.489662 0.0274662 0.0270237
0.517311 0.0277714 0.0299535
0.544976 0.0281071 0.033051
0.572641 0.0284428 0.0363012
0.600305 0.028809 0.0397345
0.627985 0.0291752 0.0433356
0.65568 0.029572 0.0471046
0.68336 0.029984 0.0510567
0.711055 0.0304265 0.0551766
0.73875 0.030869 0.0594644
0.766445 0.031342 0.0639506
0.794156 0.0318303 0.0686046
0.821851 0.0323339 0.0734264
0.849561 0.0328679 0.0784466
0.877272 0.0334173 0.0838788
0.0129854 0.0492714 0
0.0369421 0.0493324 0.000457771
0.0609293 0.0493935 0.00103761
0.0852979 0.0494545 0.00163272
0.110948 0.0495155 0.00231937
0.137133 0.0496071 0.00314336
0.163653 0.0497139 0.00408942
0.190417 0.0498207 0.00518807
0.21738 0.049958 0.00642405
0.244465 0.0500954 0.00779736
0.271656 0.0502632 0.009308
0.298939 0.0504311 0.0109712
0.326284 0.0506294 0.0127871
0.353674 0.0508278 0.0147555
0.381125 0.0510567 0.0168917
0.408591 0.0512856 0.0191653
0.436103 0.051545 0.0216068
0.46363 0.0518196 0.0242008
0.491188 0.0521096 0.0269627
0.518761 0.0524147 0.0298924
0.546334 0.0527352 0.03299
0.573938 0.0530861 0.0362402
0.601556 0.0534371 0.0396735
0.629175 0.0538186 0.0432746
0.656809 0.0542153 0.0470436
0.684443 0.0546273 0.0509957
0.712093 0.0550546 0.0551156
0.739742 0.0555123 0.0594034
0.767407 0.0559854 0.0638895
0.795071 0.0564736 0.0685435
0.822736 0.0569772 0.0733654
0.850416 0.0575113 0.0783856
0.878096 0.0580453 0.0838178
0.0195315 0.0741131 0
0.0435035 0.0741741 0.000396735
0.0674754 0.0742351 0.000976577
0.0915541 0.0742962 0.00157168
0.11632 0.0743725 0.00225834
0.141787 0.074464 0.00308232
0.167742 0.0745556 0.00402838
0.194064 0.0746777 0.00512703
0.220645 0.0747997 0.00636301
0.247425 0.0749523 0.00773632
0.274372 0.0751049 0.00924697
0.301427 0.0752728 0.0109102
0.328573 0.0754711 0.012726
0.35581 0.0756847 0.0146944
0.383093 0.0758984 0.0168307
0.410437 0.0761425 0.0191043
0.437827 0.0764019 0.0215457
0.465263 0.0766613 0.0241398
0.492714 0.0769513 0.0269017
0.520211 0.0772717 0.0298314
0.547723 0.0775921 0.032929
0.57525 0.0779278 0.0361791
0.602792 0.078294 0.0396124
0.630365 0.0786755 0.0432136
0.657938 0.0790723 0.0469825
0.685527 0.0794842 0.0509346
0.71313 0.0799115 0.0550546
0.740749 0.0803693 0.0593423
0.768368 0.080827 0.0638285
0.795987 0.0815747 0.0684825
0.823636 0.0820783 0.0733043
0.85127 0.0825971 0.0783246
0.87892 0.0831311 0.0837568
0.0272831 0.102266 0
0.0512398 0.102327 0.000320439
0.0752117 0.102373 0.000900282
0.0986343 0.102434 0.00149538
0.122454 0.102495 0.00218204
0.147158 0.102571 0.00300603
0.172503 0.102647 0.00396735
0.198306 0.102754 0.00505074
0.224475 0.102861 0.00628672
0.250904 0.102998 0.00766003
0.277531 0.103136 0.00917067
0.304326 0.103288 0.0108492
0.331258 0.103441 0.012665
0.358297 0.103624 0.0146334
0.385412 0.103822 0.0167544
0.412619 0.104021 0.019028
0.439872 0.10425 0.0214694
0.467185 0.104479 0.0240787
0.49453 0.104738 0.0268406
0.52192 0.104997 0.0297551
0.54934 0.105272 0.0328527
0.576791 0.105577 0.0361181
0.604273 0.105882 0.0395361
0.631769 0.106203 0.0431373
0.659281 0.106538 0.0469062
0.686809 0.106889 0.0508583
0.714366 0.107256 0.0549783
0.741924 0.107637 0.0592813
0.769497 0.108034 0.0637522
0.797086 0.108461 0.0684062
0.824689 0.108873 0.073228
0.852293 0.109316 0.0782483
0.879896 0.109773 0.0836805
0.0364691 0.130343 0
0.0604257 0.130388 0.000244144
0.0846113 0.130434 0.000823987
0.106661 0.13048 0.00140383
0.129458 0.130541 0.00210575
0.153338 0.130602 0.00291447
0.178012 0.130678 0.00387579
0.20325 0.130755 0.00497444
0.228931 0.130861 0.00619516
0.254963 0.130968 0.00756847
0.281254 0.13109 0.00909438
0.307759 0.131212 0.0107576
0.334417 0.13135 0.0125734
0.361227 0.131502 0.0145418
0.388159 0.13167 0.0166629
0.415183 0.131853 0.0189517
0.442283 0.132036 0.0213779
0.469444 0.132235 0.0239872
0.496666 0.132448 0.0267491
0.523949 0.132677 0.0296788
0.551263 0.132921 0.0327611
0.578622 0.133165 0.0360266
0.606012 0.13344 0.0394598
0.633417 0.133715 0.043061
0.660868 0.134005 0.0468299
0.688334 0.13431 0.0507668
0.715816 0.134615 0.0548867
0.743328 0.134951 0.0591897
0.77084 0.135286 0.0636606
0.798383 0.135653 0.0683146
0.825925 0.136019 0.0731518
0.853498 0.1364 0.0781567
0.881071 0.136782 0.0835889
0.0471351 0.158434 0
0.0710918 0.158465 0.000137331
0.0947127 0.158511 0.000717174
0.115511 0.158541 0.00129702
0.137301 0.158587 0.00199893
0.160311 0.158648 0.00282292
0.184237 0.158709 0.00376898
0.208865 0.158785 0.00486763
0.234028 0.158877 0.00610361
0.259602 0.158968 0.00747692
0.285512 0.15906 0.00898756
0.311681 0.159182 0.0106508
0.338064 0.159304 0.0124666
0.364614 0.159442 0.014435
0.391318 0.159579 0.0165713
0.418128 0.159731 0.0188449
0.44506 0.159899 0.0212863
0.472068 0.160067 0.0238804
0.499138 0.160266 0.0266423
0.526284 0.160464 0.029572
0.553491 0.160662 0.0326696
0.580728 0.160891 0.0359197
0.608026 0.16112 0.039353
0.63534 0.161349 0.0429541
0.662699 0.161608 0.0467231
0.690089 0.161868 0.0506752
0.71751 0.162142 0.0547951
0.744945 0.162432 0.0590829
0.772412 0.162737 0.0635691
0.799878 0.163043 0.0682078
0.827375 0.163363 0.0730449
0.854887 0.163699 0.0780652
0.882414 0.164034 0.0834974
0.0593271 0.186511 0
0.0835279 0.186542 1.5259e-05
0.105531 0.186572 0.000610361
0.125124 0.186618 0.0011902
0.145876 0.186648 0.00187686
0.168002 0.186709 0.00270085
0.191165 0.186755 0.00366217
0.215137 0.186831 0.00474556
0.239734 0.186892 0.00598154
0.26482 0.186984 0.00735485
0.290318 0.187076 0.00888075
0.316121 0.187167 0.010544
0.342168 0.187274 0.0123598
0.368444 0.187396 0.0143282
0.394888 0.187518 0.0164492
0.421485 0.187655 0.0187228
0.448203 0.187808 0.0211643
0.475029 0.187961 0.0237736
0.501945 0.188128 0.0265354
0.528954 0.188296 0.0294652
0.556008 0.188479 0.0325475
0.583139 0.188678 0.0358129
0.610315 0.188876 0.0392462
0.637537 0.18909 0.0428321
0.664805 0.189319 0.0466163
0.692103 0.189548 0.0505531
0.719432 0.189792 0.0546731
0.746792 0.190051 0.0589761
0.774182 0.190311 0.063447
0.801587 0.190585 0.068101
0.829023 0.190875 0.0729381
0.856474 0.191165 0.0779431
0.883955 0.19147 0.0833753
0.0730755 0.214588 0
0.0965133 0.214618 0
0.116945 0.214649 0.00047303
0.135378 0.214679 0.00105287
0.155123 0.214725 0.00175479
0.176349 0.214755 0.00257877
0.198734 0.214817 0.00352483
0.222034 0.214878 0.00462348
0.246036 0.214939 0.00585946
0.270604 0.215015 0.00723278
0.295644 0.215091 0.00874342
0.32105 0.215183 0.0104067
0.346761 0.215274 0.0122225
0.372717 0.215381 0.0141909
0.398886 0.215488 0.0163272
0.425238 0.21561 0.0186007
0.451743 0.215747 0.0210422
0.47837 0.215885 0.0236362
0.505104 0.216037 0.0263981
0.531929 0.21619 0.0293278
0.558846 0.216358 0.0324254
0.58584 0.216526 0.0356756
0.612894 0.216709 0.0391089
0.639994 0.216892 0.04271
0.667155 0.21709 0.046479
0.694362 0.217304 0.0504311
0.721599 0.217517 0.054551
0.748867 0.217746 0.0588388
0.776181 0.21799 0.0633249
0.803525 0.218235 0.0679637
0.830884 0.218479 0.0728008
0.858274 0.218753 0.077821
0.885679 0.219013 0.0832532
0.0885023 0.242664 0
0.109865 0.242695 0
0.128862 0.242725 0.000335698
0.146227 0.242756 0.000915541
0.164996 0.242786 0.0016022
0.185336 0.242832 0.00242618
0.206928 0.242878 0.0033875
0.229511 0.242924 0.00447089
0.252903 0.242985 0.00570687
0.276936 0.243046 0.00708019
0.301488 0.243122 0.00860609
0.326467 0.243198 0.0102693
0.351797 0.24329 0.0120851
0.377432 0.243381 0.0140536
0.403296 0.243488 0.0161746
0.429389 0.243595 0.0184634
0.45565 0.243717 0.0208896
0.482048 0.243839 0.0234989
0.508598 0.243961 0.0262608
0.535241 0.244114 0.0291905
0.562005 0.244251 0.0322728
0.58883 0.244419 0.0355383
0.615747 0.244572 0.0389715
0.642725 0.244755 0.0425574
0.669764 0.244923 0.0463417
0.696864 0.245121 0.0502785
0.723995 0.245319 0.0543984
0.751186 0.245518 0.0587015
0.778408 0.245731 0.0631723
0.805661 0.245945 0.0678264
0.832944 0.246174 0.0726635
0.860258 0.246418 0.0776684
0.887602 0.246662 0.0831159
0.103914 0.270756 0
0.123507 0.270771 0
0.141207 0.270802 0.000167849
0.157565 0.270832 0.000762951
0.175402 0.270863 0.00144961
0.194873 0.270893 0.00227359
0.215671 0.270939 0.00321965
0.237552 0.270985 0.0043183
0.260304 0.271031 0.00555428
0.283772 0.271092 0.0069276
0.30782 0.271168 0.00843824
0.332357 0.271229 0.0101015
0.357305 0.271305 0.0119173
0.382574 0.271397 0.0138857
0.408133 0.271489 0.016022
0.433921 0.271595 0.0182956
0.459922 0.271702 0.020737
0.486107 0.271809 0.023331
0.512428 0.271931 0.0260929
0.538888 0.272053 0.0290227
0.565454 0.27219 0.0321202
0.592126 0.272328 0.0353704
0.618891 0.27248 0.0388037
0.645731 0.272633 0.0424048
0.672648 0.272801 0.0461738
0.699626 0.272969 0.0501259
0.72665 0.273152 0.0542458
0.753735 0.273335 0.0585336
0.78085 0.273533 0.0630198
0.808026 0.273732 0.0676738
0.835218 0.273945 0.0724956
0.862455 0.274159 0.0775158
0.889723 0.274388 0.082948
0.119326 0.298833 0
0.137392 0.298848 0
0.153918 0.298878 0
0.169345 0.298894 0.000579843
0.186282 0.298924 0.0012665
0.204913 0.298955 0.00209049
0.224933 0.299001 0.0030518
0.246098 0.299046 0.0041352
0.268223 0.299092 0.00537118
0.291112 0.299153 0.00674449
0.314641 0.299199 0.00827039
0.33872 0.299275 0.00993362
0.363241 0.299351 0.0117494
0.388144 0.299428 0.0137179
0.413367 0.299504 0.0158389
0.438849 0.299596 0.0181277
0.464576 0.299702 0.0205539
0.490501 0.299794 0.0231632
0.516594 0.299916 0.0259251
0.54284 0.300023 0.0288548
0.569223 0.300145 0.0319371
0.595728 0.300282 0.0352026
0.622324 0.30042 0.0386358
0.649012 0.300557 0.042237
0.675792 0.30071 0.0460059
0.702632 0.300862 0.0499428
0.729549 0.30103 0.0540627
0.756512 0.301198 0.0583658
0.783536 0.301381 0.0628367
0.810605 0.301564 0.0674907
0.83772 0.301747 0.0723278
0.864866 0.301946 0.0773327
0.892058 0.302159 0.0827802
0.134737 0.326909 0
0.151461 0.326925 0
0.166934 0.326955 0
0.181491 0.32697 0.000396735
0.197604 0.327001 0.00108339
0.215427 0.327031 0.00190738
0.234684 0.327062 0.00285344
0.255146 0.327108 0.00395209
0.276616 0.327153 0.00518807
0.298924 0.327199 0.00656138
0.321935 0.32726 0.00807202
0.345525 0.327321 0.00973526
0.369619 0.327382 0.0115511
0.394125 0.327459 0.0135195
0.418997 0.327535 0.0156558
0.44416 0.327611 0.0179294
0.469596 0.327703 0.0203708
0.495247 0.32781 0.0229648
0.521111 0.327901 0.0257267
0.547127 0.328008 0.0286564
0.573312 0.32813 0.031754
0.599619 0.328237 0.0350042
0.626047 0.328374 0.0384375
0.652583 0.328496 0.0420386
0.679194 0.328634 0.0458076
0.705913 0.328786 0.0497597
0.732692 0.328939 0.0538796
0.759533 0.329091 0.0581674
0.78645 0.329259 0.0626535
0.813413 0.329427 0.0672923
0.840421 0.329595 0.0721294
0.867475 0.329778 0.0771496
0.894575 0.329976 0.0825971
0.150134 0.354986 0
0.165698 0.355016 0
0.180224 0.355032 0
0.193988 0.355047 0.000183108
0.209308 0.355077 0.000869764
0.226352 0.355108 0.00169375
0.244862 0.355138 0.00265507
0.264637 0.355169 0.00373846
0.285466 0.355215 0.00497444
0.307179 0.355261 0.00634775
0.329656 0.355306 0.00787366
0.352758 0.355367 0.00953689
0.37641 0.355428 0.0113527
0.400519 0.355489 0.0133211
0.42501 0.355566 0.0154421
0.449851 0.355642 0.0177157
0.474968 0.355734 0.0201572
0.500343 0.35581 0.0227665
0.525948 0.355917 0.0255283
0.551736 0.356008 0.0284428
0.577707 0.356115 0.0315404
0.603815 0.356222 0.0348058
0.630045 0.356344 0.0382239
0.656413 0.356466 0.041825
0.682872 0.356588 0.0456092
0.709438 0.356725 0.049546
0.73608 0.356863 0.053666
0.762798 0.357015 0.057969
0.789593 0.357153 0.0624399
0.816434 0.357321 0.0670939
0.843351 0.357473 0.071931
0.870298 0.357641 0.076936
0.897307 0.357824 0.0823835
0.165545 0.383078 0
0.180072 0.383093 0
0.193729 0.383108 0
0.20676 0.383124 0
0.221347 0.383154 0.000656138
0.237644 0.383169 0.00148013
0.255451 0.3832 0.00242618
0.274556 0.383246 0.00352483
0.294743 0.383276 0.00474556
0.315877 0.383322 0.00611887
0.337804 0.383368 0.00764477
0.360418 0.383429 0.009308
0.383597 0.383474 0.0111238
0.407294 0.383536 0.0130922
0.431403 0.383612 0.0152132
0.455894 0.383673 0.0175021
0.480705 0.383749 0.0199435
0.505791 0.383841 0.0225376
0.531121 0.383932 0.0252995
0.556664 0.384024 0.0282292
0.582391 0.384115 0.0313268
0.608301 0.384222 0.0345769
0.634348 0.384329 0.0380102
0.660517 0.384436 0.0416114
0.686824 0.384558 0.0453803
0.713222 0.38468 0.0493172
0.739712 0.384817 0.0534524
0.766293 0.384939 0.0577401
0.792966 0.385092 0.062211
0.819684 0.385229 0.066865
0.846479 0.385382 0.0717021
0.873335 0.385534 0.0767224
0.900252 0.385702 0.0821546
0.180957 0.411154 0
0.194568 0.41117 0
0.207446 0.411185 0
0.219791 0.4112 0
0.233692 0.411231 0.000411994
0.249287 0.411246 0.00123598
0.266407 0.411276 0.00218204
0.28484 0.411307 0.00328069
0.304417 0.411337 0.00451667
0.324956 0.411383 0.00588998
0.346349 0.411429 0.00740063
0.36846 0.411475 0.00906386
0.39118 0.411536 0.0108797
0.41445 0.411597 0.0128481
0.438178 0.411658 0.0149844
0.462303 0.411719 0.017258
0.486778 0.411795 0.0196994
0.511574 0.411872 0.0222934
0.536614 0.411948 0.0250553
0.561898 0.412039 0.027985
0.587396 0.412131 0.0310826
0.613077 0.412222 0.0343328
0.638911 0.412329 0.0377661
0.664897 0.412421 0.0413672
0.69102 0.412543 0.0451362
0.717266 0.41265 0.0490883
0.743603 0.412772 0.0532082
0.770047 0.412909 0.057496
0.796567 0.413031 0.0619821
0.823163 0.413169 0.0666361
0.849836 0.413306 0.071458
0.876585 0.413458 0.0764782
0.90338 0.413611 0.0819257
0.196368 0.439231 0
0.209155 0.439246 0
0.221317 0.439261 0
0.233051 0.439277 0
0.246296 0.439307 0.00015259
0.261234 0.439323 0.000976577
0.277699 0.439353 0.0019379
0.295491 0.439384 0.00302129
0.314458 0.439414 0.00425727
0.334417 0.439445 0.00563058
0.355276 0.43949 0.00714122
0.376883 0.439536 0.00881972
0.399145 0.439582 0.0106355
0.421973 0.439643 0.012604
0.445304 0.439704 0.014725
0.469062 0.439765 0.0169985
0.493202 0.439826 0.01944
0.517678 0.439902 0.022034
0.542428 0.439979 0.0248112
0.567452 0.440055 0.0277256
0.592691 0.440146 0.0308232
0.618143 0.440238 0.0340887
0.643763 0.44033 0.0375067
0.669551 0.440421 0.0411078
0.695491 0.440528 0.0448768
0.721553 0.440635 0.0488289
0.747738 0.440757 0.0529488
0.774014 0.440879 0.0572519
0.800397 0.441001 0.0617227
0.826871 0.441123 0.0663767
0.853422 0.44126 0.0711986
0.880034 0.441398 0.0762188
0.906722 0.441535 0.0816663
0.21178 0.467308 0
0.223819 0.467323 0
0.235355 0.467338 0
0.246494 0.467353 0
0.259144 0.467384 0
0.273457 0.467399 0.000701915
0.289296 0.46743 0.00166323
0.306477 0.467445 0.00274662
0.324834 0.467475 0.0039826
0.344244 0.467521 0.00535592
0.364553 0.467552 0.00686656
0.385657 0.467597 0.00854505
0.407446 0.467643 0.0103609
0.429847 0.467704 0.0123293
0.452781 0.46775 0.0144503
0.476158 0.467811 0.0167239
0.499947 0.467872 0.0191653
0.524102 0.467948 0.0217746
0.548562 0.468009 0.0245365
0.573297 0.468086 0.027451
0.598291 0.468177 0.0305486
0.623499 0.468254 0.033814
0.648905 0.468345 0.037232
0.674479 0.468437 0.0408331
0.700221 0.468528 0.0446021
0.726101 0.468635 0.0485542
0.752102 0.468742 0.0526741
0.778241 0.468849 0.0569772
0.804471 0.468971 0.0614481
0.830793 0.469093 0.0661021
0.857206 0.469215 0.0709392
0.883711 0.469337 0.0759442
0.910277 0.469474 0.0813916
0.227192 0.495399 0
0.238575 0.495415 0
0.2495 0.495415 0
0.260121 0.49543 0
0.272206 0.49546 0
0.285939 0.495476 0.000411994
0.301167 0.495491 0.00137331
0.317754 0.495521 0.0024567
0.335546 0.495552 0.00369268
0.354391 0.495583 0.005066
0.374166 0.495628 0.00657664
0.394781 0.495659 0.00825513
0.416098 0.495705 0.010071
0.438056 0.49575 0.0120394
0.460578 0.495811 0.0141604
0.483589 0.495857 0.016434
0.507027 0.495918 0.0188754
0.530846 0.495995 0.0214847
0.555001 0.496056 0.0242466
0.579446 0.496132 0.0271611
0.604166 0.496208 0.0302586
0.629129 0.496284 0.0335241
0.654307 0.496361 0.0369421
0.679667 0.496452 0.0405432
0.705211 0.496544 0.0443122
0.730892 0.496635 0.0482643
0.756725 0.496742 0.0523842
0.782681 0.496849 0.0566873
0.808759 0.496956 0.0611582
0.834943 0.497063 0.0658122
0.861219 0.497185 0.0706493
0.887587 0.497307 0.0756542
0.914031 0.497429 0.0808576
0.242603 0.523476 0
0.253376 0.523491 0
0.263767 0.523507 0
0.273899 0.523522 0
0.285451 0.523537 0
0.298634 0.523552 0.000106813
0.313298 0.523568 0.00105287
0.329305 0.523598 0.00215152
0.346532 0.523629 0.0033875
0.364843 0.523659 0.00476081
0.3841 0.52369 0.00627146
0.404211 0.523735 0.00793469
0.425086 0.523766 0.00975052
0.446601 0.523812 0.0117189
0.468711 0.523873 0.0138552
0.491325 0.523919 0.0161288
0.514397 0.52398 0.0185702
0.537881 0.524041 0.0211643
0.56173 0.524102 0.0239261
0.585885 0.524163 0.0268559
0.610346 0.524239 0.0299535
0.63505 0.524315 0.0332036
0.659983 0.524392 0.0366369
0.685115 0.524468 0.040238
0.710445 0.524559 0.044007
0.735943 0.524651 0.0479591
0.761593 0.524742 0.052079
0.787381 0.524849 0.0563668
0.813291 0.524956 0.060853
0.839323 0.525063 0.065507
0.865446 0.52517 0.0703288
0.891676 0.525277 0.075349
0.917998 0.525399 0.0805524
0.258015 0.551553 0
0.268238 0.551568 0
0.278141 0.551583 0
0.2878 0.551598 0
0.298863 0.551614 0
0.311528 0.551629 0
0.325658 0.551644 0.000732433
0.341115 0.551675 0.00183108
0.357809 0.551705 0.0030518
0.375586 0.55172 0.00442512
0.394339 0.551766 0.00595102
0.413962 0.551797 0.00761425
0.434363 0.551843 0.00943008
0.455451 0.551873 0.0113985
0.477134 0.551934 0.0135195
0.499367 0.55198 0.0158083
0.522087 0.552026 0.0182498
0.545235 0.552087 0.0208438
0.56875 0.552148 0.0236057
0.592615 0.552209 0.0265354
0.616785 0.552285 0.0296178
0.64123 0.552346 0.0328832
0.665919 0.552422 0.0363165
0.690837 0.552499 0.0399176
0.715938 0.55259 0.0436866
0.741238 0.552666 0.0476234
0.76669 0.552758 0.0517433
0.792294 0.55285 0.0560464
0.818036 0.552956 0.0605173
0.8439 0.553048 0.0651713
0.869886 0.553155 0.0700084
0.895979 0.553277 0.0750286
0.922164 0.553384 0.0802167
0.273426 0.579629 0
0.283146 0.579644 0
0.292592 0.57966 0
0.301839 0.579675 0
0.312444 0.57969 0
0.324605 0.579705 0
0.338216 0.579721 0.000396735
0.35317 0.579751 0.00148013
0.369329 0.579767 0.00271611
0.386603 0.579797 0.00408942
0.404852 0.579828 0.00560006
0.424002 0.579873 0.00727855
0.443946 0.579904 0.00909438
0.464591 0.57995 0.0110628
0.485878 0.579995 0.0131838
0.507713 0.580041 0.0154574
0.530068 0.580087 0.0178988
0.552865 0.580133 0.0205081
0.576059 0.580194 0.02327
0.599619 0.580255 0.0261845
0.623514 0.580316 0.0292821
0.647684 0.580392 0.0325475
0.672114 0.580468 0.0359655
0.696803 0.58053 0.0395666
0.721691 0.580621 0.0433356
0.746761 0.580697 0.0472877
0.77203 0.580789 0.0514076
0.797452 0.580865 0.0557107
0.823011 0.580957 0.0601816
0.848722 0.581064 0.0648356
0.87454 0.581155 0.0696727
0.900481 0.581262 0.0746777
0.926528 0.581369 0.079881
0.288823 0.607721 0
0.2981 0.607721 0
0.307118 0.607736 0
0.315969 0.607752 0
0.326146 0.607767 0
0.33785 0.607782 0
0.350973 0.607797 3.0518e-05
0.365423 0.607828 0.00112917
0.381094 0.607843 0.00234989
0.397864 0.607874 0.0037232
0.415641 0.607904 0.0052491
0.434318 0.607935 0.00691234
0.453803 0.607965 0.00872816
0.474022 0.608011 0.0106966
0.494881 0.608057 0.0128176
0.51635 0.608103 0.0151064
0.538323 0.608148 0.0175479
0.560769 0.608194 0.0201419
0.583642 0.608255 0.0229038
0.606897 0.608316 0.0258335
0.630503 0.608377 0.0289158
0.654398 0.608438 0.0321813
0.678584 0.608499 0.0356146
0.703014 0.608576 0.0392157
0.727672 0.608652 0.0429847
0.752544 0.608728 0.0469215
0.7776 0.608804 0.0510414
0.802823 0.608896 0.0553445
0.828214 0.608988 0.0598154
0.853742 0.609079 0.0644694
0.879408 0.609171 0.0693065
0.905196 0.609262 0.0743267
0.93109 0.609369 0.0795148
0.304234 0.635798 0
0.313085 0.635813 0
0.321721 0.635813 0
0.330205 0.635828 0
0.339986 0.635843 0
0.351247 0.635859 0
0.363912 0.635874 0
0.37789 0.635889 0.000747692
0.393072 0.63592 0.00196841
0.409369 0.63595 0.00334173
0.426657 0.635981 0.00486763
0.444877 0.636011 0.00653086
0.46392 0.636042 0.00834669
0.483711 0.636072 0.0103151
0.504173 0.636118 0.0124361
0.525246 0.636164 0.014725
0.546853 0.63621 0.0171664
0.568963 0.636255 0.0197604
0.591501 0.636301 0.0225223
0.61445 0.636362 0.025452
0.637751 0.636423 0.0285496
0.661372 0.636484 0.0317998
0.685283 0.636545 0.0352331
0.709484 0.636606 0.0388342
0.733898 0.636683 0.0426032
0.758556 0.636759 0.0465553
0.783398 0.636835 0.0506752
0.808438 0.636912 0.054963
0.833631 0.637003 0.0594339
0.858991 0.637095 0.0640879
0.884489 0.637186 0.068925
0.910109 0.637278 0.0739452
0.935866 0.637369 0.0791333
0.319646 0.663874 0
0.328115 0.66389 0
0.336385 0.663905 0
0.344518 0.663905 0
0.353933 0.66392 0
0.364782 0.663935 0
0.377005 0.663951 0
0.390524 0.663966 0.000350958
0.405249 0.663996 0.00157168
0.421073 0.664012 0.00294499
0.437919 0.664042 0.00447089
0.45568 0.664073 0.00613413
0.474296 0.664103 0.00794995
0.49366 0.664149 0.00991836
0.513726 0.664179 0.0120394
0.534401 0.664225 0.0143282
0.555657 0.664271 0.0167697
0.577401 0.664317 0.0193637
0.599619 0.664363 0.0221256
0.622248 0.664424 0.0250553
0.645243 0.664469 0.0281529
0.668589 0.66453 0.0314031
0.692241 0.664591 0.0348363
0.716182 0.664652 0.0384375
0.740368 0.664729 0.0422065
0.764797 0.66479 0.0461433
0.789441 0.664866 0.0502785
0.814267 0.664942 0.0545663
0.839277 0.665034 0.0590372
0.864454 0.66511 0.0636912
0.889769 0.665202 0.0685283
0.915236 0.665293 0.0735485
0.940826 0.665385 0.0787366
0.335058 0.691951 0
0.34316 0.691966 0
0.351095 0.691981 0
0.358923 0.691981 0
0.367971 0.691997 0
0.378439 0.692012 0
0.390249 0.692027 0
0.403342 0.692042 0
0.417624 0.692073 0.00115969
0.433005 0.692088 0.002533
0.449393 0.692119 0.0040589
0.466728 0.692149 0.00572213
0.484901 0.69218 0.00753796
0.503868 0.69221 0.00950637
0.523522 0.692256 0.0116274
0.543816 0.692287 0.0139162
0.564706 0.692332 0.0163424
0.586099 0.692378 0.0189517
0.60798 0.692424 0.0217136
0.630289 0.69247 0.0246433
0.652995 0.692531 0.0277256
0.676066 0.692576 0.0309911
0.699443 0.692638 0.0344244
0.723125 0.692699 0.0380255
0.747066 0.692775 0.0417945
0.771267 0.692836 0.0457313
0.795682 0.692912 0.0498512
0.82031 0.692988 0.0541543
0.845136 0.693065 0.0586252
0.870115 0.693141 0.0632792
0.895262 0.693217 0.0681163
0.920562 0.693309 0.0731212
0.945998 0.693401 0.0783246
0.350469 0.720043 0
0.358236 0.720043 0
0.365866 0.720058 0
0.373388 0.720073 0
0.382116 0.720073 0
0.392203 0.720088 0
0.403632 0.720104 0
0.416312 0.720119 0
0.430152 0.72015 0.000732433
0.445106 0.720165 0.00210575
0.461082 0.720195 0.00361639
0.477974 0.720226 0.00527962
0.495735 0.720256 0.0071107
0.51429 0.720287 0.00907912
0.533562 0.720317 0.0112001
0.553475 0.720363 0.0134737
0.573983 0.720394 0.0159152
0.595041 0.720439 0.0185092
