assets/luts/LUTs/Knittel-M2S-No-Filter-MOV-H265-Dlog.CUBE
TITLE "Generated by Resolve"
LUT_3D_SIZE 9
0 0 0
0.129503 0 0
0.257038 0 0
0.384558 0 0
0.512093 0 0
0.639612 0 0
0.767132 0 0
0.894667 0 0
1 0 0
0.000793469 0.144854 0.000549325
0.130098 0.0944686 0
0.257374 0 0
0.384802 0 0
0.512261 0 0
0.63975 0 0
0.767254 0 0
0.894759 0 0
1 0 0
0.00210575 0.280934 0.00148013
0.13109 0.254124 0
0.257954 0.202441 0
0.385199 0.0876478 0
0.512566 0 0
0.639994 0 0
0.767452 0 0
0.894926 0 0
1 0 0
0.00416571 0.417014 0.00291447
0.132601 0.398993 0
0.258839 0.366766 0
0.385809 0.310414 0
0.513024 0.211582 0
0.64036 0 0
0.767742 0 0
0.895186 0 0
1 0 0
0.00701915 0.553109 0.00489815
0.134691 0.539681 0
0.260075 0.51632 0
0.386664 0.477684 0
0.513664 0.418372 0
0.640864 0.326543 0
0.76817 0.158785 0
0.895537 0 0
1 0 0
0.0106966 0.689189 0.00746166
0.137362 0.678584 0
0.261662 0.66038 0
0.387747 0.630945 0
0.514488 0.587686 0
0.64152 0.526345 0
0.768704 0.438529 0
0.895994 0.301976 0
1 0 0
0.0152285 0.825284 0.0106355
0.140597 0.816571 0
0.2636 0.801724 0
0.389105 0.778012 0
0.515511 0.743893 0
0.642329 0.697154 0
0.769375 0.634318 0
0.896559 0.549111 0
1 0.427619 0
0.0206607 0.961364 0.0144198
0.144396 0.954009 0
0.265904 0.941527 0
0.390707 0.921752 0
0.516716 0.893599 0
0.64329 0.855741 0
0.770169 0.806271 0
0.897231 0.74229 0
1 0.65893 0
0.0270237 1 0.0188602
0.14876 1 0
0.268589 1 0
0.392584 1 0
0.518135 1 0
0.644419 1 0
0.771099 0.966812 0
0.898009 0.915129 0
1 0.850263 0
0 0.0352636 0.165301
0.126711 0 0.1178
0.255421 0 0.00869764
0.383444 0 0
0.511254 0 0
0.638956 0 0
0.766598 0 0
0.894209 0 0
1 0 0
0 0.16791 0.165652
0.127321 0.124056 0.118242
0.255756 0.0230259 0.00924697
0.383688 0 0
0.511437 0 0
0.639094 0 0
0.766705 0 0
0.894301 0 0
1 0 0
0 0.29482 0.166232
0.128313 0.269245 0.118975
0.256336 0.2206 0.0101778
0.384085 0.118364 0
0.511727 0 0
0.639323 0 0
0.766903 0 0
0.894469 0 0
1 0 0
0.00047303 0.426673 0.167117
0.12987 0.409064 0.120104
0.257237 0.377676 0.0116121
0.384695 0.323125 0
0.5122 0.229129 0
0.639689 0.00953689 0
0.767208 0 0
0.894728 0 0
1 0 0
0.00331121 0.560388 0.168353
0.131975 0.547143 0.121675
0.258473 0.524132 0.0135958
0.38555 0.486137 0
0.512825 0.428 0
0.640208 0.338689 0
0.76762 0.180453 0
0.895079 0 0
1 0 0
0.00698863 0.694987 0.16994
0.134676 0.684474 0.123659
0.26006 0.666438 0.0161593
0.386648 0.637293 0
0.513664 0.594537 0
0.640864 0.534005 0
0.76817 0.447715 0
0.895537 0.314992 0
1 0 0
0.0115358 0.830045 0.171878
0.137957 0.821393 0.126101
0.262013 0.806653 0.0193332
0.388006 0.783108 0
0.514672 0.749233 0
0.641672 0.702876 0
0.768826 0.640635 0
0.896101 0.556451 0
1 0.437034 0
0.016968 0.965408 0.174166
0.141817 0.958083 0.128969
0.264332 0.945663 0.0231327
0.389609 0.925978 0
0.515892 0.897978 0
0.642634 0.860334 0
0.769635 0.811154 0
0.896773 0.747646 0
1 0.665003 0
0.023331 1 0.176822
0.146242 1 0.13228
0.267033 1 0.0275731
0.391485 1 0
0.517311 1 0
0.643763 1 0
0.770565 0.970825 0
0.897551 0.919402 0
1 0.854871 0
0 0.0941634 0.31281
0.121935 0.0307164 0.287205
0.252689 0 0.238788
0.381582 0 0.139391
0.50985 0 0
0.637842 0 0
0.765682 0 0
0.893431 0 0
1 0 0
0 0.201923 0.313008
0.122545 0.165072 0.287419
0.25304 0.082475 0.239048
0.381811 0 0.139788
0.510033 0 0
0.63798 0 0
0.765789 0 0
0.893523 0 0
1 0 0
0 0.316869 0.313344
0.123583 0.293065 0.287785
0.25362 0.248539 0.239475
0.382223 0.160464 0.140444
0.510323 0 0
0.638224 0 0
0.765988 0 0
0.89369 0 0
1 0 0
0 0.442405 0.313863
0.125154 0.425437 0.28835
0.25452 0.395331 0.240146
0.382834 0.343481 0.141451
0.510796 0.25626 0
0.63859 0.0687419 0
0.766293 0 0
0.89395 0 0
1 0 0
0 0.572412 0.31458
0.127337 0.559457 0.289128
0.255772 0.536995 0.241062
0.383688 0.499992 0.14284
0.511437 0.443687 0
0.639094 0.358206 0
0.766705 0.212833 0
0.894301 0 0
1 0 0
0.00077821 0.704601 0.315511
0.130098 0.69424 0.290135
0.257374 0.676478 0.242237
0.384802 0.647822 0.144625
0.512261 0.605844 0
0.63975 0.546624 0
0.767254 0.462745 0
0.894759 0.335821 0
1 0.0589456 0
0.0053254 0.837995 0.316655
0.133455 0.829435 0.291371
0.259342 0.814847 0.243687
0.38616 0.791562 0.146807
0.513283 0.758099 0
0.640558 0.712367 0
0.767926 0.651102 0
0.895323 0.568551 0
1 0.452415 0
0.0107576 0.972137 0.318029
0.137407 0.964889 0.292836
0.261692 0.95256 0.245411
0.387778 0.933028 0.149401
0.514504 0.905272 0
0.641535 0.867979 0
0.768719 0.819303 0
0.895994 0.756527 0
1 0.675059 0
0.0171206 1 0.319615
0.141924 1 0.29456
0.264408 1 0.247425
0.389654 1 0.152377
0.515923 1 0
0.642664 1 0
0.76965 0.977523 0
0.896788 0.926513 0
1 0.862577 0
0 0.163348 0.460304
0.114229 0.118349 0.44303
0.248386 0.0157473 0.412421
0.378653 0 0.359777
0.507668 0 0.271687
0.636103 0 0.0874647
0.764248 0 0
0.892226 0 0
1 0 0
0 0.247028 0.460441
0.11487 0.216648 0.443183
0.248737 0.155459 0.412573
0.378897 0.0078584 0.35996
0.507836 0 0.271916
0.636255 0 0.0879835
0.76437 0 0
0.892332 0 0
1 0 0
0 0.348562 0.46067
0.115953 0.326925 0.443427
0.249332 0.287205 0.412833
0.379294 0.212955 0.36025
0.508141 0.0439918 0.272297
0.636484 0 0.0888685
0.764569 0 0
0.892485 0 0
1 0 0
0 0.465827 0.461036
0.117601 0.449744 0.443793
0.250248 0.421363 0.41323
0.379919 0.373022 0.360708
0.508614 0.294011 0.272892
0.636851 0.146395 0.0902419
0.764874 0 0
0.892744 0 0
1 0 0
0 0.590585 0.46154
0.11986 0.578058 0.444312
0.251514 0.556374 0.413794
0.380789 0.52079 0.361349
0.509255 0.467048 0.273701
0.637369 0.386679 0.0921035
0.765286 0.256275 0
0.893095 0 0
1 0 0
0 0.719265 0.462181
0.122744 0.709133 0.444984
0.253147 0.691783 0.414511
0.381888 0.663828 0.362158
0.510079 0.622995 0.274769
0.638025 0.565667 0.0944686
0.765835 0.485176 0
0.893553 0.365957 0
1 0.139559 0
0 0.850202 0.462959
0.126238 0.841779 0.445792
0.255146 0.82742 0.415381
0.383261 0.804532 0.363165
0.511116 0.771679 0.276066
0.638834 0.726879 0.0973526
0.766506 0.667033 0
0.894118 0.586847 0
1 0.475334 0
0.00111391 0.982528 0.463905
0.130343 0.975341 0.446784
0.257511 0.963165 0.416434
0.384894 0.943893 0.36437
0.512337 0.916487 0.277607
0.639811 0.879713 0.10074
0.7673 0.8318 0
0.894804 0.770138 0
1 0.69041 0
0.00746166 1 0.465019
0.135027 1 0.447929
0.260273 1 0.41767
0.386786 1 0.365759
0.513771 1 0.279408
0.64094 1 0.104616
0.768231 0.987839 0
0.895598 0.937453 0
1 0.874403 0
0 0.232547 0.607813
0.102983 0.200336 0.594934
0.242329 0.133791 0.572641
0.374578 0 0.536049
0.504616 0 0.480766
0.633707 0 0.398047
0.76228 0 0.263569
0.890562 0 0
1 0 0
0 0.299535 0.607904
0.10367 0.274357 0.595041
0.242695 0.226658 0.572747
0.374807 0.127916 0.536171
0.504799 0 0.480903
0.633844 0 0.398215
0.762402 0 0.263813
0.890654 0 0
1 0 0
0 0.388327 0.608087
0.104814 0.368917 0.595224
0.24329 0.333928 0.572931
0.375219 0.271351 0.53637
0.505104 0.15346 0.481117
0.634089 0 0.398474
0.7626 0 0.264195
0.890822 0 0
1 0 0
0 0.496361 0.608362
0.106584 0.481315 0.595499
0.244236 0.454902 0.57322
0.375845 0.410483 0.536675
0.505577 0.339864 0.481468
0.634455 0.22002 0.398886
0.762905 0 0.264805
0.891081 0 0
1 0 0
0 0.614786 0.608728
0.108995 0.602792 0.59588
0.245533 0.582055 0.573617
0.37673 0.548211 0.537102
0.506218 0.497505 0.481941
0.634974 0.42295 0.399466
0.763317 0.307347 0.265644
0.891432 0.0536049 0
1 0 0
0 0.739025 0.609216
0.112062 0.729198 0.596368
0.247196 0.712367 0.574136
0.377844 0.685313 0.537652
0.507057 0.64593 0.482567
0.63563 0.590936 0.400214
0.763867 0.514549 0.266743
0.89189 0.404059 0
1 0.215091 0
0 0.866743 0.609812
0.11577 0.858503 0.596979
0.249226 0.84445 0.574762
0.379232 0.822095 0.538338
0.508095 0.790036 0.483314
0.636454 0.746426 0.401114
0.764538 0.688411 0.26807
0.89247 0.611215 0
1 0.505287 0
0 0.996674 0.610513
0.120104 0.989609 0.597711
0.251652 0.97763 0.575525
0.38088 0.958663 0.539147
0.509316 0.931762 0.48423
0.637415 0.895674 0.402213
0.765332 0.848753 0.269657
0.893141 0.78854 0
1 0.711025 0
0 1 0.611353
0.125048 1 0.598566
0.254459 1 0.57641
0.382788 1 0.540093
0.510765 1 0.485283
0.63856 1 0.403479
0.766278 1 0.271504
0.893935 0.952346 0
1 0.890455 0
0 0.301732 0.755306
0.0872358 0.276738 0.745144
0.234302 0.229465 0.727718
0.369238 0.132265 0.699702
0.500664 0 0.658854
0.630594 0 0.601755
0.759731 0 0.522225
0.888411 0 0.406455
1 0 0.203586
0 0.356847 0.755398
0.0879835 0.335714 0.74522
0.234668 0.297078 0.727794
0.369482 0.22565 0.699779
0.500847 0.0694133 0.658961
0.630732 0 0.601862
0.759838 0 0.522332
0.888502 0 0.406607
1 0 0.203876
0 0.43444 0.755535
0.08925 0.417151 0.745357
0.235294 0.386404 0.727947
0.369894 0.333227 0.699931
0.501152 0.242725 0.659113
0.630976 0.0384833 0.602045
0.760037 0 0.522545
0.88867 0 0.406867
1 0 0.204364
0 0.533181 0.755749
0.0911879 0.519219 0.745586
0.236271 0.494865 0.728161
0.370535 0.454383 0.70016
0.501625 0.391577 0.659358
0.631342 0.291875 0.602319
0.760342 0.0855268 0.522866
0.88893 0 0.407279
1 0 0.205127
0 0.644633 0.756039
0.093843 0.633234 0.745876
0.237598 0.613581 0.728481
0.37142 0.581659 0.700496
0.502281 0.534234 0.659709
0.631861 0.465675 0.602701
0.760769 0.3635 0.523293
0.889281 0.182391 0.407843
1 0 0.20618
0 0.763745 0.75642
0.0971847 0.754253 0.746273
0.239307 0.738048 0.728878
0.372549 0.712032 0.700908
0.50312 0.674311 0.660151
0.632517 0.621988 0.603174
0.761318 0.550103 0.523857
0.889738 0.448569 0.40856
1 0.288045 0.207523
0 0.887633 0.756893
0.101244 0.879591 0.746746
0.241398 0.865919 0.729366
0.373953 0.844175 0.701411
0.504158 0.813077 0.6607
0.633341 0.770871 0.603784
0.76199 0.715007 0.524559
0.890318 0.64123 0.409461
1 0.541482 0.209171
0 1 0.757458
0.105959 1 0.747326
0.2439 0.995956 0.729961
0.375631 0.977401 0.702037
0.505409 0.951064 0.661357
0.634318 0.915831 0.604501
0.762798 0.8701 0.525399
0.89099 0.811612 0.410529
1 0.736751 0.211139
0 1 0.758129
0.111315 1 0.747997
0.246784 1 0.730648
0.377569 1 0.702754
0.506859 1 0.66212
0.635462 1 0.605341
0.763729 1 0.52636
0.891783 0.971206 0.411765
1 0.910735 0.213428
0 0.370916 0.902815
0.0657969 0.350591 0.894453
0.224048 0.31368 0.880232
0.362539 0.24654 0.857603
0.495735 0.111147 0.825193
0.626719 0 0.78117
0.756558 0 0.722759
0.88574 0 0.645319
1 0 0.539879
0 0.417319 0.902876
0.0665904 0.399298 0.89453
0.224445 0.367102 0.880308
0.362783 0.310796 0.857679
0.495918 0.212131 0.825269
0.626856 0 0.781247
0.75668 0 0.722835
0.885832 0 0.645411
1 0 0.539986
0 0.48542 0.902998
0.0679179 0.470024 0.894636
0.225086 0.442939 0.880415
0.36321 0.397192 0.857801
0.496223 0.323812 0.825391
0.6271 0.195712 0.781384
0.756878 0 0.722988
0.886 0 0.645579
1 0 0.540185
0 0.575311 0.903166
0.0699779 0.562432 0.89482
0.226093 0.540093 0.880598
0.363867 0.503334 0.857984
0.496712 0.447456 0.825589
0.627482 0.362844 0.781598
0.757183 0.220172 0.723201
0.886259 0 0.645823
1 0 0.54049
0 0.679591 0.90341
0.0728161 0.668818 0.895064
0.227481 0.650324 0.880858
0.364752 0.620386 0.858244
0.497368 0.576288 0.825864
0.628 0.513542 0.781872
0.75761 0.423041 0.723522
0.88661 0.279423 0.646174
1 0 0.540917
0 0.793118 0.903731
0.0764935 0.784024 0.895384
0.229252 0.76849 0.881178
0.365911 0.743633 0.858579
0.498222 0.707713 0.826215
0.628656 0.658228 0.782254
0.758144 0.590997 0.723918
0.887083 0.4981 0.646632
1 0.359731 0.541466
0 0.912703 0.904112
0.0812848 0.904906 0.895781
0.231418 0.891661 0.881575
0.367346 0.870619 0.858991
0.49926 0.840589 0.826642
0.629496 0.799969 0.782696
0.758831 0.746471 0.724422
0.887648 0.676371 0.647196
1 0.583001 0.542138
0 1 0.904585
0.0866255 1 0.896254
0.234012 1 0.882063
0.369039 1 0.85948
0.500526 0.97435 0.827161
0.630472 0.940063 0.783246
0.75964 0.895705 0.725017
0.888334 0.839185 0.647868
1 0.767254 0.542947
0 1 0.905135
0.0926528 1 0.896803
0.237003 1 0.882612
0.371023 1 0.860059
0.501991 1 0.827756
0.631632 1 0.783886
0.760586 1 0.725704
0.889128 0.993957 0.648646
1 0.935134 0.543877
0 0.440101 1
0.0403143 0.423041 1
0.211231 0.392752 1
0.35436 0.34052 1
0.489769 0.252384 0.985565
0.622049 0.0599374 0.949676
0.752743 0 0.903166
0.882521 0 0.843748
1 0 0.767803
0 0.479912 1
0.0410925 0.464317 1
0.211643 0.436881 1
0.35462 0.390433 1
0.489952 0.315572 0.985626
0.622187 0.182696 0.949752
0.752865 0 0.903243
0.882628 0 0.843809
1 0 0.76788
0 0.540093 1
0.0424201 0.526329 1
0.212314 0.502327 1
0.355047 0.462516 1
0.490257 0.400977 0.985733
0.622431 0.304189 0.949859
0.753063 0.114168 0.903349
0.882795 0 0.843931
1 0 0.768017
0 0.621881 1
0.04448 0.61004 1
0.213367 0.589578 1
0.355703 0.556207 1
0.490745 0.506325 0.985885
0.622812 0.433295 0.950027
0.753368 0.321279 0.903532
0.883055 0.0918441 0.844129
1 0 0.768231
0 0.719081 1
0.0473182 0.708949 1
0.214817 0.6916 1
0.356634 0.66363 1
0.491417 0.622782 0.986114
0.623331 0.565423 0.950256
0.753796 0.484901 0.903777
0.883406 0.365591 0.844388
1 0.138735 0.768521
0 0.826825 1
0.0509957 0.818128 1
0.216678 0.803311 1
0.357809 0.77966 1
0.492271 0.745617 0.986389
0.624002 0.699001 0.950545
0.754345 0.636362 0.904082
0.883879 0.551492 0.844724
1 0.430686 0.768902
0 0.941756 1
0.0555428 0.934234 1
0.218967 0.921447 1
0.359274 0.901183 1
0.493339 0.872297 0.986755
0.624842 0.833371 0.950927
0.755016 0.782361 0.904479
0.884443 0.71606 0.845151
1 0.628977 0.76936
0 1 1
0.0609751 1 1
0.221668 1 1
0.360998 1 1
0.494606 1 0.987167
0.625834 0.968215 0.951354
0.75584 0.925353 0.904936
0.88513 0.870954 0.845655
1 0.802136 0.769924
0 1 1
0.0673381 1 1
0.224811 1 1
0.363027 1 1
0.496086 1 0.987671
0.626993 1 0.951873
0.756786 1 0.905486
0.885924 1 0.846235
1 0.963439 0.770565
0 0.5093 1
0.0104829 0.494652 1
0.195361 0.469001 1
0.344549 0.426047 1
0.482689 0.358404 1
0.616526 0.246738 1
0.748257 0 1
0.878752 0 1
1 0 0.964736
0 0.543984 1
0.0112612 0.530312 1
0.195789 0.506523 1
0.344823 0.467048 1
0.482872 0.406195 1
0.616678 0.310964 1
0.748363 0.128496 1
0.878859 0 1
1 0 0.964797
0 0.597574 1
0.0125887 0.585199 1
0.196521 0.563806 1
0.345266 0.52874 1
0.483192 0.475898 1
0.616922 0.397314 1
0.748562 0.271672 1
0.879026 0 1
1 0 0.964904
0 0.672084 1
0.0146487 0.661189 1
0.197635 0.642451 1
0.345937 0.6121 1
0.48368 0.567346 1
0.617304 0.503441 1
0.748882 0.410697 1
0.879286 0.260853 1
1 0 0.965072
0 0.762509 1
0.0175021 0.753017 1
0.199176 0.736767 1
0.346883 0.710719 1
0.484352 0.672908 1
0.617838 0.620462 1
0.74931 0.548379 1
0.879637 0.446433 1
1 0.284764 0.965286
0 0.864439 1
0.0211643 0.856168 1
0.20116 0.842084 1
0.348104 0.819638 1
0.485237 0.787472 1
0.618509 0.743694 1
0.749859 0.68545 1
0.88011 0.607843 1
1 0.501183 0.965591
0 0.974533 1
0.0257115 0.9673 1
0.203586 0.955001 1
0.349599 0.935531 1
0.486305 0.907866 1
0.619348 0.87068 1
0.750546 0.822202 1
0.880674 0.759686 1
1 0.678614 0.965942
0 1 1
0.0311437 1 1
0.206455 1 1
0.35137 1 1
0.487602 1 1
0.620356 1 1
0.751369 0.958755 1
0.881361 0.906569 1
1 0.84097 0.966384
0 1 1
0.0375067 1 1
0.209781 1 1
0.353445 1 1
0.489097 1 1
0.62153 1 1
0.752316 1 1
0.88217 1 1
1 0.995438 0.966888
