assets/luts/LUTs/Knittel-M2S-Creative-Highlight-Enhance.CUBE
LUT_3D_SIZE 6
0.000000 0.000000 0.000000
0.214703 -0.057458 -0.057458
0.429399 -0.114913 -0.114913
0.644112 -0.172380 -0.172380
0.858762 -0.229829 -0.229829
1.073529 -0.287311 -0.287311
0.045484 0.199042 0.045484
0.199972 0.199972 0.019380
0.447923 0.161538 -0.189609
0.656979 0.080796 -0.217002
0.867722 -0.161069 -0.260034
1.080153 -0.242554 -0.309509
0.090969 0.398075 0.090969
0.209629 0.398352 0.093085
0.399932 0.399932 0.038760
0.675532 0.368826 -0.366959
0.895856 0.323100 -0.379214
1.104834 0.266400 -0.400733
0.136465 0.597149 0.136465
0.227897 0.597306 0.137673
0.407251 0.597957 0.142660
0.599969 0.599969 0.058144
0.884298 0.577359 -0.524030
1.128622 0.530276 -0.558001
0.181935 0.796188 0.181935
0.253434 0.796224 0.182764
0.419271 0.796734 0.186156
0.606366 0.797534 0.192781
0.799876 0.799876 0.077520
1.082011 0.785037 -0.650630
0.227445 0.995228 0.227445
0.284505 0.995283 0.228027
0.435492 0.995653 0.230542
0.616189 0.996290 0.235503
0.805706 0.997333 0.243161
0.999858 0.999858 0.096909
0.017497 0.017497 0.196875
0.197579 0.030993 0.197579
0.403716 -0.049293 0.199522
0.628642 -0.144745 0.171462
0.848942 -0.213585 0.042552
1.066992 -0.276927 -0.197418
0.047346 0.199277 0.199277
0.200004 0.200004 0.200004
0.424025 0.180869 0.180869
0.641107 0.129129 0.129129
0.856712 -0.128534 -0.128534
1.072030 -0.225618 -0.225618
0.091688 0.398151 0.209184
0.209836 0.398414 0.209836
0.399946 0.399946 0.201307
0.672036 0.368609 -0.295486
0.888775 0.328433 -0.310925
1.098199 0.276642 -0.342063
0.136880 0.597201 0.227491
0.228093 0.597358 0.228093
0.407348 0.598008 0.230599
0.599974 0.599974 0.203922
0.884855 0.576165 -0.490893
1.125701 0.531121 -0.520843
0.182208 0.796142 0.253099
0.253607 0.796266 0.253607
0.419324 0.796747 0.255766
0.606400 0.797577 0.260077
0.799881 0.799881 0.208034
1.083023 0.784238 -0.630274
0.227647 0.995265 0.284225
0.284650 0.995321 0.284650
0.435583 0.995691 0.286490
0.616240 0.996327 0.290172
0.805748 0.997369 0.295941
0.999861 0.999861 0.213669
0.034991 0.034991 0.393741
0.198632 0.042091 0.394012
0.395187 0.061987 0.395187
0.592343 0.086563 0.397524
0.807414 -0.098568 0.399059
1.033602 -0.209056 0.381963
0.054345 0.200314 0.394635
0.201033 0.201033 0.394904
0.396117 0.203990 0.396117
0.592958 0.209727 0.398459
0.813756 0.168501 0.396882
1.039504 -0.121490 0.375020
0.094687 0.398566 0.398566
0.210800 0.398809 0.398809
0.400008 0.400008 0.400008
0.627995 0.385894 0.385894
0.848055 0.361742 0.361742
1.065713 0.322868 0.322868
0.138614 0.597427 0.406372
0.228958 0.597588 0.406620
0.407738 0.598238 0.407738
0.599996 0.599996 0.401029
0.882334 0.572545 -0.253169
1.109434 0.537494 -0.282105
0.183382 0.796322 0.418369
0.254347 0.796425 0.418619
0.419653 0.796839 0.419653
0.606621 0.797757 0.421855
0.799898 0.799898 0.402618
1.086881 0.780787 -0.525134
0.228513 0.995375 0.434654
0.285286 0.995486 0.434913
0.435929 0.995741 0.435929
0.616463 0.996432 0.437997
0.805901 0.997474 0.441255
0.999877 0.999877 0.404870
0.052491 0.052491 0.590633
0.200710 0.056843 0.590772
0.395979 0.071685 0.591454
0.592788 0.092991 0.592788
0.789825 0.117186 0.594965
0.989675 0.130365 0.598355
0.065622 0.202375 0.591165
0.203075 0.203075 0.591303
0.396892 0.206014 0.591985
0.593303 0.211799 0.593303
0.790228 0.220637 0.595454
0.991591 0.222416 0.598969
0.100407 0.399355 0.593367
0.212741 0.399653 0.593530
0.400765 0.400765 0.594204
0.595553 0.403099 0.595553
0.791649 0.406772 0.597675
1.004652 0.394993 0.599760
0.142047 0.597894 0.597894
0.230661 0.598027 0.598027
0.408491 0.598677 0.598677
0.600021 0.600021 0.600021
0.830030 0.587379 0.587379
1.052688 0.568725 0.568725
0.185717 0.796668 0.604965
0.255827 0.796763 0.605140
0.420432 0.797184 0.605779
0.607055 0.798102 0.607055
0.799935 0.799935 0.600941
1.088187 0.774714 0.312449
0.230227 0.995590 0.614859
0.286555 0.995705 0.614988
0.436624 0.995960 0.615617
0.616887 0.996649 0.616887
0.806145 0.997693 0.618917
0.999910 0.999910 0.602232
0.069980 0.069980 0.787467
0.204014 0.072972 0.787592
0.397250 0.084180 0.787994
0.593519 0.102116 0.788930
0.790311 0.123971 0.790311
0.987518 0.147957 0.792349
0.079441 0.205630 0.787777
0.206310 0.206310 0.787903
0.398154 0.209191 0.788305
0.594071 0.214863 0.789234
0.790712 0.223513 0.790712
0.987682 0.235060 0.792742
0.108693 0.400651 0.789287
0.215766 0.400908 0.789394
0.402051 0.402051 0.789812
0.596260 0.404363 0.790775
0.792212 0.407988 0.792212
0.988813 0.413091 0.794154
0.147304 0.598591 0.792273
0.233383 0.598752 0.792398
0.409747 0.599396 0.792886
0.600733 0.600733 0.793745
0.795178 0.602833 0.795178
0.990999 0.605809 0.797223
0.189378 0.797114 0.797114
0.258186 0.797239 0.797239
0.421610 0.797630 0.797630
0.607782 0.798546 0.798546
0.799993 0.799993 0.799993
1.031396 0.787987 0.787987
0.232954 0.995895 0.803895
0.288562 0.996008 0.803984
0.437732 0.996320 0.804402
0.617604 0.996952 0.805305
0.806700 0.997994 0.806700
0.999961 0.999961 0.800803
0.087479 0.087479 0.984424
0.208572 0.089701 0.984432
0.399063 0.098411 0.984802
0.594557 0.113401 0.985412
0.791013 0.132805 0.986436
0.987950 0.154966 0.987950
0.094654 0.210138 0.984596
0.210782 0.210782 0.984701
0.399999 0.213585 0.984972
0.595085 0.219088 0.985677
0.791388 0.227538 0.986703
0.988274 0.238816 0.988274
0.119139 0.402401 0.985724
0.219988 0.402698 0.985835
0.403823 0.403823 0.986105
0.597291 0.406112 0.986758
0.792891 0.409722 0.987835
0.989345 0.414814 0.989345
0.154357 0.599597 0.987883
0.237169 0.599796 0.987994
0.411469 0.600423 0.988310
0.601758 0.601758 0.988963
0.795873 0.603853 0.990033
0.991529 0.606796 0.991529
0.194414 0.797807 0.991432
0.261473 0.797909 0.991543
0.423265 0.798322 0.991805
0.608770 0.799214 0.992504
0.800658 0.800658 0.993561
0.995045 0.802649 0.995045
0.236741 0.996475 0.996475
0.291384 0.996589 0.996589
0.439331 0.996839 0.996839
0.618567 0.997532 0.997532
0.807353 0.998574 0.998574
1.000000 1.000000 1.000000
