assets/luts/LUTs/Knittel-M2S-No-Filter-MOV-H265-HLG.CUBE
TITLE "Generated by Resolve"
LUT_3D_SIZE 5
0 0 0
0.0763409 0.00108339 0.00872816
0.272038 0.00573739 0.0460517
0.593942 0.0229801 0.162112
1 0.110491 0.43595
0 0.0606088 0
0.0927749 0.0661173 0.00192264
0.286564 0.0794232 0.0403296
0.604166 0.108171 0.158556
1 0.186007 0.434272
0 0.235447 0
0.0955825 0.239063 0
0.306432 0.248798 0.0101167
0.626154 0.271458 0.141405
1 0.334691 0.428138
0 0.525612 0
0.0434882 0.527779 0
0.31548 0.534035 0
0.658183 0.55053 0.0405737
1 0.602777 0.402365
0 1 0
0 1 0
0.205478 1 0
0.671275 1 0
1 1 0.171527
0 0 0.0324254
0.0597543 0 0.0545663
0.263264 0.00328069 0.10341
0.588907 0.019913 0.204623
1 0.107134 0.460594
0 0.0593118 0.04477
0.0693217 0.0644541 0.0589914
0.27657 0.0771801 0.103288
0.59884 0.105669 0.203052
1 0.183749 0.459251
0 0.234668 0.0235447
0.0654459 0.238239 0.0382086
0.294743 0.247837 0.084947
0.620249 0.270298 0.192569
1 0.333379 0.454109
0 0.525154 0
0.00512703 0.527321 0
0.301274 0.533547 0
0.651423 0.549966 0.127382
1 0.602075 0.431617
0 1 0
0 1 0
0.177539 1 0
0.66273 1 0
1 1 0.236423
0 0 0.153368
0.000503548 0 0.176883
0.23331 0 0.220005
0.573159 0.010544 0.303029
1 0.0965591 0.527825
0 0.0546426 0.180606
0 0.0589456 0.193637
0.243259 0.0701762 0.227176
0.582269 0.0977798 0.304662
1 0.176761 0.527276
0 0.232197 0.192828
0 0.235599 0.202884
0.256275 0.244831 0.231373
0.602014 0.266773 0.304097
1 0.329397 0.524529
0 0.523781 0.150546
0 0.525902 0.162768
0.254124 0.532052 0.196414
0.630564 0.548272 0.277836
1 0.6 0.509514
0 1 0
0 1 0
0.0595102 1 0
0.636286 1 0
1 1 0.373434
0 0 0.372335
0 0 0.388586
0.093904 0 0.425025
0.521599 0 0.496757
1 0.0616465 0.687205
0 0.0366064 0.397391
0 0.0394293 0.408576
0.0934005 0.0476692 0.437293
0.528542 0.0712444 0.502068
1 0.154864 0.68806
0 0.223804 0.428809
0 0.226825 0.436225
0.0829328 0.235233 0.457374
0.543694 0.255863 0.512291
1 0.317403 0.689601
0 0.519539 0.446021
0 0.521569 0.451972
0.0192569 0.527474 0.469535
0.564492 0.543145 0.518013
1 0.59382 0.687297
0 1 0.326848
0 1 0.335103
0 1 0.358953
0.551537 1 0.421744
1 1 0.621347
0 0 0.866636
0 0 0.876158
0 0 0.901732
0.110567 0 0.960845
1 0 1
0 0 0.883848
0 0 0.892088
0 0 0.914733
0.105577 0 0.969238
1 0.0261234 1
0 0.172961 0.92018
0 0.175311 0.92636
0 0.182101 0.944015
0.0870069 0.20029 0.989609
1 0.261418 1
0 0.499046 0.973754
0 0.500801 0.978058
0 0.505928 0.990692
0.0119783 0.519875 1
1 0.567071 1
0 1 1
0 1 1
0 1 1
0 1 1
1 1 1
