assets/luts/LUTs/Knittel-M2S-Creative-Fake Golden Hour.CUBE
LUT_3D_SIZE 16
0.000000 0.000000 0.000000
0.014494 0.014428 0.014428
0.039684 0.038476 0.038476
0.074357 0.067856 0.067856
0.122928 0.101410 0.101410
0.190441 0.137897 0.137897
0.278299 0.176426 0.176426
0.378765 0.214384 0.214384
0.487285 0.243313 0.243313
0.588489 0.256158 0.256158
0.670300 0.259764 0.259764
0.739322 0.259282 0.259282
0.812337 0.257103 0.257103
0.901060 0.251662 0.251662
1.000012 0.244803 0.244803
1.057213 0.238125 0.238125
0.021113 0.021352 0.021113
0.024576 0.024448 0.024044
0.049506 0.044567 0.043667
0.089097 0.069642 0.068285
0.147565 0.096970 0.094990
0.228617 0.123394 0.120538
0.329535 0.148601 0.144841
0.436053 0.176457 0.172302
0.538145 0.204667 0.200572
0.630723 0.218374 0.214159
0.706555 0.221952 0.217691
0.772060 0.219766 0.215443
0.844253 0.211184 0.206530
0.933875 0.191947 0.186235
1.033856 0.164538 0.156811
1.089524 0.148405 0.139723
0.053948 0.058167 0.053948
0.055947 0.059942 0.054512
0.067714 0.065590 0.058376
0.110918 0.086530 0.073477
0.175439 0.107420 0.088368
0.264105 0.124412 0.095904
0.369925 0.139195 0.100837
0.473057 0.165103 0.129117
0.569059 0.195932 0.165646
0.657727 0.209046 0.179606
0.731821 0.209047 0.179149
0.795955 0.202708 0.171823
0.867212 0.188140 0.152680
0.956689 0.156415 0.101186
1.057657 0.091528 -0.109030
1.112294 -0.040575 -0.135370
0.085445 0.107260 0.085445
0.085810 0.108903 0.082837
0.099006 0.112228 0.082601
0.126913 0.117403 0.077616
0.198661 0.136888 0.057036
0.290331 0.152671 -0.041840
0.394125 0.169395 -0.064364
0.498636 0.191515 0.038632
0.594547 0.217683 0.115187
0.679407 0.230305 0.137818
0.751403 0.228019 0.133798
0.813763 0.219395 0.119553
0.883487 0.204087 0.075196
0.971583 0.175015 -0.116201
1.072042 0.120480 -0.179311
1.126809 0.057068 -0.197488
0.101130 0.171003 0.101130
0.098394 0.172903 0.092252
0.117086 0.175045 0.084304
0.153573 0.177167 0.076581
0.204072 0.180490 -0.052090
0.302120 0.200802 -0.124275
0.410073 0.220481 -0.145502
0.517142 0.242401 -0.139436
0.613859 0.265336 -0.093130
0.696508 0.276347 0.042717
0.766435 0.273025 0.029086
0.826769 0.263782 -0.064581
0.894415 0.251245 -0.112384
0.980202 0.232994 -0.162175
1.078838 0.205887 -0.207964
1.133755 0.177715 -0.224592
0.094065 0.248060 0.094065
0.086395 0.249966 0.072726
0.117145 0.251501 0.043596
0.168588 0.252457 -0.045150
0.226176 0.252661 -0.068643
0.295462 0.256428 -0.141769
0.413785 0.281907 -0.199049
0.526621 0.305816 -0.199895
0.626215 0.327476 -0.169983
0.709264 0.336431 -0.141175
0.777354 0.332277 -0.134941
0.835858 0.322670 -0.138131
0.901215 0.312832 -0.155182
0.984160 0.302797 -0.186305
1.081867 0.287996 -0.226553
1.137226 0.265953 -0.243430
0.107635 0.334186 0.107635
0.084135 0.336829 0.063391
0.115777 0.338874 -0.067773
0.178323 0.340031 -0.099076
0.246996 0.340099 -0.115348
0.316027 0.339252 -0.123439
0.399561 0.346348 -0.195917
0.523391 0.375236 -0.236027
0.630433 0.396760 -0.218330
0.717215 0.403628 -0.199691
0.785402 0.397897 -0.189627
0.842900 0.386935 -0.185067
0.907080 0.377557 -0.192747
0.988921 0.370811 -0.216039
1.086604 0.361336 -0.253831
1.142235 0.341053 -0.269536
0.148552 0.429089 0.148552
0.132610 0.431315 0.120786
0.152802 0.433484 0.080187
0.207089 0.434998 -0.052473
0.275353 0.435672 -0.087211
0.347377 0.435494 -0.093736
0.419072 0.434954 -0.079367
0.506909 0.444356 -0.195659
0.625869 0.468996 -0.243375
0.721365 0.474109 -0.252293
0.792469 0.465830 -0.245812
0.850699 0.452483 -0.237804
0.914421 0.442356 -0.239361
0.995559 0.437256 -0.255780
1.093148 0.431213 -0.290418
1.148906 0.411301 -0.303642
0.148023 0.531231 0.148023
0.160218 0.531136 0.149553
0.197735 0.531278 0.149875
0.252459 0.531655 0.149231
0.315760 0.532239 0.147351
0.384083 0.532828 0.148535
0.454729 0.533419 0.153948
0.526267 0.534278 0.156708
0.613505 0.540357 -0.199160
0.717935 0.547141 -0.285626
0.795744 0.536359 -0.299054
0.857054 0.520017 -0.293605
0.921894 0.508291 -0.292256
1.002891 0.503790 -0.303675
1.100755 0.500117 -0.335154
1.156626 0.479790 -0.345240
0.109229 0.625919 0.109229
0.148405 0.624922 0.134604
0.203107 0.624257 0.150406
0.266402 0.623930 0.160445
0.334259 0.623975 0.166831
0.404855 0.624321 0.170687
0.477354 0.624935 0.172501
0.551310 0.625756 0.171678
0.626823 0.626879 0.146328
0.705537 0.620049 -0.250495
0.791006 0.609234 -0.330887
0.858978 0.589961 -0.345123
0.927140 0.576108 -0.347260
1.009565 0.571444 -0.356884
1.108057 0.569584 -0.385664
1.164377 0.548249 -0.392405
-0.103547 0.710758 -0.103547
0.074061 0.709695 -0.037747
0.175983 0.708763 0.093113
0.256580 0.707913 0.122601
0.333459 0.707608 0.139448
0.409390 0.707486 0.148862
0.485366 0.707635 0.152272
0.561906 0.708206 0.149544
0.639351 0.708746 0.138830
0.716386 0.707584 -0.095761
0.777932 0.681749 -0.301900
0.852661 0.661872 -0.373376
0.927370 0.646116 -0.396311
1.013210 0.640879 -0.410584
1.112740 0.640496 -0.437448
1.170111 0.617958 -0.441390
-0.158728 0.781324 -0.158728
-0.130173 0.780801 -0.145903
0.115577 0.780039 -0.124434
0.228524 0.779267 -0.094937
0.317166 0.778612 -0.049017
0.399419 0.778264 0.061888
0.479218 0.778120 0.078808
0.558105 0.778215 0.075338
0.636929 0.778496 0.038843
0.716308 0.778671 -0.085099
0.789374 0.771229 -0.207435
0.838634 0.733229 -0.346986
0.919020 0.717877 -0.420060
1.011047 0.712425 -0.456076
1.112139 0.713681 -0.482913
1.171279 0.689783 -0.485751
-0.173198 0.840718 -0.173198
-0.161607 0.840710 -0.173303
-0.080038 0.840578 -0.171127
0.192415 0.840085 -0.162691
0.293305 0.839591 -0.151495
0.381467 0.839146 -0.140534
0.464615 0.838772 -0.133284
0.545449 0.838594 -0.132806
0.625292 0.838591 -0.140449
0.704930 0.838563 -0.155044
0.784726 0.838484 -0.174188
0.852657 0.825132 -0.271367
0.903848 0.788505 -0.393116
1.000103 0.785119 -0.473069
1.102676 0.788428 -0.505557
1.164557 0.763502 -0.513175
-0.186093 0.903302 -0.186093
-0.175894 0.903294 -0.186177
-0.117766 0.903261 -0.186599
0.166311 0.903192 -0.187396
0.273463 0.903134 -0.188656
0.364955 0.902984 -0.188258
0.450990 0.902668 -0.187299
0.534011 0.902391 -0.187903
0.615428 0.902167 -0.191429
0.695981 0.901907 -0.198047
0.776057 0.901605 -0.207111
0.856305 0.901237 -0.216800
0.923516 0.886770 -0.319814
0.983012 0.856487 -0.439519
1.084193 0.863233 -0.482005
1.147523 0.838543 -0.501860
-0.198380 0.962996 -0.198380
-0.189357 0.962988 -0.198479
-0.141175 0.962957 -0.198837
0.145690 0.962892 -0.199552
0.261803 0.962787 -0.200715
0.354686 0.962727 -0.202389
0.440870 0.962633 -0.204621
0.523987 0.962373 -0.207452
0.605570 0.962140 -0.210944
0.686204 0.961921 -0.215149
0.766103 0.961545 -0.220147
0.845766 0.961144 -0.226021
0.925119 0.960649 -0.232829
0.991227 0.945196 -0.353923
1.065268 0.934375 -0.404009
1.126189 0.910924 -0.440239
-0.204195 0.991244 -0.204195
-0.196369 0.991238 -0.204263
-0.156382 0.991206 -0.204586
0.114817 0.991148 -0.205227
0.241501 0.991055 -0.206239
0.334274 0.991028 -0.207698
0.418759 0.990850 -0.209636
0.499651 0.990674 -0.212080
0.578665 0.990493 -0.215108
0.656521 0.990247 -0.218770
0.733658 0.989935 -0.223081
0.810461 0.989646 -0.228124
0.886789 0.989210 -0.233952
0.963135 0.988754 -0.242342
1.032608 0.980625 -0.319516
1.109559 0.979352 -0.325452
0.007274 0.007274 0.007282
0.015612 0.015522 0.015574
0.040454 0.038996 0.039152
0.075454 0.068007 0.068333
0.124918 0.101062 0.101627
0.194016 0.136649 0.137542
0.283876 0.173727 0.174972
0.385688 0.210331 0.211835
0.492939 0.239367 0.241154
0.593174 0.252154 0.254222
0.673991 0.256117 0.258326
0.741956 0.256243 0.258499
0.814632 0.254042 0.256411
0.903931 0.246957 0.249611
1.003472 0.237938 0.240978
1.060556 0.230751 0.233845
0.021738 0.022007 0.021941
0.025119 0.024964 0.024848
0.046053 0.041606 0.041515
0.083023 0.067393 0.067311
0.136678 0.097460 0.097374
0.210669 0.129224 0.129131
0.304085 0.162272 0.162166
0.406543 0.196380 0.196279
0.511756 0.224744 0.224636
0.609661 0.236777 0.236669
0.687586 0.241439 0.241338
0.753578 0.242005 0.241919
0.825991 0.237865 0.237782
0.915205 0.227357 0.227285
1.014501 0.214159 0.214063
1.071370 0.204147 0.204058
0.054000 0.058549 0.054686
0.054651 0.059360 0.054335
0.067920 0.065685 0.058662
0.109803 0.084675 0.073429
0.173394 0.105010 0.089308
0.261757 0.121640 0.098456
0.368137 0.135311 0.103795
0.472094 0.160316 0.130263
0.567196 0.192630 0.167884
0.654562 0.207952 0.184474
0.728520 0.209027 0.185408
0.792557 0.203678 0.179552
0.863980 0.190093 0.162811
0.953614 0.159434 0.119427
1.055055 0.096520 -0.087767
1.109991 -0.015727 -0.121456
0.084718 0.107656 0.086185
0.083981 0.108311 0.083552
0.097367 0.112076 0.082548
0.127126 0.117413 0.077407
0.198555 0.135354 0.058887
0.290595 0.149712 -0.039718
0.395561 0.164297 -0.069528
0.500877 0.184751 -0.033592
0.596019 0.211508 0.109854
0.678369 0.227041 0.140825
0.749835 0.225790 0.139432
0.811860 0.217975 0.127939
0.881497 0.203275 0.092320
0.969715 0.174187 -0.103588
1.070795 0.116757 -0.173814
1.126150 0.033150 -0.194371
0.098401 0.171585 0.101439
0.095981 0.172296 0.095316
0.113445 0.174989 0.084667
0.151943 0.177204 0.076446
0.204322 0.180474 -0.054184
0.303318 0.199237 -0.126958
0.412637 0.216972 -0.151228
0.520713 0.237041 -0.149539
0.616799 0.259775 -0.108437
0.696692 0.272981 0.042813
0.765401 0.270879 0.055081
0.825282 0.262373 -0.035041
0.892741 0.250432 -0.099467
0.978459 0.232402 -0.153982
1.077564 0.204252 -0.203104
1.133042 0.174221 -0.221787
0.082534 0.249157 0.089320
0.079526 0.249612 0.078305
0.107915 0.251854 0.032982
0.164075 0.252850 -0.056182
0.224668 0.252942 -0.077840
0.296341 0.256413 -0.148148
0.416556 0.280221 -0.207365
0.530622 0.302428 -0.210906
0.629512 0.323591 -0.181037
0.709635 0.333981 -0.142002
0.776486 0.330730 -0.128835
0.834398 0.321700 -0.129287
0.899403 0.312418 -0.145708
0.982331 0.302742 -0.178053
1.080256 0.287595 -0.220822
1.136185 0.264783 -0.239672
0.077637 0.336162 0.087550
0.076298 0.336367 0.074794
0.094972 0.339717 -0.084245
0.168137 0.340989 -0.113579
0.242357 0.340953 -0.129898
0.314879 0.339758 -0.139148
0.401169 0.346343 -0.208270
0.526637 0.373772 -0.248678
0.633034 0.394645 -0.227666
0.717192 0.402296 -0.198294
0.784417 0.396925 -0.184543
0.841425 0.386372 -0.177652
0.905179 0.377477 -0.184066
0.986842 0.370997 -0.207653
1.084829 0.361410 -0.247556
1.140950 0.340710 -0.265113
0.126498 0.430905 0.132951
0.129059 0.430820 0.128300
0.133265 0.434385 0.045419
0.193546 0.436225 -0.094387
0.267563 0.436886 -0.119271
0.343781 0.436462 -0.126644
0.418487 0.435460 -0.119229
0.508426 0.444352 -0.211562
0.627002 0.468245 -0.248918
0.720975 0.473423 -0.249782
0.791463 0.465265 -0.240732
0.849160 0.452187 -0.230935
0.912512 0.442391 -0.231244
0.993311 0.437563 -0.247581
1.091239 0.431451 -0.283994
1.147438 0.411234 -0.298953
0.152877 0.530874 0.158877
0.151979 0.531021 0.151327
0.190738 0.531274 0.149992
0.245366 0.531994 0.143244
0.310131 0.532791 0.136000
0.380503 0.533325 0.134827
0.453096 0.533753 0.142141
0.525875 0.534350 0.151216
0.613414 0.540383 -0.197396
0.717397 0.546902 -0.281694
0.794683 0.536114 -0.293473
0.855497 0.519893 -0.286799
0.919912 0.508379 -0.284575
1.000744 0.504104 -0.295916
1.098873 0.500393 -0.328999
1.155148 0.479819 -0.340614
0.136496 0.624841 0.144418
0.132028 0.625073 0.131179
0.199295 0.623933 0.156342
0.264107 0.623589 0.166394
0.332555 0.623651 0.172287
0.403624 0.624068 0.176019
0.476492 0.624713 0.178321
0.550697 0.625568 0.178858
0.626275 0.626783 0.158439
0.704967 0.620031 -0.242803
0.789977 0.609150 -0.324304
0.857454 0.589904 -0.338119
0.925359 0.576235 -0.339801
1.007552 0.571692 -0.349594
1.106314 0.569734 -0.380000
1.163022 0.548242 -0.388201
0.009821 0.709589 0.063384
-0.056840 0.709874 -0.059488
0.173285 0.708235 0.109785
0.256241 0.707514 0.137939
0.333496 0.707008 0.153994
0.409422 0.706996 0.163227
0.485304 0.707244 0.167268
0.561691 0.707753 0.166316
0.639009 0.708452 0.158936
0.715934 0.707478 0.032900
0.777143 0.681731 -0.292656
0.851430 0.661853 -0.365937
0.925801 0.646196 -0.389066
1.011479 0.641062 -0.403919
1.111377 0.640518 -0.432695
1.169163 0.617821 -0.438019
-0.144074 0.780748 -0.135279
-0.148435 0.780989 -0.149074
0.109432 0.779763 -0.111558
0.228622 0.778774 -0.060251
0.318011 0.778062 0.076914
0.400261 0.777678 0.105246
0.479799 0.777560 0.116945
0.558374 0.777724 0.117320
0.636900 0.778002 0.105082
0.716065 0.778424 0.066823
0.788947 0.771169 -0.189374
0.837880 0.733209 -0.338191
0.917803 0.717888 -0.413142
1.009766 0.712472 -0.450345
1.111249 0.713552 -0.479520
1.170815 0.689466 -0.483738
-0.173192 0.840715 -0.166676
-0.172253 0.840717 -0.172674
-0.097808 0.840419 -0.167342
0.189962 0.839814 -0.153630
0.293453 0.839185 -0.136433
0.382119 0.838594 -0.118966
0.465296 0.838258 -0.105317
0.545905 0.838111 -0.101464
0.625477 0.838118 -0.110385
0.704807 0.838214 -0.129564
0.784408 0.838244 -0.154290
0.852267 0.825124 -0.260940
0.903195 0.788496 -0.386319
0.999449 0.785073 -0.468768
1.102451 0.788286 -0.504292
1.164541 0.763161 -0.512913
-0.186088 0.903299 -0.180342
-0.185302 0.903301 -0.185638
-0.133256 0.903268 -0.186033
0.155561 0.903199 -0.186872
0.269541 0.903069 -0.186070
0.363613 0.902760 -0.182063
0.450553 0.902366 -0.178168
0.533850 0.902063 -0.176831
0.615274 0.901822 -0.179695
0.695702 0.901668 -0.187097
0.775766 0.901491 -0.198372
0.855956 0.901148 -0.211584
0.923321 0.886826 -0.317165
0.982833 0.856487 -0.437558
1.084231 0.863070 -0.481953
1.147596 0.838256 -0.501842
-0.198398 0.962993 -0.193268
-0.197707 0.962995 -0.197968
-0.153305 0.962963 -0.198339
0.132768 0.962898 -0.199060
0.256518 0.962794 -0.200230
0.351402 0.962733 -0.201919
0.438556 0.962640 -0.204145
0.522333 0.962378 -0.206992
0.604318 0.962138 -0.210356
0.685233 0.961921 -0.214612
0.765424 0.961549 -0.219750
0.845313 0.961148 -0.225635
0.924816 0.960652 -0.232470
0.991221 0.945220 -0.353496
1.065269 0.934377 -0.403841
1.126224 0.910785 -0.440228
-0.204191 0.991242 -0.199750
-0.203558 0.991244 -0.203795
-0.166045 0.991212 -0.204108
0.097757 0.991154 -0.204764
0.236123 0.991060 -0.205775
0.331003 0.991034 -0.207226
0.416486 0.990855 -0.209172
0.497957 0.990679 -0.211630
0.577406 0.990498 -0.214686
0.655628 0.990252 -0.218353
0.732929 0.989939 -0.222678
0.809940 0.989649 -0.227748
0.886412 0.989213 -0.233601
0.962885 0.988754 -0.241875
1.032505 0.980628 -0.319280
1.109559 0.979353 -0.325212
0.019463 0.019463 0.019593
0.026024 0.025791 0.026475
0.042919 0.041264 0.042218
0.077510 0.069409 0.071261
0.127193 0.101775 0.104933
0.197127 0.136470 0.141433
0.288270 0.172312 0.179260
0.391158 0.207654 0.216100
0.497834 0.236382 0.246097
0.597199 0.249045 0.260124
0.677047 0.253279 0.264988
0.744111 0.253988 0.265858
0.816782 0.251359 0.263785
0.906544 0.242802 0.256784
1.006671 0.231487 0.247675
1.063625 0.223712 0.240175
0.032141 0.032775 0.034570
0.029491 0.029372 0.031763
0.048285 0.043777 0.046267
0.084959 0.068673 0.072030
0.139160 0.097825 0.102469
0.214704 0.128129 0.134619
0.310322 0.158946 0.167309
0.414462 0.190961 0.200431
0.517845 0.219945 0.229907
0.613311 0.233477 0.244184
0.689798 0.239182 0.250067
0.755722 0.239426 0.250371
0.828401 0.234300 0.245884
0.918497 0.221114 0.234516
1.019267 0.202492 0.218760
1.075905 0.191186 0.208189
0.055073 0.059828 0.058708
0.055757 0.060719 0.059381
0.069088 0.066570 0.064584
0.104704 0.080030 0.078224
0.162672 0.098994 0.097140
0.244151 0.118615 0.116571
0.344329 0.138788 0.136618
0.447596 0.166221 0.164281
0.543529 0.199366 0.197807
0.632300 0.216560 0.215150
0.707301 0.221023 0.219728
0.772394 0.219195 0.218043
0.844396 0.210828 0.209758
0.934104 0.191076 0.189957
1.034958 0.159887 0.158461
1.091166 0.140451 0.138705
0.084601 0.108479 0.092304
0.083581 0.109194 0.090580
0.092974 0.111720 0.088032
0.127786 0.117526 0.084240
0.196794 0.130689 0.078751
0.287350 0.141319 0.062667
0.393500 0.150642 0.016632
0.499310 0.167870 0.061357
0.593326 0.195934 0.123838
0.672998 0.215855 0.157581
0.743565 0.217084 0.160608
0.805678 0.210884 0.153738
0.875477 0.196967 0.131428
0.964192 0.166540 0.038231
1.066157 0.098662 -0.148216
1.122249 -0.069243 -0.174672
0.096450 0.172217 0.112000
0.093242 0.173011 0.107037
0.102311 0.174542 0.094873
0.146798 0.177190 0.086700
0.204741 0.180328 -0.027861
0.304159 0.194563 -0.117344
0.415024 0.207357 -0.146496
0.524761 0.222670 -0.150980
0.620225 0.244031 -0.113239
0.696522 0.260190 0.067807
0.762322 0.261293 0.096620
0.821740 0.254029 0.087436
0.888916 0.242759 -0.034306
0.974812 0.223916 -0.128969
1.074859 0.191610 -0.188183
1.131098 0.156976 -0.210824
0.072105 0.250005 0.106836
0.061748 0.250833 0.095743
0.078822 0.251805 0.062588
0.150917 0.253236 -0.038207
0.219993 0.253284 -0.072394
0.297555 0.256208 -0.150370
0.420897 0.275403 -0.213244
0.536976 0.293180 -0.220945
0.635429 0.312167 -0.192983
0.711685 0.323870 -0.143156
0.774794 0.323231 -0.107928
0.831747 0.315172 -0.102153
0.896146 0.306648 -0.119426
0.978744 0.297218 -0.156507
1.077132 0.281124 -0.205029
1.133792 0.257187 -0.227440
-0.019422 0.337881 0.099355
-0.066465 0.339042 0.071512
-0.048129 0.339976 -0.072008
0.138637 0.342379 -0.121213
0.229643 0.342319 -0.141301
0.311074 0.340632 -0.153703
0.403900 0.346121 -0.223208
0.532833 0.369467 -0.266086
0.638909 0.387826 -0.242988
0.719108 0.395769 -0.200101
0.783048 0.391724 -0.171259
0.838950 0.381821 -0.158896
0.901800 0.373608 -0.162331
0.983026 0.367605 -0.186834
1.081139 0.357751 -0.230939
1.137910 0.336533 -0.251819
0.091744 0.432929 0.134560
0.061511 0.434079 0.111874
0.083128 0.434491 0.064292
0.154075 0.438091 -0.121614
0.246359 0.439010 -0.150025
0.333743 0.438226 -0.161120
0.416058 0.436474 -0.159430
0.511474 0.444181 -0.236743
0.630862 0.465387 -0.264233
0.721426 0.470007 -0.246667
0.790053 0.461910 -0.229591
0.846672 0.449134 -0.215432
0.909118 0.439817 -0.212605
0.989263 0.435360 -0.228255
1.087324 0.429159 -0.267595
1.144100 0.408723 -0.285421
0.153457 0.530867 0.181954
0.151539 0.531085 0.175141
0.162254 0.531122 0.155777
0.219195 0.532883 0.131537
0.290937 0.534176 0.105995
0.368519 0.534783 0.091221
0.447160 0.534801 0.100603
0.524357 0.534815 0.124094
0.614099 0.540219 -0.203267
0.717116 0.545454 -0.275590
0.793261 0.534170 -0.282740
0.853118 0.517943 -0.272730
0.916638 0.506670 -0.267819
0.996792 0.502659 -0.278128
1.094926 0.498825 -0.313446
1.151749 0.478110 -0.327548
0.153969 0.623947 0.185601
0.159107 0.623667 0.183860
0.167401 0.623879 0.160940
0.248051 0.623173 0.176042
0.321853 0.623326 0.181089
0.396277 0.623797 0.183972
0.471692 0.624516 0.186591
0.547849 0.625358 0.189014
0.624818 0.626567 0.176564
0.704314 0.619909 -0.229739
0.788617 0.608254 -0.312668
0.855250 0.588784 -0.324516
0.922269 0.575124 -0.324299
1.003871 0.570712 -0.333315
1.102729 0.568582 -0.365821
1.159892 0.546920 -0.376184
0.104682 0.708388 0.154449
0.117689 0.708056 0.154584
0.125264 0.708348 0.115362
0.241456 0.706835 0.158569
0.325137 0.706217 0.175431
0.403863 0.706172 0.184743
0.481403 0.706502 0.189572
0.558920 0.707119 0.190714
0.637050 0.707964 0.187461
0.714652 0.707428 0.130313
0.775947 0.681653 -0.275258
0.849541 0.661272 -0.351915
0.923101 0.645471 -0.374411
1.008277 0.640315 -0.389116
1.108386 0.639557 -0.420286
1.166503 0.616673 -0.427597
-0.115852 0.779893 0.063576
-0.102664 0.779563 0.063424
-0.095359 0.779920 -0.106823
0.211504 0.778121 0.085495
0.310392 0.777224 0.129004
0.395806 0.776723 0.149991
0.476818 0.776611 0.160651
0.556132 0.776812 0.163784
0.635101 0.777360 0.159371
0.714417 0.777909 0.144787
0.787851 0.771278 -0.142745
0.836499 0.733220 -0.320529
0.915801 0.717552 -0.398948
1.007291 0.711966 -0.437346
1.109152 0.712700 -0.469500
1.168998 0.688351 -0.475665
-0.168591 0.840500 -0.126965
-0.164307 0.840328 -0.131020
-0.158309 0.840527 -0.163332
0.163911 0.839323 -0.132610
0.284186 0.838439 -0.094235
0.377500 0.837750 0.019888
0.462537 0.837272 0.082334
0.543981 0.837161 0.095584
0.623885 0.837254 0.090917
0.703291 0.837519 0.058313
0.782983 0.837780 -0.086335
0.851328 0.825264 -0.234088
0.901837 0.788480 -0.371068
0.997756 0.784726 -0.457858
1.101419 0.787530 -0.497670
1.163943 0.762117 -0.508216
-0.186072 0.903287 -0.152200
-0.185253 0.903289 -0.158744
-0.177525 0.903293 -0.181172
0.099974 0.903174 -0.181119
0.253622 0.902748 -0.172806
0.355983 0.902219 -0.160601
0.446245 0.901687 -0.148967
0.531102 0.901315 -0.141761
0.613173 0.901147 -0.142128
0.693930 0.901052 -0.151243
0.774170 0.901048 -0.167439
0.854628 0.900871 -0.187910
0.922555 0.886944 -0.303795
0.982095 0.856499 -0.428970
1.084149 0.862611 -0.479668
1.147742 0.837425 -0.500745
-0.198378 0.962982 -0.168883
-0.197625 0.962984 -0.174417
-0.190948 0.962987 -0.193872
0.032938 0.962922 -0.194648
0.234523 0.962817 -0.195860
0.338231 0.962754 -0.197559
0.430146 0.962533 -0.197436
0.516846 0.962191 -0.196643
0.600515 0.961958 -0.197681
0.682338 0.961699 -0.201817
0.763127 0.961430 -0.209199
0.843610 0.961074 -0.218881
0.923669 0.960656 -0.228761
0.990727 0.945428 -0.350591
1.065273 0.934318 -0.402327
1.126363 0.910409 -0.439360
-0.204172 0.991229 -0.178941
-0.203464 0.991233 -0.183531
-0.197187 0.991236 -0.199864
-0.088983 0.991175 -0.200529
0.213796 0.991081 -0.201586
0.318056 0.991054 -0.203101
0.407608 0.990874 -0.205112
0.491459 0.990698 -0.207636
0.572606 0.990487 -0.210187
0.651980 0.990222 -0.213475
0.730245 0.989922 -0.218175
0.807881 0.989661 -0.224039
0.884957 0.989223 -0.230181
0.961946 0.988754 -0.238251
1.032070 0.980642 -0.317111
1.109560 0.979356 -0.323154
0.034605 0.034605 0.035318
0.039603 0.039237 0.042044
0.056376 0.053508 0.057747
0.080998 0.072239 0.077387
0.130561 0.103540 0.112183
0.200303 0.137445 0.150595
0.291616 0.172408 0.190630
0.394959 0.206779 0.228957
0.501647 0.234759 0.260213
0.600369 0.247210 0.275908
0.679281 0.251752 0.281801
0.745643 0.252891 0.283152
0.818218 0.249891 0.281522
0.908173 0.240435 0.275960
1.008654 0.227593 0.268582
1.065442 0.219576 0.261219
0.044267 0.045236 0.053299
0.039695 0.039598 0.047560
0.059520 0.053405 0.063206
0.088268 0.071307 0.081418
0.142229 0.099353 0.113334
0.217489 0.128836 0.148015
0.313519 0.158550 0.183352
0.418251 0.189442 0.217631
0.521166 0.218235 0.247750
0.615155 0.232572 0.263779
0.690940 0.238643 0.270204
0.756740 0.238769 0.270465
0.829342 0.233405 0.266787
0.919608 0.219312 0.257659
1.021014 0.198176 0.244531
1.077540 0.186490 0.234639
0.066109 0.073976 0.080793
0.064729 0.072219 0.080566
0.071845 0.069768 0.081096
0.106065 0.082166 0.094347
0.163583 0.100469 0.116626
0.245390 0.118914 0.140789
0.347235 0.136532 0.164427
0.452107 0.161516 0.190943
0.547016 0.195779 0.222168
0.633065 0.215921 0.240994
0.707640 0.220834 0.245875
0.772845 0.218989 0.244215
0.845071 0.210047 0.237155
0.935552 0.188119 0.220997
1.038007 0.148716 0.194458
1.094582 0.123229 0.176445
0.085232 0.109822 0.104512
0.084162 0.110516 0.104682
0.093530 0.112970 0.106311
0.129026 0.117737 0.108097
0.190554 0.124165 0.114513
0.276332 0.129084 0.117628
0.381190 0.131247 0.117476
0.483306 0.148976 0.136978
0.574350 0.182529 0.174019
0.654486 0.205689 0.198908
0.726752 0.209370 0.203271
0.790056 0.205841 0.200427
0.860843 0.194084 0.189044
0.950243 0.165320 0.159558
1.052595 0.102014 0.090115
1.109481 -0.043210 -0.068838
0.094985 0.173007 0.132326
0.091582 0.173763 0.129889
0.100270 0.175224 0.124084
0.138144 0.177183 0.115005
0.205582 0.179797 0.085862
0.302677 0.186895 -0.045731
0.413751 0.191693 -0.102977
0.525027 0.198883 -0.117159
0.620221 0.217492 -0.063465
0.693819 0.237147 0.119609
0.756458 0.243368 0.145904
0.815592 0.237926 0.143780
0.882829 0.227129 0.124849
0.969332 0.205603 0.023222
1.070496 0.164004 -0.150915
1.127563 0.119165 -0.182115
0.063227 0.250628 0.140623
0.049304 0.251450 0.134685
0.067088 0.252460 0.119332
0.127332 0.253276 0.090040
0.212249 0.253433 0.067255
0.298570 0.255474 -0.131543
0.424858 0.267122 -0.201689
0.543278 0.277515 -0.214951
0.642089 0.291884 -0.190972
0.715219 0.304217 -0.132240
0.773026 0.307740 0.012241
0.828167 0.301866 0.072927
0.892002 0.294163 0.044752
0.974333 0.284449 -0.104120
1.072838 0.266630 -0.171005
1.130017 0.241661 -0.200020
-0.072703 0.339142 0.140949
-0.095748 0.340533 0.125965
-0.102085 0.342269 0.080883
0.062099 0.343396 -0.095796
0.207576 0.343675 -0.130550
