assets/luts/LUTs/lutCreatorJs.CUBE
#Generated by lutCreator.js
#Coded by SirSerch
#https://github.com/SirSerch/LutCreatorJs
TITLE lutCreatorJs_64
LUT_3D_SIZE 64
0.000000 0.000000 0.000000
0.003922 0.003922 0.003922
0.000000 0.000000 0.000000
0.007843 0.007843 0.007843
0.003922 0.003922 0.000000
0.015686 0.011765 0.003922
0.015686 0.011765 0.003922
0.023529 0.007843 0.003922
0.054902 0.000000 0.000000
0.054902 0.000000 0.000000
0.082353 0.003922 0.007843
0.066667 0.003922 0.003922
0.101961 0.000000 0.003922
0.105882 0.003922 0.007843
0.133333 0.000000 0.003922
0.137255 0.000000 0.003922
0.152941 0.000000 0.000000
0.172549 0.003922 0.011765
0.203922 0.000000 0.003922
0.192157 0.003922 0.000000
0.211765 0.000000 0.000000
0.215686 0.007843 0.000000
0.254902 0.003922 0.000000
0.270588 0.003922 0.000000
0.262745 0.007843 0.000000
0.294118 0.003922 0.000000
0.317647 0.000000 0.000000
0.349020 0.000000 0.007843
0.349020 0.000000 0.007843
0.364706 0.000000 0.000000
0.388235 0.000000 0.007843
0.403922 0.000000 0.000000
0.427451 0.003922 0.000000
0.435294 0.003922 0.000000
0.478431 0.000000 0.000000
0.482353 0.003922 0.000000
0.521569 0.000000 0.000000
0.525490 0.000000 0.000000
0.564706 0.000000 0.000000
0.572549 0.000000 0.000000
0.596078 0.000000 0.000000
0.607843 0.003922 0.003922
0.643137 0.000000 0.003922
0.650980 0.007843 0.003922
0.682353 0.000000 0.003922
0.694118 0.003922 0.011765
0.725490 0.000000 0.007843
0.737255 0.000000 0.011765
0.776471 0.000000 0.000000
0.784314 0.000000 0.003922
0.815686 0.000000 0.007843
0.823529 0.000000 0.003922
0.854902 0.000000 0.000000
0.862745 0.000000 0.000000
0.894118 0.000000 0.003922
0.901961 0.000000 0.007843
0.925490 0.000000 0.000000
0.929412 0.003922 0.000000
0.956863 0.000000 0.000000
0.960784 0.003922 0.000000
0.992157 0.000000 0.000000
0.992157 0.003922 0.000000
0.996078 0.000000 0.000000
1.000000 0.003922 0.003922
0.000000 0.015686 0.000000
0.000000 0.019608 0.003922
0.000000 0.011765 0.000000
0.003922 0.011765 0.000000
0.003922 0.011765 0.000000
0.011765 0.015686 0.000000
0.011765 0.015686 0.000000
0.023529 0.019608 0.000000
0.050980 0.007843 0.000000
0.058824 0.015686 0.000000
0.082353 0.011765 0.003922
0.074510 0.015686 0.000000
0.109804 0.007843 0.003922
0.109804 0.011765 0.000000
0.137255 0.003922 0.000000
0.141176 0.007843 0.003922
0.152941 0.015686 0.000000
0.168627 0.019608 0.007843
0.200000 0.003922 0.000000
0.200000 0.011765 0.000000
0.227451 0.007843 0.003922
0.223529 0.015686 0.000000
0.250980 0.011765 0.000000
0.258824 0.015686 0.000000
0.282353 0.011765 0.000000
0.294118 0.011765 0.000000
0.329412 0.007843 0.000000
0.333333 0.011765 0.000000
0.364706 0.000000 0.003922
0.368627 0.007843 0.003922
0.400000 0.000000 0.000000
0.407843 0.007843 0.000000
0.431373 0.000000 0.000000
0.443137 0.003922 0.000000
0.478431 0.000000 0.000000
0.482353 0.003922 0.000000
0.509804 0.000000 0.000000
0.521569 0.003922 0.000000
0.560784 0.000000 0.000000
0.576471 0.000000 0.000000
0.596078 0.000000 0.000000
0.603922 0.000000 0.000000
0.635294 0.000000 0.000000
0.647059 0.003922 0.000000
0.682353 0.000000 0.000000
0.686275 0.003922 0.000000
0.721569 0.000000 0.000000
0.729412 0.000000 0.000000
0.760784 0.007843 0.000000
0.772549 0.003922 0.000000
0.811765 0.000000 0.000000
0.819608 0.003922 0.003922
0.850980 0.000000 0.000000
0.858824 0.003922 0.000000
0.882353 0.000000 0.003922
0.886275 0.000000 0.003922
0.925490 0.000000 0.000000
0.933333 0.007843 0.000000
0.964706 0.000000 0.000000
0.968627 0.003922 0.000000
0.996078 0.000000 0.003922
0.996078 0.000000 0.003922
0.996078 0.000000 0.003922
0.996078 0.000000 0.003922
0.000000 0.019608 0.000000
0.000000 0.023529 0.000000
0.000000 0.023529 0.000000
0.000000 0.031373 0.000000
0.000000 0.023529 0.000000
0.000000 0.027451 0.000000
0.011765 0.023529 0.000000
0.019608 0.031373 0.003922
0.050980 0.007843 0.000000
0.050980 0.015686 0.000000
0.078431 0.019608 0.000000
0.074510 0.023529 0.000000
0.113725 0.019608 0.003922
0.109804 0.019608 0.000000
0.133333 0.019608 0.003922
0.137255 0.023529 0.000000
0.149020 0.023529 0.003922
0.156863 0.019608 0.003922
0.196078 0.019608 0.000000
0.196078 0.027451 0.000000
0.215686 0.023529 0.000000
0.215686 0.031373 0.000000
0.250980 0.019608 0.000000
0.270588 0.023529 0.000000
0.270588 0.031373 0.000000
0.294118 0.031373 0.000000
0.321569 0.011765 0.000000
0.341176 0.019608 0.003922
0.364706 0.015686 0.000000
0.360784 0.015686 0.000000
0.400000 0.015686 0.000000
0.400000 0.019608 0.000000
0.439216 0.007843 0.000000
0.443137 0.015686 0.000000
0.474510 0.011765 0.000000
0.478431 0.011765 0.000000
0.517647 0.007843 0.000000
0.533333 0.015686 0.007843
0.556863 0.011765 0.000000
0.556863 0.011765 0.000000
0.600000 0.000000 0.007843
0.603922 0.007843 0.000000
0.647059 0.000000 0.000000
0.658824 0.000000 0.000000
0.686275 0.003922 0.007843
0.686275 0.003922 0.007843
0.733333 0.000000 0.007843
0.737255 0.000000 0.000000
0.768627 0.000000 0.000000
0.776471 0.000000 0.000000
0.811765 0.000000 0.000000
0.819608 0.003922 0.000000
0.850980 0.000000 0.000000
0.862745 0.000000 0.000000
0.898039 0.000000 0.003922
0.909804 0.000000 0.007843
0.933333 0.000000 0.000000
0.941176 0.007843 0.000000
0.964706 0.000000 0.000000
0.960784 0.003922 0.000000
0.992157 0.000000 0.000000
0.988235 0.007843 0.003922
0.996078 0.000000 0.000000
0.996078 0.000000 0.000000
0.000000 0.027451 0.000000
0.000000 0.035294 0.000000
0.000000 0.031373 0.000000
0.000000 0.039216 0.000000
0.000000 0.035294 0.000000
0.007843 0.039216 0.000000
0.011765 0.035294 0.000000
0.019608 0.043137 0.000000
0.035294 0.035294 0.000000
0.039216 0.039216 0.000000
0.074510 0.039216 0.003922
0.070588 0.035294 0.000000
0.109804 0.031373 0.003922
0.101961 0.027451 0.000000
0.125490 0.027451 0.000000
0.125490 0.035294 0.003922
0.160784 0.035294 0.015686
0.156863 0.043137 0.011765
0.196078 0.031373 0.007843
0.203922 0.035294 0.000000
0.219608 0.039216 0.000000
0.227451 0.047059 0.000000
0.262745 0.039216 0.000000
0.254902 0.050980 0.000000
0.298039 0.031373 0.000000
0.286275 0.050980 0.000000
0.309804 0.043137 0.000000
0.321569 0.043137 0.000000
0.352941 0.047059 0.007843
0.356863 0.039216 0.003922
0.400000 0.035294 0.003922
0.384314 0.047059 0.000000
0.435294 0.031373 0.000000
0.443137 0.035294 0.000000
0.474510 0.031373 0.000000
0.478431 0.035294 0.000000
0.517647 0.031373 0.000000
0.521569 0.035294 0.000000
0.556863 0.027451 0.003922
0.568627 0.023529 0.000000
0.596078 0.015686 0.000000
0.607843 0.023529 0.007843
0.639216 0.011765 0.003922
0.650980 0.015686 0.003922
0.682353 0.007843 0.000000
0.690196 0.015686 0.000000
0.725490 0.011765 0.007843
0.729412 0.007843 0.000000
0.768627 0.000000 0.000000
0.780392 0.003922 0.000000
0.811765 0.000000 0.000000
0.815686 0.003922 0.003922
0.850980 0.000000 0.000000
0.858824 0.003922 0.000000
0.894118 0.000000 0.003922
0.898039 0.000000 0.007843
0.929412 0.000000 0.000000
0.941176 0.000000 0.000000
0.964706 0.000000 0.000000
0.968627 0.003922 0.000000
0.992157 0.000000 0.000000
0.988235 0.007843 0.003922
0.996078 0.000000 0.000000
1.000000 0.003922 0.003922
0.003922 0.047059 0.000000
0.003922 0.050980 0.003922
0.000000 0.043137 0.000000
0.000000 0.050980 0.000000
0.000000 0.043137 0.000000
0.007843 0.050980 0.000000
0.011765 0.043137 0.000000
0.023529 0.047059 0.000000
0.031373 0.043137 0.000000
0.035294 0.047059 0.003922
0.070588 0.043137 0.003922
0.078431 0.054902 0.007843
0.109804 0.043137 0.003922
0.105882 0.050980 0.000000
0.125490 0.050980 0.000000
0.129412 0.054902 0.000000
0.172549 0.039216 0.000000
0.176471 0.050980 0.000000
0.196078 0.047059 0.003922
0.188235 0.058824 0.000000
0.215686 0.050980 0.000000
0.223529 0.058824 0.000000
0.254902 0.050980 0.000000
0.266667 0.054902 0.007843
0.294118 0.050980 0.000000
0.286275 0.062745 0.000000
0.321569 0.058824 0.000000
0.325490 0.050980 0.000000
0.352941 0.054902 0.003922
0.360784 0.054902 0.003922
0.407843 0.047059 0.003922
0.407843 0.062745 0.007843
0.435294 0.058824 0.003922
0.443137 0.058824 0.000000
0.478431 0.054902 0.003922
0.478431 0.058824 0.000000
0.513725 0.050980 0.003922
0.513725 0.050980 0.000000
0.549020 0.054902 0.000000
0.556863 0.058824 0.000000
0.603922 0.054902 0.003922
0.607843 0.050980 0.003922
0.639216 0.043137 0.000000
0.654902 0.050980 0.003922
0.686275 0.043137 0.000000
0.686275 0.043137 0.000000
0.713725 0.031373 0.000000
0.725490 0.031373 0.000000
0.764706 0.023529 0.000000
0.780392 0.027451 0.007843
0.803922 0.023529 0.003922
0.803922 0.023529 0.000000
0.843137 0.011765 0.000000
0.850980 0.019608 0.003922
0.882353 0.003922 0.000000
0.890196 0.007843 0.000000
0.929412 0.000000 0.000000
0.933333 0.000000 0.000000
0.964706 0.000000 0.000000
0.960784 0.003922 0.000000
0.996078 0.000000 0.000000
0.984314 0.003922 0.000000
0.996078 0.000000 0.000000
0.996078 0.000000 0.000000
0.003922 0.050980 0.000000
0.003922 0.058824 0.000000
0.000000 0.054902 0.000000
0.000000 0.058824 0.000000
0.000000 0.054902 0.000000
0.007843 0.058824 0.000000
0.011765 0.054902 0.000000
0.023529 0.054902 0.000000
0.019608 0.062745 0.000000
0.035294 0.066667 0.007843
0.062745 0.054902 0.003922
0.074510 0.058824 0.011765
0.105882 0.050980 0.007843
0.105882 0.058824 0.000000
0.133333 0.058824 0.000000
0.145098 0.058824 0.000000
0.152941 0.062745 0.000000
0.156863 0.066667 0.000000
0.192157 0.070588 0.000000
0.188235 0.074510 0.000000
0.211765 0.066667 0.000000
0.215686 0.078431 0.000000
0.243137 0.062745 0.000000
0.250980 0.070588 0.007843
0.282353 0.066667 0.000000
0.290196 0.074510 0.000000
0.325490 0.070588 0.000000
0.317647 0.074510 0.000000
0.356863 0.070588 0.003922
0.356863 0.070588 0.000000
0.392157 0.066667 0.003922
0.400000 0.074510 0.011765
0.447059 0.066667 0.000000
0.443137 0.082353 0.000000
0.474510 0.070588 0.003922
0.486275 0.074510 0.000000
0.509804 0.074510 0.000000
0.529412 0.078431 0.000000
0.564706 0.066667 0.000000
0.560784 0.082353 0.000000
0.603922 0.066667 0.003922
0.619608 0.070588 0.011765
0.650980 0.054902 0.003922
0.654902 0.058824 0.000000
0.686275 0.058824 0.003922
0.694118 0.066667 0.003922
0.729412 0.054902 0.000000
0.745098 0.054902 0.003922
0.776471 0.047059 0.000000
0.780392 0.050980 0.003922
0.807843 0.035294 0.000000
0.823529 0.050980 0.015686
0.847059 0.035294 0.003922
0.850980 0.047059 0.003922
0.874510 0.035294 0.003922
0.890196 0.039216 0.003922
0.937255 0.031373 0.003922
0.941176 0.035294 0.007843
0.952941 0.015686 0.000000
0.972549 0.023529 0.007843
0.996078 0.007843 0.003922
0.996078 0.015686 0.011765
0.996078 0.000000 0.000000
1.000000 0.003922 0.000000
0.003922 0.058824 0.000000
0.003922 0.070588 0.000000
0.000000 0.070588 0.000000
0.003922 0.078431 0.003922
0.000000 0.074510 0.000000
0.003922 0.070588 0.000000
0.007843 0.066667 0.000000
0.011765 0.070588 0.000000
0.035294 0.070588 0.000000
0.043137 0.070588 0.000000
0.070588 0.062745 0.003922
0.074510 0.078431 0.007843
0.094118 0.066667 0.000000
0.098039 0.078431 0.000000
0.129412 0.078431 0.003922
0.129412 0.082353 0.000000
0.156863 0.074510 0.000000
0.152941 0.090196 0.000000
0.188235 0.070588 0.000000
0.196078 0.082353 0.000000
0.207843 0.082353 0.000000
0.223529 0.086275 0.000000
0.262745 0.078431 0.000000
0.266667 0.090196 0.007843
0.262745 0.082353 0.000000
0.282353 0.086275 0.000000
0.321569 0.086275 0.000000
0.329412 0.094118 0.000000
0.360784 0.082353 0.003922
0.360784 0.090196 0.000000
0.388235 0.090196 0.000000
0.396078 0.090196 0.000000
0.431373 0.086275 0.000000
0.443137 0.098039 0.003922
0.466667 0.090196 0.000000
0.482353 0.098039 0.000000
0.525490 0.086275 0.000000
0.537255 0.086275 0.000000
0.560784 0.082353 0.000000
0.564706 0.094118 0.000000
0.600000 0.086275 0.000000
0.611765 0.090196 0.000000
0.643137 0.086275 0.007843
0.654902 0.090196 0.000000
0.694118 0.086275 0.000000
0.701961 0.090196 0.000000
0.737255 0.086275 0.000000
0.745098 0.082353 0.000000
0.768627 0.074510 0.003922
0.780392 0.074510 0.007843
0.815686 0.070588 0.007843
0.819608 0.078431 0.003922
0.850980 0.066667 0.007843
0.858824 0.074510 0.007843
0.890196 0.066667 0.007843
0.898039 0.066667 0.011765
0.921569 0.050980 0.000000
0.937255 0.058824 0.000000
0.968627 0.047059 0.003922
0.964706 0.054902 0.000000
1.000000 0.058824 0.007843
0.988235 0.054902 0.003922
1.000000 0.039216 0.000000
1.000000 0.039216 0.000000
0.000000 0.082353 0.000000
0.000000 0.090196 0.003922
0.000000 0.086275 0.000000
0.000000 0.090196 0.000000
0.000000 0.086275 0.000000
0.007843 0.082353 0.000000
0.007843 0.078431 0.000000
0.023529 0.082353 0.000000
0.015686 0.094118 0.000000
0.031373 0.094118 0.000000
0.066667 0.078431 0.000000
0.074510 0.082353 0.000000
0.109804 0.070588 0.000000
0.101961 0.082353 0.000000
0.125490 0.082353 0.000000
0.133333 0.090196 0.003922
0.164706 0.082353 0.000000
0.168627 0.090196 0.000000
0.192157 0.086275 0.003922
0.192157 0.098039 0.003922
0.219608 0.094118 0.003922
0.227451 0.101961 0.003922
0.266667 0.090196 0.000000
0.274510 0.094118 0.003922
0.294118 0.094118 0.000000
0.286275 0.109804 0.000000
0.309804 0.113725 0.007843
0.305882 0.113725 0.000000
0.352941 0.101961 0.003922
0.368627 0.098039 0.007843
0.403922 0.098039 0.011765
0.403922 0.098039 0.011765
0.419608 0.098039 0.003922
0.458824 0.105882 0.011765
0.478431 0.109804 0.007843
0.501961 0.101961 0.003922
0.501961 0.105882 0.000000
0.521569 0.109804 0.000000
0.541176 0.113725 0.000000
0.564706 0.121569 0.000000
0.600000 0.105882 0.007843
0.611765 0.109804 0.003922
0.639216 0.105882 0.011765
0.647059 0.109804 0.000000
0.686275 0.105882 0.003922
0.690196 0.109804 0.000000
0.725490 0.105882 0.000000
0.729412 0.101961 0.000000
0.768627 0.105882 0.000000
0.784314 0.109804 0.000000
0.811765 0.094118 0.000000
0.827451 0.105882 0.003922
0.850980 0.090196 0.000000
0.862745 0.101961 0.000000
0.882353 0.090196 0.000000
0.898039 0.098039 0.003922
0.929412 0.082353 0.000000
0.937255 0.098039 0.003922
0.952941 0.086275 0.003922
0.960784 0.094118 0.011765
0.996078 0.074510 0.000000
1.000000 0.078431 0.003922
1.000000 0.066667 0.000000
0.996078 0.074510 0.000000
0.003922 0.050980 0.000000
0.007843 0.054902 0.000000
0.023529 0.054902 0.003922
0.043137 0.054902 0.011765
0.050980 0.050980 0.011765
0.070588 0.054902 0.011765
0.086275 0.054902 0.015686
0.101961 0.050980 0.019608
0.113725 0.058824 0.007843
0.109804 0.062745 0.007843
0.133333 0.062745 0.007843
0.133333 0.066667 0.000000
0.168627 0.058824 0.003922
0.172549 0.066667 0.000000
0.207843 0.058824 0.000000
0.211765 0.062745 0.003922
0.239216 0.062745 0.000000
0.250980 0.066667 0.000000
0.274510 0.054902 0.000000
0.274510 0.066667 0.003922
0.298039 0.062745 0.007843
0.305882 0.070588 0.015686
0.341176 0.054902 0.019608
0.352941 0.050980 0.019608
0.384314 0.062745 0.007843
0.384314 0.062745 0.007843
0.400000 0.054902 0.000000
0.423529 0.058824 0.000000
0.450980 0.058824 0.000000
0.474510 0.054902 0.000000
0.490196 0.058824 0.000000
0.501961 0.058824 0.000000
0.537255 0.050980 0.003922
0.549020 0.054902 0.007843
0.584314 0.047059 0.007843
0.588235 0.047059 0.003922
0.623529 0.043137 0.003922
0.627451 0.047059 0.000000
0.662745 0.043137 0.000000
0.666667 0.047059 0.003922
0.709804 0.031373 0.000000
0.721569 0.035294 0.000000
0.756863 0.031373 0.000000
0.760784 0.027451 0.000000
0.792157 0.019608 0.000000
0.796078 0.023529 0.000000
0.827451 0.015686 0.000000
0.835294 0.015686 0.000000
0.862745 0.000000 0.000000
0.874510 0.003922 0.000000
0.901961 0.000000 0.000000
0.905882 0.003922 0.000000
0.937255 0.000000 0.000000
0.945098 0.007843 0.000000
0.980392 0.000000 0.000000
0.984314 0.003922 0.000000
0.996078 0.000000 0.000000
0.996078 0.000000 0.000000
0.996078 0.000000 0.000000
1.000000 0.003922 0.003922
1.000000 0.003922 0.003922
0.992157 0.003922 0.000000
0.996078 0.000000 0.003922
0.984314 0.003922 0.003922
0.000000 0.070588 0.000000
0.007843 0.074510 0.003922
0.015686 0.066667 0.000000
0.035294 0.066667 0.007843
0.054902 0.062745 0.011765
0.074510 0.066667 0.015686
0.090196 0.066667 0.019608
0.101961 0.070588 0.027451
0.101961 0.074510 0.003922
0.105882 0.078431 0.007843
0.125490 0.074510 0.003922
0.125490 0.074510 0.000000
0.160784 0.070588 0.000000
0.168627 0.082353 0.000000
0.203922 0.074510 0.000000
0.211765 0.082353 0.007843
0.258824 0.074510 0.003922
0.258824 0.082353 0.007843
0.266667 0.074510 0.000000
0.266667 0.082353 0.003922
0.313725 0.078431 0.007843
0.321569 0.082353 0.007843
0.349020 0.074510 0.011765
0.352941 0.078431 0.007843
0.384314 0.078431 0.000000
0.396078 0.078431 0.003922
0.415686 0.074510 0.007843
0.419608 0.086275 0.007843
0.450980 0.078431 0.007843
0.450980 0.090196 0.007843
0.482353 0.082353 0.000000
0.490196 0.078431 0.000000
0.541176 0.070588 0.007843
0.552941 0.070588 0.007843
0.596078 0.070588 0.003922
0.588235 0.074510 0.000000
0.619608 0.070588 0.003922
0.627451 0.074510 0.000000
0.662745 0.070588 0.003922
0.678431 0.070588 0.000000
0.713725 0.054902 0.003922
0.729412 0.062745 0.011765
0.760784 0.050980 0.007843
0.768627 0.062745 0.007843
0.800000 0.050980 0.007843
0.807843 0.062745 0.007843
0.839216 0.054902 0.003922
0.843137 0.050980 0.003922
0.870588 0.043137 0.000000
0.878431 0.039216 0.000000
0.917647 0.035294 0.000000
0.921569 0.039216 0.003922
0.949020 0.023529 0.000000
0.952941 0.031373 0.000000
0.976471 0.023529 0.000000
0.988235 0.027451 0.000000
0.996078 0.000000 0.003922
1.000000 0.003922 0.003922
0.996078 0.000000 0.000000
0.992157 0.003922 0.000000
1.000000 0.003922 0.000000
0.988235 0.011765 0.000000
0.992157 0.003922 0.000000
0.984314 0.011765 0.000000
0.003922 0.078431 0.000000
0.007843 0.082353 0.003922
0.011765 0.078431 0.003922
0.031373 0.082353 0.003922
0.043137 0.078431 0.003922
0.066667 0.078431 0.011765
0.078431 0.070588 0.011765
0.098039 0.074510 0.019608
0.117647 0.078431 0.003922
0.113725 0.090196 0.003922
0.137255 0.086275 0.011765
0.133333 0.090196 0.003922
0.172549 0.090196 0.007843
0.180392 0.094118 0.003922
0.215686 0.094118 0.011765
0.219608 0.101961 0.007843
0.262745 0.090196 0.000000
0.262745 0.090196 0.000000
0.286275 0.090196 0.000000
0.278431 0.098039 0.003922
0.294118 0.098039 0.007843
0.298039 0.101961 0.011765
0.333333 0.086275 0.015686
0.364706 0.090196 0.027451
0.372549 0.090196 0.003922
0.392157 0.094118 0.003922
0.423529 0.094118 0.000000
0.423529 0.101961 0.007843
0.450980 0.094118 0.011765
0.447059 0.101961 0.007843
0.482353 0.094118 0.000000
0.490196 0.098039 0.000000
0.533333 0.094118 0.000000
0.552941 0.105882 0.003922
0.588235 0.101961 0.000000
0.588235 0.094118 0.000000
0.631373 0.090196 0.000000
0.643137 0.094118 0.003922
0.682353 0.094118 0.000000
0.690196 0.094118 0.000000
0.717647 0.086275 0.003922
0.721569 0.094118 0.000000
0.768627 0.082353 0.000000
0.776471 0.086275 0.000000
0.796078 0.090196 0.000000
0.803922 0.086275 0.000000
0.843137 0.070588 0.000000
0.843137 0.082353 0.000000
0.858824 0.074510 0.007843
0.870588 0.082353 0.015686
0.901961 0.070588 0.015686
0.901961 0.074510 0.007843
0.933333 0.062745 0.003922
0.937255 0.066667 0.007843
0.968627 0.058824 0.003922
0.976471 0.058824 0.003922
1.000000 0.039216 0.000000
1.000000 0.043137 0.003922
1.000000 0.031373 0.000000
1.000000 0.039216 0.000000
1.000000 0.023529 0.000000
1.000000 0.027451 0.000000
1.000000 0.019608 0.000000
0.996078 0.019608 0.000000
0.000000 0.098039 0.000000
0.003922 0.105882 0.007843
0.007843 0.101961 0.007843
0.023529 0.101961 0.003922
0.039216 0.098039 0.007843
0.062745 0.098039 0.015686
0.074510 0.094118 0.015686
0.082353 0.094118 0.019608
0.129412 0.090196 0.000000
0.125490 0.098039 0.000000
0.149020 0.101961 0.000000
0.133333 0.105882 0.000000
0.164706 0.101961 0.000000
0.164706 0.105882 0.000000
0.207843 0.105882 0.000000
0.219608 0.121569 0.003922
0.227451 0.105882 0.000000
0.231373 0.117647 0.000000
0.278431 0.105882 0.000000
0.290196 0.113725 0.000000
0.305882 0.113725 0.000000
0.313725 0.121569 0.000000
0.345098 0.113725 0.000000
0.333333 0.117647 0.000000
0.372549 0.113725 0.019608
0.392157 0.117647 0.019608
0.439216 0.109804 0.015686
0.447059 0.101961 0.007843
0.462745 0.109804 0.007843
0.450980 0.117647 0.000000
0.517647 0.109804 0.000000
0.509804 0.121569 0.000000
0.529412 0.125490 0.000000
0.537255 0.125490 0.000000
0.572549 0.121569 0.000000
0.584314 0.125490 0.000000
0.627451 0.121569 0.000000
0.631373 0.117647 0.000000
0.678431 0.113725 0.007843
0.682353 0.113725 0.000000
0.713725 0.113725 0.000000
0.725490 0.117647 0.000000
0.756863 0.109804 0.000000
0.760784 0.113725 0.000000
0.792157 0.105882 0.000000
0.800000 0.113725 0.000000
0.835294 0.109804 0.000000
0.843137 0.109804 0.000000
0.870588 0.105882 0.000000
0.886275 0.109804 0.003922
0.917647 0.101961 0.000000
0.917647 0.101961 0.000000
0.949020 0.094118 0.000000
0.952941 0.098039 0.000000
0.976471 0.090196 0.000000
0.988235 0.094118 0.000000
1.000000 0.086275 0.007843
1.000000 0.090196 0.011765
1.000000 0.070588 0.003922
1.000000 0.082353 0.007843
1.000000 0.070588 0.003922
0.988235 0.082353 0.003922
0.992157 0.070588 0.000000
0.992157 0.074510 0.007843
0.000000 0.117647 0.003922
0.000000 0.121569 0.007843
0.000000 0.113725 0.003922
0.015686 0.117647 0.011765
0.023529 0.113725 0.003922
0.054902 0.117647 0.015686
0.062745 0.113725 0.007843
0.082353 0.113725 0.015686
0.129412 0.101961 0.000000
0.129412 0.109804 0.000000
0.149020 0.113725 0.000000
0.145098 0.125490 0.007843
0.176471 0.117647 0.003922
0.180392 0.121569 0.000000
0.211765 0.121569 0.000000
0.215686 0.125490 0.000000
0.231373 0.125490 0.000000
0.247059 0.129412 0.000000
0.278431 0.117647 0.000000
0.286275 0.129412 0.000000
0.321569 0.125490 0.000000
0.321569 0.125490 0.000000
0.345098 0.121569 0.000000
0.356863 0.125490 0.000000
0.380392 0.121569 0.019608
0.384314 0.137255 0.015686
0.419608 0.125490 0.011765
0.435294 0.125490 0.003922
0.462745 0.129412 0.007843
0.462745 0.133333 0.000000
0.509804 0.129412 0.000000
0.501961 0.141176 0.000000
0.525490 0.141176 0.000000
0.541176 0.145098 0.000000
0.580392 0.141176 0.000000
0.584314 0.145098 0.000000
0.623529 0.137255 0.000000
0.631373 0.137255 0.000000
0.674510 0.137255 0.000000
0.690196 0.141176 0.000000
0.701961 0.137255 0.000000
0.713725 0.141176 0.000000
0.749020 0.133333 0.000000
0.756863 0.145098 0.000000
0.792157 0.137255 0.000000
0.800000 0.141176 0.000000
0.831373 0.129412 0.000000
0.843137 0.133333 0.000000
0.870588 0.133333 0.000000
0.882353 0.137255 0.000000
0.913725 0.129412 0.000000
0.913725 0.129412 0.000000
0.945098 0.121569 0.000000
0.952941 0.129412 0.000000
0.984314 0.117647 0.000000
0.992157 0.117647 0.000000
1.000000 0.117647 0.007843
1.000000 0.117647 0.007843
1.000000 0.105882 0.003922
1.000000 0.105882 0.007843
1.000000 0.094118 0.007843
1.000000 0.105882 0.007843
1.000000 0.094118 0.003922
1.000000 0.101961 0.007843
0.000000 0.129412 0.003922
0.000000 0.133333 0.000000
0.000000 0.133333 0.000000
0.015686 0.129412 0.003922
0.031373 0.129412 0.007843
0.054902 0.129412 0.011765
0.066667 0.125490 0.011765
0.086275 0.125490 0.019608
0.129412 0.117647 0.000000
0.137255 0.125490 0.003922
0.149020 0.125490 0.000000
0.145098 0.133333 0.000000
0.168627 0.133333 0.000000
0.168627 0.137255 0.000000
0.203922 0.133333 0.000000
0.215686 0.137255 0.000000
0.254902 0.137255 0.003922
0.258824 0.141176 0.007843
0.290196 0.137255 0.007843
0.294118 0.145098 0.000000
0.321569 0.137255 0.000000
0.329412 0.149020 0.000000
0.349020 0.137255 0.000000
0.364706 0.141176 0.000000
0.392157 0.145098 0.023529
0.396078 0.149020 0.019608
0.419608 0.145098 0.011765
0.419608 0.152941 0.000000
0.462745 0.156863 0.000000
0.466667 0.164706 0.000000
0.501961 0.152941 0.000000
0.513725 0.152941 0.000000
0.564706 0.141176 0.000000
0.556863 0.156863 0.000000
0.596078 0.149020 0.003922
0.603922 0.160784 0.003922
0.627451 0.160784 0.000000
0.639216 0.164706 0.000000
0.670588 0.149020 0.000000
0.666667 0.160784 0.000000
0.701961 0.164706 0.000000
0.721569 0.168627 0.000000
0.756863 0.156863 0.000000
0.760784 0.168627 0.000000
0.796078 0.160784 0.000000
0.800000 0.168627 0.000000
0.827451 0.156863 0.000000
0.843137 0.152941 0.000000
0.862745 0.156863 0.000000
0.866667 0.156863 0.000000
0.898039 0.145098 0.000000
0.909804 0.156863 0.000000
