assets/luts/LUTs/lutCreatorJs.CUBE
#Generated by lutCreator.js
#Coded by SirSerch
#https://github.com/SirSerch/LutCreatorJs
TITLE lutCreatorJs_64
LUT_3D_SIZE 4
0.000000 0.000000 0.000000
0.215686 0.007843 0.000000
0.643137 0.000000 0.003922
1.000000 0.003922 0.003922
0.000000 0.309804 0.000000
0.219608 0.325490 0.015686
0.662745 0.352941 0.000000
1.000000 0.356863 0.000000
0.007843 0.662745 0.003922
0.133333 0.674510 0.000000
0.745098 0.674510 0.007843
0.988235 0.662745 0.003922
0.000000 1.000000 0.000000
0.000000 1.000000 0.000000
0.576471 0.996078 0.007843
1.000000 0.976471 0.000000
0.003922 0.000000 0.262745
0.243137 0.003922 0.266667
0.658824 0.000000 0.258824
1.000000 0.000000 0.196078
0.000000 0.325490 0.239216
0.152941 0.337255 0.211765
0.674510 0.313725 0.223529
1.000000 0.290196 0.145098
0.003922 0.686275 0.211765
0.000000 0.686275 0.117647
0.756863 0.678431 0.188235
1.000000 0.647059 0.164706
0.000000 1.000000 0.000000
0.003922 1.000000 0.003922
0.505882 1.000000 0.000000
1.000000 0.984314 0.003922
0.000000 0.000000 0.698039
0.286275 0.000000 0.694118
0.682353 0.000000 0.698039
1.000000 0.000000 0.670588
0.000000 0.294118 0.698039
0.023529 0.258824 0.690196
0.690196 0.207843 0.705882
1.000000 0.105882 0.670588
0.000000 0.666667 0.776471
0.000000 0.682353 0.772549
0.752941 0.647059 0.752941
1.000000 0.650980 0.729412
0.000000 0.996078 0.619608
0.000000 1.000000 0.615686
0.447059 1.000000 0.572549
1.000000 0.972549 0.600000
0.000000 0.000000 0.996078
0.258824 0.003922 0.992157
0.650980 0.000000 1.000000
0.984314 0.000000 1.000000
0.000000 0.235294 1.000000
0.000000 0.223529 1.000000
0.611765 0.160784 1.000000
1.000000 0.000000 1.000000
0.000000 0.588235 1.000000
0.019608 0.607843 0.996078
0.674510 0.603922 1.000000
0.996078 0.600000 1.000000
0.000000 0.968627 0.996078
0.000000 0.968627 0.996078
0.662745 0.968627 1.000000
1.000000 0.972549 1.000000
