assets/luts/LUTs/lutCreatorJs.CUBE
#Generated by lutCreator.js
#Coded by SirSerch
#https://github.com/SirSerch/LutCreatorJs
TITLE lutCreatorJs_64
LUT_3D_SIZE 8
0.000000 0.000000 0.000000
0.054902 0.000000 0.000000
0.203922 0.000000 0.003922
0.349020 0.000000 0.007843
0.521569 0.000000 0.000000
0.694118 0.003922 0.011765
0.894118 0.000000 0.003922
1.000000 0.003922 0.003922
0.000000 0.070588 0.000000
0.105882 0.078431 0.007843
0.266667 0.074510 0.000000
0.419608 0.086275 0.007843
0.619608 0.070588 0.003922
0.807843 0.062745 0.007843
0.976471 0.023529 0.000000
0.984314 0.011765 0.000000
0.000000 0.254902 0.000000
0.000000 0.266667 0.015686
0.184314 0.258824 0.007843
0.329412 0.274510 0.000000
0.529412 0.290196 0.003922
0.698039 0.317647 0.007843
0.901961 0.309804 0.000000
1.000000 0.301961 0.003922
0.003922 0.360784 0.000000
0.000000 0.376471 0.000000
0.258824 0.364706 0.000000
0.431373 0.380392 0.000000
0.631373 0.400000 0.000000
0.815686 0.419608 0.003922
0.984314 0.407843 0.000000
1.000000 0.392157 0.011765
0.000000 0.623529 0.003922
0.000000 0.615686 0.007843
0.000000 0.615686 0.000000
0.254902 0.623529 0.003922
0.509804 0.615686 0.000000
0.682353 0.631373 0.000000
0.886275 0.627451 0.003922
1.000000 0.615686 0.000000
0.000000 0.721569 0.000000
0.000000 0.729412 0.003922
0.000000 0.721569 0.000000
0.337255 0.721569 0.000000
0.584314 0.725490 0.000000
0.788235 0.733333 0.007843
0.964706 0.721569 0.000000
0.996078 0.709804 0.000000
0.000000 0.925490 0.000000
0.000000 0.933333 0.007843
0.000000 0.917647 0.000000
0.000000 0.929412 0.003922
0.329412 0.913725 0.007843
0.584314 0.921569 0.000000
0.807843 0.917647 0.000000
0.996078 0.913725 0.007843
0.000000 1.000000 0.000000
0.000000 1.000000 0.000000
0.015686 0.996078 0.000000
0.000000 1.000000 0.000000
0.403922 0.992157 0.000000
0.635294 0.992157 0.000000
0.870588 0.980392 0.000000
1.000000 0.976471 0.000000
0.000000 0.003922 0.054902
0.058824 0.007843 0.074510
0.196078 0.000000 0.054902
0.356863 0.003922 0.043137
0.525490 0.000000 0.011765
0.698039 0.000000 0.000000
0.894118 0.000000 0.003922
1.000000 0.003922 0.003922
0.000000 0.074510 0.125490
0.117647 0.066667 0.145098
0.294118 0.035294 0.121569
0.427451 0.007843 0.109804
0.631373 0.000000 0.086275
0.807843 0.000000 0.066667
0.980392 0.000000 0.000000
0.992157 0.003922 0.000000
0.003922 0.258824 0.000000
0.000000 0.270588 0.007843
0.180392 0.262745 0.000000
0.352941 0.262745 0.000000
0.537255 0.286275 0.003922
0.709804 0.305882 0.003922
0.901961 0.301961 0.000000
1.000000 0.286275 0.003922
0.007843 0.364706 0.000000
0.007843 0.376471 0.000000
0.231373 0.368627 0.000000
0.450980 0.376471 0.003922
0.647059 0.392157 0.000000
0.819608 0.400000 0.000000
0.992157 0.388235 0.000000
0.996078 0.380392 0.000000
0.000000 0.623529 0.011765
0.000000 0.627451 0.000000
0.007843 0.607843 0.007843
0.250980 0.619608 0.000000
0.513725 0.623529 0.000000
0.701961 0.623529 0.000000
0.894118 0.627451 0.003922
1.000000 0.623529 0.000000
0.007843 0.725490 0.000000
0.000000 0.733333 0.007843
0.015686 0.721569 0.000000
0.305882 0.733333 0.000000
0.596078 0.729412 0.003922
0.780392 0.733333 0.000000
0.972549 0.713725 0.000000
0.996078 0.709804 0.000000
0.000000 0.929412 0.000000
0.000000 0.929412 0.003922
0.007843 0.917647 0.000000
0.000000 0.925490 0.000000
0.321569 0.917647 0.003922
0.576471 0.921569 0.003922
0.803922 0.921569 0.000000
0.968627 0.921569 0.003922
0.000000 1.000000 0.000000
0.007843 1.000000 0.000000
0.011765 0.996078 0.000000
0.000000 1.000000 0.000000
0.384314 0.992157 0.003922
0.619608 0.996078 0.000000
0.874510 0.984314 0.011765
0.996078 0.980392 0.000000
0.007843 0.000000 0.231373
0.050980 0.000000 0.188235
0.203922 0.000000 0.215686
0.341176 0.000000 0.207843
0.525490 0.000000 0.207843
0.709804 0.003922 0.188235
0.909804 0.000000 0.141176
1.000000 0.000000 0.113725
0.003922 0.043137 0.286275
0.105882 0.043137 0.298039
0.286275 0.000000 0.309804
0.447059 0.000000 0.290196
0.623529 0.000000 0.290196
0.811765 0.003922 0.286275
0.988235 0.000000 0.247059
0.992157 0.007843 0.223529
0.003922 0.266667 0.200000
0.000000 0.270588 0.200000
0.149020 0.262745 0.176471
0.345098 0.266667 0.176471
0.541176 0.262745 0.176471
0.721569 0.258824 0.141176
0.905882 0.243137 0.121569
1.000000 0.223529 0.047059
0.000000 0.380392 0.274510
0.000000 0.380392 0.274510
0.192157 0.376471 0.243137
0.443137 0.368627 0.247059
0.658824 0.372549 0.247059
0.815686 0.376471 0.235294
0.992157 0.352941 0.192157
1.000000 0.325490 0.184314
0.000000 0.623529 0.003922
0.003922 0.631373 0.011765
0.007843 0.619608 0.000000
0.172549 0.627451 0.003922
0.513725 0.623529 0.000000
0.698039 0.635294 0.000000
0.894118 0.627451 0.000000
1.000000 0.611765 0.000000
0.000000 0.733333 0.000000
0.000000 0.741176 0.000000
0.000000 0.729412 0.000000
0.207843 0.741176 0.011765
0.580392 0.729412 0.000000
0.788235 0.729412 0.000000
0.980392 0.709804 0.000000
0.988235 0.694118 0.000000
0.003922 0.933333 0.000000
0.000000 0.929412 0.003922
0.000000 0.933333 0.003922
0.000000 0.933333 0.000000
0.231373 0.921569 0.007843
0.556863 0.925490 0.000000
0.803922 0.913725 0.000000
0.964706 0.917647 0.000000
0.000000 1.000000 0.000000
0.000000 1.000000 0.000000
0.003922 1.000000 0.003922
0.007843 0.992157 0.000000
0.305882 0.996078 0.019608
0.600000 1.000000 0.000000
0.858824 0.988235 0.000000
1.000000 0.976471 0.007843
0.000000 0.000000 0.372549
0.054902 0.000000 0.372549
0.235294 0.000000 0.380392
0.364706 0.000000 0.380392
0.529412 0.007843 0.372549
0.694118 0.000000 0.400000
0.905882 0.000000 0.384314
1.000000 0.000000 0.352941
0.007843 0.011765 0.474510
0.101961 0.000000 0.474510
0.321569 0.000000 0.482353
0.466667 0.000000 0.478431
0.654902 0.000000 0.478431
0.803922 0.007843 0.470588
1.000000 0.000000 0.458824
0.996078 0.007843 0.435294
0.000000 0.262745 0.376471
0.003922 0.262745 0.388235
0.125490 0.250980 0.372549
0.341176 0.239216 0.384314
0.541176 0.235294 0.360784
0.713725 0.196078 0.349020
0.925490 0.113725 0.333333
0.996078 0.078431 0.309804
0.000000 0.376471 0.478431
0.000000 0.376471 0.490196
0.200000 0.360784 0.478431
0.439216 0.337255 0.482353
0.643137 0.337255 0.439216
0.823529 0.313725 0.447059
0.992157 0.290196 0.415686
1.000000 0.266667 0.407843
0.000000 0.631373 0.298039
0.003922 0.639216 0.301961
0.003922 0.631373 0.247059
0.000000 0.639216 0.211765
0.498039 0.619608 0.211765
0.717647 0.623529 0.247059
0.909804 0.615686 0.266667
1.000000 0.588235 0.243137
0.000000 0.741176 0.380392
0.000000 0.749020 0.384314
0.003922 0.733333 0.337255
0.023529 0.745098 0.266667
0.572549 0.721569 0.294118
0.792157 0.729412 0.325490
0.992157 0.698039 0.341176
0.996078 0.686275 0.321569
0.000000 0.937255 0.000000
0.000000 0.937255 0.000000
0.000000 0.933333 0.000000
0.011765 0.921569 0.000000
0.023529 0.933333 0.000000
0.509804 0.929412 0.003922
0.792157 0.917647 0.000000
0.992157 0.909804 0.003922
0.000000 1.000000 0.000000
0.000000 1.000000 0.003922
0.000000 1.000000 0.003922
0.000000 1.000000 0.000000
0.015686 0.992157 0.003922
0.560784 1.000000 0.000000
0.839216 0.988235 0.003922
0.996078 0.980392 0.000000
0.000000 0.000000 0.576471
0.003922 0.000000 0.568627
0.219608 0.007843 0.584314
0.376471 0.003922 0.576471
0.549020 0.003922 0.556863
0.701961 0.007843 0.564706
0.909804 0.000000 0.580392
1.000000 0.000000 0.560784
0.000000 0.000000 0.670588
0.062745 0.007843 0.678431
0.317647 0.000000 0.670588
0.494118 0.000000 0.690196
0.643137 0.003922 0.654902
0.811765 0.011765 0.666667
0.996078 0.000000 0.658824
0.988235 0.007843 0.635294
0.007843 0.250980 0.576471
0.000000 0.247059 0.596078
0.062745 0.223529 0.584314
0.345098 0.207843 0.600000
0.541176 0.180392 0.576471
0.737255 0.149020 0.576471
0.909804 0.054902 0.537255
1.000000 0.000000 0.529412
0.003922 0.360784 0.674510
0.000000 0.364706 0.678431
0.094118 0.325490 0.682353
0.419608 0.313725 0.682353
0.650980 0.286275 0.643137
0.831373 0.290196 0.666667
0.980392 0.258824 0.635294
1.000000 0.235294 0.623529
0.000000 0.639216 0.533333
0.003922 0.643137 0.560784
0.000000 0.639216 0.533333
0.000000 0.643137 0.533333
0.443137 0.631373 0.474510
0.713725 0.627451 0.533333
0.898039 0.603922 0.529412
1.000000 0.580392 0.509804
0.000000 0.745098 0.635294
0.000000 0.752941 0.631373
0.015686 0.733333 0.611765
0.027451 0.745098 0.623529
0.517647 0.737255 0.552941
0.776471 0.737255 0.607843
0.956863 0.713725 0.623529
1.000000 0.694118 0.611765
0.003922 0.941176 0.380392
0.003922 0.941176 0.372549
0.015686 0.925490 0.352941
0.000000 0.929412 0.282353
0.003922 0.933333 0.250980
0.431373 0.937255 0.239216
0.792157 0.917647 0.278431
1.000000 0.905882 0.325490
0.000000 1.000000 0.450980
0.003922 0.996078 0.447059
0.000000 1.000000 0.419608
0.000000 0.996078 0.368627
0.003922 1.000000 0.325490
0.486275 0.996078 0.298039
0.847059 0.988235 0.368627
1.000000 0.980392 0.356863
0.000000 0.000000 0.749020
0.000000 0.000000 0.768627
0.239216 0.003922 0.756863
0.396078 0.000000 0.741176
0.568627 0.007843 0.737255
0.725490 0.000000 0.749020
0.901961 0.000000 0.749020
1.000000 0.000000 0.713725
0.000000 0.003922 0.823529
0.058824 0.003922 0.815686
0.313725 0.011765 0.843137
0.478431 0.000000 0.847059
0.658824 0.000000 0.823529
0.807843 0.007843 0.835294
0.988235 0.000000 0.819608
0.988235 0.015686 0.800000
0.007843 0.215686 0.756863
0.000000 0.219608 0.764706
0.007843 0.200000 0.752941
0.329412 0.188235 0.752941
0.552941 0.141176 0.745098
0.745098 0.074510 0.768627
0.917647 0.000000 0.741176
1.000000 0.000000 0.717647
0.000000 0.325490 0.843137
0.003922 0.317647 0.831373
0.078431 0.301961 0.847059
0.396078 0.294118 0.819608
0.639216 0.274510 0.831373
0.807843 0.247059 0.835294
1.000000 0.203922 0.827451
1.000000 0.192157 0.792157
0.000000 0.619608 0.741176
0.000000 0.619608 0.752941
0.003922 0.603922 0.725490
0.000000 0.619608 0.725490
0.501961 0.603922 0.737255
0.701961 0.607843 0.733333
0.890196 0.596078 0.721569
1.000000 0.588235 0.729412
0.003922 0.717647 0.811765
0.000000 0.729412 0.815686
0.007843 0.705882 0.807843
0.215686 0.705882 0.827451
0.596078 0.721569 0.803922
0.772549 0.713725 0.796078
0.949020 0.705882 0.788235
1.000000 0.709804 0.788235
0.000000 0.933333 0.639216
0.003922 0.941176 0.623529
0.000000 0.937255 0.635294
0.007843 0.925490 0.654902
0.141176 0.933333 0.603922
0.486275 0.925490 0.592157
0.807843 0.913725 0.596078
1.000000 0.901961 0.647059
0.000000 1.000000 0.709804
0.000000 1.000000 0.701961
0.003922 0.992157 0.690196
0.000000 1.000000 0.694118
0.380392 0.992157 0.713725
0.552941 1.000000 0.666667
0.854902 0.980392 0.682353
1.000000 0.968627 0.701961
0.000000 0.000000 0.898039
0.000000 0.000000 0.898039
0.215686 0.000000 0.886275
0.396078 0.000000 0.894118
0.564706 0.000000 0.886275
0.709804 0.000000 0.898039
0.882353 0.000000 0.886275
0.992157 0.003922 0.886275
0.000000 0.000000 0.952941
0.043137 0.000000 0.949020
0.309804 0.000000 0.956863
0.478431 0.000000 0.949020
0.623529 0.003922 0.952941
0.780392 0.007843 0.949020
0.956863 0.000000 0.956863
1.000000 0.000000 0.956863
0.003922 0.184314 0.894118
0.000000 0.188235 0.905882
0.003922 0.176471 0.898039
0.325490 0.149020 0.882353
0.529412 0.113725 0.890196
0.701961 0.015686 0.890196
0.898039 0.000000 0.898039
1.000000 0.000000 0.894118
0.000000 0.298039 0.956863
0.007843 0.298039 0.960784
0.074510 0.286275 0.956863
0.384314 0.270588 0.968627
0.619608 0.250980 0.972549
0.772549 0.223529 0.956863
0.949020 0.176471 0.941176
1.000000 0.117647 0.956863
0.000000 0.584314 0.890196
0.000000 0.584314 0.874510
0.000000 0.576471 0.878431
0.031373 0.568627 0.874510
0.462745 0.568627 0.886275
0.682353 0.576471 0.878431
0.878431 0.556863 0.886275
0.996078 0.588235 0.866667
0.000000 0.670588 0.949020
0.000000 0.678431 0.952941
0.000000 0.670588 0.949020
0.278431 0.686275 0.933333
0.564706 0.701961 0.929412
0.756863 0.682353 0.941176
0.933333 0.678431 0.929412
0.972549 0.701961 0.917647
0.000000 0.937255 0.854902
0.000000 0.941176 0.866667
0.000000 0.925490 0.839216
0.000000 0.937255 0.843137
0.286275 0.925490 0.850980
0.592157 0.925490 0.843137
0.815686 0.913725 0.839216
0.996078 0.905882 0.874510
0.000000 1.000000 0.905882
0.003922 1.000000 0.905882
0.003922 1.000000 0.905882
0.000000 1.000000 0.901961
0.450980 0.992157 0.901961
0.682353 0.988235 0.898039
0.874510 0.980392 0.882353
0.992157 0.976471 0.905882
0.000000 0.000000 0.996078
0.000000 0.007843 0.996078
0.219608 0.000000 1.000000
0.372549 0.003922 1.000000
0.545098 0.000000 0.996078
0.682353 0.000000 1.000000
0.843137 0.000000 0.996078
0.984314 0.000000 1.000000
0.000000 0.000000 0.996078
0.047059 0.003922 1.000000
0.298039 0.000000 1.000000
0.443137 0.000000 1.000000
0.607843 0.003922 1.000000
0.764706 0.003922 1.000000
0.933333 0.000000 1.000000
1.000000 0.003922 0.992157
0.000000 0.168627 0.992157
0.003922 0.156863 1.000000
0.000000 0.160784 0.988235
0.301961 0.141176 0.988235
0.505882 0.082353 1.000000
0.654902 0.007843 0.996078
0.843137 0.000000 1.000000
1.000000 0.003922 1.000000
0.000000 0.286275 0.996078
0.003922 0.286275 1.000000
0.113725 0.266667 1.000000
0.380392 0.258824 1.000000
0.580392 0.239216 1.000000
0.733333 0.211765 1.000000
0.901961 0.164706 0.992157
0.988235 0.098039 1.000000
0.000000 0.541176 0.996078
0.000000 0.552941 0.992157
0.015686 0.537255 1.000000
0.098039 0.556863 1.000000
0.458824 0.549020 0.988235
0.631373 0.552941 0.988235
0.823529 0.537255 0.992157
0.976471 0.541176 0.980392
0.000000 0.643137 0.996078
0.000000 0.647059 0.996078
0.003922 0.643137 1.000000
0.356863 0.658824 1.000000
0.576471 0.670588 1.000000
0.721569 0.678431 0.988235
0.901961 0.670588 0.984314
0.996078 0.670588 0.992157
0.000000 0.882353 0.980392
0.000000 0.882353 0.992157
0.000000 0.874510 0.988235
0.000000 0.878431 0.976471
0.407843 0.886275 0.984314
0.635294 0.894118 0.980392
0.847059 0.898039 0.972549
0.964706 0.894118 0.980392
0.000000 0.968627 0.996078
0.000000 0.972549 1.000000
0.000000 0.972549 0.996078
0.015686 0.964706 1.000000
0.498039 0.964706 0.996078
0.717647 0.972549 0.996078
0.901961 0.972549 0.996078
1.000000 0.972549 1.000000
