assets/luts/LUTs/Mauros_Mavic_2_PRO_Dlog-M_Cine_LUT.CUBE
LUT_3D_SIZE 6
0.055961 0.055961 0.055961
0.104386 0.058358 0.058333
0.221932 0.055719 0.055642
0.519307 0.055280 0.055293
0.836464 0.055169 0.054976
0.993261 0.260474 0.054638
0.063668 0.092850 0.062376
0.107706 0.099233 0.058930
0.243662 0.126436 0.055914
0.544116 0.158642 0.055308
0.846543 0.221910 0.054986
0.996099 0.366157 0.054805
0.074009 0.185375 0.073428
0.130360 0.191529 0.067424
0.252354 0.237688 0.055428
0.584792 0.351357 0.055155
0.856068 0.427637 0.055123
0.995134 0.512322 0.054500
0.101906 0.391333 0.096526
0.196020 0.385129 0.091124
0.336706 0.431119 0.066997
0.583637 0.532109 0.054837
0.860455 0.628029 0.055014
0.996082 0.664689 0.054779
0.301073 0.704703 0.169135
0.380392 0.695603 0.162582
0.505270 0.712657 0.138947
0.667331 0.748824 0.100179
0.845939 0.791189 0.054364
0.996135 0.818098 0.066567
0.490972 0.931518 0.445567
0.566224 0.931891 0.440099
0.648480 0.934832 0.412404
0.758611 0.945886 0.371789
0.901908 0.960246 0.274823
0.996091 0.957459 0.168015
0.056670 0.059888 0.098335
0.093547 0.061999 0.094545
0.206391 0.058118 0.116075
0.472217 0.055292 0.166083
0.820136 0.054973 0.191204
0.996090 0.238594 0.078492
0.066986 0.098829 0.100958
0.106975 0.101680 0.102376
0.241437 0.098012 0.095145
0.559873 0.076836 0.090681
0.858733 0.159987 0.069486
0.999572 0.327565 0.069780
0.085087 0.199513 0.140747
0.109246 0.196239 0.105536
0.248462 0.234175 0.083635
0.596426 0.339078 0.069941
0.868487 0.416360 0.068400
0.999188 0.498647 0.067045
0.120748 0.410266 0.205223
0.150783 0.398219 0.130119
0.321658 0.428022 0.107020
0.581434 0.529426 0.068209
0.858600 0.624187 0.067448
0.997511 0.659001 0.066430
0.263282 0.713890 0.275497
0.343110 0.707762 0.217073
0.479714 0.709893 0.187736
0.657774 0.747215 0.140974
0.850654 0.789462 0.075795
0.996150 0.814884 0.102699
0.504165 0.935470 0.550771
0.540229 0.934751 0.499318
0.641645 0.934197 0.471095
0.752640 0.946826 0.430661
0.898283 0.961345 0.336972
0.995852 0.958080 0.218603
0.055649 0.079198 0.193833
0.094135 0.065931 0.190940
0.178210 0.076299 0.189794
0.430306 0.063600 0.263267
0.800832 0.055023 0.344946
0.995070 0.153092 0.337044
0.056207 0.134512 0.197372
0.095587 0.130470 0.217218
0.203021 0.121349 0.212974
0.500094 0.097697 0.276351
0.824328 0.105486 0.322866
0.999297 0.218811 0.277402
0.086790 0.241891 0.236020
0.126570 0.243971 0.238060
0.251649 0.245831 0.232019
0.562873 0.267317 0.219904
0.862653 0.338789 0.213715
0.999481 0.435504 0.248151
0.203829 0.476701 0.361050
0.233372 0.468557 0.331610
0.299634 0.435093 0.256343
0.564616 0.512380 0.207856
0.865487 0.593041 0.190179
0.999463 0.622681 0.258460
0.340151 0.746148 0.490245
0.373608 0.740571 0.452821
0.436107 0.723907 0.338236
0.625628 0.746040 0.277299
0.843614 0.787101 0.203934
0.999386 0.798119 0.247254
0.537856 0.940241 0.671475
0.577251 0.939872 0.661447
0.615589 0.940593 0.582585
0.733705 0.946299 0.538321
0.884567 0.962915 0.448790
0.996131 0.958305 0.327467
0.056255 0.149545 0.388752
0.076193 0.105526 0.384908
0.166936 0.093623 0.382083
0.362747 0.112229 0.389983
0.726998 0.112004 0.499414
0.989833 0.156245 0.541092
0.055607 0.219835 0.390931
0.075492 0.237572 0.448233
0.168684 0.157214 0.440972
0.411044 0.164215 0.428028
0.771006 0.162591 0.510588
0.997933 0.213404 0.530655
0.055125 0.330796 0.415089
0.079606 0.337563 0.442051
0.247840 0.310112 0.451839
0.478691 0.307669 0.458010
0.816625 0.311119 0.499488
0.997225 0.413093 0.522226
0.210090 0.539244 0.519350
0.260546 0.546429 0.520987
0.400973 0.545508 0.523886
0.558493 0.515512 0.486598
0.833894 0.542871 0.481382
0.998342 0.603990 0.531607
0.461868 0.795953 0.694199
0.505313 0.796681 0.693576
0.561103 0.788466 0.659129
0.603942 0.747133 0.550460
0.825932 0.777166 0.485049
0.998720 0.789136 0.558348
0.601902 0.953724 0.800713
0.639611 0.952635 0.798808
0.676588 0.951728 0.773660
0.727975 0.947208 0.710359
0.860543 0.962265 0.642087
0.996943 0.959290 0.537607
0.055413 0.302032 0.694766
0.076257 0.278428 0.695194
0.103794 0.240339 0.689714
0.431637 0.183352 0.688106
0.673342 0.210672 0.696601
0.941354 0.280036 0.751492
0.055437 0.379301 0.693521
0.074626 0.405143 0.762797
0.170486 0.323775 0.752055
0.465885 0.264734 0.736546
0.701504 0.283320 0.721107
0.949862 0.344116 0.757632
0.055033 0.471190 0.699479
0.071149 0.490379 0.739059
0.293869 0.455050 0.759996
0.509778 0.430061 0.756124
0.738057 0.444115 0.750454
0.951459 0.516823 0.758778
0.157249 0.641651 0.745850
0.202084 0.642062 0.755549
0.320511 0.619067 0.768195
0.549087 0.593837 0.757390
0.761322 0.612983 0.756007
0.966011 0.660742 0.767911
0.436091 0.818856 0.812018
0.487594 0.821071 0.814316
0.585329 0.826416 0.817067
0.704518 0.819424 0.816630
0.799918 0.786287 0.777211
0.988372 0.808813 0.795440
0.667640 0.970092 0.903947
0.704263 0.970989 0.904889
0.749115 0.971606 0.900791
0.803662 0.969833 0.887823
0.847241 0.957254 0.837231
0.995483 0.967780 0.790690
0.172830 0.468554 0.946797
0.257533 0.435753 0.945902
0.396942 0.405239 0.942582
0.571509 0.419927 0.941879
0.743121 0.471758 0.939679
0.898859 0.481337 0.932309
0.191893 0.538168 0.944711
0.314007 0.522887 0.960197
0.455636 0.510044 0.960141
0.607514 0.512334 0.957484
0.764096 0.541803 0.950632
0.908370 0.543631 0.942933
0.177103 0.618916 0.948124
0.284406 0.617057 0.963389
0.494922 0.620262 0.959234
0.650082 0.639289 0.958832
0.788695 0.663168 0.956056
0.918980 0.665918 0.945424
0.201952 0.723100 0.952692
0.250142 0.716569 0.961747
0.415147 0.705077 0.964820
0.664555 0.733695 0.962960
0.810004 0.755815 0.959908
0.933864 0.764203 0.951604
0.436932 0.866903 0.959598
0.483523 0.867356 0.964096
0.564780 0.865860 0.972601
0.674406 0.851176 0.971140
0.818344 0.845923 0.965285
0.954162 0.859287 0.959815
0.627191 0.977630 0.975141
0.667616 0.978751 0.971529
0.726769 0.981559 0.975095
0.802753 0.983179 0.979579
0.894382 0.985300 0.984125
0.990011 0.982779 0.979212
