assets/luts/LUTs/Mauros_Mavic_2_PRO_Dlog-M_Cine_LUT.CUBE
LUT_3D_SIZE 16
0.055961 0.055961 0.055961
0.065641 0.056091 0.056049
0.082634 0.056685 0.056628
0.104386 0.058358 0.058333
0.130030 0.057676 0.057223
0.166595 0.056518 0.056197
0.221932 0.055719 0.055642
0.301080 0.055410 0.055385
0.403405 0.055308 0.055308
0.519307 0.055280 0.055293
0.639402 0.055502 0.055603
0.745411 0.055083 0.055089
0.836464 0.055169 0.054976
0.913356 0.083933 0.055502
0.972697 0.203753 0.055400
0.993261 0.260474 0.054638
0.057190 0.064195 0.056611
0.067599 0.064845 0.056561
0.083556 0.067096 0.057650
0.106062 0.068505 0.057196
0.134744 0.071490 0.057239
0.175791 0.074647 0.056589
0.232841 0.078684 0.055781
0.309057 0.084768 0.055372
0.408504 0.093011 0.055300
0.526547 0.101431 0.055225
0.644604 0.108128 0.055181
0.747588 0.112193 0.055063
0.842121 0.114154 0.054985
0.916933 0.150382 0.054970
0.972592 0.245151 0.054858
0.996140 0.288155 0.054698
0.060787 0.076331 0.058705
0.070934 0.077758 0.059349
0.084627 0.079494 0.058469
0.107870 0.082700 0.057102
0.136905 0.086515 0.057018
0.179312 0.092768 0.056977
0.238074 0.099531 0.056082
0.314362 0.106933 0.055435
0.412985 0.116567 0.055407
0.532012 0.128318 0.055284
0.650438 0.137285 0.055127
0.751870 0.142462 0.055053
0.845209 0.147797 0.055126
0.913574 0.214621 0.055055
0.973112 0.286061 0.054786
0.996090 0.324429 0.055234
0.063668 0.092850 0.062376
0.075379 0.093313 0.062379
0.087584 0.095281 0.060186
0.107706 0.099233 0.058930
0.138036 0.106258 0.057103
0.181890 0.115590 0.056631
0.243662 0.126436 0.055914
0.323169 0.138237 0.055320
0.423803 0.149892 0.055283
0.544116 0.158642 0.055308
0.660877 0.168994 0.055608
0.756413 0.188865 0.055082
0.846543 0.221910 0.054986
0.917198 0.278110 0.055839
0.974920 0.331001 0.055446
0.996099 0.366157 0.054805
0.067782 0.113979 0.065049
0.079513 0.113624 0.064370
0.092747 0.116251 0.063610
0.110826 0.120909 0.061231
0.137430 0.128227 0.058138
0.183350 0.144406 0.056174
0.247662 0.161904 0.055431
0.334680 0.180226 0.055465
0.442353 0.198502 0.055572
0.558462 0.214446 0.055218
0.671170 0.231636 0.055709
0.766053 0.257554 0.055366
0.849285 0.294309 0.055670
0.922569 0.336978 0.055406
0.975326 0.381532 0.055115
0.996091 0.410217 0.054716
0.071808 0.143361 0.068863
0.085514 0.142154 0.067606
0.099552 0.144267 0.066777
0.119338 0.151357 0.063790
0.143324 0.159030 0.059178
0.182052 0.172701 0.056035
0.250982 0.200372 0.055326
0.342559 0.228452 0.055464
0.455837 0.256861 0.055408
0.574279 0.282503 0.055089
0.684303 0.303371 0.055355
0.775892 0.329749 0.055242
0.852194 0.360838 0.055725
0.925070 0.397080 0.054938
0.975228 0.436883 0.054750
0.994857 0.460882 0.054584
0.074009 0.185375 0.073428
0.092405 0.182345 0.072268
0.109331 0.183453 0.070525
0.130360 0.191529 0.067424
0.157282 0.202635 0.062513
0.194230 0.214757 0.057156
0.252354 0.237688 0.055428
0.348184 0.278335 0.055396
0.463361 0.317485 0.055042
0.584792 0.351357 0.055155
0.693733 0.374576 0.055202
0.783444 0.399415 0.054861
0.856068 0.427637 0.055123
0.927670 0.458701 0.054798
0.975107 0.491456 0.055064
0.995134 0.512322 0.054500
0.077762 0.240100 0.080046
0.100396 0.236168 0.077800
0.122138 0.235484 0.075944
0.145001 0.243400 0.073141
0.174835 0.255024 0.068249
0.215801 0.270413 0.060452
0.267088 0.287623 0.056063
0.352134 0.325526 0.055323
0.468398 0.375777 0.055078
0.586020 0.416842 0.055408
0.693387 0.447235 0.055449
0.787642 0.471519 0.054890
0.860999 0.495494 0.054869
0.930090 0.520519 0.054704
0.975721 0.546647 0.055129
0.996115 0.562605 0.054516
0.084922 0.307754 0.086955
0.113292 0.304409 0.084843
0.139008 0.301865 0.083529
0.165919 0.307878 0.081323
0.198824 0.318541 0.076026
0.243008 0.334867 0.066988
0.297931 0.355251 0.059044
0.362234 0.375856 0.055487
0.469498 0.427942 0.055168
0.585435 0.477635 0.055386
0.692154 0.515516 0.055387
0.784248 0.543352 0.055034
0.863479 0.561222 0.055019
0.929149 0.583642 0.054566
0.975332 0.602813 0.054750
0.996127 0.612669 0.054440
0.101906 0.391333 0.096526
0.137108 0.385536 0.095421
0.164935 0.383926 0.093587
0.196020 0.385129 0.091124
0.233769 0.394818 0.086769
0.280188 0.410736 0.078687
0.336706 0.431119 0.066997
0.401430 0.452466 0.057824
0.471734 0.472874 0.055465
0.583637 0.532109 0.054837
0.688893 0.578835 0.054963
0.779333 0.606215 0.054607
0.860455 0.628029 0.055014
0.924910 0.645589 0.054763
0.973855 0.659833 0.054777
0.996082 0.664689 0.054779
0.157243 0.486465 0.111462
0.190794 0.482347 0.109624
0.217596 0.478455 0.107435
0.246798 0.478125 0.104172
0.283514 0.484214 0.100578
0.331502 0.498836 0.094315
0.387817 0.518193 0.084431
0.449100 0.537617 0.070991
0.515901 0.558903 0.058167
0.592028 0.588331 0.055103
0.690839 0.634942 0.054638
0.774512 0.665404 0.054721
0.856292 0.687953 0.054386
0.919599 0.701502 0.055273
0.972179 0.716093 0.054882
0.996133 0.719941 0.054531
0.233672 0.595102 0.135766
0.262330 0.589672 0.133695
0.288011 0.588398 0.130610
0.314008 0.585067 0.125763
0.348107 0.587138 0.120974
0.393531 0.598317 0.115072
0.446448 0.614022 0.106538
0.503283 0.630170 0.095041
0.564282 0.648275 0.080212
0.629571 0.669749 0.063641
0.703272 0.694864 0.054530
0.775913 0.719937 0.054373
0.845877 0.740082 0.054264
0.915533 0.755685 0.054707
0.969903 0.769164 0.054516
0.996153 0.772293 0.054377
0.301073 0.704703 0.169135
0.332764 0.701435 0.168844
0.357769 0.699225 0.166887
0.380392 0.695603 0.162582
0.414049 0.694735 0.153683
0.457499 0.701345 0.146456
0.505270 0.712657 0.138947
0.555957 0.725615 0.128111
0.609942 0.737342 0.114926
0.667331 0.748824 0.100179
0.729797 0.764136 0.082255
0.788357 0.779588 0.057886
0.845939 0.791189 0.054364
0.912043 0.804511 0.055279
0.968441 0.816403 0.060674
0.996135 0.818098 0.066567
0.359766 0.797883 0.235006
0.392638 0.798863 0.236240
0.423137 0.797505 0.229349
0.448147 0.792579 0.225510
0.474391 0.789646 0.216190
0.511466 0.794468 0.204772
0.557212 0.802652 0.197357
0.602812 0.810402 0.188006
0.650662 0.818296 0.173579
0.704373 0.826414 0.158793
0.759357 0.834368 0.141821
0.813844 0.842394 0.116169
0.870724 0.850844 0.088782
0.919473 0.852950 0.068670
0.970469 0.862098 0.083603
0.996092 0.861805 0.091899
0.431374 0.875022 0.348299
0.460359 0.877226 0.345355
0.482853 0.875860 0.342176
0.511753 0.874630 0.335935
0.538267 0.873323 0.324758
0.568384 0.875101 0.313933
0.605197 0.879746 0.305134
0.644260 0.883785 0.293678
0.685973 0.887990 0.277636
0.734211 0.892675 0.258794
0.783756 0.897975 0.238411
0.835577 0.905025 0.210077
0.889951 0.911985 0.173320
0.939609 0.914011 0.139778
0.973498 0.909831 0.123363
0.996082 0.909006 0.126019
0.490972 0.931518 0.445567
0.520530 0.934810 0.449026
0.542872 0.931678 0.444087
0.566224 0.931891 0.440099
0.591110 0.932292 0.433407
0.618125 0.931264 0.423241
0.648480 0.934832 0.412404
0.681644 0.937619 0.403312
0.717208 0.941177 0.392648
0.758611 0.945886 0.371789
0.804772 0.950000 0.347665
0.850132 0.956168 0.315748
0.901908 0.960246 0.274823
0.954351 0.965072 0.219464
0.980424 0.964488 0.181012
0.996091 0.957459 0.168015
0.056679 0.056973 0.065598
0.064953 0.057199 0.066071
0.082036 0.057424 0.066364
0.101647 0.058315 0.068736
0.127679 0.059359 0.072058
0.164752 0.058622 0.075535
0.216052 0.056662 0.078793
0.290017 0.055436 0.084112
0.390869 0.055381 0.092195
0.508369 0.055485 0.100294
0.631087 0.055382 0.107376
0.740693 0.055077 0.111760
0.832954 0.054975 0.113822
0.913742 0.058777 0.096741
0.972495 0.195309 0.062672
0.994890 0.251603 0.062837
0.058741 0.065121 0.065421
0.067184 0.065587 0.066065
0.084497 0.065026 0.064880
0.106831 0.064201 0.063986
0.133835 0.063677 0.062970
0.172701 0.062068 0.061859
0.227855 0.060330 0.060651
0.304680 0.059317 0.059690
0.405361 0.059136 0.058939
0.522619 0.059947 0.058850
0.642637 0.060433 0.058916
0.747375 0.060461 0.058793
0.840618 0.060543 0.058845
0.915816 0.115507 0.059342
0.972735 0.223820 0.059311
0.995236 0.273449 0.059285
0.062460 0.077494 0.069931
0.068019 0.078005 0.065768
0.084255 0.079627 0.064920
0.107233 0.081795 0.063358
0.136449 0.084658 0.062899
0.178004 0.088920 0.062532
0.235799 0.093403 0.061261
0.311346 0.098297 0.060373
0.410273 0.104764 0.059710
0.530271 0.113324 0.058806
0.649456 0.120347 0.058756
0.751582 0.124152 0.058799
0.846021 0.132582 0.058940
0.915596 0.206106 0.059098
0.973266 0.278414 0.059239
0.996543 0.318542 0.059681
0.065965 0.094496 0.074914
0.070430 0.094018 0.067958
0.086673 0.095683 0.066250
0.106504 0.099194 0.064879
0.138221 0.105375 0.062934
0.181674 0.113181 0.062068
0.242027 0.122420 0.061085
0.320883 0.132563 0.060158
0.422481 0.142562 0.059492
0.542546 0.150625 0.058948
0.658799 0.160190 0.059207
0.756740 0.178820 0.059113
0.846242 0.214225 0.058954
0.918275 0.272096 0.059630
0.974555 0.326830 0.059694
0.996321 0.362196 0.059414
0.069821 0.115264 0.078918
0.073597 0.114788 0.070141
0.091020 0.116437 0.069071
0.109791 0.120905 0.066800
0.137519 0.128076 0.063714
0.183169 0.142984 0.061600
0.246865 0.158695 0.060488
0.333106 0.175451 0.059803
0.440392 0.192833 0.059256
0.557029 0.208620 0.058971
0.669700 0.225818 0.059377
0.765919 0.251697 0.059324
0.848985 0.289963 0.059373
0.921735 0.333304 0.059610
0.974654 0.378968 0.059522
0.995705 0.407640 0.059420
0.072748 0.145257 0.085804
0.077266 0.143924 0.073897
0.097129 0.144674 0.072494
0.117660 0.151132 0.069752
0.142847 0.158943 0.065443
0.181892 0.172347 0.061442
0.250334 0.198476 0.059752
0.341427 0.225302 0.059300
0.453970 0.252613 0.059060
0.572965 0.277332 0.058918
0.683101 0.299459 0.059229
0.775335 0.326314 0.059169
0.852704 0.356938 0.059633
0.924336 0.394430 0.059340
0.975301 0.434111 0.059376
0.995482 0.458368 0.059547
0.075770 0.187217 0.095342
0.080212 0.185367 0.078849
0.105252 0.184183 0.077037
0.127992 0.191317 0.074098
0.155854 0.202341 0.069470
0.193222 0.214523 0.063298
0.250980 0.236533 0.059938
0.346217 0.276286 0.059121
0.461423 0.314594 0.058921
0.583440 0.346948 0.059091
0.693534 0.371694 0.059319
0.783332 0.396667 0.059102
0.857178 0.424127 0.059483
0.927496 0.456150 0.059395
0.975350 0.489760 0.059681
0.995665 0.510419 0.059541
0.080327 0.242816 0.107337
0.084308 0.240168 0.085759
0.115658 0.236904 0.083209
0.141405 0.243223 0.080387
0.172483 0.255026 0.075735
0.213825 0.270409 0.067910
0.265520 0.287389 0.061679
0.349697 0.323812 0.059369
0.466045 0.373356 0.059170
0.584348 0.414134 0.059491
0.694365 0.445301 0.059672
0.787641 0.468558 0.059398
0.862387 0.492668 0.059432
0.930378 0.517933 0.059473
0.975929 0.545059 0.059960
0.996128 0.560931 0.059674
0.088029 0.313482 0.121969
0.092458 0.308826 0.093932
0.130526 0.304076 0.091467
0.160288 0.308109 0.089012
0.195418 0.319083 0.084222
0.240330 0.335141 0.075832
0.295963 0.355110 0.066400
0.361071 0.375277 0.060566
0.468674 0.426538 0.059482
0.584506 0.476457 0.059691
0.692026 0.513555 0.059800
0.783591 0.541236 0.059569
0.863736 0.559615 0.059677
0.928886 0.581362 0.059559
0.975323 0.601147 0.059874
0.996315 0.611163 0.059739
0.101591 0.395756 0.134255
0.113438 0.390585 0.104650
0.155394 0.384852 0.102587
0.188906 0.385579 0.099855
0.228978 0.394678 0.095780
0.276620 0.409879 0.088388
0.333518 0.429163 0.077131
0.399037 0.450584 0.066116
0.469719 0.472428 0.060144
0.582071 0.530568 0.059443
0.686911 0.576888 0.059473
0.777995 0.605213 0.059796
0.858136 0.626816 0.059704
0.923379 0.644048 0.060039
0.973873 0.658197 0.060080
0.995736 0.664178 0.060183
0.133428 0.487702 0.128948
0.169454 0.485148 0.120778
0.208628 0.479534 0.118358
0.238958 0.477472 0.115183
0.277318 0.482639 0.110956
0.326657 0.497018 0.104472
0.383719 0.516177 0.094863
0.446278 0.536374 0.081669
0.514631 0.559422 0.067533
0.589912 0.587355 0.059721
0.689943 0.633919 0.059698
0.773310 0.663720 0.060044
0.852986 0.685836 0.059778
0.918659 0.700475 0.060447
0.972312 0.714696 0.060323
0.995718 0.719431 0.060335
0.216075 0.597071 0.156501
0.243808 0.593453 0.147489
0.278834 0.589468 0.144469
0.307476 0.585136 0.139550
0.342053 0.586160 0.133778
0.388022 0.597030 0.126944
0.442050 0.613056 0.118230
0.500044 0.629686 0.107111
0.562716 0.648011 0.092561
0.629076 0.669613 0.075321
0.701165 0.693717 0.060835
0.776061 0.718887 0.059830
0.846613 0.740053 0.060055
0.915262 0.754633 0.060214
0.969876 0.767779 0.061013
0.995964 0.771073 0.061664
0.284669 0.706025 0.200078
0.313495 0.703835 0.187660
0.349975 0.699813 0.184139
0.377087 0.696250 0.179042
0.409866 0.694258 0.170373
0.451763 0.699854 0.163288
0.499369 0.710975 0.154827
0.551004 0.723376 0.143278
0.607026 0.735883 0.130191
0.665597 0.747752 0.113602
0.726737 0.762887 0.094327
0.790276 0.778354 0.071114
0.848902 0.790702 0.060328
0.911965 0.804296 0.062047
0.968297 0.815424 0.072010
0.996150 0.817246 0.080844
0.352354 0.803390 0.269787
0.376992 0.799813 0.257194
0.414128 0.797971 0.251739
0.441511 0.795185 0.247218
0.470970 0.791030 0.238436
0.507667 0.794557 0.227222
0.552276 0.801786 0.219003
0.598821 0.810119 0.208559
0.647067 0.818552 0.193166
0.700985 0.826089 0.177905
0.757659 0.833921 0.160751
0.813015 0.842664 0.134462
0.870532 0.850832 0.105972
0.918013 0.853327 0.086720
0.969918 0.861504 0.102976
0.996159 0.861085 0.112586
0.428260 0.877259 0.382388
0.449443 0.877079 0.370283
0.479539 0.876008 0.365991
0.507618 0.875290 0.360267
0.534919 0.873503 0.349668
0.564350 0.874793 0.338252
0.601652 0.878363 0.328727
0.642001 0.882937 0.317796
0.684890 0.887723 0.301931
0.732824 0.892957 0.283003
0.782384 0.898872 0.262774
0.834761 0.905265 0.234661
0.889731 0.911588 0.197866
0.939573 0.913646 0.162899
0.973249 0.909552 0.144988
0.996052 0.908608 0.148937
0.495066 0.933863 0.484632
0.513926 0.933674 0.473637
0.544001 0.932680 0.470693
0.567342 0.933068 0.466790
0.592265 0.931389 0.457621
0.617936 0.931849 0.449689
0.649044 0.933808 0.440344
0.681792 0.938149 0.430235
0.717162 0.942399 0.417449
0.757369 0.946655 0.399748
0.802271 0.950530 0.377870
0.850125 0.956177 0.346015
0.901612 0.960574 0.305722
0.953555 0.966876 0.248351
0.980222 0.965978 0.207762
0.995785 0.957900 0.193176
0.057024 0.058500 0.079211
0.066713 0.058885 0.079791
0.077895 0.059362 0.077986
0.098474 0.059899 0.081379
0.125764 0.059289 0.084283
0.162783 0.058714 0.090732
0.211335 0.057905 0.098538
0.277837 0.056501 0.107797
0.370848 0.055353 0.119909
0.489089 0.055372 0.132138
0.617174 0.055194 0.139781
0.728939 0.055065 0.142034
0.825310 0.054971 0.144290
0.911106 0.060032 0.126799
0.969579 0.184654 0.069600
0.996091 0.243464 0.069765
0.059255 0.068283 0.079656
0.067302 0.067630 0.081932
0.080566 0.067297 0.080842
0.102639 0.065932 0.081847
0.129918 0.065027 0.083759
0.167311 0.064391 0.088740
0.217384 0.062941 0.094068
0.286174 0.060740 0.100831
0.381223 0.059150 0.110016
0.500326 0.058948 0.118841
0.626160 0.058817 0.123347
0.736104 0.058811 0.124269
0.831497 0.058869 0.124933
0.912777 0.079241 0.068619
0.970686 0.214283 0.068574
0.995919 0.266462 0.068963
0.062618 0.079232 0.080885
0.068819 0.079717 0.081073
0.083311 0.080454 0.081464
0.105633 0.080124 0.079624
0.136292 0.079122 0.078332
0.178924 0.076639 0.076333
0.237873 0.072629 0.073138
0.315620 0.068363 0.071562
0.420518 0.065325 0.069219
0.542380 0.064033 0.065237
0.661585 0.065318 0.063428
0.761820 0.066472 0.063033
0.853963 0.081273 0.062783
0.922625 0.164296 0.062786
0.974749 0.248958 0.062393
0.997933 0.289530 0.062377
0.067180 0.095495 0.086947
0.072601 0.095854 0.085847
0.084950 0.097009 0.081470
0.105538 0.099628 0.079325
0.139222 0.103367 0.076757
0.183585 0.108005 0.074348
0.244130 0.114044 0.072011
0.325186 0.120481 0.069524
0.431427 0.126324 0.066619
0.552103 0.132685 0.064217
0.666599 0.141674 0.063601
0.765911 0.157482 0.063281
0.852533 0.194010 0.062719
0.924104 0.258034 0.062716
0.975978 0.314649 0.062773
0.997916 0.349640 0.062483
0.071518 0.118111 0.093977
0.076132 0.117884 0.091258
0.085225 0.117990 0.081592
0.107622 0.121401 0.078979
0.137633 0.128051 0.075193
0.184368 0.140797 0.072082
0.250007 0.153614 0.069653
0.338455 0.168283 0.066998
0.447855 0.184338 0.064901
0.565971 0.199495 0.063901
0.677150 0.216243 0.063546
0.772956 0.242030 0.063428
0.853759 0.282509 0.062691
0.925581 0.325848 0.062905
0.975612 0.372411 0.062655
0.996903 0.400061 0.062302
0.075389 0.149192 0.103338
0.079841 0.148391 0.098873
0.087308 0.146640 0.083519
0.113189 0.151284 0.080672
0.141443 0.159287 0.076363
0.181829 0.172026 0.070294
0.252053 0.196525 0.066447
0.345638 0.222124 0.064539
0.459867 0.247980 0.063500
0.579886 0.271559 0.063149
0.689056 0.295226 0.063111
0.780878 0.321859 0.062795
0.858198 0.351941 0.062783
0.926994 0.389946 0.062665
0.976540 0.429169 0.062477
0.996887 0.452513 0.062489
0.079089 0.191012 0.116352
0.083901 0.190079 0.109718
0.090004 0.187750 0.087386
0.121356 0.191155 0.084561
0.152381 0.202264 0.079985
0.191383 0.214775 0.072124
0.249590 0.235448 0.065403
0.347003 0.275252 0.063102
0.464914 0.312734 0.062910
0.588876 0.343268 0.062923
0.699459 0.369472 0.063066
0.787987 0.393991 0.062686
0.862222 0.420275 0.062858
0.930405 0.452795 0.062575
0.976867 0.486638 0.062517
0.997028 0.506251 0.062346
0.084028 0.246581 0.133130
0.089277 0.245410 0.123769
0.093410 0.242971 0.092954
0.132262 0.243212 0.090216
0.167209 0.255070 0.085571
0.209894 0.270758 0.077582
0.263263 0.287715 0.068023
0.347557 0.322505 0.063127
0.466429 0.372255 0.062832
0.586955 0.412717 0.062965
0.699950 0.444282 0.063086
0.792039 0.465824 0.062882
0.867029 0.489795 0.062641
0.932768 0.515132 0.062553
0.976835 0.542760 0.062674
0.997071 0.557958 0.062304
0.092850 0.318207 0.152145
0.098496 0.315854 0.139405
0.102661 0.311046 0.100863
0.148633 0.309289 0.098086
0.188167 0.319669 0.093586
0.235258 0.335803 0.086120
0.292458 0.355144 0.074495
0.359669 0.375089 0.065102
0.468573 0.425842 0.062830
0.585942 0.476539 0.062901
0.694876 0.512903 0.062956
0.786163 0.539997 0.062626
0.866794 0.558233 0.062607
0.930726 0.578958 0.062469
0.976234 0.598909 0.062539
0.997093 0.608804 0.062218
0.109383 0.401412 0.167750
0.115941 0.397508 0.150641
0.128263 0.391437 0.112232
0.175707 0.387414 0.108902
0.219841 0.394738 0.104731
0.270537 0.409418 0.098234
0.328602 0.427830 0.087413
0.395957 0.449338 0.073946
0.467816 0.472791 0.063499
0.581434 0.529887 0.062470
0.686872 0.576237 0.062303
0.779150 0.605181 0.063070
0.858198 0.626011 0.062270
0.923939 0.642602 0.062817
0.974649 0.656401 0.062587
0.996055 0.662635 0.062457
0.139567 0.495037 0.175871
0.148454 0.491185 0.150516
0.182333 0.485701 0.128654
0.227146 0.479527 0.125146
0.267025 0.481817 0.120267
0.318933 0.495268 0.113321
0.377781 0.514803 0.103951
0.442156 0.535546 0.090981
0.512744 0.560365 0.075119
0.587827 0.586684 0.062339
0.689729 0.633551 0.062574
0.773300 0.662928 0.062986
0.851935 0.684683 0.062555
0.919376 0.699645 0.062827
0.973027 0.713361 0.062619
0.995914 0.718203 0.062617
0.197358 0.602354 0.184439
0.225976 0.598971 0.179548
0.252870 0.594169 0.156315
0.297249 0.588913 0.151157
0.333446 0.586617 0.144102
0.380014 0.595968 0.136079
0.436131 0.612699 0.126972
0.495879 0.629782 0.116169
0.560238 0.648109 0.101790
0.627989 0.669735 0.083813
0.699362 0.693028 0.064252
0.776586 0.718592 0.062477
0.847555 0.740427 0.062769
0.915963 0.754042 0.062517
0.970673 0.766717 0.063676
0.996104 0.770013 0.064407
0.274804 0.709147 0.228721
0.300616 0.707635 0.224799
0.322830 0.704657 0.198530
0.369165 0.699112 0.190901
0.403076 0.695603 0.182349
0.444422 0.699145 0.174225
0.492567 0.709990 0.165556
0.545392 0.722152 0.152916
0.603593 0.735244 0.139968
0.663293 0.747340 0.121886
0.724107 0.762296 0.101531
0.791230 0.777960 0.078838
0.850820 0.790646 0.062742
0.912427 0.804279 0.064837
0.968525 0.814850 0.077036
0.996368 0.816572 0.086797
0.346425 0.802458 0.306154
0.371288 0.802136 0.300300
0.386543 0.799732 0.267704
0.431438 0.798099 0.260442
0.464400 0.794156 0.252367
0.502003 0.794633 0.240763
0.546205 0.801495 0.231052
0.594433 0.809996 0.220093
0.643373 0.818920 0.203909
0.697643 0.826229 0.187746
0.755955 0.833819 0.170655
0.812227 0.843082 0.143819
0.870512 0.850891 0.114481
0.917354 0.853808 0.095739
0.969845 0.861248 0.111577
0.996419 0.860596 0.120834
0.427453 0.879056 0.420477
0.448166 0.878118 0.413234
0.458181 0.878104 0.380336
0.498391 0.876212 0.373202
0.529102 0.874725 0.363180
0.559532 0.874925 0.350801
0.597009 0.877979 0.340102
0.638707 0.882622 0.329058
0.682610 0.887830 0.313214
0.730684 0.893223 0.293878
0.780810 0.899245 0.273251
0.833543 0.905392 0.244985
0.889195 0.911575 0.207925
0.939414 0.913887 0.172064
0.973219 0.909572 0.153212
0.996163 0.908565 0.156822
0.499835 0.933273 0.516727
0.519703 0.933051 0.512575
0.523005 0.933897 0.482939
0.561424 0.933734 0.478210
0.588383 0.932180 0.468889
0.615041 0.932329 0.460451
0.646633 0.933699 0.451896
0.679793 0.938388 0.440934
0.715447 0.943040 0.427100
0.755539 0.947213 0.410497
0.800163 0.950945 0.389197
0.849162 0.956159 0.356943
0.900933 0.960771 0.316519
0.952824 0.967540 0.258144
0.980413 0.966906 0.216241
0.995738 0.957940 0.200697
0.056670 0.059888 0.098335
0.066903 0.059225 0.096449
0.078818 0.061415 0.095565
0.093547 0.061999 0.094545
0.120209 0.061624 0.100620
0.156311 0.060537 0.107247
0.206391 0.058118 0.116075
0.272472 0.056251 0.129508
0.359636 0.055570 0.147356
0.472217 0.055292 0.166083
0.597439 0.055366 0.181280
0.718098 0.055075 0.189693
0.820136 0.054973 0.191204
0.904613 0.069114 0.166151
0.965666 0.170004 0.081515
0.996090 0.238594 0.078492
0.058979 0.072358 0.097171
0.065894 0.069090 0.101526
0.081117 0.069158 0.099691
0.097063 0.068775 0.097436
0.124656 0.067668 0.101960
0.161411 0.065948 0.107497
0.212300 0.063306 0.115427
0.278873 0.061250 0.127471
0.367339 0.059863 0.143322
0.480949 0.058957 0.159726
0.606167 0.058921 0.171680
0.723237 0.058890 0.178097
0.822459 0.059742 0.176930
0.906521 0.078198 0.130587
0.967703 0.200786 0.081540
0.996136 0.262346 0.078159
0.062031 0.084185 0.097848
0.067954 0.084087 0.099834
0.083395 0.083266 0.101466
0.102012 0.083277 0.101090
0.132219 0.081889 0.102864
0.174146 0.078722 0.106813
0.229018 0.075511 0.112178
0.300328 0.071601 0.121021
0.397875 0.067300 0.133007
0.515890 0.064570 0.143572
0.637028 0.063645 0.148572
0.745010 0.063507 0.149980
0.836767 0.066266 0.139906
0.916285 0.134156 0.079758
0.972596 0.234630 0.076998
0.997634 0.283396 0.075064
0.066986 0.098829 0.100958
0.072475 0.099223 0.101538
0.086383 0.100321 0.102465
0.106975 0.101680 0.102376
0.136725 0.101101 0.099769
0.181206 0.099623 0.097233
0.241437 0.098012 0.095145
0.324462 0.094341 0.091521
0.435959 0.084156 0.091304
0.559873 0.076836 0.090681
0.674330 0.073568 0.077814
0.771262 0.101741 0.071437
0.858733 0.159987 0.069486
0.932742 0.227721 0.068778
0.979140 0.287017 0.068117
0.999572 0.327565 0.069780
0.074751 0.121891 0.110515
0.079653 0.121708 0.109586
0.089507 0.122265 0.106897
0.107897 0.124264 0.102915
0.136681 0.128520 0.098071
0.183578 0.136708 0.094169
0.250151 0.144906 0.091088
0.340861 0.156186 0.087813
0.453858 0.169538 0.084533
0.574137 0.183071 0.080203
0.684921 0.201134 0.074822
0.778569 0.228797 0.070761
0.859538 0.268229 0.068972
0.932096 0.312669 0.068508
0.979313 0.359087 0.067841
0.999524 0.387640 0.069087
0.080573 0.155353 0.123961
0.085245 0.154659 0.121229
0.092571 0.153964 0.114186
0.108051 0.154853 0.103026
0.138819 0.160244 0.097971
0.180057 0.170822 0.092028
0.251977 0.191982 0.086552
0.348775 0.215223 0.082006
0.466927 0.240231 0.077778
0.587275 0.263905 0.074166
0.695263 0.287665 0.071291
0.787037 0.314516 0.069274
0.864193 0.344318 0.068558
0.931847 0.382763 0.068149
0.978513 0.421128 0.067632
0.999167 0.442681 0.067608
0.085087 0.199513 0.140747
0.090010 0.198530 0.136148
0.096067 0.196926 0.125144
0.109246 0.196239 0.105536
0.144438 0.202613 0.099867
0.187254 0.214587 0.093044
0.248462 0.234175 0.083635
0.348017 0.272133 0.076257
0.470512 0.308919 0.072038
0.596426 0.339078 0.069941
0.704685 0.364616 0.069375
0.793800 0.389501 0.068811
0.868487 0.416360 0.068400
0.934321 0.448547 0.067783
0.978666 0.481206 0.067446
0.999188 0.498647 0.067045
0.091196 0.256158 0.161556
0.096388 0.254690 0.154791
0.101189 0.252344 0.139854
0.111957 0.250496 0.110471
0.155252 0.255083 0.104823
0.201985 0.270067 0.097453
0.260300 0.287076 0.086411
0.345949 0.320488 0.075188
