assets/luts/LUTs/Mavic3 EXPLORER.CUBE
LUT_3D_SIZE 16
-0.003135 -0.003135 -0.003135
-0.002452 -0.003135 -0.003135
0.030811 -0.003136 -0.003136
0.072260 -0.003144 -0.003144
0.138926 -0.003173 -0.003173
0.240407 -0.003241 -0.003241
0.380512 -0.003358 -0.003358
0.542277 -0.003519 -0.003519
0.696958 -0.003718 -0.003718
0.819718 -0.003936 -0.003936
0.898254 -0.004165 -0.004165
0.944769 -0.004397 -0.004397
0.972213 -0.004589 -0.004589
0.990136 -0.004759 -0.004759
1.000372 -0.004868 -0.004868
1.002616 -0.004868 -0.004868
-0.003135 -0.002452 -0.003135
-0.002452 -0.002452 -0.003135
0.030811 -0.002640 -0.003136
0.072260 -0.002709 -0.003144
0.138926 -0.002730 -0.003173
0.240407 -0.002784 -0.003242
0.380511 -0.002897 -0.003358
0.542277 -0.003065 -0.003519
0.696958 -0.003284 -0.003718
0.819718 -0.003532 -0.003936
0.898254 -0.003780 -0.004165
0.944769 -0.004029 -0.004397
0.972213 -0.004231 -0.004589
0.990136 -0.004409 -0.004759
1.000372 -0.004530 -0.004868
1.002616 -0.004530 -0.004868
-0.003139 0.031691 -0.003139
-0.002644 0.031691 -0.003139
0.030821 0.031691 -0.003141
0.072259 0.028279 -0.003148
0.138911 0.031406 -0.003169
0.240405 0.037960 -0.003245
0.380553 0.047147 -0.003337
0.542286 0.056297 -0.003515
0.696953 0.062818 -0.003711
0.819730 0.065833 -0.003936
0.898254 0.065855 -0.004159
0.944791 0.064535 -0.004359
0.972203 0.063236 -0.004589
0.990104 0.062158 -0.004737
1.000320 0.060542 -0.004857
1.002563 0.060540 -0.004868
-0.003171 0.076448 -0.003171
-0.002741 0.076448 -0.003171
0.027762 0.076448 -0.003171
0.072499 0.076448 -0.003180
0.138904 0.083469 -0.003200
0.240378 0.098741 -0.003272
0.380527 0.119758 -0.003389
0.542270 0.139602 -0.003561
0.696975 0.153462 -0.003750
0.819753 0.159377 -0.003965
0.898259 0.158309 -0.004212
0.944702 0.154419 -0.004421
0.972204 0.150413 -0.004600
0.990113 0.147130 -0.004792
1.000371 0.143400 -0.004847
1.002614 0.143399 -0.004857
-0.003274 0.145712 -0.003274
-0.002853 0.145712 -0.003274
0.030903 0.145712 -0.003274
0.079716 0.145701 -0.003273
0.139980 0.145712 -0.003303
0.240397 0.169851 -0.003385
0.380510 0.204858 -0.003515
0.542307 0.238016 -0.003663
0.696911 0.260473 -0.003871
0.819710 0.269244 -0.004077
0.898221 0.266365 -0.004309
0.944749 0.258733 -0.004518
0.972207 0.251308 -0.004726
0.990143 0.245069 -0.004890
1.000314 0.239129 -0.004984
1.002557 0.239128 -0.004995
-0.003494 0.248277 -0.003494
-0.003090 0.248277 -0.003494
0.037282 0.248277 -0.003494
0.094353 0.248277 -0.003502
0.164995 0.248272 -0.003528
0.242584 0.248276 -0.003586
0.380523 0.295360 -0.003711
0.542273 0.341504 -0.003871
0.696916 0.372326 -0.004057
0.819721 0.383758 -0.004296
0.898274 0.378657 -0.004494
0.944758 0.367147 -0.004726
0.972224 0.355917 -0.004911
0.990126 0.346694 -0.005077
1.000221 0.338245 -0.005167
1.002465 0.338244 -0.005167
-0.003833 0.388846 -0.003833
-0.003464 0.388846 -0.003833
0.046044 0.388844 -0.003833
0.114114 0.388862 -0.003833
0.199026 0.388826 -0.003856
0.291004 0.388853 -0.003922
0.383241 0.388856 -0.004001
0.542240 0.445120 -0.004159
0.696913 0.484211 -0.004347
0.819735 0.498147 -0.004554
0.898236 0.490869 -0.004781
0.944750 0.475151 -0.004984
0.972230 0.460014 -0.005167
0.990136 0.447600 -0.005321
1.000372 0.436646 -0.005415
1.002615 0.436646 -0.005433
-0.004270 0.549591 -0.004270
-0.003929 0.549591 -0.004270
0.054670 0.549592 -0.004270
0.132482 0.549581 -0.004283
0.230852 0.549565 -0.004296
0.335677 0.549542 -0.004347
0.440707 0.549590 -0.004434
0.544337 0.549590 -0.004530
0.697012 0.594456 -0.004703
0.819730 0.610723 -0.004911
0.898264 0.601050 -0.005107
0.944784 0.581118 -0.005302
0.972192 0.562275 -0.005488
0.990137 0.546419 -0.005648
1.000357 0.533116 -0.005734
1.002600 0.533116 -0.005734
-0.004770 0.702220 -0.004770
-0.004470 0.702220 -0.004770
0.060719 0.702222 -0.004759
0.145289 0.702218 -0.004770
0.252369 0.702218 -0.004792
0.365340 0.702213 -0.004825
0.478396 0.702219 -0.004911
0.589692 0.702236 -0.004995
0.697782 0.702218 -0.005107
0.819679 0.719712 -0.005283
0.898241 0.707597 -0.005488
0.944766 0.683381 -0.005683
0.972218 0.660287 -0.005836
0.990127 0.641293 -0.005983
1.000356 0.625711 -0.006063
1.002599 0.625711 -0.006063
-0.005283 0.822733 -0.005283
-0.005026 0.822733 -0.005283
0.063413 0.822733 -0.005283
0.150811 0.822763 -0.005264
0.260701 0.822738 -0.005283
0.376164 0.822735 -0.005340
0.491529 0.822733 -0.005415
0.605057 0.822732 -0.005488
0.715039 0.822709 -0.005578
0.819326 0.822732 -0.005717
0.898257 0.808079 -0.005885
0.944769 0.779589 -0.006063
0.972207 0.752571 -0.006248
0.990132 0.730357 -0.006367
1.000283 0.712683 -0.006426
1.002526 0.712683 -0.006426
-0.005785 0.899689 -0.005785
-0.005542 0.899689 -0.005785
0.063311 0.899688 -0.005768
0.149848 0.899691 -0.005785
0.257978 0.899684 -0.005802
0.371129 0.899698 -0.005836
0.484254 0.899688 -0.005902
0.595301 0.899695 -0.005983
0.702752 0.899688 -0.006063
0.804016 0.899693 -0.006172
0.897297 0.899682 -0.006293
0.944757 0.868019 -0.006455
0.972220 0.836925 -0.006597
0.990146 0.811166 -0.006736
1.000282 0.791626 -0.006790
1.002526 0.791626 -0.006817
-0.006233 0.945408 -0.006233
-0.006015 0.945408 -0.006233
0.061962 0.945417 -0.006218
0.146311 0.945381 -0.006233
0.250831 0.945400 -0.006248
0.360098 0.945395 -0.006278
0.468984 0.945409 -0.006338
0.575801 0.945421 -0.006397
0.678926 0.945408 -0.006484
0.775906 0.945415 -0.006597
0.865042 0.945397 -0.006708
0.943909 0.945409 -0.006817
0.972206 0.910901 -0.006949
0.990139 0.881992 -0.007078
1.000329 0.860804 -0.007153
1.002572 0.860805 -0.007153
-0.006625 0.972487 -0.006625
-0.006426 0.972487 -0.006625
0.060683 0.972490 -0.006625
0.142656 0.972486 -0.006625
0.243866 0.972488 -0.006653
0.349353 0.972492 -0.006681
0.454327 0.972498 -0.006736
0.557449 0.972480 -0.006790
0.656318 0.972492 -0.006870
0.749383 0.972486 -0.006975
0.834444 0.972491 -0.007078
0.909041 0.972490 -0.007178
0.971666 0.972484 -0.007253
0.990129 0.941259 -0.007374
1.000315 0.918632 -0.007446
1.002558 0.918633 -0.007446
-0.006949 0.990231 -0.006949
-0.006763 0.990231 -0.006949
0.059606 0.990218 -0.006949
0.139671 0.990220 -0.006949
0.238027 0.990238 -0.006975
0.340538 0.990229 -0.007001
0.442322 0.990230 -0.007052
0.542021 0.990231 -0.007128
0.637749 0.990229 -0.007203
0.727605 0.990228 -0.007302
0.809106 0.990234 -0.007374
0.880535 0.990229 -0.007469
0.940305 0.990223 -0.007563
0.989914 0.990231 -0.007632
1.000325 0.966749 -0.007677
1.002569 0.966750 -0.007677
-0.007153 1.000372 -0.007153
-0.006975 1.000372 -0.007153
0.058081 1.000355 -0.007153
0.136091 1.000372 -0.007153
0.232327 1.000314 -0.007178
0.332325 1.000309 -0.007203
0.431595 1.000372 -0.007253
0.528943 1.000367 -0.007326
0.622427 1.000357 -0.007374
0.710156 1.000342 -0.007493
0.789847 1.000342 -0.007563
0.859604 1.000359 -0.007655
0.917930 1.000342 -0.007745
0.966458 1.000349 -0.007790
1.000369 1.000371 -0.007878
1.002612 1.000371 -0.007878
-0.007178 1.002616 -0.007178
-0.007001 1.002616 -0.007178
0.058073 1.002598 -0.007178
0.136085 1.002615 -0.007178
0.232324 1.002557 -0.007203
0.332323 1.002552 -0.007228
0.431593 1.002615 -0.007277
0.528942 1.002610 -0.007326
0.622426 1.002600 -0.007374
0.710156 1.002586 -0.007493
0.789847 1.002585 -0.007586
0.859604 1.002602 -0.007677
0.917930 1.002585 -0.007767
0.966458 1.002592 -0.007812
1.000369 1.002614 -0.007878
1.002612 1.002614 -0.007878
-0.003135 -0.003135 -0.002452
-0.002452 -0.003135 -0.002452
0.030811 -0.003136 -0.002640
0.072260 -0.003144 -0.002709
0.138926 -0.003173 -0.002730
0.240407 -0.003242 -0.002784
0.380512 -0.003358 -0.002897
0.542277 -0.003519 -0.003065
0.696958 -0.003718 -0.003284
0.819718 -0.003936 -0.003532
0.898254 -0.004165 -0.003780
0.944769 -0.004397 -0.004029
0.972213 -0.004589 -0.004231
0.990136 -0.004759 -0.004409
1.000372 -0.004868 -0.004530
1.002616 -0.004868 -0.004530
-0.003135 -0.002452 -0.002452
-0.002452 -0.002452 -0.002452
0.030811 -0.002454 -0.002454
0.072259 -0.002465 -0.002465
0.138926 -0.002506 -0.002506
0.240407 -0.002600 -0.002600
0.380512 -0.002756 -0.002756
0.542277 -0.002965 -0.002965
0.696958 -0.003214 -0.003214
0.819718 -0.003481 -0.003481
0.898254 -0.003750 -0.003750
0.944769 -0.004001 -0.004001
0.972213 -0.004218 -0.004218
0.990136 -0.004409 -0.004409
1.000372 -0.004530 -0.004530
1.002616 -0.004530 -0.004530
-0.003139 0.031691 -0.002644
-0.002458 0.031691 -0.002458
0.030821 0.031691 -0.002460
0.072259 0.030474 -0.002471
0.138908 0.034020 -0.002502
0.240404 0.040667 -0.002606
0.380547 0.049961 -0.002741
0.542290 0.058701 -0.002960
0.696947 0.064742 -0.003214
0.819732 0.067263 -0.003481
0.898252 0.066835 -0.003742
0.944792 0.065113 -0.003986
0.972203 0.063471 -0.004231
0.990104 0.062140 -0.004397
1.000320 0.060542 -0.004530
1.002563 0.060540 -0.004542
-0.003171 0.076448 -0.002741
-0.002502 0.076448 -0.002502
0.029816 0.076448 -0.002504
0.072499 0.076448 -0.002515
0.138906 0.084603 -0.002549
0.240382 0.100191 -0.002648
0.380528 0.121256 -0.002803
0.542273 0.140965 -0.003023
0.696973 0.154732 -0.003266
0.819754 0.160351 -0.003515
0.898260 0.158987 -0.003796
0.944702 0.154826 -0.004043
0.972204 0.150581 -0.004257
0.990113 0.147116 -0.004458
1.000371 0.143400 -0.004530
1.002614 0.143399 -0.004542
-0.003274 0.145712 -0.002853
-0.002644 0.145712 -0.002644
0.033359 0.145712 -0.002646
0.080778 0.145702 -0.002648
0.139980 0.145712 -0.002686
0.240399 0.170490 -0.002794
0.380510 0.205761 -0.002960
0.542306 0.238934 -0.003150
0.696912 0.261278 -0.003402
0.819711 0.269881 -0.003655
0.898220 0.266819 -0.003915
0.944749 0.259010 -0.004152
0.972207 0.251423 -0.004384
0.990143 0.245059 -0.004565
1.000314 0.239129 -0.004669
1.002557 0.239128 -0.004681
-0.003494 0.248277 -0.003090
-0.002933 0.248277 -0.002933
0.039828 0.248277 -0.002933
0.095714 0.248277 -0.002949
0.165645 0.248272 -0.002976
0.242584 0.248276 -0.003049
0.380523 0.295740 -0.003204
0.542272 0.342012 -0.003402
0.696917 0.372822 -0.003631
0.819720 0.384174 -0.003885
0.898274 0.378964 -0.004125
0.944757 0.367338 -0.004384
0.972224 0.355997 -0.004589
0.990126 0.346687 -0.004770
1.000221 0.338245 -0.004879
1.002465 0.338245 -0.004879
-0.003833 0.388846 -0.003464
-0.003358 0.388846 -0.003358
0.048690 0.388838 -0.003358
0.115516 0.388863 -0.003358
0.199945 0.388827 -0.003394
0.291389 0.388853 -0.003464
0.383241 0.388857 -0.003557
0.542240 0.445338 -0.003742
0.696914 0.484492 -0.003958
0.819735 0.498410 -0.004192
0.898236 0.491074 -0.004446
0.944750 0.475283 -0.004669
0.972230 0.460071 -0.004857
0.990136 0.447595 -0.005046
1.000372 0.436646 -0.005127
1.002615 0.436646 -0.005147
-0.004270 0.549591 -0.003929
-0.003856 0.549591 -0.003856
0.056916 0.549592 -0.003856
0.133755 0.549586 -0.003871
0.231783 0.549563 -0.003900
0.336191 0.549541 -0.003958
0.440928 0.549590 -0.004043
0.544337 0.549590 -0.004152
0.697012 0.594578 -0.004359
0.819730 0.610874 -0.004589
0.898264 0.601182 -0.004814
0.944784 0.581208 -0.005026
0.972192 0.562314 -0.005225
0.990137 0.546416 -0.005378
1.000357 0.533116 -0.005470
1.002600 0.533116 -0.005470
-0.004770 0.702220 -0.004470
-0.004421 0.702220 -0.004421
0.062513 0.702218 -0.004421
0.146540 0.702218 -0.004421
0.253182 0.702219 -0.004458
0.365841 0.702213 -0.004506
0.478680 0.702219 -0.004577
0.589815 0.702236 -0.004681
0.697782 0.702218 -0.004792
0.819679 0.719778 -0.005005
0.898241 0.707673 -0.005225
0.944766 0.683438 -0.005415
0.972218 0.660314 -0.005613
0.990127 0.641290 -0.005751
1.000356 0.625711 -0.005836
1.002599 0.625711 -0.005836
-0.005283 0.822733 -0.005026
-0.004984 0.822733 -0.004984
0.064744 0.822733 -0.004984
0.151767 0.822763 -0.004984
0.261343 0.822739 -0.005005
0.376584 0.822735 -0.005046
0.491794 0.822733 -0.005127
0.605209 0.822732 -0.005206
0.715105 0.822709 -0.005321
0.819326 0.822732 -0.005452
0.898257 0.808111 -0.005648
0.944769 0.779621 -0.005819
0.972207 0.752588 -0.006015
0.990132 0.730355 -0.006156
1.000283 0.712683 -0.006218
1.002526 0.712683 -0.006218
-0.005785 0.899689 -0.005542
-0.005524 0.899689 -0.005524
0.064225 0.899688 -0.005524
0.150514 0.899691 -0.005524
0.258437 0.899684 -0.005542
0.371439 0.899698 -0.005578
0.484461 0.899688 -0.005648
0.595434 0.899695 -0.005734
0.702829 0.899688 -0.005836
0.804048 0.899693 -0.005934
0.897297 0.899682 -0.006063
0.944757 0.868033 -0.006248
0.972220 0.836934 -0.006397
0.990146 0.811165 -0.006541
1.000282 0.791626 -0.006597
1.002526 0.791626 -0.006625
-0.006233 0.945408 -0.006015
-0.005999 0.945408 -0.005999
0.062501 0.945417 -0.005999
0.146711 0.945381 -0.006015
0.251111 0.945399 -0.006031
0.360291 0.945395 -0.006063
0.469117 0.945409 -0.006125
0.575892 0.945421 -0.006187
0.678984 0.945408 -0.006308
0.775939 0.945415 -0.006397
0.865055 0.945397 -0.006513
0.943909 0.945409 -0.006625
0.972206 0.910905 -0.006763
0.990139 0.881992 -0.006896
1.000329 0.860804 -0.006975
1.002572 0.860805 -0.006975
-0.006625 0.972487 -0.006426
-0.006426 0.972487 -0.006426
0.060901 0.972490 -0.006426
0.142821 0.972486 -0.006426
0.243982 0.972488 -0.006455
0.349434 0.972492 -0.006484
0.454384 0.972498 -0.006541
0.557489 0.972480 -0.006597
0.656345 0.972492 -0.006681
0.749400 0.972486 -0.006790
0.834453 0.972491 -0.006896
0.909045 0.972490 -0.007001
0.971666 0.972484 -0.007078
0.990129 0.941259 -0.007203
1.000315 0.918632 -0.007277
1.002558 0.918633 -0.007277
-0.006949 0.990231 -0.006763
-0.006763 0.990231 -0.006763
0.059589 0.990218 -0.006763
0.139658 0.990220 -0.006763
0.238018 0.990238 -0.006790
0.340531 0.990229 -0.006817
0.442317 0.990230 -0.006870
0.542018 0.990231 -0.006949
0.637746 0.990229 -0.007027
0.727603 0.990228 -0.007128
0.809105 0.990234 -0.007203
0.880535 0.990229 -0.007302
0.940305 0.990223 -0.007398
0.989914 0.990231 -0.007469
1.000325 0.966749 -0.007516
1.002569 0.966750 -0.007516
-0.007153 1.000372 -0.006975
-0.006975 1.000372 -0.006975
0.058081 1.000355 -0.006975
0.136091 1.000372 -0.006975
0.232327 1.000314 -0.007001
0.332325 1.000309 -0.007027
0.431595 1.000372 -0.007078
0.528943 1.000367 -0.007153
0.622427 1.000357 -0.007203
0.710156 1.000342 -0.007326
0.789847 1.000342 -0.007398
0.859604 1.000359 -0.007493
0.917930 1.000342 -0.007586
0.966458 1.000349 -0.007632
1.000369 1.000371 -0.007722
1.002612 1.000371 -0.007722
-0.007178 1.002616 -0.007001
-0.007001 1.002616 -0.007001
0.058073 1.002598 -0.007001
0.136086 1.002615 -0.007001
0.232324 1.002557 -0.007027
0.332323 1.002552 -0.007052
0.431593 1.002615 -0.007103
0.528942 1.002610 -0.007153
0.622426 1.002600 -0.007203
0.710156 1.002586 -0.007326
0.789847 1.002585 -0.007422
0.859604 1.002602 -0.007516
0.917930 1.002585 -0.007609
0.966458 1.002592 -0.007655
1.000369 1.002614 -0.007722
1.002612 1.002614 -0.007722
-0.003135 -0.003135 0.030811
-0.002639 -0.003135 0.030811
0.030811 -0.003137 0.030811
0.072260 -0.003145 0.027671
0.138926 -0.003174 0.030675
0.240407 -0.003242 0.036955
0.380512 -0.003358 0.045733
0.542277 -0.003519 0.054493
0.696958 -0.003718 0.060681
0.819718 -0.003936 0.063508
0.898254 -0.004165 0.063440
0.944778 -0.004384 0.062111
0.972210 -0.004577 0.060831
0.990138 -0.004748 0.059713
1.000346 -0.004857 0.058203
1.002589 -0.004857 0.058201
-0.003135 -0.002639 0.030811
-0.002452 -0.002452 0.030811
0.030811 -0.002454 0.030811
0.072259 -0.002466 0.029718
0.138926 -0.002506 0.033112
0.240407 -0.002600 0.039478
0.380512 -0.002756 0.048358
0.542276 -0.002965 0.056728
0.696958 -0.003214 0.062473
0.819718 -0.003481 0.064838
0.898254 -0.003750 0.064353
0.944778 -0.004001 0.062649
0.972210 -0.004218 0.061050
0.990138 -0.004409 0.059695
1.000346 -0.004530 0.058203
1.002589 -0.004530 0.058201
-0.003140 0.031691 0.030821
-0.002459 0.031691 0.030821
0.030743 0.031730 0.030698
0.087158 0.022953 0.022069
0.178895 0.010628 0.009954
0.310237 0.007495 0.007361
0.461988 0.008139 0.008104
0.615776 0.008380 0.008380
0.752361 0.008218 0.008218
0.855128 0.007968 0.007956
0.919352 0.007683 0.007667
0.957894 0.007444 0.007444
0.981661 0.007291 0.007291
0.997372 0.007951 0.007945
1.000549 0.031317 0.029288
1.002792 0.031315 0.029287
-0.003171 0.076448 0.027763
-0.002502 0.076448 0.029816
0.009431 0.085564 0.009418
0.074511 0.078741 0.006356
0.162381 0.082041 0.004850
0.288902 0.092313 0.003113
0.441914 0.106656 0.003364
0.602964 0.118794 0.003920
0.747576 0.125646 0.004064
0.854248 0.126418 0.004116
0.919689 0.122995 0.004025
0.958523 0.118488 0.003978
0.982345 0.114635 0.003936
0.997846 0.113328 0.005266
1.000550 0.130631 0.029328
1.002793 0.130603 0.029326
-0.003274 0.145712 0.030904
-0.002644 0.145712 0.033359
0.002962 0.166222 0.002975
0.071115 0.157126 0.001676
0.143780 0.149376 0.001117
0.260757 0.172131 0.000672
0.416107 0.203373 -0.001214
0.585288 0.229548 -0.001919
0.736846 0.244398 -0.001968
0.848643 0.246729 -0.001621
0.916778 0.240273 -0.001369
0.956902 0.231448 -0.001156
0.981254 0.223801 -0.000977
0.997210 0.219219 0.003178
1.000549 0.230835 0.029254
1.002792 0.230787 0.029253
-0.003494 0.248277 0.037282
-0.002933 0.248277 0.039828
0.002544 0.271026 0.002544
0.078384 0.265168 -0.001233
0.160530 0.258210 -0.001320
0.246815 0.252498 -0.001530
0.396927 0.298894 -0.001939
0.567172 0.340985 -0.002353
0.723527 0.365540 -0.002786
0.841224 0.370222 -0.003180
0.913118 0.360366 -0.003455
0.955038 0.346415 -0.003765
0.980114 0.334280 -0.004001
0.996513 0.325978 -0.003100
1.000531 0.332425 0.029205
1.002774 0.332359 0.029203
-0.003826 0.388866 0.046057
-0.003349 0.388863 0.048700
0.002986 0.411910 0.002997
0.091266 0.409148 -0.002323
0.187302 0.403146 -0.002353
0.289061 0.397936 -0.002440
0.387867 0.393456 -0.002588
0.555155 0.448193 -0.002911
0.713560 0.482871 -0.003256
0.834582 0.490982 -0.003590
0.909142 0.478861 -0.003826
0.952594 0.460423 -0.004111
0.978385 0.444010 -0.004321
0.995370 0.431632 -0.004165
1.000507 0.432567 0.029176
1.002750 0.432487 0.029174
-0.004270 0.549591 0.054669
-0.003856 0.549591 0.056915
0.002749 0.571132 0.002749
0.103136 0.570086 -0.003140
0.211822 0.565334 -0.003160
0.327171 0.561112 -0.003237
0.439689 0.557379 -0.003331
0.548880 0.554089 -0.003490
0.706323 0.596402 -0.003765
0.829555 0.607972 -0.004057
0.906061 0.593834 -0.004244
0.950640 0.571113 -0.004518
0.976956 0.550589 -0.004726
0.994335 0.534378 -0.004748
1.000487 0.530173 0.029150
1.002731 0.530082 0.029147
-0.004770 0.702220 0.060706
-0.004421 0.702220 0.062502
0.002253 0.720342 0.002253
0.110585 0.720274 -0.003900
0.227357 0.716809 -0.003915
0.350814 0.713649 -0.003958
0.471551 0.710875 -0.004029
0.588980 0.708343 -0.004152
0.701721 0.706144 -0.004270
0.825735 0.720189 -0.004542
0.903637 0.704049 -0.004726
0.949128 0.676991 -0.004963
0.975863 0.652216 -0.005167
0.993484 0.632408 -0.005283
1.000490 0.623546 0.029212
1.002733 0.623445 0.029209
-0.005283 0.822733 0.063413
-0.004984 0.822733 0.064744
0.001093 0.835816 0.001093
0.112383 0.836087 -0.004589
0.231401 0.833884 -0.004589
0.356748 0.831856 -0.004635
0.479543 0.830023 -0.004681
0.599159 0.828444 -0.004792
0.713935 0.826948 -0.004900
0.822265 0.825666 -0.005046
0.901734 0.807554 -0.005264
0.947886 0.776242 -0.005433
0.974958 0.747397 -0.005613
0.992789 0.724090 -0.005734
1.000448 0.711153 0.029083
1.002691 0.711046 0.029081
-0.005785 0.899683 0.063303
-0.005524 0.899682 0.064215
-0.002933 0.908256 -0.002933
0.109805 0.908537 -0.005186
0.226421 0.907238 -0.005206
0.348714 0.906021 -0.005225
0.468611 0.904917 -0.005283
0.585367 0.903948 -0.005359
0.697461 0.903059 -0.005470
0.802703 0.902288 -0.005596
0.899248 0.901609 -0.005717
0.946879 0.867199 -0.005869
0.974239 0.834327 -0.006063
0.992196 0.807363 -0.006218
1.000453 0.790660 0.029066
1.002696 0.790556 0.029064
-0.006233 0.945408 0.061943
-0.005999 0.945408 0.062481
-0.004001 0.951302 -0.004001
0.105749 0.951521 -0.005700
0.218448 0.950676 -0.005700
0.335983 0.949903 -0.005734
0.451220 0.949220 -0.005768
0.563372 0.948583 -0.005869
0.670809 0.948033 -0.005934
0.771545 0.947527 -0.006063
0.863798 0.947081 -0.006187
0.945275 0.946738 -0.006278
0.973700 0.910238 -0.006455
0.991731 0.880070 -0.006597
1.000424 0.860210 0.029075
1.002667 0.860110 0.029072
-0.006625 0.972484 0.060686
-0.006426 0.972484 0.060905
-0.004814 0.977093 -0.004814
0.102012 0.977259 -0.006156
0.211203 0.976631 -0.006156
0.324469 0.976056 -0.006187
0.435478 0.975536 -0.006218
0.543410 0.975070 -0.006308
0.646486 0.974663 -0.006397
0.743086 0.974295 -0.006484
0.831241 0.973980 -0.006597
0.908161 0.973728 -0.006708
0.972738 0.973517 -0.006763
0.991376 0.940803 -0.006896
1.000423 0.918255 0.029236
1.002666 0.918163 0.029235
-0.006949 0.990222 0.059599
-0.006763 0.990222 0.059581
-0.004814 0.994290 -0.004814
0.099870 0.994371 -0.006367
0.205929 0.993881 -0.006455
0.315553 0.993415 -0.006484
0.422846 0.993000 -0.006541
0.527140 0.992631 -0.006625
0.626756 0.992277 -0.006708
0.719899 0.991969 -0.006817
0.804538 0.991697 -0.006896
0.878202 0.991473 -0.007001
0.939726 0.991304 -0.007103
0.990892 0.991154 -0.007178
1.000400 0.966614 0.029168
1.002643 0.966531 0.029168
-0.007153 1.000355 0.058081
-0.006975 1.000355 0.058081
0.029069 1.000515 0.029069
0.123211 1.000507 0.029063
0.223800 1.000496 0.029053
0.326374 1.000485 0.029047
0.427437 1.000465 0.029034
0.525914 1.000436 0.029005
0.620178 1.000450 0.029095
0.708551 1.000413 0.028984
0.788794 1.000432 0.028989
0.858974 1.000424 0.029050
0.917517 1.000417 0.029221
0.966290 1.000412 0.029077
1.000370 1.000372 0.029145
1.002614 1.000368 0.029144
-0.007178 1.002598 0.058074
-0.007001 1.002598 0.058074
0.029064 1.002758 0.029064
0.123180 1.002750 0.029056
0.223749 1.002739 0.029049
0.326306 1.002728 0.029041
0.427355 1.002709 0.029028
0.525820 1.002680 0.029001
0.620075 1.002693 0.029089
0.708442 1.002656 0.028978
0.788689 1.002675 0.028984
0.858873 1.002667 0.029042
0.917425 1.002661 0.029216
0.966206 1.002656 0.029072
1.000366 1.002615 0.029139
1.002613 1.002615 0.029137
-0.003138 -0.003138 0.072260
-0.002701 -0.003138 0.072260
0.027672 -0.003139 0.072260
0.072259 -0.003147 0.072259
0.138926 -0.003177 0.079120
0.240407 -0.003246 0.093508
0.380511 -0.003360 0.113297
0.542267 -0.003519 0.131989
0.696958 -0.003722 0.144996
0.819744 -0.003929 0.150517
0.898254 -0.004172 0.149455
0.944770 -0.004397 0.145709
0.972210 -0.004577 0.141891
0.990136 -0.004759 0.138760
1.000372 -0.004868 0.135208
1.002616 -0.004879 0.135207
-0.003138 -0.002701 0.072260
-0.002456 -0.002456 0.072260
0.029718 -0.002458 0.072260
0.072259 -0.002469 0.072259
0.138926 -0.002510 0.080174
0.240407 -0.002605 0.094857
0.380511 -0.002759 0.114689
0.542272 -0.002970 0.133257
0.696958 -0.003218 0.146178
0.819743 -0.003472 0.151420
0.898254 -0.003757 0.150085
0.944770 -0.004001 0.146088
0.972210 -0.004231 0.142047
0.990136 -0.004409 0.138747
1.000372 -0.004530 0.135209
1.002616 -0.004542 0.135207
-0.003141 0.028279 0.072259
-0.002462 0.030474 0.072259
0.028759 0.029751 0.085307
0.083024 0.021519 0.082881
0.173032 0.009567 0.088179
0.309020 0.006829 0.098865
0.461417 0.007788 0.109863
0.616273 0.007109 0.118878
0.755822 0.006613 0.123655
0.858503 0.006195 0.123127
0.921876 0.005907 0.119186
0.959744 0.005656 0.114462
0.983146 0.005456 0.110476
0.998169 0.006829 0.109238
1.000551 0.030123 0.122797
1.002794 0.030122 0.122770
-0.003174 0.076448 0.072499
-0.002506 0.076448 0.072499
0.010093 0.081631 0.077013
0.071806 0.076783 0.071287
0.165344 0.066818 0.061326
0.312843 0.049276 0.040507
0.503269 0.036211 0.025359
0.699489 0.025348 0.017546
0.839859 0.017945 0.015217
0.915499 0.015370 0.015319
0.953739 0.016867 0.016416
0.979179 0.017814 0.017342
0.996244 0.018661 0.018133
0.999955 0.022061 0.019791
1.000552 0.077322 0.068779
1.002796 0.077320 0.068777
-0.003277 0.145712 0.079717
-0.002648 0.145712 0.080779
0.002929 0.162192 0.073866
0.037746 0.161510 0.037680
0.143603 0.149854 0.029269
0.283427 0.166857 0.019604
0.471275 0.188096 0.013961
0.667499 0.196676 0.011871
0.817736 0.192068 0.009081
0.900083 0.184054 0.009295
0.947926 0.174403 0.009492
0.976656 0.165951 0.009347
0.995052 0.161034 0.010010
0.999885 0.172235 0.019374
1.000545 0.203996 0.068752
1.002789 0.203874 0.068750
-0.003498 0.248277 0.094353
-0.002938 0.248277 0.095714
-0.001251 0.269942 0.079765
0.014829 0.291229 0.014829
0.143293 0.274757 0.011974
0.253030 0.258690 0.010286
0.435660 0.301473 0.005413
0.626611 0.331075 0.002035
