assets/luts/LUTs/Mavic3 CINEMA.CUBE
LUT_3D_SIZE 16
0.046282 0.086343 0.079779
0.046282 0.086343 0.079779
0.051600 0.087697 0.082186
0.066497 0.089686 0.087640
0.089128 0.091003 0.089883
0.128161 0.091699 0.090291
0.196974 0.090872 0.089247
0.308533 0.088208 0.086627
0.446569 0.086135 0.084780
0.552410 0.084638 0.083458
0.619954 0.083935 0.083001
0.668102 0.083489 0.082844
0.699598 0.083248 0.082775
0.699598 0.083248 0.082775
0.699598 0.083248 0.082775
0.699598 0.083248 0.082775
0.046282 0.086343 0.079779
0.046282 0.086343 0.079779
0.051600 0.087697 0.082186
0.066497 0.089686 0.087640
0.089128 0.091003 0.089883
0.128161 0.091699 0.090291
0.196974 0.090872 0.089247
0.308533 0.088208 0.086627
0.446569 0.086135 0.084780
0.552410 0.084638 0.083458
0.619954 0.083935 0.083001
0.668102 0.083489 0.082844
0.699598 0.083248 0.082775
0.699598 0.083248 0.082775
0.699598 0.083248 0.082775
0.699598 0.083248 0.082775
0.044203 0.095713 0.084257
0.044203 0.095713 0.084257
0.050006 0.096584 0.086536
0.066833 0.094558 0.089607
0.092761 0.097555 0.090568
0.138378 0.099667 0.090286
0.218193 0.100175 0.088208
0.336433 0.099093 0.085220
0.468834 0.097636 0.083173
0.576447 0.095932 0.081802
0.645674 0.094492 0.081456
0.688577 0.093010 0.081509
0.715875 0.091852 0.081600
0.715122 0.091287 0.081658
0.713921 0.090417 0.081750
0.712129 0.089194 0.081886
0.043736 0.119578 0.087976
0.043736 0.119578 0.087976
0.048615 0.120390 0.091679
0.071189 0.125706 0.093716
0.108276 0.126702 0.091619
0.177387 0.128847 0.086553
0.292270 0.132563 0.081036
0.423533 0.136381 0.078596
0.542032 0.136535 0.076724
0.655590 0.135047 0.075901
0.723558 0.132277 0.076138
0.759194 0.127869 0.076746
0.779588 0.124082 0.077262
0.777253 0.122157 0.077457
0.772560 0.119351 0.077793
0.765595 0.115348 0.078289
0.044091 0.146374 0.088986
0.044091 0.146374 0.088986
0.050713 0.147775 0.094536
0.076025 0.159277 0.095130
0.129369 0.164103 0.090119
0.223559 0.167704 0.078252
0.368192 0.181578 0.072542
0.495107 0.191196 0.071063
0.607361 0.193092 0.070509
0.706865 0.191035 0.070756
0.770495 0.186526 0.071763
0.803152 0.178314 0.072703
0.821455 0.170902 0.073389
0.819570 0.166987 0.073570
0.816366 0.161185 0.073875
0.810376 0.154657 0.074451
0.044088 0.181307 0.088849
0.044088 0.181307 0.088849
0.052254 0.183975 0.096222
0.084352 0.209951 0.093862
0.167595 0.225219 0.086158
0.282121 0.225803 0.065653
0.435911 0.251706 0.064379
0.557496 0.268941 0.064953
0.669762 0.273641 0.066109
0.751568 0.269208 0.067204
0.806591 0.261664 0.068497
0.835089 0.249461 0.069662
0.850521 0.237807 0.070500
0.848225 0.231653 0.070706
0.844575 0.221978 0.071022
0.839513 0.210210 0.071555
0.045451 0.234959 0.088537
0.045451 0.234959 0.088537
0.053693 0.238760 0.096853
0.088125 0.280313 0.093621
0.202892 0.311356 0.086690
0.347334 0.317531 0.061825
0.488295 0.339845 0.057656
0.616485 0.362417 0.059462
0.721234 0.369058 0.061622
0.793582 0.362509 0.063451
0.841250 0.350629 0.064966
0.866847 0.335327 0.066298
0.879339 0.319875 0.067416
0.876533 0.311393 0.067771
0.872055 0.298014 0.068321
0.865983 0.280514 0.068993
0.050869 0.305779 0.090401
0.050869 0.305779 0.090401
0.058031 0.307810 0.098620
0.079722 0.350096 0.097073
0.167489 0.386718 0.092917
0.342195 0.414204 0.084588
0.506784 0.434238 0.056849
0.653640 0.459832 0.054156
0.753235 0.465380 0.056293
0.821352 0.456774 0.058699
0.866333 0.441529 0.060702
0.892330 0.425201 0.062173
0.904833 0.408510 0.063411
0.902681 0.399006 0.063853
0.899225 0.383996 0.064527
0.892882 0.361857 0.065546
0.058430 0.379672 0.094016
0.058430 0.379672 0.094016
0.064537 0.379038 0.101882
0.076208 0.407910 0.102122
0.113678 0.439795 0.100176
0.244755 0.474288 0.097934
0.466723 0.513137 0.082612
0.647857 0.547542 0.055624
0.766497 0.560640 0.052237
0.833609 0.547139 0.053820
0.878366 0.528450 0.056030
0.906469 0.510574 0.057879
0.919859 0.493221 0.059288
0.918617 0.482870 0.059794
0.916600 0.466520 0.060581
0.912255 0.442289 0.061776
0.066539 0.449262 0.099054
0.066539 0.449262 0.099054
0.071832 0.447618 0.106279
0.080309 0.464968 0.107008
0.098650 0.493676 0.106429
0.171121 0.528520 0.105318
0.398658 0.582141 0.104223
0.615540 0.625152 0.078024
0.761043 0.645943 0.056337
0.835239 0.635212 0.051853
0.880043 0.611652 0.052259
0.910831 0.590144 0.054167
0.925595 0.572332 0.055612
0.925324 0.561655 0.056054
0.924870 0.544825 0.056777
0.922873 0.519231 0.057991
0.074906 0.515289 0.105028
0.074906 0.515289 0.105028
0.079538 0.513822 0.111492
0.086808 0.524856 0.111989
0.101378 0.553453 0.112073
0.154896 0.592047 0.112221
0.358318 0.644248 0.113013
0.602905 0.705599 0.104183
0.755038 0.724949 0.073000
0.833139 0.716656 0.058321
0.877837 0.693960 0.053140
0.909071 0.667857 0.052917
0.925120 0.648081 0.053606
0.925435 0.636202 0.053732
0.926008 0.617587 0.054068
0.926040 0.590520 0.054896
0.081793 0.566745 0.110208
0.081793 0.566745 0.110208
0.086084 0.566968 0.116174
0.092957 0.577386 0.116808
0.107202 0.608490 0.117545
0.160433 0.653654 0.118977
0.361435 0.710299 0.121152
0.599403 0.771277 0.118833
0.755682 0.793583 0.094819
0.833963 0.786533 0.072571
0.877109 0.766266 0.061877
0.906834 0.743800 0.057121
0.923001 0.722100 0.055431
0.923248 0.709450 0.054710
0.923960 0.689875 0.053963
0.924849 0.660606 0.053566
0.086239 0.598952 0.113518
0.086239 0.598952 0.113518
0.090233 0.599930 0.119103
0.096586 0.608798 0.119744
0.109389 0.637479 0.120738
0.151571 0.681857 0.122537
0.321808 0.737007 0.125461
0.560880 0.796990 0.125930
0.736175 0.828783 0.110085
0.827893 0.829955 0.087387
0.874250 0.813672 0.072380
0.904365 0.792144 0.064241
0.922641 0.779050 0.061144
0.922606 0.769794 0.059930
0.922768 0.755459 0.058273
0.922945 0.728652 0.055882
0.087369 0.607041 0.114357
0.087369 0.607041 0.114357
0.091121 0.608096 0.119671
0.097130 0.615530 0.120423
0.108792 0.641982 0.121424
0.143516 0.684401 0.123148
0.287406 0.737337 0.126182
0.528336 0.795968 0.127105
0.714262 0.834385 0.115928
0.815336 0.839725 0.094125
0.868062 0.827698 0.077258
0.899577 0.807496 0.067713
0.921045 0.792963 0.063289
0.922870 0.791805 0.063001
0.922870 0.791805 0.063001
0.922648 0.779652 0.061227
0.087369 0.607041 0.114357
0.087369 0.607041 0.114357
0.090810 0.608015 0.119333
0.096490 0.613851 0.120360
0.106894 0.637986 0.121311
0.134720 0.678164 0.122812
0.250301 0.728483 0.125704
0.491165 0.785627 0.127054
0.685489 0.830047 0.119744
0.797766 0.840344 0.098965
0.857928 0.831905 0.080581
0.891588 0.813183 0.069855
0.915044 0.796878 0.064338
0.922870 0.791805 0.063001
0.922870 0.791805 0.063001
0.922870 0.791805 0.063001
0.087369 0.607041 0.114357
0.087369 0.607041 0.114357
0.090354 0.607896 0.118804
0.095667 0.613138 0.120367
0.104647 0.633155 0.121156
0.124120 0.669276 0.122348
0.200875 0.715427 0.124777
0.432856 0.770250 0.126875
0.640714 0.822267 0.124012
0.771348 0.840890 0.105671
0.842856 0.837952 0.086034
0.880235 0.821897 0.073516
0.906390 0.802810 0.066118
0.922870 0.791805 0.063001
0.922870 0.791805 0.063001
0.922870 0.791805 0.063001
0.046282 0.086343 0.079779
0.046282 0.086343 0.079779
0.051600 0.087697 0.082186
0.066497 0.089686 0.087640
0.089128 0.091003 0.089883
0.128161 0.091699 0.090291
0.196974 0.090872 0.089247
0.308533 0.088208 0.086627
0.446569 0.086135 0.084780
0.552410 0.084638 0.083458
0.619954 0.083935 0.083001
0.668102 0.083489 0.082844
0.699598 0.083248 0.082775
0.699598 0.083248 0.082775
0.699598 0.083248 0.082775
0.699598 0.083248 0.082775
0.046282 0.086343 0.079779
0.046282 0.086343 0.079779
0.051600 0.087697 0.082186
0.066497 0.089686 0.087640
0.089128 0.091003 0.089883
0.128161 0.091699 0.090291
0.196974 0.090872 0.089247
0.308533 0.088208 0.086627
0.446569 0.086135 0.084780
0.552410 0.084638 0.083458
0.619954 0.083935 0.083001
0.668102 0.083489 0.082844
0.699598 0.083248 0.082775
0.699598 0.083248 0.082775
0.699598 0.083248 0.082775
0.699598 0.083248 0.082775
0.044203 0.095713 0.084257
0.044203 0.095713 0.084257
0.050006 0.096584 0.086536
0.066776 0.094067 0.089472
0.092142 0.096539 0.090504
0.136877 0.098600 0.090360
0.215781 0.099055 0.088364
0.334042 0.097854 0.085350
0.466978 0.096315 0.083318
0.574382 0.094633 0.081948
0.643580 0.093284 0.081590
0.686935 0.091933 0.081623
0.714597 0.090900 0.081699
0.713948 0.090437 0.081748
0.712922 0.089725 0.081826
0.711407 0.088730 0.081941
0.043736 0.119578 0.087976
0.043736 0.119578 0.087976
0.047616 0.120137 0.091010
0.071189 0.125706 0.093716
0.107946 0.126072 0.091623
0.176228 0.127929 0.086736
0.289939 0.131353 0.081344
0.421011 0.134910 0.078857
0.539992 0.134988 0.076947
0.653798 0.133501 0.076083
0.721916 0.130793 0.076285
0.757700 0.126523 0.076877
0.778238 0.122875 0.077380
0.775579 0.121146 0.077577
0.771132 0.118516 0.077896
0.764562 0.114773 0.078361
0.044091 0.146374 0.088986
0.044091 0.146374 0.088986
0.049215 0.146996 0.093464
0.075225 0.159095 0.095202
0.129369 0.164103 0.090119
0.222977 0.167191 0.078372
0.366991 0.180614 0.072685
0.493898 0.189929 0.071189
0.606102 0.191692 0.070603
0.705993 0.189637 0.070829
0.769780 0.185168 0.071827
0.802527 0.177044 0.072761
0.820897 0.169739 0.073443
0.819053 0.165920 0.073620
0.815767 0.160524 0.073933
0.809943 0.154192 0.074492
0.044088 0.181307 0.088849
0.044088 0.181307 0.088849
0.050389 0.182171 0.094903
0.082677 0.209336 0.094077
0.166468 0.225159 0.086297
0.282121 0.225803 0.065653
0.435506 0.251176 0.064430
0.556872 0.268063 0.065006
0.669056 0.272564 0.066155
0.750977 0.268083 0.067244
0.806108 0.260550 0.068538
0.834658 0.248384 0.069700
0.850145 0.236798 0.070534
0.847872 0.230714 0.070737
0.844271 0.221179 0.071048
0.839309 0.209747 0.071577
0.045451 0.234959 0.088537
0.045451 0.234959 0.088537
0.051983 0.236270 0.095615
0.085803 0.279119 0.093873
0.200427 0.310986 0.086796
0.346270 0.317424 0.061954
0.488295 0.339845 0.057656
0.616248 0.361990 0.059486
0.720938 0.368392 0.061656
0.793281 0.361721 0.063487
0.840970 0.349808 0.065001
0.866565 0.334487 0.066335
0.879066 0.319047 0.067452
0.876272 0.310608 0.067804
0.871826 0.297335 0.068349
0.865834 0.280094 0.069008
0.050869 0.305779 0.090401
0.050869 0.305779 0.090401
0.057002 0.306102 0.097821
0.078218 0.348753 0.097236
0.164934 0.386150 0.092987
0.340419 0.414127 0.084876
0.506040 0.434075 0.056896
0.653640 0.459832 0.054156
0.753162 0.465098 0.056309
0.821255 0.456343 0.058723
0.866227 0.441022 0.060728
0.892207 0.424646 0.062199
0.904704 0.407937 0.063439
0.902555 0.398449 0.063878
0.899111 0.383505 0.064549
0.892767 0.361493 0.065563
0.058430 0.379672 0.094016
0.058430 0.379672 0.094016
0.063914 0.378643 0.101296
0.075605 0.406807 0.102189
0.112375 0.439231 0.100218
0.242412 0.473825 0.097974
0.465446 0.513008 0.082878
0.647298 0.547422 0.055658
0.766497 0.560640 0.052237
0.833592 0.546948 0.053829
0.878341 0.528155 0.056046
0.906429 0.510219 0.057897
0.919813 0.492833 0.059308
0.918569 0.482478 0.059814
0.916556 0.466167 0.060597
0.912197 0.442019 0.061789
0.066539 0.449262 0.099054
0.066539 0.449262 0.099054
0.071358 0.447752 0.105789
0.079964 0.464091 0.107023
0.098027 0.493061 0.106447
0.169496 0.528033 0.105339
0.396422 0.581638 0.104247
0.614570 0.625047 0.078255
0.760779 0.645910 0.056358
0.835239 0.635212 0.051853
0.880044 0.611522 0.052263
0.910828 0.589946 0.054175
0.925588 0.572090 0.055622
0.925317 0.561395 0.056065
0.924864 0.544582 0.056788
0.922850 0.519032 0.058001
0.074906 0.515289 0.105028
0.074906 0.515289 0.105028
0.079127 0.513940 0.111065
0.086508 0.524072 0.111986
0.100915 0.552744 0.112074
0.153591 0.591509 0.112220
0.355846 0.643723 0.113019
0.601552 0.705363 0.104372
0.754611 0.724903 0.073084
0.833068 0.716694 0.058333
0.877837 0.693960 0.053140
0.909073 0.667763 0.052916
0.925124 0.647932 0.053607
0.925440 0.636024 0.053735
0.926013 0.617411 0.054072
0.926037 0.590380 0.054901
0.081793 0.566745 0.110208
0.081793 0.566745 0.110208
0.085708 0.566950 0.115789
0.092666 0.576570 0.116787
0.106745 0.607681 0.117532
0.159047 0.653004 0.118949
0.358871 0.709729 0.121145
0.597948 0.770971 0.118931
0.755165 0.793537 0.094940
0.833793 0.786566 0.072615
0.877074 0.766295 0.061885
0.906834 0.743800 0.057121
0.923002 0.722032 0.055426
0.923251 0.709344 0.054705
0.923965 0.689759 0.053959
0.924851 0.660502 0.053566
0.086239 0.598952 0.113518
0.086239 0.598952 0.113518
0.089894 0.599854 0.118745
0.096322 0.608072 0.119718
0.109000 0.636715 0.120717
0.150476 0.681207 0.122503
0.319357 0.736454 0.125443
0.559417 0.796604 0.125942
0.735547 0.828707 0.110199
0.827650 0.829969 0.087459
0.874169 0.813704 0.072402
0.904347 0.792157 0.064245
0.922641 0.779050 0.061144
0.922606 0.769761 0.059926
0.922769 0.755411 0.058268
0.922945 0.728581 0.055877
0.087369 0.607041 0.114357
0.087369 0.607041 0.114357
0.090817 0.608017 0.119340
0.096898 0.614889 0.120399
0.108456 0.641289 0.121404
0.142626 0.683798 0.123116
0.285178 0.736820 0.126157
0.526970 0.795586 0.127104
0.713589 0.834289 0.116027
0.815068 0.839735 0.094201
0.867965 0.827737 0.077288
0.899534 0.807526 0.067724
0.921031 0.792972 0.063291
0.922870 0.791805 0.063001
0.922870 0.791805 0.063001
0.922647 0.779623 0.061223
0.087369 0.607041 0.114357
0.087369 0.607041 0.114357
0.090554 0.607949 0.119040
0.096313 0.613704 0.120362
0.106622 0.637398 0.121295
0.134030 0.677646 0.122785
0.248476 0.728032 0.125676
0.489918 0.785287 0.127052
0.684852 0.829945 0.119819
0.797510 0.840352 0.099033
0.857832 0.831946 0.080615
0.891541 0.813218 0.069869
0.915024 0.796891 0.064342
0.922870 0.791805 0.063001
0.922870 0.791805 0.063001
0.922870 0.791805 0.063001
0.087369 0.607041 0.114357
0.087369 0.607041 0.114357
0.090174 0.607848 0.118584
0.095552 0.613033 0.120368
0.104529 0.632915 0.121145
0.123938 0.668990 0.122338
0.199896 0.715117 0.124755
0.431861 0.769995 0.126871
0.640201 0.822171 0.124050
0.771145 0.840892 0.105720
0.842765 0.837971 0.086063
0.880196 0.821928 0.073530
0.906371 0.802823 0.066122
0.922870 0.791805 0.063001
0.922870 0.791805 0.063001
0.922870 0.791805 0.063001
0.047066 0.086260 0.082811
0.047066 0.086260 0.082811
0.052147 0.088722 0.085248
0.066732 0.090400 0.089451
0.089762 0.092226 0.094968
0.129898 0.093432 0.097029
0.202858 0.092800 0.097575
0.320524 0.089648 0.095864
0.460516 0.087122 0.094537
0.568055 0.085783 0.093605
0.635434 0.084935 0.092736
0.681010 0.084193 0.091753
0.710493 0.083779 0.090944
0.709971 0.083789 0.090435
0.709140 0.083806 0.089655
0.707903 0.083830 0.088563
0.047066 0.086260 0.082811
0.047066 0.086260 0.082811
0.052147 0.088722 0.085248
0.066762 0.090354 0.089288
0.089715 0.092177 0.094543
0.129746 0.093368 0.096421
0.202333 0.092748 0.096787
0.319455 0.089649 0.094945
0.459310 0.087167 0.093532
0.566678 0.085812 0.092545
0.634126 0.084958 0.091713
0.679937 0.084214 0.090811
0.709608 0.083796 0.090090
0.709159 0.083805 0.089672
0.708450 0.083819 0.089036
0.707405 0.083840 0.088147
0.048320 0.096322 0.086832
0.048320 0.096322 0.086832
0.053400 0.097530 0.089070
0.068636 0.098167 0.093700
0.092166 0.099915 0.097390
0.134234 0.100910 0.097749
0.208165 0.100260 0.096502
0.324054 0.097799 0.093741
0.459424 0.095799 0.091871
0.567222 0.094356 0.090584
0.636132 0.093440 0.090114
0.681278 0.092627 0.089915
0.710555 0.092107 0.089797
0.710555 0.092107 0.089797
0.710555 0.092107 0.089797
0.710555 0.092107 0.089797
0.043759 0.119524 0.091960
0.043756 0.119527 0.091684
0.048934 0.120733 0.096575
0.072109 0.126693 0.100686
0.108326 0.127294 0.098485
0.173483 0.128259 0.093890
0.282055 0.130349 0.088864
0.411623 0.132692 0.086065
0.531789 0.132516 0.084029
0.645802 0.131241 0.083004
0.714810 0.129089 0.083072
0.751501 0.125519 0.083542
0.772909 0.122525 0.083947
0.771342 0.121321 0.084084
0.768349 0.119490 0.084341
0.764030 0.116921 0.084706
0.044196 0.146475 0.094467
0.044185 0.146468 0.093978
0.049236 0.147140 0.098103
0.075322 0.159158 0.101979
0.129859 0.165235 0.096798
0.221856 0.167703 0.085400
0.362193 0.179124 0.079498
0.488890 0.187349 0.077896
0.600851 0.188745 0.077108
0.702208 0.186797 0.077220
0.766436 0.182926 0.078181
0.799592 0.175493 0.079069
0.818289 0.168836 0.079715
0.816661 0.165684 0.079878
0.814113 0.160810 0.080128
0.808963 0.155515 0.080630
0.044246 0.181410 0.096576
0.044230 0.181401 0.095825
0.049326 0.181748 0.098886
0.080645 0.207599 0.100990
0.163366 0.224987 0.093010
0.281266 0.226654 0.072512
0.432708 0.249861 0.070666
0.553463 0.265459 0.071134
0.665546 0.269310 0.072159
0.748255 0.264749 0.073201
0.803753 0.257567 0.074571
0.832738 0.245895 0.075741
0.848517 0.234807 0.076560
0.846426 0.229278 0.076756
0.843136 0.220668 0.077058
0.838449 0.210081 0.077564
0.045600 0.234559 0.098441
0.045583 0.234594 0.097438
0.050286 0.234702 0.099360
0.082183 0.274868 0.100743
0.193361 0.309363 0.092891
0.341838 0.316763 0.068221
0.486310 0.339070 0.063343
0.613471 0.359950 0.065178
0.718350 0.365721 0.067344
0.791085 0.358813 0.069168
0.839093 0.346964 0.070750
0.864976 0.331873 0.072166
0.877664 0.316738 0.073297
0.874971 0.308726 0.073650
0.870714 0.296195 0.074185
0.864959 0.279747 0.074858
0.050974 0.304864 0.100914
0.050960 0.304945 0.099808
0.055130 0.304633 0.101149
0.076720 0.343472 0.103558
0.158836 0.383859 0.098409
0.334718 0.413469 0.090765
0.502711 0.432977 0.062239
0.651335 0.458507 0.059374
0.751140 0.463138 0.061601
0.819638 0.454133 0.064079
0.864980 0.438740 0.066142
0.891206 0.422375 0.067711
0.903735 0.405758 0.069027
0.901590 0.396509 0.069492
0.898172 0.382015 0.070203
0.892092 0.360832 0.071237
0.058473 0.378624 0.103624
0.058464 0.378716 0.102570
0.062160 0.378038 0.103990
0.075881 0.402304 0.107953
0.110530 0.436632 0.105348
0.236203 0.472136 0.102619
0.460775 0.512156 0.088271
0.643847 0.545924 0.060455
0.764784 0.559314 0.056994
0.832428 0.545406 0.058747
0.877551 0.526468 0.061101
0.905902 0.508506 0.063064
0.919308 0.491161 0.064559
0.918039 0.480930 0.065087
0.915995 0.464885 0.065902
0.911721 0.441254 0.067151
0.066521 0.448041 0.107569
0.066518 0.448147 0.106608
0.069809 0.447427 0.108125
0.080492 0.460656 0.112323
0.097919 0.489849 0.111291
0.165583 0.525838 0.109639
0.388380 0.579506 0.108239
0.609834 0.623892 0.083218
0.758464 0.644656 0.060633
0.834183 0.634126 0.056236
0.879435 0.610257 0.056868
0.910506 0.588645 0.059003
0.925328 0.570825 0.060579
0.925040 0.560213 0.061063
0.924563 0.543601 0.061840
0.922573 0.518441 0.063117
0.074865 0.514120 0.112617
0.074865 0.514220 0.111752
0.077808 0.513600 0.113298
0.087010 0.521460 0.116875
0.101074 0.549237 0.116497
0.150479 0.588973 0.116048
0.346212 0.641389 0.116504
0.594719 0.703621 0.108668
0.751555 0.723638 0.077122
0.831768 0.715867 0.062246
0.877203 0.693036 0.057266
0.908701 0.666556 0.057319
0.924895 0.646723 0.058201
0.925216 0.634905 0.058391
0.925788 0.616507 0.058814
0.925824 0.589793 0.059751
0.081797 0.566056 0.117080
0.081793 0.566114 0.116304
0.084606 0.566513 0.118032
0.093183 0.574613 0.121373
0.106967 0.604372 0.121613
0.156313 0.650462 0.122411
0.349345 0.707447 0.124245
0.590253 0.768850 0.122451
0.751584 0.792455 0.098796
0.832183 0.785970 0.076296
0.876312 0.765622 0.065680
0.906407 0.742925 0.061092
0.922730 0.720985 0.059611
0.922983 0.708274 0.058959
0.923698 0.688718 0.058323
0.924606 0.659715 0.058089
0.086248 0.598407 0.119647
0.086245 0.598452 0.118964
0.088972 0.599347 0.120959
0.096943 0.606715 0.124130
0.109421 0.633985 0.124658
0.148860 0.678881 0.125854
0.311735 0.734733 0.128392
0.552625 0.794688 0.128879
0.731810 0.827905 0.113812
0.825866 0.829605 0.091069
0.873379 0.813409 0.076038
0.903902 0.791820 0.068062
0.922364 0.778542 0.065087
0.922325 0.769145 0.063901
0.922486 0.754650 0.062296
0.922672 0.727866 0.060047
0.087375 0.606526 0.119954
0.087372 0.606567 0.119357
0.090076 0.607528 0.121685
0.097658 0.614015 0.124790
0.109117 0.639062 0.125346
0.141966 0.681734 0.126506
0.279610 0.735504 0.129100
0.521093 0.794063 0.129999
0.709768 0.833514 0.119508
0.813227 0.839440 0.097753
0.867133 0.827577 0.080875
0.899066 0.807335 0.071487
0.920760 0.792647 0.067191
0.922601 0.791474 0.066911
0.922601 0.791474 0.066911
0.922371 0.779276 0.065185
0.087372 0.606567 0.119343
0.087370 0.606602 0.118856
0.090076 0.607528 0.121685
0.097262 0.612983 0.124767
0.107628 0.635822 0.125294
0.134531 0.675983 0.126283
0.245696 0.727223 0.128671
0.484709 0.784151 0.129958
0.680989 0.829069 0.123167
0.795575 0.839968 0.102520
0.856923 0.831782 0.084155
0.891035 0.812982 0.073563
0.914718 0.796601 0.068200
0.922601 0.791474 0.066911
0.922601 0.791474 0.066911
0.922601 0.791474 0.066911
0.087369 0.606630 0.118485
0.087368 0.606655 0.118157
0.090076 0.607528 0.121685
0.096717 0.612178 0.124780
0.105620 0.631311 0.125226
0.124860 0.667621 0.125966
0.200760 0.715103 0.127867
0.427946 0.769502 0.129802
0.636427 0.821170 0.127191
0.769136 0.840369 0.109086
0.841668 0.837671 0.089521
0.879657 0.821604 0.077109
0.906025 0.802580 0.069920
0.922601 0.791474 0.066911
0.922601 0.791474 0.066911
0.922601 0.791474 0.066911
0.043110 0.088083 0.098962
0.043110 0.088083 0.098962
0.048119 0.092003 0.099814
0.063706 0.093633 0.109858
0.091900 0.094260 0.117897
0.137781 0.095801 0.120965
0.227089 0.094979 0.124772
0.368982 0.091539 0.128293
0.516992 0.088944 0.132346
0.635393 0.088043 0.134732
0.697372 0.087208 0.132432
0.735432 0.086242 0.128491
0.758687 0.085557 0.125163
0.756315 0.085450 0.123174
0.752552 0.085283 0.120085
0.747000 0.085050 0.115688
0.043110 0.088083 0.098962
0.043110 0.088083 0.098962
0.047225 0.091369 0.099612
0.063706 0.093633 0.109858
0.091864 0.094215 0.117403
0.137517 0.095753 0.120213
0.226316 0.094927 0.123746
0.367825 0.091506 0.126985
0.515917 0.088926 0.130793
0.634213 0.088029 0.133054
0.695990 0.087166 0.130858
0.733748 0.086166 0.127132
0.757225 0.085491 0.123933
0.754971 0.085390 0.122062
0.751409 0.085232 0.119164
0.746181 0.085017 0.115055
0.045622 0.093067 0.098057
0.045357 0.092588 0.098122
0.051643 0.098061 0.099347
0.066822 0.102686 0.107761
0.093832 0.102598 0.118493
0.138948 0.103497 0.120002
0.223673 0.102163 0.121479
0.357572 0.098552 0.122435
0.501590 0.095971 0.124453
0.619772 0.095015 0.126137
0.686010 0.094135 0.124884
0.725387 0.093122 0.122290
0.750023 0.092472 0.120023
0.748658 0.092449 0.118796
0.746535 0.092413 0.116922
0.743481 0.092362 0.114299
0.054473 0.122663 0.105749
0.054473 0.122663 0.105749
0.058598 0.123944 0.107732
0.074463 0.127662 0.114283
0.107624 0.128009 0.118320
0.165134 0.125636 0.114271
0.256375 0.122798 0.110378
0.382344 0.120270 0.107216
0.510969 0.118698 0.105429
0.630047 0.118634 0.104792
0.702270 0.117921 0.104649
0.740746 0.115951 0.104398
0.764404 0.114586 0.104237
0.764396 0.114581 0.104235
0.764391 0.114578 0.104234
0.764389 0.114576 0.104234
0.045618 0.149449 0.118232
0.045460 0.149337 0.117869
0.050362 0.149845 0.119278
0.071368 0.159453 0.121509
0.133705 0.170369 0.115081
0.236136 0.169552 0.102801
0.358815 0.171083 0.097525
0.477060 0.172917 0.095927
0.586999 0.172401 0.094847
0.693341 0.172463 0.094866
0.759372 0.171301 0.095738
0.792660 0.165517 0.096306
0.811733 0.160314 0.096702
0.810528 0.158476 0.096865
0.808667 0.155664 0.097115
0.806016 0.151716 0.097468
0.044779 0.185460 0.124624
0.044762 0.185303 0.123793
0.049306 0.184839 0.124136
0.071178 0.202015 0.121280
0.155447 0.232537 0.110650
0.304386 0.238868 0.086889
0.447584 0.251722 0.085944
0.555878 0.256488 0.086492
0.661783 0.255183 0.087311
0.744250 0.250706 0.088424
0.800605 0.246063 0.090113
0.830053 0.235605 0.091243
0.846225 0.225554 0.091967
0.844557 0.221190 0.092181
0.841956 0.214447 0.092509
0.838198 0.204849 0.092966
0.046520 0.237533 0.129826
0.046475 0.237347 0.128690
0.050350 0.236061 0.127741
0.070326 0.259156 0.121508
0.158852 0.308055 0.110277
0.334681 0.326468 0.085062
0.497430 0.348084 0.076490
0.621197 0.359322 0.078754
0.718955 0.358041 0.081087
0.788506 0.348410 0.083075
0.836345 0.337295 0.085054
0.862537 0.322679 0.086680
0.875640 0.308126 0.087817
0.873275 0.301061 0.088173
0.869554 0.290070 0.088714
0.864123 0.274296 0.089468
0.051796 0.305098 0.132844
0.051745 0.304970 0.131544
0.055087 0.303590 0.129960
0.070296 0.324513 0.122251
0.128600 0.374352 0.114030
0.304245 0.415656 0.107456
0.496224 0.437482 0.075639
0.654956 0.461870 0.071646
