assets/luts/LUTs/Mavic_2_Pro_5500K_10_Bit_h265_-_CineTeal4.CUBE
LUT_3D_SIZE 6
-0.115952 -0.118327 -0.120754
0.139409 -0.119949 -0.102568
0.517146 -0.120844 -0.041319
0.883275 -0.121506 0.024780
1.101285 -0.122169 0.065740
1.228511 -0.122683 0.071080
-0.089982 0.081093 -0.112621
0.152502 0.095471 -0.093510
0.566884 0.017194 -0.035910
0.906437 0.000000 0.029163
1.114269 0.000000 0.067722
1.242317 0.000000 0.071086
-0.035740 0.353409 -0.059016
0.213122 0.364148 -0.034110
0.617990 0.377142 -0.077919
1.003130 0.166414 0.017422
1.179076 0.000053 0.074467
1.278474 0.000000 0.071447
-0.121367 0.648074 -0.126192
0.000000 0.651041 -0.126227
0.534472 0.656049 -0.123013
0.955059 0.609168 -0.058583
1.211653 0.402648 0.011458
1.354265 0.176304 0.046974
-0.122496 0.830995 -0.127326
0.000000 0.831489 -0.127348
0.502154 0.836570 -0.053970
0.781616 0.827944 0.173028
1.088432 0.749088 -0.023118
1.307333 0.576819 -0.017534
-0.123384 0.903365 -0.128218
0.112230 0.902803 -0.115676
0.475279 0.907365 0.066568
0.697917 0.911504 0.238049
0.902915 0.900238 0.332339
1.146504 0.832582 0.036143
-0.117042 -0.114160 0.071504
0.110159 -0.119167 0.088300
0.447689 -0.120908 0.203381
0.872503 -0.121537 0.128099
1.103026 -0.122186 0.166644
1.230236 -0.122694 0.171177
-0.118456 0.089787 0.060085
0.121801 0.090930 0.070537
0.605082 0.001730 0.107536
0.972615 0.000000 0.150483
1.176044 0.000000 0.171156
1.285366 0.000000 0.171205
-0.066207 0.351573 0.090041
0.139802 0.378141 0.080948
0.602841 0.384941 0.046849
1.045610 0.165191 0.130772
1.231766 0.000135 0.174360
1.321713 0.000000 0.172172
-0.121381 0.646326 0.000000
0.000000 0.666765 0.000000
0.526464 0.673465 0.009213
0.946768 0.617321 0.054006
1.233905 0.421582 0.115261
1.378794 0.228671 0.142197
-0.122504 0.830098 0.000000
0.000000 0.838648 0.000000
0.493156 0.844660 0.097535
0.776944 0.836619 0.300765
1.080671 0.756784 0.103412
1.314814 0.590092 0.090064
-0.123389 0.903153 0.004187
0.291173 0.903966 0.165049
0.531631 0.909746 0.285808
0.723249 0.914562 0.397654
0.907506 0.904839 0.469367
1.115992 0.845423 0.295770
-0.117641 -0.105779 0.247084
0.131844 -0.114071 0.277360
0.379509 -0.120201 0.383114
0.722081 -0.121697 0.576064
0.992965 -0.122284 0.570297
1.149983 -0.122759 0.412247
-0.118390 0.134510 0.201472
0.012858 0.112987 0.324022
0.458830 0.000808 0.466529
0.814552 0.000000 0.646540
1.055314 0.000000 0.585912
1.195907 0.000000 0.434289
-0.120334 0.352543 0.285130
0.000000 0.368663 0.298065
0.483611 0.371711 0.318052
0.937741 0.136875 0.337995
1.151276 0.016832 0.339330
1.261912 0.005818 0.341464
-0.121457 0.639394 0.155497
0.000000 0.655779 0.170749
0.433282 0.672607 0.283932
0.884778 0.634384 0.185900
1.191949 0.454945 0.109474
1.326536 0.349791 0.127429
-0.122551 0.824905 0.036859
0.000000 0.832330 0.097593
0.462732 0.841609 0.316961
0.768907 0.848942 0.463916
1.030201 0.782765 0.301173
1.263289 0.627470 0.084438
-0.123419 0.899678 0.126773
0.220440 0.898978 0.243896
0.608346 0.908785 0.471676
0.772967 0.919796 0.563014
0.914427 0.913885 0.612244
1.069526 0.867480 0.504253
-0.118096 -0.092766 0.535366
0.043813 -0.096288 0.580075
0.456629 -0.120721 0.598829
0.673110 -0.121234 0.755232
0.908342 -0.122195 0.891664
1.044602 -0.122887 0.807780
-0.118499 0.142867 0.514212
0.000000 0.114821 0.665481
0.529282 0.000020 0.730965
0.752373 0.000509 0.861507
0.959532 0.000381 0.947757
1.077333 0.000000 0.841930
-0.119908 0.400007 0.460066
0.000000 0.445142 0.525349
0.282482 0.384733 0.707628
0.791008 0.139315 0.820502
1.014041 0.004945 0.872358
1.133405 0.000145 0.789587
-0.121544 0.637216 0.574921
0.000000 0.650889 0.589590
0.018225 0.635034 0.557707
0.771405 0.655584 0.626716
1.031969 0.555545 0.644130
1.133922 0.526186 0.659925
-0.122644 0.813944 0.380166
0.000000 0.819837 0.391545
0.084428 0.817275 0.427423
0.753283 0.845526 0.639620
0.964756 0.820452 0.647470
1.103436 0.722795 0.571468
-0.123481 0.893230 0.305623
0.000000 0.892199 0.347664
0.497433 0.893033 0.517710
0.806495 0.917470 0.699731
0.925489 0.923053 0.753978
1.028171 0.892138 0.715179
-0.118545 -0.081422 0.793506
0.000000 -0.081213 0.815468
0.427128 -0.111833 0.885982
0.696188 -0.121961 0.890717
0.866078 -0.121303 1.000404
0.977073 -0.121742 1.033086
-0.118800 0.049873 0.801557
0.000000 0.041319 0.890369
0.446772 0.007045 0.960227
0.745439 0.000000 0.958589
0.907073 0.000510 1.048932
1.003526 0.001323 1.061325
-0.119849 0.426968 0.722609
0.000000 0.453892 0.787434
0.171383 0.376659 0.942914
0.770930 0.176174 0.988152
0.938226 0.032026 1.049232
1.041400 0.000356 1.036887
-0.121239 0.637624 0.714479
0.000000 0.661645 0.742444
0.000000 0.666689 0.753646
0.624749 0.649813 0.888798
0.931604 0.576112 0.912674
1.050460 0.540086 0.882435
-0.122728 0.804033 0.773215
0.000000 0.809419 0.781307
0.000000 0.804921 0.773508
0.328431 0.777231 0.721561
0.926056 0.842317 0.830194
1.018477 0.801458 0.824784
-0.123579 0.880091 0.538924
0.000000 0.878905 0.561935
0.146390 0.870888 0.594593
0.687835 0.880608 0.708837
0.934351 0.926460 0.850834
1.007107 0.913000 0.845349
-0.118891 -0.076615 0.910546
0.000000 -0.076303 0.919605
0.276045 -0.097404 0.986106
0.633574 -0.120885 0.981297
0.812737 -0.122614 1.010037
0.950511 -0.120562 1.150744
-0.119062 0.037716 0.920567
0.000000 0.042431 0.950240
0.314388 0.016431 1.015680
0.664205 0.000146 1.006636
0.836900 0.000003 1.040721
0.965407 0.001449 1.181598
-0.119853 0.361477 0.886343
0.000000 0.392829 0.901580
0.159495 0.377159 1.012806
0.708159 0.269671 1.056144
0.879456 0.142994 1.051291
0.991603 0.024423 1.140815
-0.120998 0.592476 0.822616
0.000000 0.612214 0.819802
0.000674 0.631729 0.865005
0.639628 0.661188 0.977487
0.882891 0.636147 0.965787
0.980125 0.576798 0.987091
-0.122303 0.758225 0.826595
0.000000 0.764723 0.819848
0.000000 0.771819 0.807333
0.248051 0.751065 0.808665
0.896670 0.840172 0.910642
0.980625 0.810898 0.918494
-0.123682 0.874871 0.873387
0.000000 0.872574 0.871323
0.000014 0.862998 0.852859
0.441077 0.835739 0.796012
0.885313 0.907775 0.882856
0.997023 0.922771 0.917580
