assets/luts/LUTs/Mavic3 EXPLORER.CUBE
LUT_3D_SIZE 6
-0.003135 -0.003135 -0.003135
0.072260 -0.003144 -0.003144
0.380512 -0.003358 -0.003358
0.819718 -0.003936 -0.003936
0.972213 -0.004589 -0.004589
1.002616 -0.004868 -0.004868
-0.003171 0.076448 -0.003171
0.072499 0.076448 -0.003180
0.380527 0.119758 -0.003389
0.819753 0.159377 -0.003965
0.972204 0.150413 -0.004600
1.002614 0.143399 -0.004857
-0.003833 0.388846 -0.003833
0.114114 0.388862 -0.003833
0.383241 0.388856 -0.004001
0.819735 0.498147 -0.004554
0.972230 0.460014 -0.005167
1.002615 0.436646 -0.005433
-0.005283 0.822733 -0.005283
0.150811 0.822763 -0.005264
0.491529 0.822733 -0.005415
0.819326 0.822732 -0.005717
0.972207 0.752571 -0.006248
1.002526 0.712683 -0.006426
-0.006625 0.972487 -0.006625
0.142656 0.972486 -0.006625
0.454327 0.972498 -0.006736
0.749383 0.972486 -0.006975
0.971666 0.972484 -0.007253
1.002558 0.918633 -0.007446
-0.007178 1.002616 -0.007178
0.136085 1.002615 -0.007178
0.431593 1.002615 -0.007277
0.710156 1.002586 -0.007493
0.917930 1.002585 -0.007767
1.002612 1.002614 -0.007878
-0.003138 -0.003138 0.072260
0.072259 -0.003147 0.072259
0.380511 -0.003360 0.113297
0.819744 -0.003929 0.150517
0.972210 -0.004577 0.141891
1.002616 -0.004879 0.135207
-0.003174 0.076448 0.072499
0.071806 0.076783 0.071287
0.503269 0.036211 0.025359
0.915499 0.015370 0.015319
0.996244 0.018661 0.018133
1.002796 0.077320 0.068777
-0.003833 0.388846 0.114102
0.004449 0.464642 0.004449
0.396607 0.402126 0.001796
0.861662 0.470254 -0.002261
0.987719 0.411276 -0.003796
1.002771 0.420150 0.068707
-0.005283 0.822733 0.150393
0.001165 0.856628 0.001165
0.451585 0.840551 -0.004165
0.825889 0.829248 -0.004589
0.978322 0.738455 -0.005359
1.002701 0.706468 0.068665
-0.006625 0.972487 0.141754
-0.004296 0.981987 -0.004296
0.400967 0.978570 -0.006063
0.732720 0.975983 -0.006338
0.973597 0.974344 -0.006653
1.002634 0.917121 0.068511
-0.007178 1.002615 0.135155
0.068594 1.002761 0.068594
0.414838 1.002714 0.068552
0.703849 1.002678 0.068595
0.916409 1.002662 0.068518
1.002615 1.002616 0.068704
-0.003208 -0.003208 0.364715
0.111729 -0.003220 0.364715
0.380522 -0.003422 0.369851
0.819719 -0.004001 0.479633
0.972213 -0.004647 0.444249
1.002616 -0.004921 0.422006
-0.003254 0.118088 0.364714
0.053035 0.065582 0.489241
0.466002 0.023742 0.455386
0.907806 0.013864 0.486221
0.996173 0.013599 0.410360
1.002796 0.072730 0.404638
-0.003878 0.388835 0.372464
0.010152 0.429073 0.412895
0.380228 0.390995 0.359416
0.905397 0.309658 0.274289
0.999997 0.282013 0.259802
1.002813 0.366024 0.348766
-0.005321 0.822733 0.479399
-0.004139 0.850799 0.444542
0.166314 0.879215 0.128023
0.835486 0.838946 0.090066
0.993889 0.685287 0.074942
1.002774 0.687947 0.348588
-0.006653 0.972487 0.443990
-0.006031 0.980991 0.391159
0.073430 0.995233 0.060816
0.658986 0.985975 0.047461
0.978262 0.978879 0.041332
1.002689 0.912402 0.343833
-0.007203 1.002615 0.421990
0.068587 1.002748 0.404922
0.355582 1.002782 0.343994
0.683985 1.002728 0.343949
0.911612 1.002678 0.343808
1.002636 1.002638 0.344262
-0.003433 -0.003433 0.813802
0.151033 -0.003422 0.813834
0.492160 -0.003671 0.813802
0.819718 -0.004159 0.813155
0.972213 -0.004792 0.744498
1.002527 -0.005036 0.705235
-0.003459 0.159510 0.813837
0.028892 0.043600 0.925174
0.513636 0.016683 0.913497
0.895859 0.010882 0.891236
0.995014 0.009996 0.749214
1.002796 0.072746 0.698842
-0.004152 0.498538 0.813813
0.007750 0.492737 0.891558
0.346905 0.357367 0.894434
0.886168 0.286016 0.880026
0.999996 0.262000 0.713886
1.002816 0.370932 0.681313
-0.005433 0.822733 0.812767
-0.004270 0.845008 0.835769
0.143878 0.857336 0.847452
0.819605 0.823193 0.812693
0.996408 0.770476 0.764809
1.002815 0.813819 0.809690
-0.006736 0.972487 0.744078
-0.006125 0.979738 0.730523
0.056570 0.991889 0.664543
0.632179 0.988833 0.625475
0.976484 0.977255 0.535634
1.002741 0.942087 0.803674
-0.007277 1.002582 0.705257
0.068610 1.002735 0.698890
0.359124 1.002766 0.679608
0.803269 1.002831 0.800399
0.940692 1.002747 0.800296
1.002681 1.002682 0.800648
-0.003718 -0.003718 0.971697
0.142909 -0.003711 0.971675
0.455065 -0.003936 0.971706
0.750585 -0.004434 0.971691
0.972209 -0.004963 0.970676
1.002615 -0.005206 0.916621
-0.003742 0.150573 0.971680
0.036065 0.041742 0.999997
0.436908 0.017617 0.999621
0.759094 0.016570 0.997391
0.993473 0.007456 0.993161
1.002794 0.072673 0.915150
-0.004446 0.460496 0.971713
0.014432 0.426629 0.996883
0.331820 0.338304 0.999997
0.728156 0.294817 0.999971
0.999380 0.228866 0.999225
1.002819 0.368570 0.910735
-0.005700 0.753351 0.971686
-0.004748 0.744977 0.985633
0.185392 0.707432 0.999725
0.796593 0.798352 0.995094
0.991500 0.758205 0.990849
1.002832 0.813768 0.942302
-0.006843 0.972485 0.970135
-0.006278 0.978856 0.977051
0.053049 0.989311 0.988410
0.649940 0.982140 0.980487
0.972161 0.972569 0.971402
1.002742 0.972298 0.971625
-0.007374 1.002615 0.916617
0.068557 1.002725 0.915100
0.359102 1.002751 0.910446
0.806790 1.002801 0.940752
0.971499 1.002753 0.971051
1.002658 1.002660 0.971101
-0.003848 -0.003848 1.002613
0.136152 -0.003863 1.002610
0.431613 -0.004077 1.002613
0.710107 -0.004542 1.002525
0.917906 -0.005046 1.002524
1.002615 -0.005302 1.002612
-0.003863 0.143413 1.002612
0.068788 0.077342 1.002790
0.414649 0.072757 1.002796
0.703823 0.072727 1.002787
0.916503 0.072669 1.002779
1.002619 0.072749 1.002616
-0.004589 0.436650 1.002613
0.068748 0.420204 1.002786
0.359482 0.365412 1.002821
0.685660 0.367462 1.002821
0.912107 0.367367 1.002821
1.002642 0.367520 1.002639
-0.005802 0.712627 1.002495
0.068694 0.706511 1.002772
0.359361 0.687826 1.002820
0.807057 0.808520 1.002866
0.942263 0.810254 1.002866
1.002684 0.810357 1.002681
-0.006923 0.918607 1.002525
0.068578 0.917205 1.002719
0.359141 0.912692 1.002769
0.806841 0.942220 1.002841
0.971635 0.971873 1.002760
1.002658 0.971924 1.002655
-0.007422 1.002615 1.002610
0.068720 1.002618 1.002613
0.359455 1.002640 1.002635
0.807070 1.002684 1.002679
0.971638 1.002660 1.002655
1.002613 1.002614 1.002610
