assets/luts/LUTs/Mavic3 CINEMA.CUBE
LUT_3D_SIZE 6
0.046282 0.086343 0.079779
0.066497 0.089686 0.087640
0.196974 0.090872 0.089247
0.552410 0.084638 0.083458
0.699598 0.083248 0.082775
0.699598 0.083248 0.082775
0.043736 0.119578 0.087976
0.071189 0.125706 0.093716
0.292270 0.132563 0.081036
0.655590 0.135047 0.075901
0.779588 0.124082 0.077262
0.765595 0.115348 0.078289
0.045451 0.234959 0.088537
0.088125 0.280313 0.093621
0.488295 0.339845 0.057656
0.793582 0.362509 0.063451
0.879339 0.319875 0.067416
0.865983 0.280514 0.068993
0.066539 0.449262 0.099054
0.080309 0.464968 0.107008
0.398658 0.582141 0.104223
0.835239 0.635212 0.051853
0.925595 0.572332 0.055612
0.922873 0.519231 0.057991
0.086239 0.598952 0.113518
0.096586 0.608798 0.119744
0.321808 0.737007 0.125461
0.827893 0.829955 0.087387
0.922641 0.779050 0.061144
0.922945 0.728652 0.055882
0.087369 0.607041 0.114357
0.095667 0.613138 0.120367
0.200875 0.715427 0.124777
0.771348 0.840890 0.105671
0.906390 0.802810 0.066118
0.922870 0.791805 0.063001
0.043110 0.088083 0.098962
0.063706 0.093633 0.109858
0.227089 0.094979 0.124772
0.635393 0.088043 0.134732
0.758687 0.085557 0.125163
0.747000 0.085050 0.115688
0.054473 0.122663 0.105749
0.074463 0.127662 0.114283
0.256375 0.122798 0.110378
0.630047 0.118634 0.104792
0.764404 0.114586 0.104237
0.764389 0.114576 0.104234
0.046520 0.237533 0.129826
0.070326 0.259156 0.121508
0.497430 0.348084 0.076490
0.788506 0.348410 0.083075
0.875640 0.308126 0.087817
0.864123 0.274296 0.089468
0.066920 0.446886 0.134930
0.078289 0.453039 0.126958
0.364196 0.576041 0.118784
0.832778 0.632544 0.067081
0.925031 0.567269 0.072817
0.922414 0.516262 0.075696
0.086674 0.598953 0.140904
0.095776 0.604563 0.137244
0.288394 0.728650 0.136252
0.821348 0.829289 0.100589
0.921772 0.777260 0.075046
0.922157 0.726390 0.070529
0.087657 0.606798 0.135414
0.096793 0.612659 0.137743
0.200276 0.712394 0.136286
0.762677 0.839199 0.118170
0.905344 0.802264 0.079635
0.922020 0.790680 0.076803
0.039831 0.098995 0.187909
0.066790 0.111502 0.202812
0.357436 0.098066 0.284640
0.725687 0.091422 0.337809
0.820472 0.088464 0.307374
0.811763 0.087699 0.275648
0.054510 0.153509 0.187895
0.062629 0.144467 0.194376
0.387913 0.126472 0.294853
0.729159 0.119466 0.316330
0.826831 0.116213 0.287014
0.820925 0.115515 0.258873
0.122979 0.275712 0.224509
0.130763 0.283567 0.231766
0.418747 0.372177 0.273740
0.800294 0.317471 0.204646
0.902235 0.332904 0.225611
0.902205 0.332762 0.225578
0.081468 0.467987 0.334875
0.086778 0.466222 0.312973
0.193420 0.582073 0.211514
0.861179 0.686404 0.137093
0.933376 0.626308 0.167681
0.932536 0.590512 0.176479
0.097455 0.626603 0.320944
0.102686 0.623559 0.298884
0.170868 0.736141 0.240102
0.839503 0.869930 0.171248
0.934800 0.825404 0.155031
0.933685 0.784532 0.150516
0.095242 0.627562 0.279747
0.101317 0.625698 0.264718
0.169311 0.742616 0.241193
0.784544 0.876762 0.182652
0.923054 0.848250 0.159893
0.935547 0.838880 0.157055
0.042950 0.125930 0.350726
0.069303 0.140101 0.393334
0.448940 0.105907 0.518821
0.780466 0.098169 0.544889
0.869268 0.097096 0.504761
0.859862 0.095094 0.461679
0.060786 0.206525 0.373970
0.064400 0.185444 0.374684
0.407052 0.140454 0.525261
0.780551 0.126764 0.542037
0.870118 0.124253 0.494779
0.861742 0.122276 0.452043
0.141023 0.378360 0.431405
0.138960 0.371757 0.433100
0.169840 0.382318 0.492025
0.833960 0.322171 0.588851
0.929600 0.356747 0.543509
0.924342 0.358781 0.506309
0.277522 0.567454 0.490175
0.279991 0.567662 0.487476
0.325261 0.648993 0.526611
0.828314 0.773960 0.634157
0.924620 0.748270 0.615794
0.924629 0.748209 0.615801
0.243764 0.700388 0.537894
0.227580 0.699547 0.534854
0.184335 0.774185 0.571143
0.788715 0.935621 0.633403
0.931252 0.888423 0.576891
0.926408 0.864639 0.579183
0.163531 0.694200 0.517047
0.151767 0.692630 0.510672
0.156076 0.764580 0.535102
0.784892 0.941492 0.634468
0.927161 0.908266 0.584024
0.934066 0.900581 0.576209
0.049524 0.145308 0.464503
0.068427 0.159591 0.507307
0.404998 0.117337 0.646587
0.754115 0.100423 0.660928
0.882647 0.100966 0.647958
0.881505 0.100450 0.613713
0.066828 0.227742 0.499513
0.070421 0.210826 0.500073
0.336695 0.162427 0.648630
0.748716 0.130477 0.667707
0.888643 0.129191 0.652131
0.887145 0.128580 0.616420
0.130432 0.401476 0.576158
0.129220 0.392639 0.574553
0.191546 0.461899 0.667684
0.816599 0.405089 0.784869
0.956381 0.369301 0.747983
0.952553 0.365759 0.707720
0.223572 0.561106 0.609704
0.222625 0.556768 0.607372
0.304342 0.665039 0.644348
0.820493 0.826246 0.841573
0.967904 0.830083 0.841967
0.966282 0.827188 0.822075
0.361238 0.726007 0.620568
0.363826 0.727602 0.619204
0.411608 0.820615 0.663169
0.793576 0.949128 0.832136
0.964245 0.960736 0.857424
0.964245 0.960736 0.857424
0.365415 0.732528 0.598195
0.365520 0.734042 0.596314
0.383059 0.830533 0.651871
0.783897 0.955256 0.822412
0.966496 0.969050 0.859672
0.966496 0.969050 0.859672
0.050730 0.148302 0.482915
0.065040 0.161179 0.513830
0.323337 0.132370 0.654122
0.685247 0.101717 0.675943
0.858337 0.101007 0.672613
0.883099 0.101220 0.668072
0.064385 0.216812 0.510841
0.071241 0.213387 0.517999
0.241706 0.177511 0.646656
0.674462 0.133064 0.684223
0.865135 0.129560 0.677737
0.888851 0.129431 0.672721
0.118469 0.377988 0.585831
0.119264 0.372354 0.585762
0.187375 0.460758 0.681915
0.740525 0.412297 0.800014
0.940597 0.376190 0.777649
0.957257 0.368346 0.770831
0.189567 0.517452 0.623671
0.189750 0.514263 0.622025
0.274564 0.636293 0.662573
0.815968 0.826823 0.851851
0.959725 0.833332 0.862439
0.969297 0.832374 0.860748
0.324414 0.688806 0.629545
0.326022 0.688519 0.627916
0.398846 0.785812 0.664183
0.811573 0.933281 0.831983
0.967996 0.966141 0.878641
0.967996 0.966141 0.878641
0.362816 0.733313 0.633271
0.365335 0.734823 0.632495
0.418903 0.827138 0.675281
0.797387 0.955635 0.840084
0.969965 0.974183 0.881127
0.969965 0.974183 0.881127
