assets/luts/LUTs/Mavic3 BLOCKBUSTER.CUBE
LUT_3D_SIZE 16
0.015896 0.024459 0.024916
0.015896 0.024459 0.024916
0.037532 0.027383 0.027628
0.068563 0.030141 0.029885
0.104723 0.033078 0.031796
0.150030 0.035884 0.033533
0.210154 0.038379 0.034898
0.282324 0.039041 0.034364
0.366423 0.037044 0.031775
0.463337 0.033577 0.028618
0.550639 0.030816 0.025916
0.601865 0.029073 0.024902
0.639185 0.027463 0.024506
0.668459 0.026375 0.024276
0.668459 0.026375 0.024276
0.668459 0.026375 0.024276
0.015896 0.024459 0.024916
0.015896 0.024459 0.024916
0.037532 0.027383 0.027628
0.068563 0.030141 0.029885
0.104723 0.033078 0.031796
0.150030 0.035884 0.033533
0.210154 0.038379 0.034898
0.282324 0.039041 0.034364
0.366423 0.037044 0.031775
0.463337 0.033577 0.028618
0.550639 0.030816 0.025916
0.601865 0.029073 0.024902
0.639185 0.027463 0.024506
0.668459 0.026375 0.024276
0.668459 0.026375 0.024276
0.668459 0.026375 0.024276
0.016883 0.046159 0.028758
0.016883 0.046159 0.028758
0.037713 0.047864 0.030296
0.069488 0.041464 0.031226
0.108288 0.047567 0.033479
0.158167 0.056082 0.035224
0.224413 0.063358 0.035478
0.301628 0.067613 0.033489
0.387405 0.068087 0.029724
0.481452 0.065843 0.025804
0.570296 0.063414 0.022689
0.623525 0.061475 0.021674
0.658175 0.059007 0.021612
0.684445 0.056976 0.021669
0.684445 0.056976 0.021669
0.684445 0.056976 0.021669
0.017318 0.077763 0.035213
0.017318 0.077763 0.035213
0.028242 0.078709 0.035854
0.075158 0.084964 0.038493
0.122320 0.092211 0.038708
0.185754 0.102148 0.036861
0.264959 0.109524 0.032414
0.352214 0.113614 0.026751
0.440657 0.114106 0.021194
0.533530 0.112059 0.016247
0.622089 0.110056 0.013136
0.680386 0.108166 0.012574
0.714334 0.104384 0.013247
0.738196 0.101041 0.013938
0.738196 0.101041 0.013938
0.738196 0.101041 0.013938
0.016755 0.112769 0.041661
0.016755 0.112769 0.041661
0.029158 0.113669 0.041981
0.079134 0.123857 0.042900
0.135648 0.131746 0.039998
0.212351 0.143647 0.033435
0.304748 0.153993 0.024242
0.401870 0.160465 0.015630
0.490865 0.162247 0.009750
0.578359 0.161197 0.005821
0.659762 0.160088 0.004248
0.720327 0.158561 0.005248
0.754918 0.153203 0.006451
0.778383 0.148116 0.007424
0.778383 0.148116 0.007424
0.778384 0.148117 0.007424
0.013803 0.153083 0.046761
0.013803 0.153083 0.046761
0.030536 0.153473 0.046608
0.088160 0.174287 0.043644
0.164721 0.188542 0.034387
0.248732 0.194937 0.023985
0.348634 0.207057 0.012869
0.451236 0.219167 0.004992
0.540767 0.225845 0.001875
0.622624 0.227561 0.000678
0.694783 0.226470 0.000420
0.753475 0.225144 0.001866
0.786642 0.218110 0.003165
0.808795 0.210713 0.004113
0.808795 0.210713 0.004113
0.808795 0.210714 0.004113
0.007663 0.203362 0.050505
0.007663 0.203362 0.050505
0.028836 0.204607 0.049644
0.094053 0.237531 0.038338
0.197685 0.263626 0.021444
0.306064 0.274046 0.009830
0.394937 0.276371 0.003819
0.496225 0.292591 0.000491
0.586210 0.304046 0.000076
0.668736 0.310019 0.000012
0.737409 0.309020 0.000005
0.791923 0.306467 0.000625
0.823158 0.297847 0.001771
0.841925 0.287523 0.002727
0.841926 0.287524 0.002727
0.841926 0.287525 0.002727
0.000310 0.270078 0.050913
0.000310 0.270078 0.050913
0.024020 0.271710 0.049237
0.086162 0.308500 0.031730
0.202203 0.341436 0.013211
0.336542 0.362147 0.003086
0.451035 0.374542 0.000245
0.536541 0.376717 0.000002
0.628255 0.392844 0.000000
0.709630 0.401612 0.000000
0.778438 0.402656 0.000000
0.830371 0.397444 0.000013
0.861783 0.388577 0.000074
0.879706 0.377243 0.000823
0.879707 0.377244 0.000823
0.879707 0.377245 0.000823
0.000000 0.340063 0.045044
0.000000 0.340063 0.045044
0.025424 0.340048 0.043794
0.067155 0.369838 0.029898
0.147982 0.399819 0.015309
0.272421 0.422624 0.005050
0.423676 0.448487 0.000573
0.562213 0.473054 0.000001
0.656386 0.483066 0.000000
0.739680 0.492572 0.000000
0.807797 0.492909 0.000000
0.858528 0.485711 0.000000
0.891371 0.476957 0.000000
0.909664 0.465633 0.000102
0.909664 0.465634 0.000102
0.909665 0.465636 0.000102
0.000000 0.405269 0.038146
0.000000 0.405269 0.038146
0.027095 0.404093 0.037430
0.059019 0.420478 0.030530
0.098005 0.443327 0.021745
0.176791 0.463735 0.011523
0.325994 0.491698 0.001919
0.516045 0.534909 0.000014
0.661992 0.572203 0.000000
0.757073 0.584646 0.000000
0.826820 0.583034 0.000000
0.877218 0.573636 0.000005
0.912380 0.563453 0.000230
0.931209 0.551891 0.000689
0.931209 0.551892 0.000689
0.931210 0.551894 0.000689
0.000000 0.463733 0.033930
0.000000 0.463733 0.033930
0.028057 0.462287 0.033251
0.059068 0.470840 0.029981
0.085188 0.489182 0.024116
0.133260 0.511869 0.014723
0.247652 0.539158 0.002001
0.451303 0.584164 0.000021
0.639231 0.638347 0.000000
0.760423 0.668452 0.000000
0.835149 0.668742 0.000000
0.886483 0.657570 0.000044
0.924149 0.643575 0.001936
0.944222 0.632032 0.002873
0.944223 0.632034 0.002873
0.944223 0.632035 0.002873
0.000000 0.518628 0.031836
0.000000 0.518628 0.031836
0.028358 0.517408 0.030933
0.059427 0.522273 0.028477
0.084678 0.539558 0.022882
0.126103 0.566354 0.012600
0.231729 0.597131 0.001260
0.432462 0.641459 0.000007
0.628231 0.699513 0.000000
0.756457 0.737081 0.000000
0.838846 0.747618 0.000020
0.889947 0.737614 0.000817
0.929867 0.723548 0.005100
0.951981 0.711555 0.006889
0.951981 0.711557 0.006889
0.951981 0.711558 0.006889
0.000000 0.559444 0.030843
0.000000 0.559444 0.030843
0.028120 0.560009 0.029873
0.059164 0.565470 0.027604
0.084340 0.584910 0.022277
0.128998 0.616857 0.010692
0.246806 0.656321 0.000948
0.451420 0.707111 0.000000
0.632585 0.759735 0.000000
0.756989 0.793662 0.000000
0.838388 0.806589 0.000638
0.892165 0.805371 0.004499
0.929993 0.794492 0.007539
0.955196 0.784375 0.011037
0.955196 0.784376 0.011037
0.955196 0.784377 0.011037
0.000000 0.584285 0.029469
0.000000 0.584285 0.029469
0.027809 0.585293 0.028407
0.058687 0.590001 0.026346
0.083704 0.607321 0.021829
0.122670 0.637761 0.011565
0.220371 0.677386 0.001450
0.414921 0.726833 0.000005
0.606137 0.780957 0.000000
0.741183 0.819369 0.000000
0.829224 0.836033 0.000577
0.886345 0.840302 0.005152
0.927140 0.834224 0.009965
0.954316 0.829406 0.013110
0.954316 0.829406 0.013110
0.954316 0.829406 0.013110
0.000000 0.584285 0.029469
0.000000 0.584285 0.029469
0.027810 0.585293 0.028407
0.058687 0.590001 0.026346
0.083704 0.607322 0.021829
0.122671 0.637761 0.011565
0.220372 0.677386 0.001450
0.414924 0.726833 0.000005
0.606139 0.780958 0.000000
0.741185 0.819370 0.000000
0.829225 0.836034 0.000577
0.886346 0.840302 0.005153
0.927140 0.834224 0.009965
0.954316 0.829406 0.013110
0.954316 0.829406 0.013110
0.954316 0.829406 0.013110
0.000000 0.584285 0.029469
0.000000 0.584285 0.029469
0.027810 0.585293 0.028407
0.058688 0.590001 0.026346
0.083704 0.607322 0.021829
0.122671 0.637761 0.011565
0.220373 0.677387 0.001450
0.414927 0.726834 0.000005
0.606142 0.780958 0.000000
0.741187 0.819370 0.000000
0.829227 0.836034 0.000577
0.886347 0.840302 0.005153
0.927141 0.834224 0.009965
0.954316 0.829406 0.013110
0.954316 0.829406 0.013110
0.954316 0.829406 0.013110
0.015896 0.024459 0.024916
0.015896 0.024459 0.024916
0.037532 0.027383 0.027628
0.068563 0.030141 0.029885
0.104723 0.033078 0.031796
0.150030 0.035884 0.033533
0.210154 0.038379 0.034898
0.282324 0.039041 0.034364
0.366423 0.037044 0.031775
0.463337 0.033577 0.028618
0.550639 0.030816 0.025916
0.601865 0.029073 0.024902
0.639185 0.027463 0.024506
0.668459 0.026375 0.024276
0.668459 0.026375 0.024276
0.668459 0.026375 0.024276
0.015896 0.024459 0.024916
0.015896 0.024459 0.024916
0.037532 0.027383 0.027628
0.068563 0.030141 0.029885
0.104723 0.033078 0.031796
0.150030 0.035884 0.033533
0.210154 0.038379 0.034898
0.282324 0.039041 0.034364
0.366423 0.037044 0.031775
0.463337 0.033577 0.028618
0.550639 0.030816 0.025916
0.601865 0.029073 0.024902
0.639185 0.027463 0.024506
0.668459 0.026375 0.024276
0.668459 0.026375 0.024276
0.668459 0.026375 0.024276
0.016883 0.046159 0.028758
0.016883 0.046159 0.028758
0.037713 0.047864 0.030296
0.069520 0.041864 0.031274
0.108413 0.048074 0.033538
0.158378 0.056606 0.035268
0.224664 0.063798 0.035488
0.301849 0.067940 0.033479
0.387543 0.068291 0.029710
0.481509 0.065945 0.025795
0.570322 0.063457 0.022685
0.623548 0.061509 0.021670
0.658210 0.059064 0.021607
0.684445 0.056976 0.021669
0.684445 0.056976 0.021669
0.684445 0.056977 0.021669
0.017318 0.077763 0.035213
0.017318 0.077763 0.035214
0.028628 0.078742 0.035876
0.075158 0.084964 0.038493
0.122402 0.092472 0.038723
0.185930 0.102429 0.036847
0.265164 0.109754 0.032378
0.352399 0.113780 0.026713
0.440771 0.114208 0.021169
0.533583 0.112111 0.016235
0.622109 0.110079 0.013131
0.680403 0.108184 0.012571
0.714365 0.104414 0.013242
0.738196 0.101041 0.013938
0.738196 0.101041 0.013938
0.738196 0.101041 0.013938
0.016755 0.112769 0.041661
0.016755 0.112769 0.041661
0.029593 0.113700 0.041992
0.079515 0.123912 0.042884
0.135648 0.131746 0.039998
0.212433 0.143769 0.033417
0.304867 0.154126 0.024212
0.401979 0.160576 0.015603
0.490935 0.162320 0.009734
0.578389 0.161235 0.005814
0.659771 0.160105 0.004246
0.720335 0.158575 0.005246
0.754932 0.153225 0.006448
0.778383 0.148116 0.007424
0.778383 0.148116 0.007424
0.778384 0.148117 0.007424
0.013803 0.153083 0.046761
0.013803 0.153083 0.046761
0.030970 0.153483 0.046604
0.088677 0.174407 0.043583
0.164947 0.188563 0.034358
0.248732 0.194937 0.023985
0.348685 0.207123 0.012855
0.451292 0.219243 0.004981
0.540807 0.225903 0.001871
0.622645 0.227594 0.000677
0.694791 0.226485 0.000420
0.753480 0.225156 0.001866
0.786651 0.218131 0.003164
0.808795 0.210713 0.004113
0.808795 0.210713 0.004113
0.808795 0.210714 0.004113
0.007663 0.203362 0.050505
0.007663 0.203362 0.050505
0.029208 0.204629 0.049629
0.094576 0.237701 0.038240
0.198007 0.263671 0.021402
0.306178 0.274051 0.009821
0.394937 0.276371 0.003819
0.496247 0.292630 0.000490
0.586231 0.304085 0.000076
0.668749 0.310043 0.000012
0.737414 0.309032 0.000005
0.791927 0.306477 0.000625
0.823166 0.297864 0.001771
0.841925 0.287523 0.002727
0.841926 0.287524 0.002727
0.841926 0.287525 0.002727
0.000310 0.270078 0.050913
0.000310 0.270078 0.050913
0.024291 0.271729 0.049218
0.086550 0.308646 0.031650
0.202497 0.341489 0.013180
0.336696 0.362168 0.003078
0.451089 0.374547 0.000244
0.536541 0.376717 0.000002
0.628262 0.392862 0.000000
0.709636 0.401627 0.000000
0.778441 0.402664 0.000000
0.830374 0.397452 0.000013
0.861788 0.388591 0.000074
0.879706 0.377243 0.000823
0.879707 0.377244 0.000823
0.879707 0.377246 0.000823
0.000000 0.340063 0.045044
0.000000 0.340063 0.045044
0.025591 0.340048 0.043786
0.067300 0.369917 0.029861
0.148125 0.399851 0.015292
0.272535 0.422642 0.005043
0.423749 0.448500 0.000572
0.562233 0.473056 0.000001
0.656386 0.483066 0.000000
0.739682 0.492579 0.000000
0.807799 0.492914 0.000000
0.858530 0.485715 0.000000
0.891374 0.476966 0.000000
0.909664 0.465633 0.000102
0.909664 0.465635 0.000102
0.909665 0.465636 0.000102
0.000000 0.405269 0.038146
0.000000 0.405269 0.038146
0.027180 0.404089 0.037427
0.059053 0.420505 0.030520
0.098040 0.443342 0.021739
0.176835 0.463744 0.011518
0.326041 0.491707 0.001917
0.516071 0.534916 0.000014
0.662000 0.572204 0.000000
0.757073 0.584646 0.000000
0.826820 0.583036 0.000000
0.877218 0.573638 0.000005
0.912381 0.563459 0.000230
0.931209 0.551891 0.000689
0.931209 0.551893 0.000689
0.931210 0.551894 0.000689
0.000000 0.463733 0.033930
0.000000 0.463733 0.033930
0.028094 0.462285 0.033250
0.059081 0.470848 0.029978
0.085196 0.489188 0.024114
0.133273 0.511874 0.014720
0.247669 0.539162 0.001999
0.451321 0.584169 0.000021
0.639238 0.638349 0.000000
0.760425 0.668452 0.000000
0.835149 0.668742 0.000000
0.886483 0.657571 0.000044
0.924149 0.643578 0.001936
0.944222 0.632032 0.002873
0.944223 0.632034 0.002873
0.944223 0.632036 0.002873
0.000000 0.518628 0.031836
0.000000 0.518628 0.031836
0.028388 0.517407 0.030932
0.059437 0.522278 0.028476
0.084684 0.539563 0.022880
0.126112 0.566359 0.012598
0.231744 0.597135 0.001259
0.432479 0.641464 0.000007
0.628240 0.699516 0.000000
0.756461 0.737082 0.000000
0.838847 0.747618 0.000020
0.889947 0.737614 0.000817
0.929867 0.723550 0.005100
0.951981 0.711555 0.006889
0.951981 0.711557 0.006889
0.951981 0.711558 0.006889
0.000000 0.559444 0.030843
0.000000 0.559444 0.030843
0.028171 0.560010 0.029871
0.059182 0.565480 0.027601
0.084351 0.584921 0.022274
0.129015 0.616868 0.010687
0.246834 0.656330 0.000947
0.451450 0.707119 0.000000
0.632601 0.759740 0.000000
0.756996 0.793663 0.000000
0.838391 0.806589 0.000638
0.892166 0.805370 0.004499
0.929993 0.794492 0.007539
0.955196 0.784375 0.011037
0.955196 0.784376 0.011037
0.955196 0.784377 0.011037
0.000000 0.584285 0.029469
0.000000 0.584285 0.029469
0.027810 0.585293 0.028407
0.058687 0.590001 0.026346
0.083704 0.607321 0.021829
0.122670 0.637761 0.011565
0.220371 0.677386 0.001450
0.414922 0.726833 0.000005
0.606137 0.780957 0.000000
0.741183 0.819369 0.000000
0.829224 0.836033 0.000577
0.886345 0.840302 0.005152
0.927140 0.834224 0.009965
0.954316 0.829406 0.013110
0.954316 0.829406 0.013110
0.954316 0.829406 0.013110
0.000000 0.584285 0.029469
0.000000 0.584285 0.029469
0.027810 0.585293 0.028407
0.058687 0.590001 0.026346
0.083704 0.607322 0.021829
0.122671 0.637761 0.011565
0.220372 0.677386 0.001450
0.414925 0.726833 0.000005
0.606139 0.780958 0.000000
0.741185 0.819370 0.000000
0.829225 0.836034 0.000577
0.886346 0.840302 0.005153
0.927140 0.834224 0.009965
0.954316 0.829406 0.013110
0.954316 0.829406 0.013110
0.954316 0.829406 0.013110
0.000000 0.584285 0.029469
0.000000 0.584285 0.029469
0.027810 0.585293 0.028407
0.058688 0.590001 0.026346
0.083704 0.607322 0.021829
0.122671 0.637761 0.011565
0.220373 0.677387 0.001450
0.414927 0.726834 0.000005
0.606142 0.780958 0.000000
0.741187 0.819370 0.000000
0.829227 0.836034 0.000577
0.886347 0.840302 0.005153
0.927141 0.834224 0.009965
0.954316 0.829406 0.013110
0.954316 0.829406 0.013110
0.954316 0.829406 0.013110
0.015143 0.027003 0.045687
0.015143 0.027003 0.045687
0.036371 0.028763 0.047471
0.068761 0.030717 0.040763
0.105590 0.033994 0.045199
0.151003 0.036888 0.051613
0.212660 0.039429 0.057618
0.288129 0.039843 0.060938
0.375714 0.036766 0.060758
0.474993 0.032523 0.059418
0.564351 0.030129 0.058427
0.615370 0.028503 0.057758
0.651532 0.026897 0.056679
0.679575 0.025863 0.055741
0.679575 0.025863 0.055741
0.679575 0.025863 0.055741
0.015143 0.027003 0.045687
0.015143 0.027003 0.045687
0.036371 0.028763 0.047471
0.068768 0.030737 0.041147
0.105620 0.034026 0.045668
0.151028 0.036914 0.052083
0.212704 0.039447 0.058018
0.288196 0.039852 0.061243
0.375775 0.036765 0.060949
0.475030 0.032520 0.059516
0.564369 0.030128 0.058470
0.615385 0.028503 0.057793
0.651554 0.026896 0.056737
0.679575 0.025863 0.055741
0.679575 0.025863 0.055741
0.679575 0.025863 0.055741
0.016287 0.047127 0.047862
0.016287 0.047127 0.047862
0.037962 0.050347 0.050723
0.071761 0.051911 0.051374
0.110313 0.054452 0.052493
0.157835 0.057171 0.053591
0.219361 0.059196 0.054206
0.292025 0.059407 0.053174
0.376480 0.057252 0.050280
0.471141 0.053531 0.046954
0.559978 0.050673 0.044302
0.611946 0.048721 0.043283
0.647814 0.046790 0.042849
0.675833 0.045399 0.042549
0.675833 0.045399 0.042549
0.675833 0.045399 0.042549
0.017056 0.077627 0.045121
0.017047 0.077622 0.045471
0.036711 0.080805 0.054820
0.076910 0.087503 0.057991
0.124959 0.094665 0.056975
0.186444 0.102055 0.054532
0.261966 0.107102 0.050484
0.346165 0.109447 0.045418
0.433408 0.108822 0.040157
0.525780 0.105957 0.035407
0.614496 0.103517 0.032349
0.672417 0.101628 0.031727
0.706405 0.098096 0.032219
0.730581 0.095004 0.032757
0.730572 0.094996 0.032759
0.730566 0.094990 0.032760
0.016633 0.112843 0.053712
0.016629 0.112846 0.054134
0.035127 0.114729 0.060191
0.081353 0.125434 0.061318
0.137498 0.133141 0.058013
0.213543 0.144034 0.051133
0.303542 0.152725 0.042282
0.398012 0.157569 0.034175
0.486112 0.158289 0.028360
0.573713 0.156487 0.024232
0.655748 0.154814 0.022555
0.716016 0.153409 0.023572
0.750595 0.148301 0.024714
0.774177 0.143421 0.025626
0.774167 0.143406 0.025627
0.774159 0.143394 0.025629
0.013830 0.153392 0.063484
0.013831 0.153400 0.063918
0.032401 0.154392 0.064983
0.087431 0.173981 0.061670
0.163870 0.188914 0.052401
0.248729 0.195240 0.041861
0.347649 0.206374 0.030868
0.448481 0.216871 0.022908
0.537402 0.222166 0.019441
0.619042 0.222860 0.017927
0.691639 0.221149 0.017646
0.750161 0.219817 0.019443
0.783651 0.212964 0.020802
0.806003 0.205692 0.021736
0.805992 0.205665 0.021737
0.805983 0.205643 0.021738
0.007637 0.203454 0.071926
0.007636 0.203455 0.072302
0.026270 0.203644 0.068661
0.088912 0.234794 0.057366
0.192661 0.262683 0.040140
0.303294 0.273640 0.027993
0.393480 0.275992 0.021567
0.494024 0.290900 0.017596
0.583699 0.301085 0.016988
0.665812 0.306085 0.016884
0.734336 0.304411 0.016879
0.788743 0.301506 0.017895
0.820175 0.292857 0.019220
0.839196 0.282625 0.020138
0.839179 0.282586 0.020139
0.839166 0.282555 0.020139
0.000307 0.269444 0.076829
0.000307 0.269436 0.077126
0.018393 0.268931 0.069682
0.078252 0.303333 0.052091
0.193600 0.339151 0.032263
0.330831 0.360829 0.020954
0.447845 0.373560 0.017293
0.534447 0.375563 0.016865
0.625673 0.390473 0.016858
0.706777 0.398391 0.016858
0.775576 0.398760 0.016858
0.827765 0.393252 0.016905
0.859509 0.384265 0.017342
0.877452 0.372720 0.018223
0.877432 0.372667 0.018224
0.877417 0.372626 0.018225
0.000000 0.339042 0.073930
0.000000 0.339035 0.074120
0.017924 0.338345 0.064601
0.061679 0.364244 0.050349
0.140832 0.397203 0.034314
0.265958 0.421191 0.022947
0.418746 0.447348 0.017615
0.559356 0.471965 0.016859
0.653998 0.481341 0.016858
0.737174 0.490013 0.016858
0.805521 0.489916 0.016858
0.856683 0.482444 0.016858
0.889893 0.473423 0.016881
0.908200 0.462018 0.017088
0.908182 0.461955 0.017088
0.908168 0.461906 0.017088
0.000000 0.404253 0.068633
0.000000 0.404250 0.068730
0.018064 0.403576 0.057947
0.055478 0.416149 0.050376
0.094348 0.440178 0.040885
0.171434 0.462065 0.030094
0.319006 0.490253 0.019390
0.510565 0.533222 0.016884
0.658627 0.570332 0.016858
0.754760 0.582724 0.016858
0.825041 0.580850 0.016858
0.875863 0.571154 0.016865
0.911486 0.560938 0.017232
0.930381 0.549262 0.017804
0.930368 0.549198 0.017803
0.930358 0.549148 0.017802
0.000000 0.462534 0.065347
0.000000 0.462532 0.065388
0.018145 0.462029 0.053766
0.055531 0.467749 0.049382
0.083025 0.485454 0.043444
0.128996 0.509171 0.033734
0.239738 0.537237 0.020260
0.442560 0.581905 0.016937
0.634004 0.636150 0.016858
0.757349 0.666524 0.016858
0.833456 0.667082 0.016858
0.885363 0.655669 0.016906
0.923452 0.641521 0.018989
0.943653 0.629944 0.020017
0.943644 0.629874 0.020014
0.943636 0.629819 0.020012
0.000000 0.517512 0.063558
0.000000 0.517511 0.063592
0.018176 0.517140 0.051569
0.055775 0.519926 0.047766
0.082617 0.535635 0.042247
0.121880 0.562936 0.031800
0.222257 0.595054 0.019062
0.420851 0.638615 0.016886
0.620616 0.696361 0.016858
0.752413 0.734913 0.016858
0.836776 0.746219 0.016886
0.888873 0.736306 0.017856
0.929048 0.721662 0.022018
0.951395 0.709496 0.023893
0.951388 0.709418 0.023889
0.951383 0.709358 0.023885
0.000000 0.558871 0.062444
0.000000 0.558870 0.062501
0.018161 0.559524 0.050589
0.055565 0.563539 0.046929
0.082290 0.581153 0.041665
0.124462 0.613132 0.030164
0.237282 0.654253 0.018521
0.438856 0.703758 0.016862
0.624317 0.756425 0.016858
0.752126 0.791580 0.016858
0.835752 0.805301 0.017621
0.890871 0.804294 0.021670
0.929286 0.793356 0.024500
0.954723 0.782968 0.028030
0.954724 0.782910 0.028027
0.954725 0.782864 0.028025
0.000000 0.583721 0.060725
0.000000 0.583721 0.060725
0.018094 0.584659 0.049085
0.055175 0.588383 0.045627
0.081689 0.604052 0.041121
0.118628 0.634207 0.030941
0.211695 0.675209 0.019153
0.403575 0.724450 0.016874
0.597929 0.778281 0.016858
0.736358 0.817783 0.016858
0.826606 0.835241 0.017583
0.885014 0.839727 0.022357
0.926378 0.833808 0.027125
0.953893 0.828862 0.030232
0.953893 0.828862 0.030232
0.953893 0.828862 0.030232
0.000000 0.583721 0.060725
0.000000 0.583721 0.060725
0.018094 0.584659 0.049085
0.055170 0.588381 0.045628
0.081682 0.604045 0.041123
0.118610 0.634193 0.030946
0.211641 0.675187 0.019159
0.403451 0.724416 0.016874
0.597819 0.778247 0.016858
0.736271 0.817763 0.016858
0.826541 0.835231 0.017581
0.884964 0.839725 0.022351
0.926343 0.833814 0.027121
0.953893 0.828862 0.030232
0.953893 0.828862 0.030232
0.953893 0.828862 0.030232
0.000000 0.583721 0.060725
0.000000 0.583721 0.060725
0.018094 0.584659 0.049085
0.055166 0.588380 0.045628
0.081677 0.604040 0.041124
0.118596 0.634182 0.030950
0.211600 0.675171 0.019163
0.403355 0.724391 0.016874
0.597734 0.778220 0.016858
0.736204 0.817748 0.016858
0.826490 0.835223 0.017581
0.884925 0.839724 0.022347
0.926316 0.833819 0.027118
0.953893 0.828862 0.030232
0.953893 0.828862 0.030232
0.953893 0.828862 0.030232
0.015024 0.030995 0.074485
0.015024 0.030995 0.074485
0.025886 0.031645 0.075387
0.067954 0.033621 0.078808
0.106826 0.036469 0.084503
0.155722 0.040273 0.093204
0.221609 0.042640 0.100287
0.306642 0.042830 0.105427
0.406637 0.039693 0.108189
0.516927 0.035801 0.110684
0.610822 0.034529 0.113712
0.661360 0.033066 0.112661
0.695415 0.031153 0.109430
0.721292 0.029699 0.106690
0.721292 0.029699 0.106691
0.721293 0.029699 0.106691
0.015024 0.030995 0.074485
0.015024 0.030995 0.074485
0.026270 0.031668 0.075419
0.067954 0.033621 0.078808
0.106820 0.036496 0.084732
0.155757 0.040293 0.093462
0.221659 0.042654 0.100500
0.306700 0.042838 0.105590
0.406690 0.039696 0.108298
0.516960 0.035803 0.110743
0.610837 0.034530 0.113739
0.661372 0.033066 0.112683
0.695436 0.031155 0.109467
0.721292 0.029699 0.106691
0.721292 0.029699 0.106691
0.721293 0.029699 0.106691
0.015340 0.042086 0.075734
0.015352 0.042478 0.075778
0.034649 0.052176 0.078757
0.070359 0.055004 0.082127
0.111229 0.056888 0.087527
0.160552 0.059041 0.092901
0.224010 0.060264 0.096705
0.304669 0.059778 0.099180
0.398822 0.056444 0.099616
0.503107 0.052601 0.100069
0.598043 0.051341 0.101878
0.651792 0.049921 0.101350
0.686281 0.047943 0.098975
0.712363 0.046453 0.096841
0.712357 0.046452 0.096832
0.712352 0.046452 0.096825
0.016341 0.081375 0.082234
0.016341 0.081375 0.082234
0.036081 0.084351 0.084861
0.073625 0.090421 0.088867
0.123711 0.090342 0.085876
0.178247 0.089112 0.081919
0.241812 0.087682 0.078770
0.314937 0.084973 0.075510
0.400183 0.081078 0.071498
0.495014 0.076953 0.067888
0.589661 0.075450 0.065858
0.647773 0.073910 0.065103
0.681842 0.071380 0.064697
0.707379 0.069667 0.064510
0.707379 0.069667 0.064510
0.707379 0.069667 0.064510
0.015827 0.115283 0.090754
0.015820 0.115325 0.090978
0.033895 0.117383 0.093413
0.066550 0.125352 0.091005
0.140104 0.137807 0.086665
0.224338 0.142146 0.076650
0.307467 0.142827 0.068090
0.388551 0.140933 0.062058
0.471929 0.138068 0.056976
0.559684 0.134617 0.052893
0.644977 0.134266 0.051170
0.705449 0.134338 0.051806
0.739120 0.129951 0.052421
0.762428 0.125751 0.052928
0.762399 0.125714 0.052934
0.762377 0.125685 0.052938
0.012775 0.157452 0.103227
0.012763 0.157487 0.103469
0.030370 0.157899 0.103331
0.058679 0.166765 0.092208
0.153746 0.196674 0.079220
0.270057 0.206936 0.063537
0.369922 0.209831 0.052985
0.454729 0.209065 0.047312
0.535073 0.207556 0.044066
0.613423 0.204974 0.042120
0.685951 0.203359 0.042043
0.744143 0.203379 0.044340
0.777541 0.196850 0.045610
0.800007 0.189873 0.046393
0.799971 0.189793 0.046399
0.799943 0.189732 0.046403
0.006192 0.208105 0.114500
0.006179 0.208137 0.114718
0.023817 0.207265 0.112142
0.049960 0.217395 0.092877
0.158923 0.265163 0.069346
0.306400 0.287240 0.051186
0.414744 0.289177 0.043700
0.504579 0.292367 0.040115
0.585681 0.293932 0.039294
0.662172 0.293886 0.039082
0.728151 0.290086 0.039259
0.782334 0.287230 0.041186
0.813859 0.278495 0.042673
0.833325 0.268411 0.043527
0.833272 0.268284 0.043531
0.833231 0.268184 0.043533
0.000191 0.271167 0.121340
0.000190 0.271183 0.121514
0.017126 0.269624 0.117013
0.041974 0.278416 0.091913
0.142317 0.330765 0.064082
0.300949 0.362563 0.046419
0.443351 0.379529 0.039841
0.540010 0.380905 0.038938
