assets/luts/LUTs/Mavic3 BLOCKBUSTER.CUBE
LUT_3D_SIZE 6
0.015896 0.024459 0.024916
0.068563 0.030141 0.029885
0.210154 0.038379 0.034898
0.463337 0.033577 0.028618
0.639185 0.027463 0.024506
0.668459 0.026375 0.024276
0.017318 0.077763 0.035213
0.075158 0.084964 0.038493
0.264959 0.109524 0.032414
0.533530 0.112059 0.016247
0.714334 0.104384 0.013247
0.738196 0.101041 0.013938
0.007663 0.203362 0.050505
0.094053 0.237531 0.038338
0.394937 0.276371 0.003819
0.668736 0.310019 0.000012
0.823158 0.297847 0.001771
0.841926 0.287525 0.002727
0.000000 0.405269 0.038146
0.059019 0.420478 0.030530
0.325994 0.491698 0.001919
0.757073 0.584646 0.000000
0.912380 0.563453 0.000230
0.931210 0.551894 0.000689
0.000000 0.559444 0.030843
0.059164 0.565470 0.027604
0.246806 0.656321 0.000948
0.756989 0.793662 0.000000
0.929993 0.794492 0.007539
0.955196 0.784377 0.011037
0.000000 0.584285 0.029469
0.058688 0.590001 0.026346
0.220373 0.677387 0.001450
0.741187 0.819370 0.000000
0.927141 0.834224 0.009965
0.954316 0.829406 0.013110
0.015024 0.030995 0.074485
0.067954 0.033621 0.078808
0.221609 0.042640 0.100287
0.516927 0.035801 0.110684
0.695415 0.031153 0.109430
0.721293 0.029699 0.106691
0.016341 0.081375 0.082234
0.073625 0.090421 0.088867
0.241812 0.087682 0.078770
0.495014 0.076953 0.067888
0.681842 0.071380 0.064697
0.707379 0.069667 0.064510
0.006192 0.208105 0.114500
0.049960 0.217395 0.092877
0.414744 0.289177 0.043700
0.662172 0.293886 0.039082
0.813859 0.278495 0.042673
0.833231 0.268184 0.043533
0.000000 0.402847 0.112349
0.039539 0.403550 0.081517
0.294569 0.486204 0.043662
0.752093 0.580707 0.038904
0.909700 0.554854 0.039529
0.928521 0.542211 0.040263
0.000000 0.559678 0.103675
0.039488 0.559734 0.074167
0.212677 0.646678 0.043164
0.741548 0.787703 0.038904
0.928408 0.791834 0.046884
0.954012 0.780149 0.050195
0.000000 0.584235 0.100149
0.039455 0.585231 0.072548
0.189739 0.667164 0.044022
0.724488 0.814151 0.038904
0.924873 0.833402 0.049572
0.953268 0.827978 0.052587
0.014530 0.055629 0.196598
0.079090 0.057036 0.205162
0.272739 0.051412 0.246144
0.597669 0.036437 0.305033
0.751965 0.032813 0.306551
0.775067 0.031614 0.299010
0.010503 0.125253 0.213689
0.054932 0.105717 0.210625
0.293879 0.095907 0.259202
0.598284 0.078998 0.284022
0.755668 0.078309 0.284930
0.778149 0.076425 0.276294
0.000225 0.240209 0.249971
0.039039 0.248639 0.260091
0.302702 0.308439 0.279289
0.646937 0.236602 0.188231
0.828509 0.263481 0.217553
0.850134 0.254699 0.211859
0.000000 0.412120 0.319432
0.038904 0.409180 0.296688
0.138539 0.460703 0.195250
0.797497 0.637812 0.142920
0.928098 0.595176 0.167059
0.945724 0.580557 0.166924
0.000000 0.578900 0.313471
0.038904 0.575561 0.286568
0.125255 0.623171 0.224568
0.745043 0.820291 0.134472
0.946641 0.834806 0.156677
0.969646 0.820083 0.161334
0.000000 0.604940 0.298604
0.038904 0.601663 0.272973
0.122012 0.646324 0.220529
0.716765 0.839908 0.132458
0.939832 0.870626 0.162622
0.968167 0.866678 0.164728
0.002125 0.091087 0.382897
0.080789 0.093203 0.409221
0.368678 0.065961 0.498037
0.664469 0.045649 0.521645
0.800693 0.044383 0.510868
0.823963 0.043424 0.502229
0.000068 0.171989 0.410109
0.041768 0.138283 0.398065
0.324725 0.118207 0.499798
0.664061 0.089537 0.521408
0.799628 0.087354 0.499233
0.822401 0.085699 0.489106
0.000000 0.316895 0.495700
0.038904 0.308708 0.493470
0.130149 0.273443 0.483941
0.682822 0.249061 0.552327
0.852063 0.277993 0.532392
0.873914 0.271394 0.519481
0.000000 0.463388 0.576014
0.038904 0.459619 0.567843
0.114525 0.514432 0.608009
0.685586 0.687913 0.639496
0.915683 0.689428 0.614221
0.937230 0.684926 0.609328
0.000000 0.640560 0.599365
0.038904 0.639381 0.586802
0.113159 0.665285 0.561591
0.523049 0.836858 0.562880
0.945045 0.894700 0.542325
0.966923 0.886235 0.561503
0.000000 0.664321 0.585688
0.038904 0.663342 0.571772
0.113159 0.686523 0.541900
0.521103 0.867113 0.564412
0.934210 0.926022 0.554208
0.967176 0.924712 0.546899
0.000000 0.106702 0.511756
0.070739 0.111069 0.545718
0.352434 0.086300 0.648952
0.656980 0.051615 0.663870
0.813807 0.051836 0.664282
0.841196 0.052043 0.659029
0.000000 0.191779 0.555495
0.039693 0.158069 0.537380
0.291911 0.144579 0.649976
0.643701 0.098504 0.668819
0.818804 0.095641 0.668124
0.845606 0.095468 0.661623
0.000000 0.340485 0.662865
0.038904 0.328517 0.653502
0.132258 0.333130 0.700510
0.662747 0.321289 0.759353
0.884465 0.288243 0.748989
0.909279 0.280572 0.737627
0.000000 0.476169 0.747987
0.038904 0.468849 0.740945
0.114877 0.519622 0.791246
0.622803 0.703256 0.868961
0.927828 0.718545 0.871903
0.950572 0.712769 0.861046
0.000000 0.660562 0.803965
0.038904 0.660358 0.800901
0.113159 0.716664 0.829830
0.488178 0.871775 0.877162
0.921232 0.929523 0.896117
0.950056 0.930822 0.897532
0.000000 0.689288 0.800042
0.038904 0.690615 0.795744
0.113159 0.745100 0.815266
0.486381 0.900636 0.862390
0.919853 0.958725 0.896037
0.951059 0.959782 0.896445
0.000000 0.109200 0.538914
0.067979 0.113524 0.571819
0.338593 0.090598 0.675461
0.645110 0.053728 0.691063
0.810633 0.052467 0.693907
0.841847 0.052839 0.692259
0.000000 0.192746 0.581615
0.039604 0.160083 0.564053
0.277428 0.148407 0.674857
0.629403 0.100754 0.696103
0.814617 0.096160 0.697897
0.845812 0.096182 0.695607
0.000000 0.339433 0.688488
0.038904 0.327173 0.679001
0.128801 0.332243 0.725729
0.642855 0.320439 0.785855
0.878498 0.287376 0.779369
0.910105 0.279175 0.775078
0.000000 0.473502 0.774109
0.038904 0.465472 0.766732
0.114648 0.513440 0.817658
0.612972 0.701497 0.894738
0.923209 0.719002 0.901912
0.953607 0.714453 0.898949
0.000000 0.655397 0.831043
0.038904 0.653262 0.827970
0.113159 0.706429 0.858698
0.510656 0.866518 0.907196
0.920237 0.931978 0.929992
0.949536 0.932766 0.930474
0.000000 0.689143 0.833655
0.038904 0.689573 0.831276
0.113159 0.746276 0.860837
0.480982 0.901062 0.906751
0.917262 0.959342 0.930873
0.950791 0.962863 0.933958
