assets/luts/LUTs/Mavic_2_Pro_5500K_10_Bit_h265_-_CineTeal4.CUBE
LUT_3D_SIZE 16
-0.115952 -0.118327 -0.120754
-0.104943 -0.118327 -0.120754
0.031359 -0.119094 -0.117969
0.139409 -0.119949 -0.102568
0.247486 -0.120318 -0.086178
0.379526 -0.120600 -0.064712
0.517146 -0.120844 -0.041319
0.650108 -0.121067 -0.017937
0.773488 -0.121286 0.004367
0.883275 -0.121506 0.024780
0.973882 -0.121729 0.042222
1.045260 -0.121952 0.055957
1.101285 -0.122169 0.065740
1.150006 -0.122371 0.071035
1.195335 -0.122545 0.071061
1.228511 -0.122683 0.071080
-0.115952 -0.107088 -0.120754
-0.104943 -0.107088 -0.120754
0.031359 -0.105809 -0.117969
0.139409 -0.101859 -0.102568
0.247486 -0.101929 -0.086178
0.379526 -0.102636 -0.064712
0.517146 -0.103506 -0.041319
0.650108 -0.104391 -0.017937
0.773488 -0.105136 0.004367
0.883275 -0.105775 0.024780
0.973882 -0.106340 0.042222
1.045260 -0.106822 0.055957
1.101285 -0.107296 0.065740
1.150006 -0.107816 0.071035
1.195335 -0.108553 0.071061
1.228511 -0.109631 0.071080
-0.116200 0.002188 -0.121874
-0.103188 0.002188 -0.121874
0.010443 0.002693 -0.119685
0.142907 0.016409 -0.104271
0.261427 0.008976 -0.085506
0.392873 0.000737 -0.062660
0.527825 0.000000 -0.039484
0.658028 0.000000 -0.016523
0.780389 0.000000 0.005638
0.889283 0.000000 0.025921
0.978775 0.000000 0.043193
1.049431 0.000000 0.056731
1.104240 0.000000 0.066197
1.152946 0.000000 0.071037
1.198240 0.000000 0.071063
1.230436 0.000000 0.071081
-0.089982 0.081093 -0.112621
-0.072689 0.081093 -0.112621
0.066758 0.084013 -0.105402
0.152502 0.095471 -0.093510
0.292747 0.093425 -0.092227
0.432350 0.059273 -0.065785
0.566884 0.017194 -0.035910
0.690145 0.000000 -0.010781
0.804034 0.000000 0.009983
0.906437 0.000000 0.029163
0.991117 0.000000 0.045642
1.060755 0.000000 0.058827
1.114269 0.000000 0.067722
1.164506 0.000000 0.071044
1.210387 0.000000 0.071069
1.242317 0.000000 0.071086
-0.028420 0.160481 -0.061648
-0.011849 0.160481 -0.061648
0.108088 0.164260 -0.054024
0.165573 0.170811 -0.040491
0.300176 0.188018 -0.071600
0.460962 0.179095 -0.078309
0.608198 0.129929 -0.047192
0.735259 0.051781 -0.011985
0.845528 0.003599 0.016796
0.937765 0.000025 0.035007
1.009473 0.000000 0.049300
1.074068 0.000000 0.061272
1.124127 0.000000 0.069238
1.175181 0.000000 0.071048
1.220964 0.000000 0.071074
1.252594 0.000000 0.071091
-0.011719 0.252395 -0.044861
0.004213 0.252395 -0.044861
0.126775 0.255964 -0.039272
0.201028 0.264512 -0.021478
0.291758 0.271265 -0.023403
0.458846 0.284770 -0.068820
0.629488 0.264445 -0.063817
0.769670 0.200290 -0.030322
0.883916 0.098502 0.007000
0.974513 0.020014 0.038055
1.045919 0.000980 0.055786
1.101286 0.000000 0.065963
1.139785 0.000000 0.071287
1.187001 0.000000 0.071082
1.230523 0.000000 0.071088
1.261212 0.000000 0.071098
-0.035740 0.353409 -0.059016
-0.020013 0.353409 -0.059016
0.098782 0.355709 -0.058947
0.213122 0.364148 -0.034110
0.309595 0.369875 -0.013864
0.430487 0.371637 -0.035822
0.617990 0.377142 -0.077919
0.779401 0.345968 -0.050726
0.907241 0.276471 -0.018194
1.003130 0.166414 0.017422
1.071532 0.044622 0.052018
1.129463 0.008600 0.068353
1.179076 0.000053 0.074467
1.226093 0.000000 0.073426
1.258396 0.000000 0.072065
1.278474 0.000000 0.071447
-0.090921 0.456436 -0.099526
-0.074983 0.456436 -0.099526
0.036692 0.457877 -0.101370
0.172921 0.463848 -0.085872
0.314869 0.471491 -0.069058
0.428101 0.469867 -0.068233
0.572185 0.465964 -0.094422
0.755328 0.464592 -0.071381
0.903841 0.421777 -0.040627
1.013728 0.348666 -0.010157
1.094983 0.245766 0.020667
1.149620 0.111345 0.052356
1.198535 0.031075 0.070575
1.251299 0.008338 0.074143
1.291184 0.000000 0.074948
1.312071 0.000000 0.073902
-0.118303 0.556470 -0.123219
-0.102493 0.556470 -0.123219
0.002750 0.557441 -0.123597
0.069551 0.561141 -0.123148
0.286611 0.567890 -0.122536
0.423216 0.570206 -0.121678
0.548970 0.562376 -0.112987
0.698542 0.554849 -0.092618
0.870407 0.542557 -0.063426
0.997758 0.490437 -0.034321
1.092023 0.415138 -0.006545
1.162113 0.329193 0.017808
1.218744 0.239783 0.036715
1.268568 0.126028 0.055239
1.305217 0.018705 0.072726
1.332138 0.000650 0.075376
-0.121367 0.648074 -0.126192
-0.105930 0.648074 -0.126192
0.000000 0.648711 -0.126199
0.000000 0.651041 -0.126227
0.226238 0.655630 -0.126271
0.405109 0.660221 -0.126277
0.534472 0.656049 -0.123013
0.663443 0.644642 -0.104494
0.807124 0.632413 -0.070747
0.955059 0.609168 -0.058583
1.064391 0.550353 -0.031506
1.147098 0.475294 -0.006961
1.211653 0.402648 0.011458
1.277464 0.343852 0.020728
1.327987 0.276854 0.030911
1.354265 0.176304 0.046974
-0.121748 0.725867 -0.126575
-0.106634 0.725867 -0.126575
0.000000 0.726328 -0.126580
0.000000 0.727735 -0.126604
0.161407 0.730349 -0.126640
0.382946 0.734195 -0.126692
0.520884 0.734040 -0.124594
0.639931 0.726766 -0.080844
0.756816 0.715360 -0.018405
0.884520 0.699433 -0.021781
1.014760 0.665030 -0.049968
1.115224 0.599970 -0.030454
1.184516 0.529153 -0.010035
1.256864 0.475239 -0.000265
1.317412 0.417690 0.009156
1.357114 0.347120 0.020255
-0.122128 0.786517 -0.126956
-0.107274 0.786517 -0.126956
0.000000 0.786818 -0.126961
0.000000 0.787625 -0.126981
0.132367 0.788856 -0.127012
0.369000 0.791214 -0.127056
0.510639 0.793457 -0.103877
0.619181 0.790783 -0.017772
0.719095 0.784641 0.064705
0.823272 0.774159 0.094448
0.942588 0.752066 0.014232
1.060285 0.708620 -0.025087
1.146294 0.645991 -0.033049
1.219837 0.587113 -0.019305
1.289136 0.533775 -0.010112
1.338948 0.472374 0.000138
-0.122496 0.830995 -0.127326
-0.107886 0.830995 -0.127326
0.000000 0.831107 -0.127330
0.000000 0.831489 -0.127348
0.161020 0.831808 -0.127312
0.370801 0.833648 -0.121318
0.502154 0.836570 -0.053970
0.602063 0.837106 0.045849
0.691948 0.834153 0.120976
0.781616 0.827944 0.173028
0.878464 0.816726 0.167633
0.981844 0.792975 0.086940
1.088432 0.749088 -0.023118
1.173276 0.688119 -0.037267
1.249531 0.635278 -0.027667
1.307333 0.576819 -0.017534
-0.122841 0.864166 -0.127673
-0.108545 0.864166 -0.127673
0.000000 0.864190 -0.127671
0.012769 0.864277 -0.126204
0.204378 0.864180 -0.124727
0.380626 0.865932 -0.097984
0.494975 0.869080 -0.004891
0.586861 0.871065 0.093369
0.669948 0.870355 0.158912
0.750544 0.866805 0.209303
0.831942 0.861373 0.252372
0.917057 0.851144 0.257527
1.016454 0.823578 0.103490
1.112896 0.779974 -0.002507
1.198957 0.728328 -0.040996
1.266435 0.670844 -0.033924
-0.123142 0.887458 -0.127975
-0.109396 0.887458 -0.127975
0.001312 0.887394 -0.127907
0.052818 0.887257 -0.121849
0.237509 0.887287 -0.112599
0.387868 0.889034 -0.059448
0.486506 0.892051 0.038946
0.571373 0.894583 0.122169
0.649593 0.895474 0.183015
0.723621 0.893799 0.229563
0.796854 0.890397 0.269609
0.871687 0.885053 0.303800
0.949892 0.873975 0.293637
1.036303 0.848219 0.161433
1.130946 0.811311 -0.000204
1.214193 0.756692 -0.048451
-0.123384 0.903365 -0.128218
-0.110563 0.903365 -0.128218
0.002366 0.903238 -0.128144
0.112230 0.902803 -0.115676
0.266732 0.903180 -0.086503
0.385840 0.904863 -0.017925
0.475279 0.907365 0.066568
0.554705 0.909911 0.136977
0.628446 0.911596 0.192807
0.697917 0.911504 0.238049
0.765335 0.909512 0.276137
0.833336 0.906038 0.309318
0.902915 0.900238 0.332339
0.974665 0.888074 0.309453
1.052500 0.863945 0.199324
1.146504 0.832582 0.036143
-0.115952 -0.118327 -0.109287
-0.104943 -0.118327 -0.109287
0.031359 -0.119094 -0.104447
0.139409 -0.119949 -0.084423
0.247486 -0.120318 -0.068020
0.379526 -0.120600 -0.047332
0.517146 -0.120844 -0.024915
0.650108 -0.121067 -0.002506
0.773488 -0.121286 0.018972
0.883275 -0.121506 0.038711
0.973882 -0.121729 0.055604
1.045260 -0.121952 0.068921
1.101285 -0.122169 0.078355
1.150006 -0.122371 0.083304
1.195335 -0.122545 0.082856
1.228511 -0.122683 0.082082
-0.115952 -0.107088 -0.109287
-0.104943 -0.107088 -0.109287
0.031359 -0.107847 -0.106530
0.139409 -0.108693 -0.091286
0.247486 -0.109059 -0.075064
0.379526 -0.109338 -0.053818
0.517146 -0.109579 -0.030664
0.650108 -0.109800 -0.007522
0.773488 -0.110017 0.014554
0.883275 -0.110235 0.034758
0.973882 -0.110456 0.052022
1.045259 -0.110676 0.065617
1.101285 -0.110891 0.075299
1.150006 -0.111091 0.080541
1.195335 -0.111263 0.080566
1.228511 -0.111400 0.080585
-0.116200 0.002188 -0.108305
-0.105188 0.002188 -0.110395
0.010443 0.002693 -0.108228
0.142581 0.014334 -0.092737
0.259726 0.007561 -0.074425
0.391051 0.000608 -0.052057
0.526440 0.000000 -0.029083
0.657113 0.000000 -0.006284
0.779578 0.000000 0.015664
0.888537 0.000000 0.035748
0.978140 0.000000 0.052858
1.048880 0.000000 0.066281
1.103827 0.000000 0.075688
1.152510 0.000000 0.080542
1.197784 0.000000 0.080568
1.230093 0.000000 0.080585
-0.089982 0.081093 -0.094311
-0.079229 0.081093 -0.101237
0.063944 0.083829 -0.094826
0.152502 0.095471 -0.082321
0.292488 0.091698 -0.081214
0.431508 0.057267 -0.054702
0.565858 0.016637 -0.025384
0.689256 0.000000 -0.000596
0.803426 0.000000 0.020002
0.906056 0.000000 0.039025
0.990883 0.000000 0.055361
1.060545 0.000000 0.068419
1.114071 0.000000 0.077232
1.164288 0.000000 0.080549
1.210202 0.000000 0.080574
1.242191 0.000000 0.080591
-0.028420 0.160481 -0.043900
-0.018274 0.160481 -0.050785
0.105249 0.163869 -0.044024
0.164644 0.170713 -0.030047
0.300176 0.188018 -0.060636
0.460842 0.178077 -0.067182
0.607864 0.128201 -0.036271
0.734711 0.049745 -0.001389
0.844971 0.002529 0.026947
0.937296 0.000000 0.044799
1.009213 0.000000 0.058976
1.073891 0.000000 0.070845
1.124007 0.000000 0.078744
1.175062 0.000000 0.080553
1.220860 0.000000 0.080579
1.252523 0.000000 0.080596
-0.011719 0.252395 -0.027804
-0.001738 0.252395 -0.034169
0.122762 0.255526 -0.029483
0.199412 0.264323 -0.011426
0.290364 0.271101 -0.012419
0.458846 0.284770 -0.057884
0.629453 0.263880 -0.052859
0.769551 0.199185 -0.019631
0.883653 0.096901 0.017381
0.974234 0.018819 0.048062
1.045693 0.000862 0.065433
1.101030 0.000000 0.075483
1.139426 0.000000 0.080761
1.186899 0.000000 0.080587
1.230456 0.000000 0.080593
1.261168 0.000000 0.080603
-0.035740 0.353409 -0.042334
-0.025522 0.353409 -0.048180
0.094265 0.355395 -0.048425
0.210166 0.363926 -0.024290
0.308288 0.369883 -0.003375
0.429585 0.371584 -0.024877
0.617990 0.377142 -0.066889
0.779413 0.345507 -0.039907
0.907231 0.275842 -0.007683
1.003032 0.165393 0.027624
1.071352 0.043333 0.061917
1.129336 0.008150 0.077955
1.178959 0.000048 0.083929
1.225937 0.000000 0.082893
1.258238 0.000000 0.081554
1.278390 0.000000 0.080946
-0.090921 0.456436 -0.082858
-0.080159 0.456436 -0.088275
0.034420 0.457704 -0.089880
0.168683 0.463679 -0.075348
0.313367 0.471502 -0.058213
0.427088 0.469922 -0.057006
0.571503 0.465935 -0.083294
0.755328 0.464591 -0.060419
0.903872 0.421464 -0.029928
1.013759 0.348199 0.000255
1.094962 0.245026 0.030801
1.149534 0.110287 0.062217
1.198424 0.030121 0.080240
1.251220 0.007888 0.083689
1.291048 0.000000 0.084401
1.311975 0.000000 0.083370
-0.118303 0.556470 -0.106742
-0.107271 0.556470 -0.111726
0.002648 0.557313 -0.112035
0.067212 0.561043 -0.111689
0.283372 0.567792 -0.111056
0.422144 0.570273 -0.110262
0.548323 0.562416 -0.101681
0.698168 0.554855 -0.081498
0.870407 0.542557 -0.052545
0.997793 0.490268 -0.023707
1.092078 0.414786 0.003817
1.162143 0.328695 0.027939
1.218748 0.239277 0.046648
1.268525 0.125311 0.065018
1.305157 0.018056 0.082318
1.332108 0.000649 0.084835
-0.121367 0.648074 -0.110104
-0.110304 0.648074 -0.114669
0.000000 0.648618 -0.114675
0.000000 0.650986 -0.114703
0.222510 0.655562 -0.114746
0.403965 0.660251 -0.114771
0.533718 0.656116 -0.111608
0.662996 0.644679 -0.093321
0.806861 0.632438 -0.059802
0.955059 0.609168 -0.047751
1.064433 0.550214 -0.020925
1.147149 0.475061 0.003384
1.211701 0.402402 0.021612
1.277498 0.343578 0.030790
1.328009 0.276523 0.040877
1.354229 0.175973 0.056779
-0.121748 0.725867 -0.110834
-0.110682 0.725867 -0.115048
0.000000 0.726265 -0.115052
0.000000 0.727705 -0.115076
0.158722 0.730310 -0.115112
0.381015 0.734161 -0.115163
0.520241 0.734077 -0.113305
0.639492 0.726808 -0.070055
0.756452 0.715399 -0.007998
0.884425 0.699453 -0.011298
1.014760 0.665030 -0.039225
1.115260 0.599865 -0.019890
1.184564 0.528975 0.000333
1.256940 0.474989 0.010011
1.317448 0.417532 0.019320
1.357119 0.346798 0.030329
-0.122128 0.786517 -0.111481
-0.111058 0.786517 -0.115425
0.000000 0.786783 -0.115429
0.000000 0.787609 -0.115449
0.130168 0.788839 -0.115480
0.366799 0.791192 -0.115523
0.509944 0.793466 -0.093008
0.618753 0.790808 -0.007724
0.718735 0.784674 0.074114
0.823020 0.774199 0.103897
0.942478 0.752102 0.024358
1.060285 0.708620 -0.014598
1.146250 0.646088 -0.022499
1.219888 0.586993 -0.008855
1.289161 0.533710 0.000235
1.338984 0.472182 0.010400
-0.122496 0.830995 -0.112105
-0.111423 0.830995 -0.115791
0.000000 0.831089 -0.115795
0.000000 0.831483 -0.115812
0.158349 0.831804 -0.115778
0.369069 0.833631 -0.109903
0.501371 0.836551 -0.043640
0.601658 0.837119 0.055273
0.691600 0.834176 0.129756
0.781395 0.827967 0.181486
0.878314 0.816757 0.176258
0.981729 0.793019 0.096412
1.088432 0.749088 -0.012649
1.173308 0.688062 -0.026643
1.249555 0.635232 -0.017144
1.307361 0.576737 -0.007108
-0.122841 0.864166 -0.112780
-0.111764 0.864166 -0.116135
0.000000 0.864181 -0.116134
0.012332 0.864278 -0.114729
0.201332 0.864181 -0.113230
0.379295 0.865913 -0.087022
0.494298 0.869059 0.004760
0.586461 0.871056 0.102217
0.669701 0.870357 0.167330
0.750372 0.866812 0.217288
0.831831 0.861386 0.260011
0.916881 0.851192 0.265396
1.016398 0.823603 0.112725
1.112896 0.779974 0.007751
1.198987 0.728290 -0.030350
1.266458 0.670794 -0.023336
-0.123142 0.887458 -0.113653
-0.112063 0.887458 -0.116434
0.000840 0.887397 -0.116395
0.051389 0.887260 -0.110548
0.235131 0.887285 -0.101299
0.386961 0.889017 -0.049102
0.486018 0.892034 0.048225
0.571031 0.894573 0.130832
0.649316 0.895471 0.191170
0.723433 0.893804 0.237333
0.796722 0.890403 0.277012
0.871539 0.885064 0.310859
0.949853 0.873981 0.300873
1.036265 0.848231 0.170078
1.130946 0.811310 0.010030
1.214208 0.756669 -0.037720
-0.123384 0.903365 -0.114855
-0.112301 0.903365 -0.116674
0.000855 0.903252 -0.116675
0.110418 0.902805 -0.104529
0.265632 0.903174 -0.075624
0.385291 0.904851 -0.007989
0.474988 0.907356 0.075836
0.554505 0.909905 0.145642
0.628293 0.911593 0.200958
0.697811 0.911505 0.245781
0.765243 0.909515 0.283494
0.833260 0.906042 0.316351
0.902971 0.900232 0.339184
0.974627 0.888083 0.316549
1.052478 0.863953 0.207560
1.146504 0.832582 0.046005
-0.116470 -0.118076 0.004101
-0.103455 -0.118076 0.004101
0.018125 -0.118151 0.006081
0.122857 -0.119915 0.045032
0.226646 -0.120354 0.062323
0.361810 -0.120623 0.072139
0.507691 -0.120859 0.075187
0.646377 -0.121078 0.091169
0.773278 -0.121294 0.111613
0.884152 -0.121513 0.130004
0.974553 -0.121734 0.145538
1.045760 -0.121957 0.157757
1.101676 -0.122172 0.166458
1.150428 -0.122374 0.171137
1.195766 -0.122547 0.171160
1.228794 -0.122684 0.171176
-0.116470 -0.104804 0.004101
-0.105456 -0.106839 0.004101
0.018125 -0.106913 0.006081
0.124343 -0.108666 0.041445
0.229460 -0.109090 0.057481
0.364901 -0.109358 0.068406
0.509527 -0.109592 0.074415
0.647207 -0.109809 0.091297
0.773432 -0.110024 0.111637
0.884067 -0.110241 0.129989
0.974478 -0.110460 0.145524
1.045696 -0.110680 0.157746
1.101637 -0.110893 0.166452
1.150392 -0.111093 0.171137
1.195721 -0.111265 0.171160
1.228760 -0.111401 0.171176
-0.117071 0.002569 0.002923
-0.106051 0.002569 0.002923
0.006633 0.003130 0.004647
0.153050 0.002699 0.023716
0.289892 0.000945 0.042568
0.438341 0.000000 0.061145
0.582570 0.000000 0.081083
0.713049 0.000000 0.101859
0.829652 0.000000 0.120866
0.928786 0.000000 0.137559
1.007761 0.000000 0.151424
1.073304 0.000000 0.162303
1.123157 0.000000 0.169384
1.173447 0.000000 0.171149
1.216429 0.000000 0.171170
1.246621 0.000000 0.171185
-0.106433 0.080943 0.019349
-0.094312 0.080961 0.018354
0.037293 0.085579 0.015940
0.151457 0.096171 0.027928
0.313387 0.087972 0.028340
0.468569 0.046642 0.056335
0.611542 0.006948 0.084435
0.738653 0.000000 0.105952
0.849382 0.000000 0.124119
0.944122 0.000000 0.140162
1.020321 0.000000 0.153546
1.084991 0.000000 0.164120
1.134811 0.000000 0.170611
1.187114 0.000000 0.171156
1.229612 0.000000 0.171177
1.258345 0.000000 0.171191
-0.047214 0.159672 0.057488
-0.034755 0.159755 0.057044
0.084477 0.166504 0.057281
0.160635 0.174714 0.072539
0.302886 0.189853 0.045340
0.480289 0.177429 0.040800
0.639878 0.121984 0.071538
0.771613 0.042349 0.104173
0.879840 0.000099 0.129074
0.965274 0.000000 0.143817
1.034127 0.000000 0.155828
1.094665 0.000000 0.165529
1.142846 0.000000 0.171105
1.196186 0.000000 0.171159
1.239108 0.000000 0.171181
1.267815 0.000000 0.171195
-0.019765 0.251874 0.074418
-0.009127 0.251949 0.073650
0.099277 0.259448 0.070561
0.190344 0.269641 0.087256
0.286282 0.275095 0.090883
0.461944 0.287198 0.047776
0.644690 0.265427 0.052931
0.793006 0.198012 0.084623
0.907581 0.091306 0.119001
0.995156 0.015812 0.146060
1.064628 0.000830 0.160571
1.117803 0.000000 0.168710
1.158601 0.000000 0.171308
1.207306 0.000000 0.171196
1.247933 0.000000 0.171197
1.275785 0.000000 0.171203
-0.046670 0.353142 0.061732
-0.035275 0.353197 0.060960
0.072355 0.360642 0.055656
0.192626 0.369807 0.071845
0.303882 0.376003 0.095419
0.426766 0.375776 0.079050
0.619839 0.379790 0.039005
0.789577 0.347412 0.063846
0.921904 0.274351 0.094239
1.017508 0.159803 0.126799
1.086154 0.043191 0.156695
1.143366 0.006311 0.170924
1.194546 0.000045 0.174140
1.239802 0.000000 0.173106
1.268440 0.000000 0.171775
1.288646 0.000000 0.171383
-0.097231 0.456093 0.024484
-0.085505 0.456134 0.024082
0.022279 0.463266 0.019774
0.129505 0.469951 0.027568
0.304748 0.477641 0.044437
0.424511 0.475792 0.047939
0.569474 0.469542 0.024007
0.756988 0.466671 0.044048
0.910449 0.423138 0.072338
1.022671 0.348434 0.100141
1.104372 0.240971 0.128413
1.158889 0.100291 0.157559
1.211036 0.029973 0.170884
1.263735 0.007978 0.173956
1.302239 0.000000 0.174585
1.322174 0.000000 0.173644
-0.118414 0.555955 0.002456
-0.107348 0.556007 0.002432
0.001344 0.562289 0.001284
0.038322 0.567069 0.000854
0.265795 0.573297 0.000643
0.418285 0.575850 0.000945
0.547052 0.566993 0.008383
0.697537 0.557720 0.025049
0.871008 0.544327 0.051033
1.001213 0.491494 0.077520
1.097774 0.415580 0.102708
1.169526 0.329875 0.124382
1.228592 0.245981 0.139590
1.278734 0.130960 0.156305
1.314436 0.018850 0.172618
1.341152 0.000669 0.175001
-0.121369 0.647607 0.000000
-0.110306 0.647658 0.000000
0.000000 0.652633 0.000000
0.000000 0.656052 0.000000
0.195924 0.660209 0.000000
0.397925 0.664680 0.000000
0.531910 0.660426 0.002094
0.662043 0.648113 0.014733
0.805029 0.635179 0.045919
0.954140 0.610994 0.055114
1.066702 0.551322 0.079849
1.151428 0.476717 0.101820
1.217754 0.405575 0.117552
1.284449 0.346937 0.125825
1.335058 0.279504 0.134974
1.361839 0.180800 0.149015
-0.121750 0.725592 0.000000
-0.110683 0.725630 0.000000
0.000000 0.729237 0.000000
0.000000 0.731515 0.000000
0.125840 0.733906 0.000000
0.371858 0.737437 0.000000
0.517802 0.737484 0.001112
0.637784 0.730015 0.037133
0.754195 0.718446 0.097149
0.882067 0.701780 0.091555
1.014330 0.666354 0.065925
1.116782 0.601222 0.080565
1.187713 0.531364 0.098515
1.261237 0.477601 0.107154
1.322252 0.420255 0.115548
1.362595 0.350724 0.125307
-0.122130 0.786348 0.000000
-0.111060 0.786374 0.000000
0.000000 0.788901 0.000000
0.000000 0.790307 0.000000
0.102049 0.791488 0.000000
0.357271 0.793660 0.000000
0.507021 0.795885 0.018415
0.616542 0.793468 0.097025
0.716577 0.787259 0.173184
0.821307 0.776365 0.200161
0.940474 0.754027 0.130352
1.059849 0.709747 0.087603
1.146992 0.647356 0.078134
1.222257 0.588887 0.090246
1.292161 0.535824 0.098416
1.342706 0.474869 0.107502
-0.122498 0.830813 0.000000
-0.111424 0.830836 0.000000
0.000000 0.832656 0.000000
0.000000 0.833455 0.000000
0.136979 0.833802 0.000000
0.360860 0.835507 0.003929
0.498299 0.838319 0.061637
0.599187 0.839166 0.155207
0.689931 0.836121 0.221920
0.780040 0.829868 0.268740
0.876528 0.818643 0.268419
0.980359 0.794528 0.192148
1.087669 0.750259 0.088728
1.173772 0.689297 0.074293
1.251127 0.636790 0.082821
1.309861 0.578854 0.091789
-0.122843 0.864052 0.000000
-0.111766 0.864065 0.000000
0.000000 0.865282 0.000000
0.008592 0.865668 0.000000
0.187600 0.865556 0.000643
0.372879 0.867238 0.023396
0.490918 0.870227 0.107135
0.584164 0.872490 0.196335
0.668428 0.871757 0.254939
0.749368 0.868246 0.300119
0.830959 0.862746 0.338666
0.915662 0.852453 0.344945
1.015235 0.824902 0.206321
1.111849 0.780996 0.109196
1.198890 0.729444 0.071205
1.267545 0.672379 0.077236
-0.123144 0.887384 0.000000
-0.112064 0.887388 0.000000
0.008285 0.888168 0.001246
0.050250 0.888273 0.003829
0.230550 0.888280 0.012217
0.384848 0.889975 0.063001
0.484500 0.892912 0.150982
0.570431 0.895598 0.223658
0.649215 0.896536 0.278270
0.723374 0.894924 0.319452
0.796589 0.891508 0.355370
0.871141 0.886069 0.385520
0.948897 0.875152 0.378327
1.034414 0.849576 0.264434
1.129353 0.812342 0.115074
1.214307 0.757631 0.064401
-0.123384 0.903287 0.000000
-0.112302 0.903285 0.000000
0.047055 0.903155 0.007078
0.158957 0.903052 0.021106
0.285441 0.903593 0.055978
0.396520 0.905236 0.119873
0.482758 0.907804 0.188710
0.560444 0.910432 0.247335
0.632919 0.912149 0.295056
0.701273 0.912169 0.334363
0.767681 0.910288 0.367202
0.834586 0.906815 0.396065
0.903074 0.901165 0.416666
0.973519 0.889262 0.397726
1.048671 0.865846 0.311156
1.140385 0.835023 0.171693
-0.117042 -0.114160 0.071504
-0.099320 -0.114160 0.071504
0.038876 -0.116185 0.073736
0.110159 -0.119167 0.088300
0.191951 -0.120251 0.126183
0.309986 -0.120687 0.170434
0.447689 -0.120908 0.203381
0.595707 -0.121114 0.191044
0.744966 -0.121323 0.142198
0.872503 -0.121537 0.128099
0.970335 -0.121754 0.144789
1.046687 -0.121973 0.157914
1.103026 -0.122186 0.166644
1.151849 -0.122386 0.171138
1.197276 -0.122558 0.171161
1.230236 -0.122694 0.171177
-0.117042 -0.096163 0.071504
-0.106022 -0.102962 0.071504
0.033771 -0.104693 0.073657
0.110159 -0.107919 0.088300
0.192057 -0.109003 0.125452
0.310759 -0.109424 0.169117
0.448956 -0.109641 0.200563
0.597173 -0.109846 0.187835
0.745846 -0.110053 0.141208
0.872899 -0.110265 0.128164
0.970489 -0.110480 0.144816
1.046675 -0.110696 0.157912
1.102995 -0.110907 0.166640
1.151817 -0.111106 0.171138
1.197249 -0.111276 0.171161
1.230218 -0.111411 0.171177
-0.117674 0.032204 0.057321
-0.106601 0.028576 0.058569
0.005112 0.008727 0.075840
0.121507 0.003025 0.098072
0.224788 0.000003 0.144628
0.367895 0.000000 0.188335
0.518207 0.000000 0.208170
0.666126 0.000000 0.193024
0.805015 0.000000 0.152714
0.920822 0.000000 0.136264
1.006874 0.000000 0.151248
1.075596 0.000000 0.162629
1.125835 0.000000 0.169538
1.176513 0.000000 0.171151
1.219098 0.000000 0.171172
1.248750 0.000000 0.171186
-0.118456 0.089787 0.060085
-0.107422 0.089787 0.060085
0.000832 0.092346 0.061959
0.121801 0.090930 0.070537
0.274644 0.055114 0.069368
0.440468 0.008036 0.082534
0.605082 0.001730 0.107536
0.749308 0.000428 0.125486
0.870089 0.000000 0.141554
0.972615 0.000000 0.150483
1.052372 0.000000 0.159598
1.117500 0.000000 0.168236
1.176044 0.000000 0.171156
1.229817 0.000000 0.171182
1.264379 0.000000 0.171196
1.285366 0.000000 0.171205
-0.088848 0.158858 0.075379
-0.077495 0.158745 0.074623
0.034280 0.163619 0.073538
0.135962 0.177869 0.086152
0.280571 0.184282 0.068820
0.470013 0.169017 0.047067
0.652888 0.114812 0.075800
0.796838 0.044885 0.108285
0.911942 0.008191 0.133233
1.000951 0.000133 0.150111
1.070803 0.000000 0.161843
1.126874 0.000000 0.169550
1.181999 0.000000 0.171175
1.235493 0.000000 0.171188
1.269640 0.000000 0.171204
1.289989 0.000000 0.171214
-0.047320 0.250163 0.093022
-0.035553 0.250240 0.092311
0.070692 0.257177 0.091321
0.155752 0.274520 0.096919
0.277067 0.283578 0.107278
0.446713 0.287422 0.062870
0.651404 0.268876 0.053850
0.822510 0.203253 0.088493
0.941491 0.098449 0.123544
1.028433 0.023471 0.150677
1.096331 0.003234 0.165181
1.146279 0.000000 0.172106
1.197641 0.000000 0.171655
1.247217 0.000000 0.171426
1.279242 0.000000 0.171284
1.299317 0.000000 0.171243
-0.066207 0.351573 0.090041
-0.055017 0.351622 0.089192
0.047602 0.359253 0.085517
0.139802 0.378141 0.080948
