assets/luts/LUTs/MOCHA.CUBE
#Generated with IWLTBAP LUT Generator
#Website: https://luts.iwltbap.com
TITLE "MOCHA"
LUT_3D_SIZE 8
0.000000 0.000000 0.000000
0.023529 0.003922 0.000000
0.141176 0.000000 0.000000
0.274510 0.000000 0.000000
0.470588 0.000000 0.003922
0.713725 0.003922 0.000000
0.956863 0.000000 0.000000
0.996078 0.019608 0.003922
0.062745 0.027451 0.000000
0.050980 0.058824 0.003922
0.152941 0.043137 0.000000
0.286275 0.054902 0.000000
0.474510 0.062745 0.000000
0.701961 0.062745 0.003922
0.949020 0.003922 0.000000
1.000000 0.168627 0.003922
0.133333 0.129412 0.007843
0.039216 0.196078 0.000000
0.188235 0.184314 0.000000
0.313725 0.180392 0.000000
0.486275 0.180392 0.000000
0.721569 0.200000 0.000000
0.952941 0.196078 0.000000
1.000000 0.290196 0.003922
0.211765 0.298039 0.003922
0.000000 0.396078 0.000000
0.211765 0.384314 0.000000
0.388235 0.388235 0.003922
0.552941 0.380392 0.003922
0.756863 0.360784 0.000000
0.960784 0.345098 0.003922
1.000000 0.427451 0.000000
0.266667 0.552941 0.000000
0.003922 0.639216 0.000000
0.098039 0.639216 0.000000
0.423529 0.639216 0.000000
0.635294 0.639216 0.000000
0.819608 0.603922 0.007843
0.984314 0.549020 0.000000
1.000000 0.631373 0.011765
0.262745 0.800000 0.007843
0.000000 0.843137 0.000000
0.000000 0.839216 0.000000
0.384314 0.839216 0.003922
0.631373 0.827451 0.000000
0.835294 0.831373 0.000000
0.996078 0.776471 0.007843
0.996078 0.843137 0.007843
0.200000 0.960784 0.000000
0.000000 0.968627 0.000000
0.000000 0.968627 0.000000
0.313725 0.968627 0.007843
0.552941 0.960784 0.000000
0.756863 0.956863 0.003922
0.960784 0.941176 0.000000
0.941176 0.980392 0.000000
0.811765 0.992157 0.698039
0.725490 0.996078 0.733333
0.780392 1.000000 0.737255
0.850980 0.996078 0.733333
0.925490 0.988235 0.745098
0.988235 0.988235 0.776471
1.000000 0.968627 0.807843
1.000000 0.964706 0.835294
0.000000 0.000000 0.000000
0.000000 0.019608 0.003922
0.090196 0.019608 0.003922
0.200000 0.047059 0.000000
0.337255 0.066667 0.003922
0.549020 0.094118 0.003922
0.839216 0.105882 0.000000
0.823529 0.309804 0.003922
0.098039 0.023529 0.007843
0.047059 0.050980 0.058824
0.160784 0.047059 0.054902
0.298039 0.027451 0.039216
0.474510 0.003922 0.011765
0.713725 0.003922 0.000000
0.964706 0.003922 0.000000
0.996078 0.000000 0.000000
0.152941 0.129412 0.003922
0.003922 0.180392 0.050980
0.176471 0.176471 0.043137
0.321569 0.156863 0.007843
0.509804 0.149020 0.000000
0.741176 0.164706 0.000000
0.980392 0.141176 0.000000
1.000000 0.231373 0.000000
0.231373 0.286275 0.000000
0.000000 0.372549 0.003922
0.192157 0.368627 0.003922
0.384314 0.372549 0.000000
0.545098 0.345098 0.000000
0.756863 0.317647 0.000000
0.992157 0.317647 0.000000
1.000000 0.380392 0.007843
0.301961 0.549020 0.000000
0.000000 0.635294 0.000000
0.101961 0.627451 0.000000
0.423529 0.627451 0.000000
0.650980 0.627451 0.007843
0.835294 0.584314 0.000000
1.000000 0.517647 0.003922
0.996078 0.592157 0.000000
0.317647 0.800000 0.000000
0.000000 0.847059 0.000000
0.003922 0.843137 0.003922
0.392157 0.835294 0.003922
0.643137 0.823529 0.000000
0.850980 0.823529 0.000000
0.996078 0.749020 0.000000
0.996078 0.819608 0.007843
0.262745 0.956863 0.000000
0.003922 0.972549 0.003922
0.000000 0.976471 0.000000
0.317647 0.968627 0.000000
0.568627 0.960784 0.000000
0.784314 0.956863 0.003922
0.984314 0.941176 0.000000
0.984314 0.968627 0.000000
0.850980 0.988235 0.729412
0.752941 1.000000 0.776471
0.784314 1.000000 0.776471
0.858824 0.988235 0.772549
0.921569 0.988235 0.776471
0.988235 0.984314 0.796078
0.996078 0.976471 0.827451
1.000000 0.968627 0.847059
0.000000 0.011765 0.039216
0.003922 0.019608 0.054902
0.082353 0.039216 0.070588
0.207843 0.039216 0.066667
0.356863 0.035294 0.043137
0.560784 0.035294 0.007843
0.866667 0.000000 0.000000
0.866667 0.278431 0.000000
0.121569 0.019608 0.070588
0.035294 0.047059 0.168627
0.172549 0.039216 0.176471
0.317647 0.000000 0.184314
0.498039 0.000000 0.176471
0.745098 0.003922 0.121569
0.980392 0.003922 0.090196
1.000000 0.003922 0.258824
0.168627 0.105882 0.109804
0.000000 0.188235 0.188235
0.176471 0.168627 0.180392
0.337255 0.164706 0.168627
0.529412 0.137255 0.145098
0.772549 0.098039 0.113725
0.996078 0.003922 0.054902
1.000000 0.192157 0.223529
0.227451 0.294118 0.090196
0.003922 0.380392 0.200000
0.109804 0.372549 0.164706
0.372549 0.372549 0.160784
0.568627 0.329412 0.082353
0.784314 0.294118 0.000000
1.000000 0.286275 0.000000
0.992157 0.360784 0.105882
0.294118 0.545098 0.003922
0.000000 0.647059 0.043137
0.000000 0.643137 0.039216
0.380392 0.639216 0.015686
0.639216 0.631373 0.003922
0.839216 0.572549 0.003922
1.000000 0.486275 0.007843
0.996078 0.556863 0.000000
0.274510 0.800000 0.003922
0.003922 0.847059 0.000000
0.007843 0.839216 0.000000
0.329412 0.835294 0.000000
0.619608 0.823529 0.003922
0.850980 0.823529 0.000000
1.000000 0.741176 0.000000
1.000000 0.811765 0.168627
0.160784 0.968627 0.000000
0.003922 0.972549 0.000000
0.003922 0.972549 0.000000
0.286275 0.968627 0.000000
0.549020 0.964706 0.000000
0.768627 0.956863 0.000000
0.980392 0.945098 0.000000
0.992157 0.956863 0.239216
0.878431 0.984314 0.776471
0.780392 0.996078 0.831373
0.815686 0.992157 0.823529
0.862745 0.992157 0.823529
0.925490 0.988235 0.835294
0.972549 0.988235 0.843137
0.996078 0.976471 0.862745
0.996078 0.964706 0.874510
0.000000 0.035294 0.156863
0.000000 0.035294 0.172549
0.086275 0.039216 0.196078
0.219608 0.027451 0.203922
0.388235 0.000000 0.219608
0.619608 0.003922 0.188235
0.890196 0.000000 0.149020
0.905882 0.258824 0.286275
0.180392 0.007843 0.215686
0.019608 0.031373 0.341176
0.211765 0.000000 0.333333
0.349020 0.003922 0.341176
0.521569 0.000000 0.364706
0.772549 0.007843 0.388235
0.996078 0.000000 0.345098
1.000000 0.000000 0.490196
0.192157 0.105882 0.258824
0.003922 0.196078 0.364706
0.152941 0.164706 0.364706
0.360784 0.145098 0.368627
0.556863 0.098039 0.372549
0.800000 0.000000 0.356863
1.000000 0.003922 0.286275
0.992157 0.082353 0.443137
0.235294 0.282353 0.266667
0.000000 0.380392 0.376471
0.023529 0.384314 0.372549
0.349020 0.364706 0.376471
0.568627 0.333333 0.333333
0.811765 0.309804 0.305882
0.996078 0.274510 0.274510
0.996078 0.419608 0.423529
0.207843 0.556863 0.243137
0.000000 0.647059 0.380392
0.000000 0.639216 0.360784
0.290196 0.635294 0.345098
0.623529 0.631373 0.337255
0.847059 0.545098 0.231373
0.996078 0.439216 0.117647
1.000000 0.498039 0.243137
0.149020 0.807843 0.027451
0.000000 0.850980 0.329412
0.007843 0.843137 0.317647
0.254902 0.839216 0.317647
0.576471 0.835294 0.309804
0.847059 0.827451 0.266667
1.000000 0.725490 0.176471
1.000000 0.800000 0.411765
0.011765 0.956863 0.000000
0.000000 0.976471 0.333333
0.003922 0.968627 0.321569
0.262745 0.976471 0.337255
0.541176 0.960784 0.333333
0.760784 0.960784 0.321569
0.976471 0.945098 0.313725
0.976471 0.968627 0.501961
0.898039 0.984314 0.843137
0.784314 0.992157 0.870588
0.831373 0.988235 0.882353
0.882353 0.984314 0.878431
0.913725 0.988235 0.874510
0.968627 0.984314 0.886275
1.000000 0.980392 0.898039
1.000000 0.976471 0.913725
0.000000 0.039216 0.352941
0.000000 0.039216 0.360784
0.058824 0.023529 0.372549
0.250980 0.000000 0.376471
0.415686 0.000000 0.392157
0.658824 0.000000 0.443137
0.937255 0.000000 0.447059
0.949020 0.247059 0.623529
0.250980 0.003922 0.368627
0.000000 0.003922 0.568627
0.239216 0.000000 0.564706
0.403922 0.000000 0.560784
0.564706 0.000000 0.556863
0.803922 0.003922 0.600000
0.988235 0.000000 0.600000
0.988235 0.003922 0.729412
0.254902 0.066667 0.466667
0.000000 0.164706 0.588235
0.133333 0.145098 0.588235
0.384314 0.105882 0.576471
0.588235 0.003922 0.576471
0.819608 0.000000 0.603922
1.000000 0.000000 0.580392
0.996078 0.192157 0.705882
0.231373 0.258824 0.474510
0.007843 0.407843 0.600000
0.000000 0.380392 0.596078
0.333333 0.349020 0.603922
0.596078 0.341176 0.607843
0.839216 0.333333 0.603922
0.992157 0.282353 0.552941
1.000000 0.450980 0.678431
0.160784 0.556863 0.517647
0.007843 0.647059 0.611765
0.007843 0.639216 0.615686
0.258824 0.631373 0.607843
0.584314 0.635294 0.607843
0.823529 0.568627 0.552941
0.996078 0.533333 0.525490
0.992157 0.635294 0.623529
0.003922 0.800000 0.478431
0.003922 0.854902 0.584314
0.000000 0.847059 0.576471
0.258824 0.835294 0.588235
0.576471 0.827451 0.592157
0.811765 0.831373 0.572549
0.992157 0.698039 0.435294
1.000000 0.776471 0.600000
0.007843 0.956863 0.309804
0.003922 0.968627 0.572549
0.003922 0.968627 0.580392
0.380392 0.964706 0.603922
0.584314 0.952941 0.603922
0.776471 0.949020 0.607843
0.968627 0.941176 0.588235
0.968627 0.964706 0.705882
0.901961 0.976471 0.901961
0.768627 0.996078 0.901961
0.815686 0.984314 0.905882
0.874510 0.984314 0.925490
0.917647 0.984314 0.921569
0.972549 0.988235 0.933333
1.000000 0.984314 0.941176
0.996078 0.980392 0.937255
0.003922 0.003922 0.631373
0.000000 0.000000 0.627451
0.000000 0.000000 0.627451
0.298039 0.000000 0.627451
0.478431 0.000000 0.631373
0.701961 0.003922 0.654902
0.933333 0.003922 0.670588
0.949020 0.223529 0.831373
0.341176 0.000000 0.623529
0.000000 0.000000 0.776471
0.239216 0.000000 0.760784
0.423529 0.003922 0.764706
0.619608 0.000000 0.776471
0.819608 0.003922 0.796078
0.996078 0.000000 0.784314
0.996078 0.003922 0.905882
0.301961 0.000000 0.690196
0.003922 0.141176 0.784314
0.074510 0.105882 0.776471
0.403922 0.043137 0.784314
0.615686 0.000000 0.796078
0.827451 0.003922 0.807843
0.996078 0.000000 0.792157
1.000000 0.164706 0.894118
0.196078 0.254902 0.721569
0.003922 0.388235 0.807843
0.003922 0.356863 0.788235
0.309804 0.337255 0.796078
0.596078 0.329412 0.811765
0.831373 0.313725 0.815686
1.000000 0.298039 0.788235
1.000000 0.470588 0.854902
0.113725 0.541176 0.760784
0.003922 0.623529 0.807843
0.000000 0.615686 0.807843
0.250980 0.607843 0.815686
0.600000 0.611765 0.811765
0.819608 0.615686 0.807843
0.988235 0.615686 0.788235
0.992157 0.701961 0.839216
0.007843 0.800000 0.745098
0.000000 0.847059 0.811765
0.003922 0.847059 0.807843
0.160784 0.835294 0.811765
0.584314 0.831373 0.800000
0.807843 0.815686 0.796078
0.964706 0.764706 0.760784
1.000000 0.823529 0.831373
0.372549 0.949020 0.674510
0.003922 0.964706 0.760784
0.000000 0.964706 0.772549
0.439216 0.960784 0.784314
0.647059 0.952941 0.796078
0.796078 0.952941 0.807843
0.952941 0.945098 0.796078
0.980392 0.960784 0.835294
0.909804 0.968627 0.956863
0.776471 0.992157 0.968627
0.807843 0.984314 0.964706
0.862745 0.992157 0.964706
0.909804 0.984314 0.960784
0.964706 0.988235 0.972549
1.000000 0.988235 0.968627
1.000000 0.984314 0.968627
0.000000 0.000000 0.823529
0.000000 0.000000 0.823529
0.007843 0.000000 0.815686
0.278431 0.007843 0.819608
0.486275 0.000000 0.823529
0.701961 0.000000 0.847059
0.945098 0.000000 0.874510
0.874510 0.180392 0.933333
0.364706 0.000000 0.843137
0.000000 0.000000 0.913725
0.227451 0.000000 0.909804
0.411765 0.007843 0.921569
0.603922 0.000000 0.925490
0.796078 0.000000 0.937255
0.984314 0.003922 0.941176
1.000000 0.000000 0.980392
0.290196 0.000000 0.862745
0.000000 0.109804 0.925490
0.027451 0.078431 0.925490
0.376471 0.007843 0.933333
0.588235 0.000000 0.937255
0.788235 0.003922 0.945098
0.992157 0.000000 0.945098
0.996078 0.203922 0.988235
0.105882 0.243137 0.874510
0.000000 0.341176 0.933333
0.011765 0.325490 0.933333
0.301961 0.329412 0.929412
0.560784 0.325490 0.945098
0.772549 0.313725 0.937255
0.984314 0.286275 0.937255
1.000000 0.474510 0.988235
0.219608 0.529412 0.921569
0.000000 0.584314 0.952941
0.000000 0.572549 0.945098
0.313725 0.584314 0.941176
0.580392 0.596078 0.937255
0.776471 0.596078 0.941176
0.964706 0.596078 0.933333
0.992157 0.709804 0.960784
0.298039 0.772549 0.909804
0.000000 0.780392 0.941176
0.000000 0.780392 0.933333
0.364706 0.788235 0.937255
0.619608 0.800000 0.933333
0.796078 0.807843 0.929412
0.949020 0.807843 0.925490
0.988235 0.854902 0.952941
0.407843 0.952941 0.917647
0.000000 0.964706 0.937255
0.129412 0.952941 0.937255
0.478431 0.956863 0.937255
0.658824 0.952941 0.933333
0.807843 0.945098 0.929412
0.933333 0.933333 0.925490
0.964706 0.960784 0.952941
0.921569 0.972549 0.996078
0.823529 0.968627 1.000000
0.858824 0.980392 1.000000
0.894118 0.972549 1.000000
0.925490 0.976471 1.000000
0.960784 0.980392 0.996078
0.996078 0.996078 1.000000
0.996078 1.000000 1.000000
0.000000 0.000000 0.941176
0.000000 0.000000 0.941176
0.000000 0.000000 0.933333
0.207843 0.003922 0.925490
0.431373 0.000000 0.945098
0.647059 0.003922 0.972549
0.858824 0.003922 0.992157
0.827451 0.290196 0.988235
0.337255 0.000000 0.976471
0.003922 0.000000 0.996078
0.188235 0.003922 1.000000
0.392157 0.003922 0.996078
0.560784 0.000000 1.000000
0.733333 0.000000 1.000000
0.929412 0.000000 1.000000
0.937255 0.003922 0.996078
0.254902 0.000000 0.984314
0.003922 0.098039 1.000000
0.027451 0.066667 0.996078
0.360784 0.003922 1.000000
0.549020 0.000000 1.000000
0.733333 0.000000 1.000000
0.929412 0.000000 1.000000
0.945098 0.250980 1.000000
0.094118 0.223529 0.972549
0.000000 0.325490 1.000000
0.003922 0.317647 1.000000
0.301961 0.305882 1.000000
0.529412 0.298039 1.000000
0.733333 0.286275 1.000000
0.925490 0.278431 1.000000
0.949020 0.490196 1.000000
0.341176 0.545098 1.000000
0.000000 0.525490 1.000000
0.000000 0.545098 1.000000
0.380392 0.560784 1.000000
0.560784 0.568627 1.000000
0.741176 0.568627 1.000000
0.917647 0.576471 0.996078
0.949020 0.701961 0.988235
0.482353 0.756863 0.992157
0.000000 0.713725 0.992157
0.129412 0.729412 0.996078
0.466667 0.745098 1.000000
0.647059 0.772549 1.000000
0.784314 0.788235 1.000000
0.913725 0.796078 1.000000
0.964706 0.847059 0.988235
0.584314 0.898039 0.996078
0.094118 0.886275 1.000000
0.376471 0.890196 1.000000
0.541176 0.894118 0.996078
0.690196 0.901961 1.000000
0.815686 0.913725 1.000000
0.925490 0.917647 1.000000
0.976471 0.952941 1.000000
0.756863 0.984314 0.996078
0.619608 0.992157 1.000000
0.682353 0.988235 0.996078
0.749020 0.988235 1.000000
0.831373 0.984314 0.996078
0.898039 0.992157 1.000000
0.972549 0.992157 1.000000
0.996078 1.000000 1.000000
