assets/luts/LUTs/MOCHA.CUBE
#Generated with IWLTBAP LUT Generator
#Website: https://luts.iwltbap.com
TITLE "MOCHA"
LUT_3D_SIZE 4
0.000000 0.000000 0.000000
0.188235 0.000000 0.007843
0.627451 0.000000 0.000000
0.996078 0.019608 0.003922
0.160784 0.172549 0.000000
0.243137 0.235294 0.003922
0.643137 0.227451 0.003922
1.000000 0.333333 0.000000
0.262745 0.725490 0.011765
0.184314 0.780392 0.000000
0.772549 0.780392 0.000000
0.996078 0.792157 0.000000
0.811765 0.992157 0.698039
0.800000 1.000000 0.737255
0.972549 0.984314 0.760784
1.000000 0.964706 0.835294
0.000000 0.015686 0.062745
0.141176 0.043137 0.117647
0.486275 0.000000 0.062745
0.878431 0.266667 0.039216
0.184314 0.164706 0.149020
0.223529 0.219608 0.239216
0.698039 0.172549 0.184314
0.992157 0.262745 0.282353
0.247059 0.733333 0.003922
0.000000 0.800000 0.105882
0.788235 0.772549 0.000000
0.996078 0.733333 0.192157
0.878431 0.988235 0.800000
0.835294 0.992157 0.847059
0.960784 0.988235 0.854902
1.000000 0.972549 0.890196
0.003922 0.023529 0.533333
0.133333 0.000000 0.541176
0.603922 0.003922 0.568627
0.949020 0.227451 0.768627
0.274510 0.094118 0.631373
0.184314 0.180392 0.721569
0.756863 0.011765 0.741176
1.000000 0.274510 0.843137
0.000000 0.745098 0.682353
0.000000 0.796078 0.752941
0.737255 0.776471 0.745098
1.000000 0.764706 0.768627
0.917647 0.968627 0.941176
0.831373 0.980392 0.929412
0.949020 0.988235 0.952941
1.000000 0.988235 0.968627
0.000000 0.000000 0.941176
0.000000 0.000000 0.933333
0.580392 0.000000 0.964706
0.827451 0.290196 0.988235
0.231373 0.000000 0.980392
0.156863 0.160784 1.000000
0.666667 0.058824 1.000000
0.945098 0.329412 0.992157
0.466667 0.698039 0.996078
0.258824 0.666667 1.000000
0.733333 0.737255 1.000000
0.960784 0.819608 1.000000
0.756863 0.984314 0.996078
0.709804 0.988235 1.000000
0.878431 0.988235 1.000000
0.996078 1.000000 1.000000
