assets/luts/LUTs/NAUTIC.CUBE
#Generated with IWLTBAP LUT Generator
#Website: https://luts.iwltbap.com
TITLE "NAUTIC"
LUT_3D_SIZE 64
0.003922 0.000000 0.000000
0.003922 0.000000 0.000000
0.011765 0.007843 0.000000
0.019608 0.003922 0.000000
0.035294 0.003922 0.000000
0.050980 0.007843 0.000000
0.062745 0.000000 0.000000
0.078431 0.000000 0.000000
0.078431 0.007843 0.000000
0.094118 0.000000 0.000000
0.117647 0.007843 0.003922
0.125490 0.007843 0.000000
0.141176 0.007843 0.000000
0.152941 0.015686 0.000000
0.164706 0.019608 0.000000
0.172549 0.019608 0.000000
0.188235 0.015686 0.003922
0.211765 0.019608 0.003922
0.211765 0.027451 0.000000
0.235294 0.027451 0.003922
0.239216 0.031373 0.000000
0.274510 0.027451 0.000000
0.270588 0.035294 0.000000
0.301961 0.043137 0.000000
0.298039 0.050980 0.000000
0.329412 0.047059 0.000000
0.341176 0.054902 0.000000
0.356863 0.058824 0.000000
0.384314 0.066667 0.000000
0.403922 0.070588 0.000000
0.415686 0.074510 0.000000
0.439216 0.074510 0.003922
0.454902 0.082353 0.000000
0.470588 0.094118 0.000000
0.494118 0.094118 0.003922
0.513725 0.101961 0.000000
0.537255 0.105882 0.000000
0.556863 0.105882 0.000000
0.580392 0.113725 0.003922
0.592157 0.117647 0.003922
0.619608 0.125490 0.000000
0.635294 0.133333 0.000000
0.658824 0.133333 0.000000
0.682353 0.141176 0.000000
0.698039 0.145098 0.003922
0.717647 0.149020 0.003922
0.741176 0.156863 0.000000
0.756863 0.156863 0.000000
0.780392 0.164706 0.000000
0.796078 0.168627 0.000000
0.815686 0.172549 0.000000
0.839216 0.180392 0.003922
0.858824 0.184314 0.000000
0.878431 0.188235 0.000000
0.894118 0.192157 0.000000
0.913725 0.203922 0.003922
0.933333 0.207843 0.003922
0.941176 0.207843 0.000000
0.964706 0.207843 0.000000
0.984314 0.215686 0.000000
0.992157 0.223529 0.003922
1.000000 0.223529 0.000000
1.000000 0.231373 0.003922
1.000000 0.231373 0.000000
0.003922 0.003922 0.000000
0.003922 0.003922 0.000000
0.011765 0.007843 0.000000
0.027451 0.011765 0.000000
0.043137 0.011765 0.000000
0.050980 0.007843 0.000000
0.062745 0.007843 0.000000
0.070588 0.011765 0.000000
0.086275 0.015686 0.000000
0.101961 0.019608 0.000000
0.117647 0.019608 0.000000
0.129412 0.019608 0.003922
0.133333 0.019608 0.000000
0.141176 0.019608 0.000000
0.160784 0.023529 0.000000
0.176471 0.023529 0.003922
0.192157 0.035294 0.000000
0.200000 0.031373 0.000000
0.219608 0.035294 0.003922
0.231373 0.035294 0.000000
0.250980 0.039216 0.000000
0.270588 0.043137 0.000000
0.282353 0.047059 0.003922
0.286275 0.054902 0.000000
0.309804 0.050980 0.000000
0.321569 0.062745 0.000000
0.333333 0.062745 0.003922
0.360784 0.062745 0.000000
0.388235 0.070588 0.003922
0.407843 0.074510 0.000000
0.419608 0.082353 0.000000
0.431373 0.086275 0.000000
0.458824 0.090196 0.000000
0.474510 0.090196 0.000000
0.498039 0.101961 0.000000
0.513725 0.105882 0.000000
0.537255 0.105882 0.000000
0.564706 0.117647 0.007843
0.572549 0.121569 0.000000
0.592157 0.117647 0.003922
0.619608 0.133333 0.000000
0.631373 0.137255 0.000000
0.654902 0.141176 0.000000
0.674510 0.145098 0.000000
0.701961 0.156863 0.003922
0.721569 0.152941 0.000000
0.741176 0.156863 0.000000
0.756863 0.168627 0.003922
0.784314 0.168627 0.000000
0.800000 0.172549 0.000000
0.819608 0.176471 0.000000
0.839216 0.180392 0.000000
0.854902 0.192157 0.000000
0.874510 0.196078 0.000000
0.898039 0.196078 0.000000
0.913725 0.203922 0.003922
0.933333 0.207843 0.000000
0.949020 0.211765 0.000000
0.968627 0.215686 0.000000
0.984314 0.215686 0.000000
1.000000 0.223529 0.000000
1.000000 0.223529 0.000000
1.000000 0.231373 0.003922
1.000000 0.239216 0.007843
0.007843 0.015686 0.000000
0.007843 0.015686 0.000000
0.015686 0.019608 0.000000
0.031373 0.019608 0.000000
0.039216 0.019608 0.000000
0.054902 0.027451 0.003922
0.066667 0.023529 0.000000
0.066667 0.027451 0.000000
0.090196 0.023529 0.000000
0.098039 0.023529 0.000000
0.113725 0.023529 0.000000
0.121569 0.027451 0.000000
0.137255 0.031373 0.003922
0.152941 0.035294 0.003922
0.164706 0.035294 0.000000
0.172549 0.039216 0.000000
0.188235 0.039216 0.000000
0.192157 0.043137 0.000000
0.227451 0.043137 0.011765
0.231373 0.043137 0.003922
0.250980 0.047059 0.000000
0.250980 0.058824 0.000000
0.274510 0.054902 0.000000
0.298039 0.054902 0.003922
0.309804 0.062745 0.000000
0.325490 0.066667 0.003922
0.341176 0.070588 0.007843
0.368627 0.074510 0.000000
0.384314 0.078431 0.000000
0.400000 0.086275 0.000000
0.423529 0.086275 0.000000
0.439216 0.098039 0.000000
0.454902 0.098039 0.000000
0.474510 0.098039 0.000000
0.498039 0.105882 0.003922
0.521569 0.113725 0.007843
0.533333 0.113725 0.003922
0.552941 0.117647 0.003922
0.576471 0.125490 0.003922
0.596078 0.129412 0.003922
0.615686 0.137255 0.000000
0.631373 0.137255 0.000000
0.654902 0.149020 0.000000
0.678431 0.156863 0.003922
0.701961 0.156863 0.003922
0.721569 0.160784 0.000000
0.733333 0.168627 0.000000
0.756863 0.168627 0.000000
0.776471 0.172549 0.000000
0.796078 0.184314 0.000000
0.819608 0.184314 0.000000
0.839216 0.188235 0.000000
0.854902 0.192157 0.000000
0.874510 0.196078 0.000000
0.898039 0.203922 0.003922
0.913725 0.203922 0.003922
0.933333 0.207843 0.000000
0.949020 0.215686 0.007843
0.960784 0.223529 0.003922
0.980392 0.227451 0.003922
0.992157 0.231373 0.000000
1.000000 0.231373 0.000000
1.000000 0.239216 0.000000
1.000000 0.239216 0.000000
0.000000 0.031373 0.000000
0.003922 0.031373 0.000000
0.019608 0.031373 0.003922
0.031373 0.027451 0.007843
0.043137 0.023529 0.000000
0.058824 0.023529 0.000000
0.062745 0.027451 0.000000
0.070588 0.031373 0.000000
0.086275 0.035294 0.003922
0.094118 0.039216 0.003922
0.109804 0.039216 0.000000
0.125490 0.039216 0.000000
0.145098 0.039216 0.003922
0.149020 0.035294 0.003922
0.168627 0.043137 0.000000
0.172549 0.047059 0.000000
0.184314 0.054902 0.000000
0.200000 0.050980 0.000000
0.219608 0.054902 0.007843
0.227451 0.054902 0.003922
0.239216 0.058824 0.000000
0.266667 0.058824 0.003922
0.286275 0.062745 0.000000
0.290196 0.066667 0.000000
0.301961 0.070588 0.000000
0.321569 0.074510 0.003922
0.345098 0.078431 0.003922
0.360784 0.078431 0.000000
0.380392 0.090196 0.000000
0.400000 0.098039 0.000000
0.419608 0.101961 0.000000
0.439216 0.098039 0.000000
0.454902 0.101961 0.000000
0.482353 0.105882 0.007843
0.494118 0.113725 0.000000
0.513725 0.117647 0.000000
0.537255 0.121569 0.000000
0.560784 0.129412 0.000000
0.576471 0.133333 0.000000
0.600000 0.137255 0.000000
0.611765 0.145098 0.000000
0.639216 0.149020 0.000000
0.650980 0.149020 0.000000
0.674510 0.152941 0.000000
0.705882 0.160784 0.000000
0.725490 0.164706 0.000000
0.733333 0.168627 0.000000
0.760784 0.172549 0.003922
0.776471 0.180392 0.000000
0.788235 0.188235 0.000000
0.815686 0.192157 0.003922
0.839216 0.200000 0.007843
0.854902 0.200000 0.003922
0.874510 0.203922 0.000000
0.898039 0.211765 0.003922
0.913725 0.215686 0.003922
0.933333 0.219608 0.000000
0.945098 0.219608 0.000000
0.960784 0.227451 0.000000
0.980392 0.231373 0.000000
1.000000 0.231373 0.003922
1.000000 0.231373 0.000000
1.000000 0.239216 0.000000
0.992157 0.243137 0.000000
0.000000 0.043137 0.003922
0.000000 0.039216 0.000000
0.015686 0.039216 0.000000
0.027451 0.039216 0.003922
0.043137 0.043137 0.003922
0.058824 0.043137 0.007843
0.070588 0.039216 0.000000
0.078431 0.039216 0.003922
0.090196 0.039216 0.003922
0.098039 0.043137 0.000000
0.113725 0.050980 0.000000
0.121569 0.050980 0.000000
0.137255 0.050980 0.000000
0.156863 0.054902 0.000000
0.164706 0.050980 0.000000
0.172549 0.058824 0.003922
0.184314 0.062745 0.000000
0.207843 0.062745 0.000000
0.211765 0.058824 0.000000
0.227451 0.066667 0.000000
0.254902 0.062745 0.000000
0.258824 0.066667 0.000000
0.278431 0.078431 0.003922
0.294118 0.074510 0.000000
0.305882 0.078431 0.000000
0.325490 0.086275 0.003922
0.345098 0.086275 0.000000
0.360784 0.094118 0.003922
0.380392 0.090196 0.000000
0.396078 0.101961 0.000000
0.415686 0.101961 0.000000
0.439216 0.105882 0.000000
0.447059 0.109804 0.000000
0.470588 0.117647 0.000000
0.494118 0.121569 0.000000
0.513725 0.125490 0.000000
0.537255 0.129412 0.000000
0.556863 0.133333 0.000000
0.568627 0.137255 0.000000
0.596078 0.145098 0.000000
0.615686 0.149020 0.000000
0.635294 0.152941 0.000000
0.650980 0.164706 0.000000
0.670588 0.164706 0.000000
0.701961 0.164706 0.000000
0.721569 0.172549 0.003922
0.737255 0.180392 0.000000
0.756863 0.184314 0.000000
0.772549 0.188235 0.000000
0.792157 0.192157 0.000000
0.819608 0.196078 0.007843
0.839216 0.200000 0.000000
0.858824 0.203922 0.000000
0.878431 0.207843 0.000000
0.886275 0.211765 0.000000
0.909804 0.215686 0.003922
0.929412 0.223529 0.000000
0.949020 0.227451 0.000000
0.964706 0.231373 0.000000
0.988235 0.227451 0.000000
1.000000 0.239216 0.000000
1.000000 0.239216 0.000000
0.996078 0.247059 0.000000
1.000000 0.250980 0.003922
0.000000 0.054902 0.000000
0.003922 0.050980 0.000000
0.007843 0.050980 0.000000
0.019608 0.050980 0.000000
0.043137 0.058824 0.003922
0.050980 0.054902 0.000000
0.074510 0.050980 0.003922
0.086275 0.047059 0.000000
0.086275 0.050980 0.000000
0.105882 0.058824 0.003922
0.109804 0.058824 0.000000
0.113725 0.062745 0.000000
0.137255 0.062745 0.000000
0.152941 0.062745 0.000000
0.172549 0.066667 0.000000
0.180392 0.066667 0.003922
0.188235 0.078431 0.000000
0.203922 0.074510 0.000000
0.219608 0.074510 0.003922
0.235294 0.074510 0.003922
0.247059 0.078431 0.003922
0.262745 0.078431 0.000000
0.278431 0.078431 0.000000
0.294118 0.090196 0.007843
0.309804 0.090196 0.000000
0.329412 0.094118 0.000000
0.349020 0.098039 0.000000
0.360784 0.105882 0.000000
0.384314 0.105882 0.000000
0.403922 0.101961 0.000000
0.411765 0.109804 0.000000
0.427451 0.117647 0.000000
0.454902 0.121569 0.000000
0.474510 0.125490 0.000000
0.494118 0.133333 0.000000
0.509804 0.133333 0.000000
0.541176 0.141176 0.000000
0.556863 0.145098 0.000000
0.576471 0.145098 0.000000
0.600000 0.149020 0.003922
0.615686 0.156863 0.000000
0.639216 0.164706 0.000000
0.650980 0.164706 0.000000
0.674510 0.168627 0.003922
0.701961 0.176471 0.007843
0.717647 0.176471 0.000000
0.733333 0.188235 0.003922
0.749020 0.184314 0.000000
0.772549 0.196078 0.000000
0.792157 0.200000 0.000000
0.815686 0.200000 0.000000
0.839216 0.207843 0.000000
0.854902 0.207843 0.000000
0.874510 0.215686 0.000000
0.898039 0.223529 0.003922
0.909804 0.223529 0.007843
0.933333 0.227451 0.000000
0.945098 0.231373 0.003922
0.960784 0.231373 0.000000
0.980392 0.239216 0.000000
0.992157 0.243137 0.000000
0.996078 0.247059 0.000000
0.996078 0.250980 0.000000
0.996078 0.254902 0.000000
0.000000 0.066667 0.000000
0.000000 0.066667 0.000000
0.011765 0.066667 0.000000
0.019608 0.070588 0.000000
0.039216 0.066667 0.003922
0.054902 0.062745 0.007843
0.070588 0.062745 0.003922
0.074510 0.062745 0.003922
0.098039 0.062745 0.003922
0.109804 0.062745 0.000000
0.117647 0.066667 0.003922
0.125490 0.074510 0.003922
0.137255 0.070588 0.000000
0.160784 0.070588 0.000000
0.172549 0.074510 0.000000
0.168627 0.082353 0.000000
0.184314 0.078431 0.000000
0.203922 0.082353 0.000000
0.223529 0.086275 0.000000
0.231373 0.090196 0.000000
0.247059 0.082353 0.000000
0.262745 0.086275 0.000000
0.274510 0.094118 0.000000
0.294118 0.098039 0.007843
0.313725 0.101961 0.007843
0.325490 0.109804 0.000000
0.345098 0.105882 0.000000
0.368627 0.113725 0.000000
0.376471 0.113725 0.000000
0.396078 0.117647 0.000000
0.419608 0.117647 0.000000
0.439216 0.129412 0.007843
0.454902 0.125490 0.000000
0.482353 0.137255 0.000000
0.494118 0.141176 0.000000
0.513725 0.145098 0.003922
0.537255 0.145098 0.003922
0.552941 0.145098 0.000000
0.568627 0.156863 0.000000
0.600000 0.160784 0.003922
0.623529 0.164706 0.000000
0.635294 0.172549 0.000000
0.654902 0.176471 0.000000
0.678431 0.184314 0.000000
0.701961 0.184314 0.000000
0.725490 0.192157 0.003922
0.737255 0.192157 0.000000
0.760784 0.200000 0.003922
0.776471 0.200000 0.000000
0.796078 0.203922 0.000000
0.819608 0.203922 0.000000
0.839216 0.207843 0.000000
0.850980 0.215686 0.000000
0.870588 0.219608 0.000000
0.890196 0.223529 0.000000
0.913725 0.231373 0.003922
0.933333 0.227451 0.000000
0.945098 0.235294 0.000000
0.968627 0.243137 0.000000
0.988235 0.247059 0.000000
0.992157 0.250980 0.000000
0.996078 0.254902 0.003922
1.000000 0.258824 0.007843
1.000000 0.258824 0.007843
0.003922 0.078431 0.000000
0.003922 0.078431 0.000000
0.003922 0.078431 0.000000
0.015686 0.074510 0.000000
0.031373 0.078431 0.000000
0.050980 0.078431 0.007843
0.066667 0.078431 0.003922
0.082353 0.078431 0.007843
0.094118 0.074510 0.000000
0.101961 0.074510 0.000000
0.121569 0.078431 0.003922
0.137255 0.078431 0.003922
0.149020 0.078431 0.000000
0.160784 0.078431 0.000000
0.168627 0.090196 0.000000
0.172549 0.094118 0.000000
0.196078 0.094118 0.000000
0.200000 0.098039 0.000000
0.219608 0.101961 0.000000
0.231373 0.098039 0.000000
0.243137 0.101961 0.000000
0.262745 0.105882 0.003922
0.278431 0.105882 0.000000
0.294118 0.109804 0.000000
0.317647 0.105882 0.000000
0.329412 0.121569 0.000000
0.349020 0.117647 0.000000
0.368627 0.117647 0.007843
0.376471 0.121569 0.003922
0.403922 0.129412 0.000000
0.419608 0.133333 0.003922
0.435294 0.137255 0.003922
0.450980 0.137255 0.000000
0.478431 0.145098 0.000000
0.501961 0.152941 0.003922
0.513725 0.152941 0.000000
0.529412 0.156863 0.000000
0.549020 0.160784 0.000000
0.568627 0.164706 0.003922
0.600000 0.160784 0.003922
0.615686 0.172549 0.000000
0.643137 0.180392 0.007843
0.654902 0.184314 0.000000
0.670588 0.188235 0.000000
0.694118 0.188235 0.000000
0.717647 0.196078 0.003922
0.733333 0.203922 0.000000
0.756863 0.203922 0.003922
0.784314 0.207843 0.000000
0.792157 0.211765 0.000000
0.815686 0.219608 0.000000
0.839216 0.227451 0.000000
0.850980 0.223529 0.000000
0.874510 0.231373 0.000000
0.890196 0.235294 0.000000
0.909804 0.239216 0.000000
0.929412 0.243137 0.000000
0.941176 0.247059 0.000000
0.956863 0.247059 0.000000
0.976471 0.250980 0.000000
0.988235 0.258824 0.003922
1.000000 0.258824 0.000000
1.000000 0.258824 0.000000
1.000000 0.262745 0.003922
0.000000 0.094118 0.000000
0.000000 0.094118 0.000000
0.007843 0.094118 0.003922
0.019608 0.094118 0.007843
0.031373 0.090196 0.000000
0.047059 0.094118 0.007843
0.062745 0.094118 0.003922
0.082353 0.098039 0.003922
0.113725 0.090196 0.003922
0.125490 0.082353 0.003922
0.133333 0.090196 0.003922
0.137255 0.098039 0.000000
0.152941 0.098039 0.000000
0.160784 0.098039 0.000000
0.168627 0.101961 0.000000
0.184314 0.101961 0.000000
0.203922 0.105882 0.000000
0.203922 0.113725 0.000000
0.227451 0.105882 0.000000
0.243137 0.109804 0.000000
0.239216 0.117647 0.003922
0.258824 0.121569 0.003922
0.286275 0.113725 0.007843
0.298039 0.121569 0.007843
0.321569 0.121569 0.007843
0.329412 0.129412 0.007843
0.345098 0.133333 0.000000
0.372549 0.137255 0.003922
0.384314 0.137255 0.000000
0.407843 0.141176 0.003922
0.431373 0.149020 0.000000
0.439216 0.152941 0.000000
0.474510 0.152941 0.007843
0.486275 0.156863 0.007843
0.501961 0.160784 0.000000
0.525490 0.168627 0.003922
0.541176 0.168627 0.003922
0.556863 0.172549 0.000000
0.580392 0.180392 0.000000
0.596078 0.188235 0.003922
0.619608 0.184314 0.007843
0.631373 0.192157 0.011765
0.658824 0.196078 0.007843
0.682353 0.207843 0.003922
0.701961 0.203922 0.003922
0.721569 0.207843 0.000000
0.749020 0.211765 0.000000
0.756863 0.215686 0.000000
0.776471 0.219608 0.000000
0.796078 0.223529 0.000000
0.819608 0.223529 0.000000
0.843137 0.231373 0.003922
0.862745 0.235294 0.007843
0.882353 0.239216 0.000000
0.898039 0.243137 0.000000
0.913725 0.243137 0.003922
0.941176 0.247059 0.003922
0.952941 0.250980 0.000000
0.972549 0.254902 0.000000
0.988235 0.258824 0.003922
0.992157 0.262745 0.000000
0.996078 0.266667 0.003922
1.000000 0.270588 0.000000
0.996078 0.274510 0.000000
0.000000 0.113725 0.003922
0.000000 0.113725 0.003922
0.000000 0.113725 0.003922
0.000000 0.113725 0.003922
0.019608 0.117647 0.003922
0.039216 0.109804 0.007843
0.062745 0.113725 0.007843
0.078431 0.109804 0.011765
0.098039 0.109804 0.000000
0.113725 0.109804 0.000000
0.137255 0.109804 0.007843
0.149020 0.101961 0.007843
0.156863 0.101961 0.000000
0.164706 0.101961 0.000000
0.176471 0.109804 0.000000
0.188235 0.113725 0.000000
0.192157 0.117647 0.000000
0.215686 0.125490 0.003922
0.227451 0.125490 0.003922
0.239216 0.125490 0.007843
0.247059 0.125490 0.003922
0.262745 0.125490 0.000000
0.282353 0.129412 0.000000
0.301961 0.133333 0.000000
0.317647 0.137255 0.000000
0.337255 0.141176 0.000000
0.356863 0.145098 0.003922
0.376471 0.149020 0.000000
0.384314 0.152941 0.000000
0.400000 0.156863 0.000000
0.415686 0.160784 0.000000
0.435294 0.164706 0.003922
0.458824 0.168627 0.000000
0.478431 0.168627 0.000000
0.498039 0.172549 0.000000
0.517647 0.176471 0.000000
0.541176 0.180392 0.000000
0.560784 0.184314 0.000000
0.580392 0.188235 0.000000
0.603922 0.188235 0.000000
0.615686 0.196078 0.000000
0.639216 0.200000 0.003922
0.658824 0.203922 0.003922
0.678431 0.211765 0.000000
0.705882 0.215686 0.003922
0.721569 0.219608 0.003922
0.741176 0.223529 0.003922
0.760784 0.227451 0.007843
0.784314 0.235294 0.003922
0.800000 0.235294 0.000000
0.815686 0.239216 0.000000
0.843137 0.239216 0.003922
0.854902 0.247059 0.003922
0.878431 0.247059 0.003922
0.901961 0.254902 0.007843
0.917647 0.254902 0.007843
0.937255 0.258824 0.000000
0.949020 0.266667 0.000000
0.968627 0.266667 0.003922
0.984314 0.266667 0.000000
0.996078 0.274510 0.000000
1.000000 0.278431 0.000000
1.000000 0.286275 0.000000
0.992157 0.290196 0.000000
0.003922 0.125490 0.003922
0.003922 0.125490 0.003922
0.000000 0.125490 0.003922
0.003922 0.125490 0.000000
0.019608 0.125490 0.000000
0.039216 0.121569 0.000000
0.062745 0.121569 0.007843
0.074510 0.125490 0.007843
0.090196 0.125490 0.003922
0.105882 0.125490 0.000000
0.125490 0.129412 0.003922
0.145098 0.125490 0.000000
0.156863 0.121569 0.000000
0.168627 0.117647 0.000000
0.180392 0.121569 0.000000
0.188235 0.121569 0.003922
0.207843 0.129412 0.000000
0.219608 0.129412 0.000000
0.223529 0.137255 0.000000
0.239216 0.137255 0.000000
0.254902 0.137255 0.000000
0.274510 0.141176 0.000000
0.286275 0.149020 0.000000
0.298039 0.149020 0.000000
0.321569 0.152941 0.000000
0.333333 0.156863 0.003922
0.356863 0.152941 0.000000
0.368627 0.160784 0.000000
0.392157 0.168627 0.000000
0.407843 0.164706 0.003922
0.423529 0.176471 0.007843
0.439216 0.168627 0.000000
0.454902 0.176471 0.000000
0.482353 0.184314 0.000000
0.505882 0.192157 0.000000
0.517647 0.192157 0.000000
0.545098 0.192157 0.000000
0.560784 0.196078 0.000000
0.580392 0.200000 0.000000
0.600000 0.203922 0.000000
0.619608 0.207843 0.000000
0.639216 0.211765 0.000000
0.658824 0.219608 0.000000
0.678431 0.223529 0.000000
0.701961 0.223529 0.000000
0.725490 0.231373 0.003922
0.745098 0.235294 0.000000
0.760784 0.235294 0.003922
0.776471 0.239216 0.003922
0.800000 0.247059 0.007843
0.823529 0.247059 0.003922
0.843137 0.250980 0.003922
0.858824 0.258824 0.003922
0.874510 0.262745 0.000000
0.894118 0.266667 0.000000
0.909804 0.262745 0.003922
0.933333 0.266667 0.000000
0.949020 0.274510 0.000000
0.968627 0.282353 0.003922
0.984314 0.278431 0.000000
1.000000 0.278431 0.000000
1.000000 0.282353 0.000000
1.000000 0.286275 0.000000
0.996078 0.294118 0.003922
0.011765 0.133333 0.003922
0.000000 0.141176 0.000000
0.000000 0.141176 0.000000
0.000000 0.145098 0.000000
0.007843 0.141176 0.000000
0.023529 0.141176 0.000000
0.054902 0.141176 0.000000
0.070588 0.137255 0.003922
0.086275 0.145098 0.000000
0.105882 0.145098 0.000000
0.125490 0.141176 0.000000
0.145098 0.133333 0.000000
0.160784 0.137255 0.011765
0.168627 0.129412 0.000000
0.188235 0.129412 0.000000
0.200000 0.137255 0.003922
0.211765 0.137255 0.007843
0.227451 0.141176 0.000000
0.235294 0.141176 0.000000
0.247059 0.149020 0.000000
0.266667 0.149020 0.000000
0.278431 0.152941 0.003922
0.282353 0.156863 0.003922
0.298039 0.160784 0.003922
0.325490 0.164706 0.000000
0.337255 0.168627 0.000000
0.349020 0.176471 0.000000
0.380392 0.172549 0.000000
0.400000 0.180392 0.000000
0.403922 0.184314 0.000000
0.427451 0.184314 0.000000
0.447059 0.188235 0.000000
0.458824 0.192157 0.000000
0.482353 0.196078 0.000000
0.498039 0.203922 0.000000
0.517647 0.203922 0.000000
0.541176 0.207843 0.000000
0.560784 0.211765 0.000000
0.576471 0.215686 0.000000
0.603922 0.215686 0.000000
0.619608 0.219608 0.000000
0.643137 0.227451 0.003922
0.662745 0.231373 0.007843
0.678431 0.231373 0.000000
0.705882 0.235294 0.000000
0.725490 0.239216 0.000000
0.737255 0.247059 0.000000
0.756863 0.250980 0.000000
0.788235 0.250980 0.000000
0.800000 0.254902 0.000000
0.823529 0.254902 0.000000
0.843137 0.258824 0.000000
0.862745 0.262745 0.000000
0.874510 0.270588 0.000000
0.894118 0.274510 0.000000
0.913725 0.278431 0.000000
0.941176 0.274510 0.003922
0.956863 0.282353 0.007843
0.964706 0.282353 0.003922
0.984314 0.286275 0.000000
0.996078 0.294118 0.003922
0.996078 0.294118 0.000000
0.996078 0.301961 0.000000
1.000000 0.305882 0.000000
0.003922 0.152941 0.007843
0.003922 0.152941 0.000000
0.000000 0.156863 0.000000
0.000000 0.160784 0.003922
0.007843 0.156863 0.000000
0.019608 0.156863 0.000000
0.047059 0.156863 0.007843
0.054902 0.156863 0.003922
0.090196 0.149020 0.000000
0.109804 0.149020 0.003922
0.129412 0.160784 0.007843
0.137255 0.156863 0.000000
0.156863 0.160784 0.003922
0.176471 0.156863 0.000000
0.188235 0.152941 0.000000
0.203922 0.149020 0.003922
0.215686 0.156863 0.003922
0.223529 0.149020 0.000000
0.247059 0.160784 0.000000
0.247059 0.164706 0.000000
0.254902 0.164706 0.000000
0.282353 0.168627 0.003922
0.294118 0.172549 0.000000
0.301961 0.172549 0.000000
0.321569 0.176471 0.003922
0.341176 0.180392 0.007843
0.352941 0.188235 0.000000
0.368627 0.184314 0.003922
0.388235 0.188235 0.003922
0.411765 0.192157 0.003922
0.423529 0.203922 0.003922
0.443137 0.200000 0.000000
0.462745 0.196078 0.003922
0.486275 0.203922 0.007843
0.505882 0.211765 0.003922
0.525490 0.211765 0.003922
0.549020 0.215686 0.003922
0.560784 0.223529 0.000000
0.580392 0.227451 0.000000
0.607843 0.231373 0.000000
0.623529 0.231373 0.000000
0.643137 0.235294 0.003922
0.666667 0.243137 0.000000
0.678431 0.250980 0.000000
0.709804 0.247059 0.003922
0.725490 0.250980 0.000000
0.745098 0.254902 0.000000
0.764706 0.258824 0.000000
0.784314 0.262745 0.000000
0.800000 0.266667 0.000000
0.819608 0.270588 0.000000
0.839216 0.274510 0.000000
0.850980 0.282353 0.000000
0.878431 0.282353 0.000000
0.894118 0.286275 0.000000
0.913725 0.290196 0.000000
0.929412 0.290196 0.000000
0.941176 0.294118 0.000000
0.972549 0.301961 0.000000
0.980392 0.301961 0.000000
0.996078 0.301961 0.000000
0.992157 0.309804 0.000000
1.000000 0.305882 0.000000
0.996078 0.313725 0.003922
0.000000 0.168627 0.000000
0.003922 0.172549 0.003922
0.003922 0.172549 0.003922
0.000000 0.168627 0.000000
0.007843 0.168627 0.000000
0.019608 0.172549 0.000000
0.027451 0.172549 0.000000
0.047059 0.176471 0.007843
0.074510 0.176471 0.000000
0.101961 0.176471 0.000000
0.125490 0.168627 0.000000
0.141176 0.168627 0.000000
0.152941 0.176471 0.003922
0.180392 0.176471 0.003922
0.200000 0.172549 0.000000
0.203922 0.168627 0.000000
0.231373 0.160784 0.003922
0.239216 0.172549 0.003922
0.247059 0.176471 0.000000
0.262745 0.168627 0.000000
0.278431 0.172549 0.000000
0.290196 0.176471 0.003922
0.301961 0.180392 0.000000
0.317647 0.184314 0.003922
0.325490 0.192157 0.003922
0.337255 0.196078 0.000000
0.356863 0.200000 0.000000
0.372549 0.203922 0.000000
0.400000 0.203922 0.003922
0.411765 0.211765 0.003922
0.427451 0.211765 0.000000
0.454902 0.207843 0.000000
0.466667 0.219608 0.007843
0.494118 0.223529 0.007843
0.501961 0.223529 0.003922
0.521569 0.231373 0.000000
0.545098 0.231373 0.000000
0.556863 0.235294 0.000000
0.572549 0.243137 0.000000
0.596078 0.243137 0.000000
0.619608 0.247059 0.000000
0.643137 0.254902 0.000000
0.662745 0.258824 0.000000
0.682353 0.262745 0.003922
0.705882 0.262745 0.003922
0.725490 0.266667 0.003922
0.737255 0.270588 0.003922
0.752941 0.270588 0.000000
0.788235 0.278431 0.011765
0.800000 0.278431 0.007843
0.815686 0.282353 0.007843
0.843137 0.286275 0.003922
0.858824 0.290196 0.003922
