assets/luts/LUTs/NAUTIC.CUBE
#Generated with IWLTBAP LUT Generator
#Website: https://luts.iwltbap.com
TITLE "NAUTIC"
LUT_3D_SIZE 4
0.003922 0.000000 0.000000
0.274510 0.027451 0.000000
0.658824 0.133333 0.000000
1.000000 0.231373 0.000000
0.000000 0.329412 0.000000
0.341176 0.341176 0.000000
0.666667 0.376471 0.003922
0.996078 0.415686 0.000000
0.003922 0.807843 0.000000
0.003922 0.800000 0.000000
0.819608 0.792157 0.000000
1.000000 0.717647 0.003922
0.003922 0.992157 0.000000
0.000000 1.000000 0.003922
0.568627 1.000000 0.000000
1.000000 1.000000 0.000000
0.082353 0.000000 0.262745
0.298039 0.003922 0.274510
0.756863 0.000000 0.294118
0.996078 0.000000 0.172549
0.007843 0.329412 0.313725
0.305882 0.305882 0.305882
0.713725 0.286275 0.235294
0.996078 0.317647 0.113725
0.000000 0.800000 0.215686
0.000000 0.800000 0.219608
0.803922 0.788235 0.203922
1.000000 0.705882 0.003922
0.000000 0.996078 0.294118
0.007843 1.000000 0.290196
0.572549 1.000000 0.286275
1.000000 1.000000 0.317647
0.239216 0.000000 0.658824
0.396078 0.003922 0.639216
0.678431 0.000000 0.623529
1.000000 0.000000 0.713725
0.003922 0.188235 0.698039
0.317647 0.152941 0.686275
0.717647 0.000000 0.658824
1.000000 0.286275 0.709804
0.000000 0.784314 0.772549
0.000000 0.784314 0.780392
0.733333 0.741176 0.737255
1.000000 0.670588 0.639216
0.431373 1.000000 0.737255
0.560784 0.996078 0.756863
0.725490 1.000000 0.752941
1.000000 0.996078 0.756863
0.380392 0.000000 1.000000
0.509804 0.000000 1.000000
0.776471 0.000000 0.992157
0.992157 0.000000 1.000000
0.203922 0.003922 0.996078
0.403922 0.000000 1.000000
0.741176 0.000000 1.000000
0.992157 0.000000 1.000000
0.003922 0.576471 0.996078
0.003922 0.556863 1.000000
0.627451 0.517647 1.000000
1.000000 0.364706 0.996078
0.384314 1.000000 0.996078
0.521569 0.996078 0.992157
0.784314 0.996078 1.000000
1.000000 1.000000 0.992157
