assets/luts/LUTs/NAUTIC.CUBE
#Generated with IWLTBAP LUT Generator
#Website: https://luts.iwltbap.com
TITLE "NAUTIC"
LUT_3D_SIZE 8
0.003922 0.000000 0.000000
0.094118 0.000000 0.000000
0.211765 0.027451 0.000000
0.356863 0.058824 0.000000
0.537255 0.105882 0.000000
0.717647 0.149020 0.003922
0.894118 0.192157 0.000000
1.000000 0.231373 0.000000
0.000000 0.113725 0.003922
0.113725 0.109804 0.000000
0.227451 0.125490 0.003922
0.376471 0.149020 0.000000
0.541176 0.180392 0.000000
0.721569 0.219608 0.003922
0.901961 0.254902 0.007843
0.992157 0.290196 0.000000
0.000000 0.258824 0.000000
0.050980 0.266667 0.000000
0.270588 0.274510 0.000000
0.411765 0.278431 0.000000
0.552941 0.305882 0.003922
0.733333 0.333333 0.000000
0.905882 0.360784 0.000000
0.992157 0.384314 0.000000
0.000000 0.474510 0.000000
0.003922 0.478431 0.003922
0.250980 0.478431 0.000000
0.486275 0.478431 0.000000
0.658824 0.466667 0.000000
0.756863 0.482353 0.003922
0.901961 0.498039 0.000000
1.000000 0.513725 0.000000
0.007843 0.682353 0.000000
0.000000 0.698039 0.000000
0.007843 0.690196 0.000000
0.462745 0.690196 0.003922
0.709804 0.678431 0.000000
0.858824 0.643137 0.000000
0.952941 0.631373 0.000000
1.000000 0.639216 0.000000
0.003922 0.843137 0.003922
0.003922 0.847059 0.000000
0.000000 0.843137 0.000000
0.333333 0.847059 0.000000
0.639216 0.835294 0.000000
0.862745 0.835294 0.003922
0.996078 0.768627 0.000000
1.000000 0.752941 0.000000
0.011765 0.956863 0.000000
0.003922 0.960784 0.000000
0.000000 0.960784 0.000000
0.031373 0.960784 0.000000
0.513725 0.949020 0.000000
0.756863 0.941176 0.000000
0.960784 0.933333 0.000000
1.000000 0.866667 0.000000
0.003922 0.992157 0.000000
0.000000 1.000000 0.000000
0.007843 1.000000 0.000000
0.007843 0.996078 0.003922
0.384314 1.000000 0.000000
0.643137 1.000000 0.000000
0.854902 1.000000 0.000000
1.000000 1.000000 0.000000
0.015686 0.000000 0.098039
0.109804 0.000000 0.098039
0.239216 0.003922 0.101961
0.380392 0.000000 0.066667
0.545098 0.000000 0.043137
0.721569 0.066667 0.000000
0.898039 0.129412 0.000000
1.000000 0.184314 0.003922
0.000000 0.109804 0.101961
0.105882 0.105882 0.113725
0.231373 0.109804 0.090196
0.388235 0.121569 0.078431
0.556863 0.137255 0.035294
0.733333 0.172549 0.000000
0.901961 0.207843 0.000000
0.996078 0.247059 0.000000
0.003922 0.262745 0.082353
0.027451 0.270588 0.086275
0.266667 0.258824 0.066667
0.407843 0.266667 0.031373
0.560784 0.290196 0.000000
0.737255 0.317647 0.003922
0.901961 0.341176 0.000000
0.992157 0.356863 0.000000
0.003922 0.470588 0.000000
0.000000 0.482353 0.000000
0.235294 0.474510 0.000000
0.486275 0.478431 0.011765
0.643137 0.462745 0.000000
0.752941 0.470588 0.000000
0.901961 0.490196 0.000000
0.996078 0.501961 0.000000
0.003922 0.686275 0.000000
0.000000 0.690196 0.000000
0.000000 0.686275 0.000000
0.443137 0.690196 0.000000
0.705882 0.682353 0.007843
0.858824 0.643137 0.003922
0.952941 0.631373 0.007843
1.000000 0.639216 0.000000
0.000000 0.847059 0.003922
0.000000 0.854902 0.000000
0.000000 0.847059 0.000000
0.301961 0.847059 0.000000
0.631373 0.839216 0.000000
0.858824 0.831373 0.000000
0.992157 0.772549 0.000000
1.000000 0.752941 0.000000
0.000000 0.960784 0.000000
0.000000 0.960784 0.000000
0.000000 0.960784 0.000000
0.019608 0.960784 0.000000
0.505882 0.949020 0.000000
0.752941 0.945098 0.000000
0.968627 0.933333 0.000000
1.000000 0.862745 0.000000
0.000000 1.000000 0.000000
0.000000 1.000000 0.000000
0.000000 1.000000 0.000000
0.000000 1.000000 0.000000
0.376471 1.000000 0.007843
0.643137 1.000000 0.000000
0.850980 0.996078 0.000000
1.000000 0.996078 0.000000
0.070588 0.003922 0.219608
0.129412 0.000000 0.215686
0.239216 0.000000 0.223529
0.435294 0.000000 0.266667
0.615686 0.000000 0.247059
0.776471 0.000000 0.168627
0.925490 0.000000 0.149020
0.996078 0.003922 0.094118
0.003922 0.070588 0.243137
0.121569 0.078431 0.243137
0.262745 0.054902 0.235294
0.439216 0.015686 0.258824
0.607843 0.003922 0.215686
0.760784 0.000000 0.164706
0.925490 0.003922 0.133333
0.996078 0.074510 0.070588
0.000000 0.262745 0.258824
0.000000 0.262745 0.262745
0.250980 0.243137 0.247059
0.415686 0.239216 0.219608
0.584314 0.239216 0.192157
0.760784 0.250980 0.149020
0.925490 0.262745 0.101961
0.992157 0.294118 0.011765
0.000000 0.470588 0.223529
0.003922 0.474510 0.223529
0.164706 0.462745 0.211765
0.470588 0.466667 0.207843
0.623529 0.439216 0.164706
0.760784 0.450980 0.098039
0.917647 0.454902 0.000000
0.996078 0.462745 0.000000
0.000000 0.686275 0.141176
0.000000 0.686275 0.149020
0.003922 0.682353 0.149020
0.400000 0.682353 0.141176
0.698039 0.670588 0.113725
0.850980 0.635294 0.070588
0.945098 0.623529 0.000000
0.996078 0.619608 0.003922
0.000000 0.847059 0.082353
0.003922 0.847059 0.086275
0.003922 0.847059 0.086275
0.247059 0.847059 0.074510
0.611765 0.831373 0.066667
0.854902 0.831373 0.054902
0.996078 0.768627 0.094118
1.000000 0.749020 0.000000
0.003922 0.960784 0.129412
0.000000 0.956863 0.117647
0.000000 0.956863 0.117647
0.121569 0.952941 0.113725
0.498039 0.945098 0.117647
0.752941 0.949020 0.129412
0.960784 0.933333 0.141176
0.996078 0.866667 0.211765
0.003922 1.000000 0.207843
0.003922 1.000000 0.207843
0.000000 0.996078 0.196078
0.003922 1.000000 0.196078
0.384314 1.000000 0.203922
0.650980 0.996078 0.203922
0.850980 1.000000 0.211765
0.996078 0.996078 0.227451
0.129412 0.000000 0.368627
0.180392 0.003922 0.360784
0.274510 0.000000 0.352941
0.396078 0.000000 0.360784
0.623529 0.000000 0.435294
0.866667 0.003922 0.466667
0.988235 0.003922 0.388235
1.000000 0.000000 0.298039
0.058824 0.047059 0.388235
0.149020 0.035294 0.396078
0.262745 0.007843 0.376471
0.407843 0.000000 0.372549
0.643137 0.000000 0.439216
0.858824 0.000000 0.443137
0.988235 0.000000 0.372549
1.000000 0.000000 0.266667
0.000000 0.231373 0.419608
0.000000 0.215686 0.427451
0.235294 0.196078 0.403922
0.427451 0.152941 0.396078
0.686275 0.176471 0.458824
0.839216 0.058824 0.392157
0.968627 0.003922 0.305882
1.000000 0.015686 0.278431
0.000000 0.466667 0.450980
0.000000 0.470588 0.462745
0.098039 0.458824 0.454902
0.419608 0.427451 0.423529
0.619608 0.403922 0.388235
0.792157 0.392157 0.345098
0.941176 0.384314 0.305882
1.000000 0.388235 0.258824
0.007843 0.682353 0.415686
0.003922 0.690196 0.419608
0.000000 0.674510 0.407843
0.360784 0.658824 0.403922
0.678431 0.658824 0.400000
0.823529 0.615686 0.341176
0.933333 0.596078 0.262745
0.996078 0.580392 0.219608
0.003922 0.850980 0.400000
0.000000 0.850980 0.407843
0.000000 0.847059 0.396078
0.301961 0.835294 0.396078
0.588235 0.831373 0.388235
0.843137 0.827451 0.396078
0.992157 0.768627 0.356863
1.000000 0.741176 0.250980
0.003922 0.956863 0.423529
0.003922 0.956863 0.423529
0.003922 0.956863 0.423529
0.294118 0.952941 0.415686
0.501961 0.945098 0.419608
0.745098 0.941176 0.411765
0.952941 0.933333 0.439216
0.996078 0.870588 0.443137
0.003922 0.996078 0.458824
0.003922 1.000000 0.450980
0.094118 0.996078 0.447059
0.305882 1.000000 0.443137
0.458824 1.000000 0.443137
0.658824 1.000000 0.447059
0.854902 1.000000 0.450980
1.000000 1.000000 0.462745
0.192157 0.003922 0.537255
0.239216 0.003922 0.537255
0.317647 0.003922 0.525490
0.423529 0.000000 0.486275
0.552941 0.003922 0.501961
0.800000 0.000000 0.596078
0.996078 0.003922 0.635294
1.000000 0.000000 0.572549
0.145098 0.000000 0.556863
0.215686 0.000000 0.560784
0.313725 0.000000 0.537255
0.427451 0.000000 0.505882
0.572549 0.000000 0.521569
0.819608 0.000000 0.603922
1.000000 0.000000 0.627451
0.996078 0.003922 0.564706
0.000000 0.160784 0.592157
0.000000 0.164706 0.588235
0.270588 0.137255 0.568627
0.423529 0.074510 0.545098
0.592157 0.000000 0.545098
0.843137 0.000000 0.611765
0.996078 0.078431 0.623529
0.992157 0.003922 0.541176
0.000000 0.411765 0.627451
0.003922 0.403922 0.631373
0.003922 0.380392 0.615686
0.400000 0.341176 0.596078
0.619608 0.301961 0.580392
0.862745 0.400000 0.635294
1.000000 0.360784 0.584314
0.996078 0.270588 0.494118
0.007843 0.666667 0.647059
0.000000 0.674510 0.650980
0.000000 0.666667 0.643137
0.341176 0.650980 0.639216
0.623529 0.615686 0.619608
0.792157 0.592157 0.580392
0.941176 0.560784 0.525490
1.000000 0.541176 0.482353
0.000000 0.854902 0.596078
0.003922 0.850980 0.603922
0.007843 0.843137 0.611765
0.403922 0.835294 0.619608
0.600000 0.823529 0.623529
0.831373 0.815686 0.627451
0.952941 0.772549 0.568627
1.000000 0.737255 0.458824
0.000000 0.952941 0.623529
0.149020 0.952941 0.627451
0.345098 0.949020 0.635294
0.482353 0.945098 0.639216
0.592157 0.937255 0.631373
0.760784 0.933333 0.631373
0.945098 0.929412 0.643137
0.996078 0.886275 0.607843
0.376471 0.996078 0.662745
0.396078 1.000000 0.654902
0.447059 1.000000 0.658824
0.505882 1.000000 0.650980
0.592157 1.000000 0.643137
0.701961 1.000000 0.647059
0.870588 1.000000 0.650980
1.000000 1.000000 0.639216
0.270588 0.003922 0.729412
0.305882 0.000000 0.713725
0.388235 0.000000 0.701961
0.482353 0.003922 0.682353
0.584314 0.003922 0.647059
0.745098 0.003922 0.686275
0.956863 0.000000 0.737255
1.000000 0.000000 0.752941
0.227451 0.000000 0.733333
0.274510 0.000000 0.721569
0.372549 0.000000 0.705882
0.474510 0.003922 0.690196
0.592157 0.000000 0.662745
0.752941 0.000000 0.686275
0.960784 0.003922 0.741176
1.000000 0.003922 0.764706
0.000000 0.109804 0.749020
0.129412 0.098039 0.745098
0.301961 0.031373 0.729412
0.454902 0.003922 0.713725
0.596078 0.000000 0.678431
0.760784 0.000000 0.694118
0.972549 0.000000 0.745098
1.000000 0.137255 0.764706
0.000000 0.317647 0.776471
0.003922 0.301961 0.772549
0.000000 0.298039 0.752941
0.388235 0.262745 0.745098
0.584314 0.192157 0.717647
0.788235 0.109804 0.733333
0.976471 0.309804 0.760784
1.000000 0.482353 0.776471
0.003922 0.588235 0.788235
0.000000 0.584314 0.784314
0.003922 0.572549 0.788235
0.278431 0.549020 0.780392
0.560784 0.513725 0.764706
0.788235 0.470588 0.749020
0.972549 0.635294 0.788235
0.996078 0.619608 0.737255
0.000000 0.839216 0.815686
0.000000 0.831373 0.803922
0.000000 0.835294 0.811765
0.349020 0.819608 0.811765
0.600000 0.811765 0.803922
0.784314 0.784314 0.784314
0.917647 0.760784 0.760784
1.000000 0.733333 0.705882
0.223529 0.960784 0.764706
0.286275 0.960784 0.772549
0.411765 0.956863 0.780392
0.552941 0.949020 0.784314
0.686275 0.937255 0.800000
0.788235 0.933333 0.803922
0.933333 0.929412 0.807843
0.996078 0.898039 0.749020
0.462745 1.000000 0.768627
0.478431 1.000000 0.776471
0.549020 0.996078 0.784314
0.631373 1.000000 0.796078
0.717647 1.000000 0.815686
0.772549 1.000000 0.800000
0.886275 0.996078 0.796078
1.000000 1.000000 0.807843
0.321569 0.000000 0.878431
0.356863 0.003922 0.874510
0.435294 0.003922 0.870588
0.533333 0.003922 0.858824
0.650980 0.000000 0.847059
0.776471 0.000000 0.827451
0.929412 0.000000 0.854902
0.992157 0.000000 0.862745
0.298039 0.000000 0.882353
0.333333 0.000000 0.890196
0.415686 0.000000 0.878431
0.525490 0.000000 0.866667
0.654902 0.000000 0.858824
0.780392 0.003922 0.831373
0.929412 0.003922 0.850980
1.000000 0.000000 0.874510
0.160784 0.000000 0.886275
0.227451 0.000000 0.878431
0.352941 0.000000 0.878431
0.482353 0.003922 0.874510
0.631373 0.000000 0.854902
0.764706 0.003922 0.831373
0.941176 0.000000 0.854902
0.996078 0.003922 0.866667
0.003922 0.250980 0.905882
0.003922 0.250980 0.905882
0.152941 0.235294 0.898039
0.396078 0.180392 0.890196
0.588235 0.058824 0.878431
0.756863 0.000000 0.862745
0.941176 0.000000 0.862745
1.000000 0.149020 0.874510
0.007843 0.494118 0.909804
0.000000 0.494118 0.917647
0.007843 0.470588 0.901961
0.219608 0.439216 0.905882
0.521569 0.403922 0.890196
0.729412 0.301961 0.878431
0.941176 0.266667 0.870588
0.996078 0.541176 0.886275
0.003922 0.733333 0.921569
0.000000 0.737255 0.921569
0.000000 0.733333 0.917647
0.301961 0.725490 0.909804
0.549020 0.721569 0.905882
0.721569 0.686275 0.894118
0.917647 0.639216 0.874510
0.996078 0.807843 0.909804
0.007843 0.941176 0.921569
0.000000 0.937255 0.917647
0.274510 0.941176 0.921569
0.482353 0.937255 0.925490
0.650980 0.933333 0.925490
0.788235 0.921569 0.917647
0.909804 0.909804 0.909804
1.000000 0.882353 0.874510
0.533333 1.000000 0.874510
0.556863 1.000000 0.882353
0.603922 0.996078 0.882353
0.674510 1.000000 0.890196
0.764706 1.000000 0.901961
0.843137 0.996078 0.913725
0.909804 1.000000 0.921569
1.000000 1.000000 0.921569
0.380392 0.000000 1.000000
0.403922 0.000000 1.000000
0.470588 0.000000 1.000000
0.576471 0.000000 1.000000
0.694118 0.000000 1.000000
0.831373 0.003922 1.000000
0.960784 0.000000 1.000000
0.992157 0.000000 1.000000
0.356863 0.000000 1.000000
0.392157 0.000000 1.000000
0.466667 0.000000 1.000000
0.556863 0.003922 1.000000
0.678431 0.000000 1.000000
0.811765 0.000000 0.996078
0.964706 0.003922 1.000000
0.996078 0.007843 1.000000
0.262745 0.000000 1.000000
0.305882 0.003922 1.000000
0.400000 0.003922 0.992157
0.529412 0.000000 1.000000
0.662745 0.000000 1.000000
0.807843 0.003922 1.000000
0.952941 0.000000 1.000000
1.000000 0.000000 1.000000
0.003922 0.192157 1.000000
0.003922 0.184314 0.996078
0.254902 0.156863 1.000000
0.439216 0.090196 0.992157
0.615686 0.000000 1.000000
0.768627 0.003922 1.000000
0.945098 0.000000 0.996078
1.000000 0.000000 0.996078
0.000000 0.384314 1.000000
0.003922 0.380392 0.996078
0.000000 0.388235 1.000000
0.286275 0.384314 0.992157
0.517647 0.337255 1.000000
0.721569 0.239216 1.000000
0.917647 0.000000 0.996078
1.000000 0.000000 0.988235
0.003922 0.658824 1.000000
0.003922 0.658824 1.000000
0.007843 0.654902 1.000000
0.254902 0.650980 1.000000
0.490196 0.635294 0.992157
0.682353 0.600000 0.996078
0.878431 0.501961 0.996078
0.992157 0.494118 1.000000
0.000000 0.866667 1.000000
0.000000 0.866667 1.000000
0.227451 0.858824 1.000000
0.423529 0.862745 1.000000
0.600000 0.866667 1.000000
0.733333 0.862745 1.000000
0.866667 0.839216 1.000000
0.996078 0.803922 0.992157
0.384314 1.000000 0.996078
0.419608 0.996078 0.996078
0.490196 1.000000 1.000000
0.588235 0.996078 1.000000
0.701961 1.000000 1.000000
0.811765 1.000000 1.000000
0.913725 1.000000 0.992157
1.000000 1.000000 0.992157
