assets/luts/LUTs/NOMAD.CUBE
#Generated with IWLTBAP LUT Generator
#Website: https://luts.iwltbap.com
TITLE "Nomad way"
LUT_3D_SIZE 8
0.000000 0.003922 0.000000
0.023529 0.000000 0.000000
0.188235 0.000000 0.000000
0.345098 0.000000 0.000000
0.545098 0.062745 0.000000
0.741176 0.109804 0.000000
0.925490 0.152941 0.000000
1.000000 0.278431 0.035294
0.098039 0.031373 0.003922
0.070588 0.078431 0.000000
0.215686 0.090196 0.007843
0.380392 0.125490 0.007843
0.556863 0.156863 0.000000
0.745098 0.188235 0.000000
0.929412 0.215686 0.000000
0.996078 0.345098 0.023529
0.184314 0.180392 0.000000
0.098039 0.266667 0.000000
0.266667 0.254902 0.000000
0.415686 0.262745 0.000000
0.607843 0.298039 0.000000
0.780392 0.317647 0.003922
0.945098 0.329412 0.000000
1.000000 0.443137 0.011765
0.298039 0.364706 0.000000
0.000000 0.470588 0.000000
0.286275 0.462745 0.000000
0.470588 0.447059 0.000000
0.623529 0.439216 0.000000
0.819608 0.470588 0.000000
0.980392 0.482353 0.000000
1.000000 0.580392 0.101961
0.352941 0.580392 0.003922
0.003922 0.666667 0.003922
0.231373 0.670588 0.003922
0.474510 0.654902 0.000000
0.666667 0.647059 0.003922
0.823529 0.607843 0.000000
0.988235 0.619608 0.000000
1.000000 0.698039 0.000000
0.376471 0.796078 0.003922
0.003922 0.835294 0.000000
0.086275 0.839216 0.000000
0.458824 0.835294 0.000000
0.658824 0.827451 0.000000
0.850980 0.823529 0.000000
0.988235 0.764706 0.007843
0.996078 0.843137 0.000000
0.368627 0.960784 0.000000
0.000000 0.980392 0.000000
0.000000 0.980392 0.000000
0.396078 0.980392 0.000000
0.619608 0.972549 0.000000
0.803922 0.960784 0.000000
0.988235 0.949020 0.000000
0.992157 0.976471 0.000000
0.858824 1.000000 0.592157
0.756863 1.000000 0.666667
0.811765 1.000000 0.662745
0.870588 0.996078 0.658824
0.937255 0.996078 0.662745
1.000000 0.996078 0.682353
0.996078 0.976471 0.709804
1.000000 0.964706 0.772549
0.000000 0.000000 0.000000
0.003922 0.011765 0.000000
0.113725 0.050980 0.000000
0.262745 0.101961 0.000000
0.403922 0.137255 0.000000
0.588235 0.196078 0.003922
0.815686 0.239216 0.000000
0.866667 0.462745 0.011765
0.137255 0.043137 0.000000
0.054902 0.074510 0.098039
0.211765 0.074510 0.090196
0.364706 0.094118 0.082353
0.525490 0.109804 0.054902
0.709804 0.137255 0.007843
0.909804 0.172549 0.000000
1.000000 0.294118 0.168627
0.203922 0.172549 0.000000
0.000000 0.254902 0.105882
0.243137 0.247059 0.090196
0.419608 0.250980 0.094118
0.592157 0.274510 0.066667
0.764706 0.286275 0.007843
0.949020 0.305882 0.000000
1.000000 0.415686 0.180392
0.301961 0.352941 0.000000
0.007843 0.450980 0.121569
0.270588 0.450980 0.105882
0.458824 0.431373 0.078431
0.623529 0.427451 0.054902
0.815686 0.462745 0.023529
0.984314 0.466667 0.000000
1.000000 0.572549 0.219608
0.372549 0.584314 0.003922
0.000000 0.670588 0.007843
0.196078 0.674510 0.003922
0.478431 0.658824 0.000000
0.674510 0.643137 0.003922
0.827451 0.607843 0.000000
0.996078 0.623529 0.000000
0.996078 0.694118 0.176471
0.396078 0.803922 0.007843
0.000000 0.847059 0.000000
0.054902 0.839216 0.000000
0.439216 0.843137 0.000000
0.666667 0.823529 0.000000
0.862745 0.815686 0.000000
0.996078 0.760784 0.007843
1.000000 0.831373 0.098039
0.368627 0.964706 0.000000
0.000000 0.976471 0.003922
0.007843 0.976471 0.007843
0.396078 0.980392 0.000000
0.619608 0.972549 0.000000
0.807843 0.960784 0.000000
0.996078 0.949020 0.000000
0.992157 0.976471 0.141176
0.894118 0.996078 0.647059
0.772549 1.000000 0.701961
0.815686 1.000000 0.694118
0.870588 1.000000 0.690196
0.937255 1.000000 0.698039
0.996078 0.996078 0.713725
0.996078 0.980392 0.741176
1.000000 0.964706 0.796078
0.003922 0.015686 0.074510
0.003922 0.039216 0.098039
0.117647 0.047059 0.133333
0.278431 0.054902 0.121569
0.400000 0.101961 0.109804
0.576471 0.149020 0.090196
0.819608 0.200000 0.054902
0.870588 0.439216 0.215686
0.172549 0.007843 0.152941
0.000000 0.066667 0.270588
0.211765 0.050980 0.278431
0.384314 0.011765 0.278431
0.549020 0.000000 0.239216
0.701961 0.003922 0.200000
0.898039 0.007843 0.196078
0.996078 0.203922 0.329412
0.203922 0.176471 0.207843
0.000000 0.250980 0.298039
0.223529 0.247059 0.294118
0.400000 0.239216 0.270588
0.572549 0.235294 0.254902
0.756863 0.243137 0.235294
0.941176 0.254902 0.211765
1.000000 0.380392 0.337255
0.317647 0.356863 0.219608
0.003922 0.447059 0.329412
0.188235 0.447059 0.298039
0.443137 0.447059 0.290196
0.631373 0.439216 0.278431
0.815686 0.454902 0.278431
0.984314 0.447059 0.235294
1.000000 0.556863 0.360784
0.364706 0.588235 0.168627
0.000000 0.666667 0.278431
0.007843 0.666667 0.262745
0.443137 0.666667 0.262745
0.662745 0.643137 0.235294
0.827451 0.607843 0.227451
1.000000 0.623529 0.250980
1.000000 0.701961 0.349020
0.376471 0.803922 0.000000
0.000000 0.843137 0.235294
0.007843 0.839216 0.235294
0.407843 0.835294 0.223529
0.650980 0.831373 0.200000
0.862745 0.815686 0.141176
1.000000 0.764706 0.152941
0.996078 0.831373 0.290196
0.325490 0.968627 0.000000
0.003922 0.972549 0.239216
0.000000 0.980392 0.250980
0.384314 0.980392 0.239216
0.615686 0.972549 0.223529
0.807843 0.964706 0.200000
0.992157 0.949020 0.152941
0.988235 0.984314 0.317647
0.905882 0.992157 0.701961
0.800000 1.000000 0.768627
0.827451 1.000000 0.760784
0.882353 1.000000 0.764706
0.933333 1.000000 0.768627
0.984314 0.996078 0.780392
0.996078 0.980392 0.796078
0.992157 0.968627 0.835294
0.003922 0.098039 0.270588
0.003922 0.090196 0.286275
0.035294 0.050980 0.329412
0.282353 0.043137 0.313725
0.443137 0.003922 0.305882
0.619608 0.000000 0.270588
0.811765 0.000000 0.243137
0.858824 0.368627 0.384314
0.235294 0.000000 0.317647
0.000000 0.062745 0.435294
0.203922 0.027451 0.439216
0.415686 0.000000 0.435294
0.588235 0.000000 0.450980
0.784314 0.003922 0.439216
0.956863 0.003922 0.388235
1.000000 0.003922 0.501961
0.227451 0.152941 0.372549
0.000000 0.286275 0.450980
0.117647 0.219608 0.447059
0.423529 0.223529 0.447059
0.631373 0.203922 0.458824
0.796078 0.101961 0.415686
0.956863 0.000000 0.345098
0.996078 0.215686 0.439216
0.309804 0.352941 0.376471
0.000000 0.435294 0.450980
0.188235 0.435294 0.454902
0.423529 0.435294 0.454902
0.607843 0.415686 0.427451
0.788235 0.415686 0.407843
0.968627 0.407843 0.376471
0.988235 0.521569 0.474510
0.317647 0.596078 0.368627
0.003922 0.647059 0.470588
0.003922 0.650980 0.454902
0.388235 0.662745 0.427451
0.650980 0.647059 0.423529
0.835294 0.627451 0.423529
0.996078 0.639216 0.435294
1.000000 0.725490 0.521569
0.317647 0.803922 0.313725
0.000000 0.835294 0.443137
0.003922 0.831373 0.411765
0.368627 0.835294 0.411765
0.631373 0.835294 0.403922
0.850980 0.823529 0.368627
0.996078 0.764706 0.372549
1.000000 0.839216 0.478431
0.239216 0.960784 0.176471
0.000000 0.972549 0.423529
0.003922 0.980392 0.415686
0.407843 0.972549 0.419608
0.623529 0.968627 0.419608
0.807843 0.960784 0.400000
0.980392 0.949020 0.372549
0.996078 0.972549 0.494118
0.929412 0.984314 0.792157
0.823529 1.000000 0.839216
0.850980 1.000000 0.831373
0.894118 1.000000 0.839216
0.933333 0.992157 0.839216
0.988235 0.988235 0.839216
0.996078 0.984314 0.862745
1.000000 0.980392 0.901961
0.000000 0.149020 0.443137
0.000000 0.133333 0.454902
0.000000 0.066667 0.466667
0.270588 0.023529 0.443137
0.458824 0.003922 0.439216
0.678431 0.000000 0.470588
0.890196 0.003922 0.466667
0.937255 0.372549 0.611765
0.270588 0.000000 0.454902
0.000000 0.062745 0.580392
0.160784 0.007843 0.576471
0.423529 0.000000 0.576471
0.619608 0.000000 0.584314
0.819608 0.003922 0.600000
1.000000 0.000000 0.596078
0.996078 0.145098 0.705882
0.254902 0.133333 0.509804
0.000000 0.298039 0.596078
0.000000 0.215686 0.580392
0.415686 0.200000 0.596078
0.643137 0.176471 0.600000
0.843137 0.141176 0.603922
1.000000 0.050980 0.584314
0.996078 0.356863 0.682353
0.247059 0.309804 0.513725
0.003922 0.470588 0.580392
0.000000 0.458824 0.584314
0.352941 0.396078 0.576471
0.643137 0.415686 0.603922
0.850980 0.431373 0.611765
0.992157 0.360784 0.541176
0.992157 0.482353 0.631373
0.349020 0.564706 0.533333
0.007843 0.631373 0.584314
0.007843 0.631373 0.576471
0.415686 0.635294 0.592157
0.643137 0.643137 0.596078
0.815686 0.627451 0.572549
0.976471 0.600000 0.537255
1.000000 0.694118 0.615686
0.388235 0.792157 0.521569
0.000000 0.819608 0.596078
0.054902 0.819608 0.592157
0.431373 0.827451 0.592157
0.635294 0.827451 0.572549
0.847059 0.827451 0.560784
1.000000 0.796078 0.572549
1.000000 0.866667 0.650980
0.321569 0.960784 0.447059
0.047059 0.964706 0.607843
0.345098 0.968627 0.607843
0.478431 0.968627 0.600000
0.662745 0.964706 0.596078
0.823529 0.964706 0.588235
0.988235 0.949020 0.564706
0.992157 0.964706 0.658824
0.929412 0.980392 0.874510
0.800000 0.996078 0.882353
0.843137 0.992157 0.890196
0.886275 0.996078 0.898039
0.933333 0.992157 0.901961
0.980392 0.992157 0.909804
1.000000 0.988235 0.921569
0.996078 0.988235 0.941176
0.003922 0.176471 0.603922
0.000000 0.149020 0.607843
0.000000 0.066667 0.623529
0.227451 0.000000 0.592157
0.470588 0.000000 0.592157
0.717647 0.000000 0.635294
0.925490 0.000000 0.639216
0.933333 0.360784 0.788235
0.286275 0.000000 0.611765
0.000000 0.054902 0.717647
0.003922 0.000000 0.709804
0.384314 0.000000 0.717647
0.623529 0.000000 0.737255
0.827451 0.000000 0.756863
1.000000 0.000000 0.752941
1.000000 0.094118 0.886275
0.223529 0.094118 0.647059
0.003922 0.262745 0.733333
0.000000 0.196078 0.717647
0.345098 0.184314 0.741176
0.619608 0.152941 0.749020
0.839216 0.133333 0.764706
1.000000 0.098039 0.756863
0.996078 0.360784 0.858824
0.090196 0.294118 0.631373
0.000000 0.490196 0.733333
0.007843 0.462745 0.733333
0.219608 0.372549 0.729412
0.600000 0.388235 0.756863
0.843137 0.415686 0.772549
0.996078 0.427451 0.760784
1.000000 0.545098 0.847059
0.149020 0.568627 0.678431
0.003922 0.639216 0.721569
0.000000 0.639216 0.725490
0.211765 0.631373 0.741176
0.572549 0.607843 0.737255
0.839216 0.647059 0.764706
0.996078 0.658824 0.764706
1.000000 0.737255 0.819608
0.388235 0.772549 0.705882
0.003922 0.803922 0.745098
0.000000 0.800000 0.741176
0.384314 0.807843 0.752941
0.635294 0.819608 0.756863
0.839216 0.827451 0.768627
0.964706 0.803922 0.737255
0.988235 0.858824 0.784314
0.549020 0.945098 0.678431
0.192157 0.952941 0.776471
0.364706 0.956863 0.780392
0.533333 0.960784 0.776471
0.701961 0.960784 0.780392
0.843137 0.949020 0.772549
0.976471 0.945098 0.752941
0.992157 0.968627 0.835294
0.941176 0.976471 0.956863
0.796078 0.996078 0.968627
0.815686 0.996078 0.956863
0.874510 0.992157 0.960784
0.925490 0.984314 0.956863
0.976471 0.996078 0.968627
0.996078 0.992157 0.972549
0.996078 1.000000 0.980392
0.003922 0.160784 0.784314
0.003922 0.129412 0.796078
0.003922 0.058824 0.780392
0.031373 0.003922 0.756863
0.427451 0.000000 0.752941
0.686275 0.000000 0.811765
0.913725 0.003922 0.847059
0.870588 0.349020 0.917647
0.184314 0.003922 0.776471
0.000000 0.043137 0.882353
0.000000 0.000000 0.878431
0.278431 0.000000 0.870588
0.552941 0.000000 0.894118
0.780392 0.000000 0.905882
0.968627 0.000000 0.921569
0.988235 0.219608 0.988235
0.000000 0.094118 0.800000
0.000000 0.227451 0.878431
0.003922 0.188235 0.878431
0.203922 0.172549 0.882353
0.541176 0.145098 0.905882
0.780392 0.137255 0.921569
0.980392 0.149020 0.933333
0.992157 0.376471 0.992157
0.000000 0.274510 0.792157
0.000000 0.478431 0.905882
0.000000 0.431373 0.898039
0.000000 0.356863 0.894118
0.501961 0.372549 0.921569
0.772549 0.400000 0.917647
0.976471 0.431373 0.929412
0.992157 0.564706 0.984314
0.003922 0.584314 0.858824
0.000000 0.654902 0.901961
0.000000 0.647059 0.905882
0.039216 0.627451 0.905882
0.482353 0.580392 0.909804
0.768627 0.619608 0.921569
0.968627 0.658824 0.925490
1.000000 0.749020 0.976471
0.235294 0.768627 0.854902
0.003922 0.792157 0.901961
0.003922 0.792157 0.901961
0.149020 0.796078 0.901961
0.513725 0.803922 0.909804
0.768627 0.796078 0.905882
0.964706 0.835294 0.917647
0.996078 0.882353 0.960784
0.490196 0.937255 0.878431
0.000000 0.945098 0.917647
0.215686 0.945098 0.925490
0.466667 0.937255 0.921569
0.666667 0.952941 0.925490
0.827451 0.941176 0.921569
0.956863 0.952941 0.933333
0.972549 0.972549 0.941176
0.909804 0.976471 1.000000
0.803922 0.980392 1.000000
0.835294 0.984314 0.996078
0.874510 0.984314 1.000000
0.929412 0.980392 1.000000
0.956863 0.988235 0.996078
1.000000 1.000000 1.000000
1.000000 1.000000 1.000000
0.000000 0.164706 0.933333
0.000000 0.149020 0.949020
0.000000 0.105882 0.933333
0.000000 0.082353 0.901961
0.262745 0.047059 0.898039
0.564706 0.003922 0.945098
0.823529 0.000000 0.976471
0.788235 0.400000 1.000000
0.003922 0.000000 0.945098
0.000000 0.066667 1.000000
0.003922 0.015686 1.000000
0.000000 0.000000 0.992157
0.439216 0.003922 1.000000
0.678431 0.000000 1.000000
0.890196 0.003922 0.992157
0.913725 0.290196 0.996078
0.000000 0.098039 0.945098
0.000000 0.207843 1.000000
0.000000 0.200000 1.000000
0.000000 0.192157 0.996078
0.427451 0.184314 1.000000
0.682353 0.180392 1.000000
0.890196 0.215686 1.000000
0.929412 0.419608 1.000000
0.007843 0.266667 0.933333
0.003922 0.443137 1.000000
0.003922 0.392157 1.000000
0.000000 0.360784 1.000000
0.400000 0.368627 1.000000
0.686275 0.392157 1.000000
0.898039 0.439216 1.000000
0.921569 0.580392 0.988235
0.000000 0.592157 1.000000
0.003922 0.639216 1.000000
0.003922 0.631373 1.000000
0.003922 0.615686 0.988235
0.411765 0.576471 1.000000
0.701961 0.603922 1.000000
0.898039 0.647059 0.996078
0.937255 0.749020 0.992157
0.305882 0.784314 1.000000
0.000000 0.788235 1.000000
0.000000 0.788235 1.000000
0.121569 0.792157 1.000000
0.556863 0.796078 1.000000
0.721569 0.788235 0.992157
0.894118 0.819608 1.000000
0.960784 0.882353 0.996078
0.505882 0.921569 1.000000
0.000000 0.909804 0.996078
0.215686 0.913725 1.000000
0.439216 0.909804 0.996078
0.623529 0.925490 0.996078
0.784314 0.929412 0.992157
0.925490 0.937255 0.996078
0.988235 0.964706 1.000000
0.772549 0.984314 0.992157
0.643137 0.988235 0.996078
0.694118 0.988235 1.000000
0.756863 0.992157 1.000000
0.843137 0.992157 1.000000
0.921569 0.992157 1.000000
0.992157 1.000000 0.996078
0.996078 1.000000 1.000000
