assets/luts/LUTs/NOMAD.CUBE
#Generated with IWLTBAP LUT Generator
#Website: https://luts.iwltbap.com
TITLE "Nomad way"
LUT_3D_SIZE 4
0.000000 0.003922 0.000000
0.235294 0.000000 0.000000
0.682353 0.094118 0.000000
1.000000 0.278431 0.035294
0.211765 0.235294 0.000000
0.329412 0.317647 0.000000
0.737255 0.360784 0.000000
1.000000 0.494118 0.027451
0.380392 0.725490 0.000000
0.298039 0.784314 0.000000
0.800000 0.776471 0.003922
0.996078 0.792157 0.000000
0.858824 1.000000 0.592157
0.831373 0.996078 0.666667
0.984314 0.992157 0.666667
1.000000 0.964706 0.772549
0.000000 0.043137 0.137255
0.180392 0.054902 0.215686
0.501961 0.098039 0.141176
0.866667 0.419608 0.278431
0.235294 0.227451 0.270588
0.282353 0.305882 0.352941
0.701961 0.294118 0.298039
1.000000 0.419608 0.380392
0.352941 0.745098 0.164706
0.172549 0.796078 0.321569
0.800000 0.764706 0.250980
1.000000 0.788235 0.372549
0.909804 0.980392 0.737255
0.854902 1.000000 0.788235
0.968627 0.996078 0.792157
1.000000 0.972549 0.862745
0.000000 0.168627 0.545098
0.000000 0.043137 0.552941
0.627451 0.000000 0.556863
0.937255 0.364706 0.729412
0.219608 0.172549 0.572549
0.007843 0.247059 0.670588
0.780392 0.243137 0.705882
0.992157 0.427451 0.807843
0.388235 0.713725 0.635294
0.113725 0.756863 0.690196
0.780392 0.776471 0.705882
1.000000 0.807843 0.725490
0.937255 0.976471 0.933333
0.858824 0.984314 0.925490
0.960784 0.992157 0.941176
0.996078 0.992157 0.976471
0.000000 0.164706 0.933333
0.000000 0.094118 0.917647
0.474510 0.011765 0.937255
0.788235 0.400000 1.000000
0.003922 0.160784 0.929412
0.003922 0.250980 0.992157
0.600000 0.250980 0.996078
0.917647 0.474510 1.000000
0.286275 0.745098 0.988235
0.003922 0.733333 0.996078
0.635294 0.725490 1.000000
0.949020 0.854902 0.996078
0.772549 0.984314 0.992157
0.713725 0.992157 1.000000
0.898039 0.992157 1.000000
0.996078 1.000000 1.000000
