assets/luts/LUTs/PEACOCK.CUBE
#Generated with IWLTBAP LUT Generator
#Website: https://luts.iwltbap.com
TITLE "lake"
LUT_3D_SIZE 4
0.000000 0.003922 0.000000
0.101961 0.000000 0.003922
0.537255 0.000000 0.000000
0.996078 0.113725 0.000000
0.078431 0.101961 0.000000
0.117647 0.141176 0.007843
0.431373 0.215686 0.000000
0.976471 0.419608 0.000000
0.415686 0.662745 0.000000
0.431373 0.721569 0.000000
0.717647 0.717647 0.003922
0.996078 0.796078 0.000000
0.850980 1.000000 0.517647
0.831373 1.000000 0.631373
0.964706 0.984314 0.529412
1.000000 0.917647 0.400000
0.003922 0.000000 0.031373
0.082353 0.011765 0.066667
0.415686 0.000000 0.015686
0.705882 0.274510 0.000000
0.101961 0.109804 0.090196
0.113725 0.137255 0.121569
0.600000 0.094118 0.070588
0.996078 0.117647 0.039216
0.407843 0.674510 0.000000
0.247059 0.737255 0.000000
0.733333 0.709804 0.000000
1.000000 0.745098 0.000000
0.905882 0.988235 0.725490
0.839216 1.000000 0.772549
0.952941 0.984314 0.760784
1.000000 0.933333 0.658824
0.000000 0.003922 0.427451
0.176471 0.000000 0.474510
0.490196 0.003922 0.458824
0.858824 0.000000 0.682353
0.258824 0.000000 0.525490
0.203922 0.000000 0.635294
0.690196 0.000000 0.690196
1.000000 0.000000 0.843137
0.000000 0.615686 0.525490
0.000000 0.690196 0.639216
0.658824 0.701961 0.670588
1.000000 0.686275 0.690196
0.874510 0.976471 0.925490
0.556863 1.000000 0.882353
0.949020 0.980392 0.929412
1.000000 0.956863 0.882353
0.078431 0.000000 0.878431
0.258824 0.000000 0.866667
0.525490 0.003922 0.847059
0.737255 0.000000 0.929412
0.349020 0.000000 0.941176
0.329412 0.007843 0.996078
0.674510 0.003922 1.000000
0.929412 0.000000 0.996078
0.000000 0.333333 0.898039
0.000000 0.321569 0.952941
0.572549 0.509804 1.000000
0.972549 0.705882 1.000000
0.011765 0.949020 1.000000
0.011765 0.996078 1.000000
0.552941 1.000000 1.000000
1.000000 0.996078 1.000000
