assets/luts/LUTs/PEACOCK.CUBE
#Generated with IWLTBAP LUT Generator
#Website: https://luts.iwltbap.com
TITLE "lake"
LUT_3D_SIZE 64
0.000000 0.003922 0.000000
0.000000 0.000000 0.000000
0.000000 0.000000 0.000000
0.000000 0.000000 0.000000
0.000000 0.000000 0.000000
0.000000 0.000000 0.000000
0.000000 0.000000 0.000000
0.000000 0.000000 0.000000
0.000000 0.003922 0.000000
0.000000 0.000000 0.000000
0.000000 0.000000 0.000000
0.000000 0.000000 0.000000
0.003922 0.000000 0.000000
0.015686 0.000000 0.000000
0.023529 0.000000 0.000000
0.039216 0.000000 0.003922
0.050980 0.000000 0.000000
0.058824 0.000000 0.000000
0.070588 0.000000 0.000000
0.078431 0.000000 0.000000
0.086275 0.003922 0.000000
0.101961 0.000000 0.003922
0.113725 0.003922 0.000000
0.121569 0.003922 0.003922
0.133333 0.000000 0.000000
0.149020 0.000000 0.000000
0.164706 0.003922 0.000000
0.180392 0.000000 0.000000
0.200000 0.000000 0.000000
0.219608 0.003922 0.000000
0.243137 0.003922 0.000000
0.250980 0.000000 0.000000
0.274510 0.000000 0.000000
0.298039 0.000000 0.000000
0.317647 0.003922 0.000000
0.337255 0.000000 0.003922
0.368627 0.000000 0.000000
0.392157 0.000000 0.000000
0.423529 0.000000 0.000000
0.447059 0.000000 0.000000
0.474510 0.000000 0.000000
0.501961 0.000000 0.000000
0.537255 0.000000 0.000000
0.572549 0.003922 0.000000
0.596078 0.003922 0.000000
0.627451 0.000000 0.000000
0.662745 0.000000 0.000000
0.686275 0.000000 0.000000
0.721569 0.003922 0.000000
0.749020 0.000000 0.000000
0.784314 0.003922 0.000000
0.811765 0.000000 0.000000
0.843137 0.000000 0.000000
0.866667 0.000000 0.000000
0.898039 0.000000 0.000000
0.929412 0.000000 0.000000
0.956863 0.000000 0.000000
0.972549 0.007843 0.000000
1.000000 0.003922 0.003922
0.988235 0.003922 0.000000
0.996078 0.000000 0.007843
0.996078 0.000000 0.000000
0.996078 0.003922 0.000000
0.996078 0.113725 0.000000
0.000000 0.000000 0.007843
0.003922 0.000000 0.000000
0.000000 0.003922 0.000000
0.000000 0.003922 0.000000
0.011765 0.000000 0.000000
0.000000 0.000000 0.015686
0.000000 0.007843 0.000000
0.000000 0.000000 0.007843
0.000000 0.000000 0.007843
0.000000 0.000000 0.007843
0.000000 0.003922 0.000000
0.000000 0.003922 0.000000
0.000000 0.000000 0.000000
0.015686 0.000000 0.003922
0.023529 0.000000 0.000000
0.035294 0.003922 0.000000
0.047059 0.000000 0.007843
0.054902 0.000000 0.000000
0.070588 0.000000 0.000000
0.078431 0.000000 0.003922
0.086275 0.003922 0.000000
0.098039 0.003922 0.003922
0.113725 0.003922 0.000000
0.121569 0.003922 0.003922
0.137255 0.000000 0.000000
0.149020 0.000000 0.000000
0.164706 0.003922 0.000000
0.188235 0.000000 0.000000
0.200000 0.000000 0.000000
0.219608 0.000000 0.003922
0.235294 0.000000 0.000000
0.254902 0.003922 0.000000
0.278431 0.000000 0.000000
0.298039 0.000000 0.007843
0.317647 0.000000 0.003922
0.337255 0.000000 0.003922
0.360784 0.000000 0.003922
0.392157 0.000000 0.000000
0.415686 0.003922 0.000000
0.439216 0.003922 0.000000
0.470588 0.003922 0.000000
0.501961 0.000000 0.000000
0.529412 0.000000 0.000000
0.556863 0.003922 0.000000
0.596078 0.003922 0.000000
0.627451 0.000000 0.000000
0.662745 0.000000 0.000000
0.694118 0.000000 0.000000
0.725490 0.000000 0.000000
0.749020 0.000000 0.000000
0.784314 0.003922 0.000000
0.811765 0.000000 0.000000
0.839216 0.000000 0.000000
0.870588 0.003922 0.000000
0.905882 0.000000 0.000000
0.929412 0.000000 0.000000
0.956863 0.003922 0.000000
0.980392 0.000000 0.003922
0.996078 0.000000 0.000000
0.992157 0.000000 0.000000
0.996078 0.000000 0.007843
1.000000 0.003922 0.003922
0.996078 0.000000 0.007843
0.988235 0.145098 0.000000
0.003922 0.000000 0.000000
0.000000 0.000000 0.000000
0.000000 0.000000 0.000000
0.000000 0.000000 0.000000
0.000000 0.000000 0.007843
0.003922 0.003922 0.003922
0.000000 0.003922 0.000000
0.003922 0.000000 0.000000
0.000000 0.003922 0.000000
0.000000 0.000000 0.000000
0.000000 0.000000 0.000000
0.000000 0.000000 0.000000
0.007843 0.000000 0.003922
0.019608 0.003922 0.007843
0.023529 0.000000 0.000000
0.035294 0.000000 0.000000
0.047059 0.000000 0.000000
0.062745 0.000000 0.000000
0.074510 0.003922 0.003922
0.078431 0.000000 0.000000
0.082353 0.000000 0.000000
0.098039 0.000000 0.000000
0.117647 0.000000 0.000000
0.125490 0.000000 0.003922
0.133333 0.000000 0.000000
0.152941 0.003922 0.003922
0.160784 0.000000 0.000000
0.180392 0.000000 0.000000
0.196078 0.000000 0.003922
0.215686 0.000000 0.000000
0.235294 0.000000 0.000000
0.250980 0.000000 0.000000
0.266667 0.000000 0.000000
0.282353 0.003922 0.003922
0.313725 0.000000 0.000000
0.333333 0.000000 0.000000
0.360784 0.000000 0.003922
0.392157 0.000000 0.007843
0.411765 0.000000 0.000000
0.439216 0.003922 0.000000
0.470588 0.003922 0.000000
0.494118 0.003922 0.000000
0.525490 0.000000 0.000000
0.556863 0.003922 0.000000
0.588235 0.000000 0.007843
0.623529 0.007843 0.011765
0.666667 0.000000 0.003922
0.694118 0.000000 0.000000
0.721569 0.000000 0.000000
0.752941 0.003922 0.003922
0.784314 0.003922 0.000000
0.811765 0.000000 0.000000
0.847059 0.003922 0.003922
0.878431 0.000000 0.003922
0.901961 0.003922 0.000000
0.929412 0.000000 0.000000
0.956863 0.000000 0.000000
0.984314 0.000000 0.000000
0.996078 0.000000 0.000000
0.996078 0.000000 0.000000
1.000000 0.003922 0.011765
0.996078 0.000000 0.000000
0.996078 0.003922 0.000000
0.996078 0.152941 0.003922
0.003922 0.000000 0.000000
0.000000 0.000000 0.007843
0.000000 0.000000 0.015686
0.000000 0.000000 0.000000
0.000000 0.000000 0.000000
0.000000 0.000000 0.000000
0.000000 0.000000 0.015686
0.003922 0.000000 0.000000
0.000000 0.000000 0.007843
0.000000 0.000000 0.007843
0.000000 0.000000 0.007843
0.000000 0.000000 0.000000
0.003922 0.000000 0.000000
0.015686 0.000000 0.003922
0.023529 0.000000 0.000000
0.031373 0.000000 0.000000
0.054902 0.000000 0.000000
0.062745 0.000000 0.003922
0.070588 0.000000 0.000000
0.078431 0.000000 0.003922
0.086275 0.000000 0.007843
0.098039 0.000000 0.000000
0.109804 0.000000 0.000000
0.121569 0.003922 0.000000
0.133333 0.000000 0.000000
0.149020 0.000000 0.000000
0.160784 0.000000 0.000000
0.176471 0.000000 0.000000
0.196078 0.000000 0.003922
0.211765 0.000000 0.000000
0.231373 0.003922 0.000000
0.239216 0.000000 0.000000
0.258824 0.000000 0.000000
0.278431 0.000000 0.000000
0.305882 0.000000 0.000000
0.333333 0.003922 0.003922
0.352941 0.000000 0.000000
0.376471 0.003922 0.000000
0.407843 0.000000 0.000000
0.431373 0.000000 0.000000
0.462745 0.000000 0.000000
0.494118 0.000000 0.003922
0.513725 0.000000 0.000000
0.552941 0.003922 0.007843
0.588235 0.000000 0.003922
0.619608 0.003922 0.007843
0.654902 0.000000 0.000000
0.686275 0.000000 0.000000
0.725490 0.000000 0.000000
0.756863 0.000000 0.000000
0.784314 0.003922 0.000000
0.811765 0.000000 0.000000
0.847059 0.003922 0.003922
0.878431 0.000000 0.003922
0.901961 0.003922 0.000000
0.937255 0.000000 0.000000
0.956863 0.003922 0.000000
0.984314 0.000000 0.000000
0.996078 0.000000 0.000000
0.996078 0.000000 0.007843
0.996078 0.003922 0.000000
0.996078 0.000000 0.000000
0.996078 0.000000 0.007843
1.000000 0.168627 0.000000
0.000000 0.000000 0.007843
0.000000 0.000000 0.000000
0.000000 0.000000 0.000000
0.000000 0.000000 0.000000
0.003922 0.000000 0.000000
0.007843 0.000000 0.011765
0.000000 0.000000 0.007843
0.003922 0.000000 0.000000
0.000000 0.000000 0.000000
0.000000 0.000000 0.000000
0.000000 0.000000 0.000000
0.000000 0.000000 0.000000
0.007843 0.000000 0.003922
0.019608 0.003922 0.000000
0.035294 0.003922 0.003922
0.043137 0.000000 0.000000
0.054902 0.000000 0.000000
0.058824 0.000000 0.000000
0.070588 0.000000 0.000000
0.078431 0.000000 0.003922
0.086275 0.000000 0.007843
0.094118 0.000000 0.000000
0.109804 0.000000 0.000000
0.117647 0.000000 0.000000
0.141176 0.000000 0.000000
0.149020 0.000000 0.000000
0.160784 0.000000 0.000000
0.172549 0.000000 0.000000
0.192157 0.003922 0.003922
0.203922 0.000000 0.007843
0.219608 0.000000 0.003922
0.235294 0.000000 0.000000
0.258824 0.000000 0.000000
0.274510 0.000000 0.003922
0.298039 0.000000 0.000000
0.321569 0.003922 0.000000
0.345098 0.000000 0.000000
0.372549 0.000000 0.000000
0.403922 0.000000 0.000000
0.427451 0.003922 0.003922
0.454902 0.003922 0.000000
0.478431 0.003922 0.000000
0.513725 0.000000 0.000000
0.549020 0.000000 0.000000
0.576471 0.000000 0.000000
0.611765 0.000000 0.003922
0.650980 0.000000 0.000000
0.682353 0.000000 0.003922
0.713725 0.003922 0.000000
0.749020 0.000000 0.000000
0.784314 0.003922 0.000000
0.811765 0.000000 0.000000
0.843137 0.000000 0.000000
0.878431 0.000000 0.003922
0.901961 0.003922 0.000000
0.929412 0.000000 0.007843
0.956863 0.000000 0.000000
0.984314 0.000000 0.007843
0.996078 0.003922 0.000000
0.996078 0.000000 0.007843
0.996078 0.000000 0.000000
0.992157 0.007843 0.003922
0.996078 0.003922 0.000000
0.996078 0.180392 0.000000
0.000000 0.000000 0.000000
0.000000 0.000000 0.015686
0.003922 0.000000 0.000000
0.000000 0.000000 0.000000
0.000000 0.003922 0.011765
0.000000 0.003922 0.000000
0.003922 0.000000 0.007843
0.003922 0.000000 0.000000
0.000000 0.000000 0.007843
0.000000 0.000000 0.000000
0.000000 0.000000 0.000000
0.003922 0.003922 0.003922
0.007843 0.000000 0.003922
0.023529 0.000000 0.000000
0.035294 0.003922 0.003922
0.043137 0.003922 0.007843
0.054902 0.000000 0.000000
0.062745 0.000000 0.003922
0.074510 0.003922 0.003922
0.078431 0.000000 0.003922
0.086275 0.003922 0.000000
0.098039 0.003922 0.003922
0.113725 0.003922 0.000000
0.121569 0.003922 0.003922
0.133333 0.000000 0.003922
0.141176 0.000000 0.000000
0.156863 0.000000 0.000000
0.172549 0.000000 0.000000
0.188235 0.000000 0.000000
0.203922 0.003922 0.000000
0.219608 0.003922 0.000000
0.227451 0.000000 0.000000
0.254902 0.003922 0.000000
0.270588 0.003922 0.003922
0.290196 0.000000 0.003922
0.313725 0.000000 0.003922
0.337255 0.003922 0.000000
0.368627 0.000000 0.000000
0.392157 0.000000 0.000000
0.415686 0.003922 0.000000
0.447059 0.000000 0.000000
0.470588 0.003922 0.000000
0.505882 0.000000 0.000000
0.537255 0.000000 0.000000
0.568627 0.003922 0.003922
0.607843 0.003922 0.003922
0.643137 0.000000 0.003922
0.674510 0.000000 0.007843
0.709804 0.000000 0.003922
0.745098 0.000000 0.007843
0.780392 0.000000 0.000000
0.811765 0.000000 0.000000
0.839216 0.003922 0.000000
0.866667 0.000000 0.000000
0.901961 0.003922 0.000000
0.929412 0.000000 0.000000
0.956863 0.000000 0.000000
0.988235 0.003922 0.000000
0.996078 0.000000 0.007843
0.996078 0.000000 0.000000
1.000000 0.007843 0.000000
1.000000 0.003922 0.003922
0.996078 0.003922 0.000000
0.996078 0.200000 0.003922
0.007843 0.003922 0.000000
0.000000 0.003922 0.000000
0.003922 0.003922 0.000000
0.000000 0.000000 0.007843
0.003922 0.000000 0.007843
0.000000 0.003922 0.000000
0.000000 0.000000 0.000000
0.000000 0.000000 0.000000
0.000000 0.003922 0.000000
0.000000 0.000000 0.000000
0.000000 0.000000 0.000000
0.003922 0.000000 0.000000
0.015686 0.000000 0.000000
0.035294 0.003922 0.003922
0.043137 0.000000 0.000000
0.050980 0.000000 0.000000
0.054902 0.000000 0.000000
0.062745 0.000000 0.003922
0.074510 0.003922 0.003922
0.078431 0.000000 0.003922
0.086275 0.003922 0.000000
0.094118 0.000000 0.000000
0.101961 0.000000 0.000000
0.113725 0.003922 0.000000
0.121569 0.000000 0.000000
0.141176 0.000000 0.000000
0.152941 0.003922 0.000000
0.164706 0.000000 0.003922
0.180392 0.000000 0.000000
0.196078 0.000000 0.000000
0.215686 0.003922 0.003922
0.227451 0.000000 0.000000
0.243137 0.003922 0.000000
0.270588 0.003922 0.000000
0.290196 0.000000 0.000000
0.309804 0.000000 0.000000
0.337255 0.000000 0.003922
0.356863 0.000000 0.000000
0.388235 0.000000 0.000000
0.411765 0.000000 0.003922
0.435294 0.000000 0.000000
0.462745 0.000000 0.000000
0.501961 0.000000 0.003922
0.533333 0.003922 0.000000
0.564706 0.000000 0.000000
0.596078 0.003922 0.000000
0.635294 0.003922 0.003922
0.666667 0.000000 0.003922
0.698039 0.003922 0.003922
0.729412 0.003922 0.003922
0.768627 0.003922 0.000000
0.800000 0.003922 0.000000
0.827451 0.000000 0.000000
0.862745 0.003922 0.000000
0.890196 0.000000 0.000000
0.925490 0.003922 0.000000
0.945098 0.000000 0.000000
0.980392 0.003922 0.003922
0.996078 0.000000 0.000000
1.000000 0.003922 0.003922
0.996078 0.003922 0.000000
0.988235 0.003922 0.000000
0.996078 0.000000 0.007843
1.000000 0.211765 0.000000
0.000000 0.000000 0.000000
0.003922 0.000000 0.000000
0.003922 0.003922 0.003922
0.000000 0.000000 0.007843
0.000000 0.003922 0.000000
0.000000 0.000000 0.000000
0.003922 0.003922 0.000000
0.003922 0.003922 0.003922
0.000000 0.000000 0.000000
0.003922 0.003922 0.000000
0.007843 0.007843 0.000000
0.007843 0.007843 0.000000
0.015686 0.000000 0.000000
0.023529 0.003922 0.000000
0.039216 0.000000 0.000000
0.043137 0.000000 0.000000
0.050980 0.003922 0.003922
0.058824 0.003922 0.000000
0.074510 0.003922 0.003922
0.082353 0.000000 0.003922
0.094118 0.000000 0.000000
0.101961 0.000000 0.003922
0.113725 0.000000 0.000000
0.121569 0.000000 0.000000
0.121569 0.000000 0.000000
0.133333 0.000000 0.000000
0.152941 0.003922 0.000000
0.164706 0.000000 0.003922
0.172549 0.000000 0.000000
0.196078 0.000000 0.003922
0.211765 0.000000 0.000000
0.219608 0.003922 0.000000
0.243137 0.000000 0.003922
0.258824 0.000000 0.000000
0.282353 0.003922 0.003922
0.305882 0.000000 0.000000
0.329412 0.000000 0.000000
0.352941 0.000000 0.000000
0.376471 0.000000 0.003922
0.392157 0.000000 0.000000
0.423529 0.000000 0.000000
0.447059 0.000000 0.000000
0.474510 0.000000 0.003922
0.501961 0.000000 0.003922
0.529412 0.000000 0.000000
0.560784 0.000000 0.000000
0.592157 0.000000 0.000000
0.627451 0.000000 0.000000
0.662745 0.000000 0.000000
0.690196 0.003922 0.000000
0.729412 0.003922 0.000000
0.760784 0.000000 0.000000
0.792157 0.003922 0.003922
0.823529 0.000000 0.003922
0.862745 0.003922 0.000000
0.886275 0.003922 0.003922
0.913725 0.000000 0.000000
0.941176 0.000000 0.003922
0.964706 0.003922 0.000000
0.984314 0.000000 0.000000
1.000000 0.003922 0.003922
0.996078 0.000000 0.000000
0.996078 0.000000 0.000000
1.000000 0.003922 0.003922
0.003922 0.003922 0.000000
0.003922 0.003922 0.000000
0.003922 0.003922 0.000000
0.003922 0.003922 0.003922
0.000000 0.000000 0.000000
0.000000 0.000000 0.000000
0.003922 0.003922 0.003922
0.003922 0.003922 0.003922
0.003922 0.003922 0.000000
0.011765 0.007843 0.000000
0.019608 0.003922 0.000000
0.019608 0.003922 0.000000
0.027451 0.003922 0.003922
0.043137 0.003922 0.000000
0.047059 0.000000 0.000000
0.062745 0.000000 0.003922
0.070588 0.000000 0.000000
0.078431 0.000000 0.003922
0.086275 0.003922 0.000000
0.094118 0.000000 0.000000
0.109804 0.000000 0.003922
0.113725 0.000000 0.000000
0.129412 0.000000 0.000000
0.133333 0.000000 0.000000
0.141176 0.000000 0.000000
0.156863 0.000000 0.003922
0.172549 0.000000 0.003922
0.180392 0.000000 0.000000
0.196078 0.000000 0.003922
0.211765 0.000000 0.000000
0.227451 0.000000 0.000000
0.243137 0.000000 0.003922
0.258824 0.003922 0.000000
0.282353 0.003922 0.000000
0.298039 0.003922 0.000000
0.313725 0.000000 0.000000
0.349020 0.003922 0.007843
0.360784 0.000000 0.003922
0.388235 0.003922 0.000000
0.407843 0.000000 0.000000
0.435294 0.000000 0.000000
0.462745 0.000000 0.000000
0.494118 0.000000 0.003922
0.525490 0.000000 0.000000
0.552941 0.000000 0.000000
0.588235 0.003922 0.000000
0.623529 0.000000 0.000000
0.650980 0.003922 0.000000
0.686275 0.000000 0.003922
0.721569 0.000000 0.000000
0.760784 0.000000 0.003922
0.784314 0.003922 0.000000
0.819608 0.000000 0.000000
0.843137 0.000000 0.000000
0.874510 0.000000 0.000000
0.905882 0.000000 0.000000
0.933333 0.003922 0.000000
0.956863 0.000000 0.000000
0.988235 0.003922 0.007843
1.000000 0.003922 0.011765
0.996078 0.003922 0.000000
1.000000 0.003922 0.011765
0.992157 0.000000 0.003922
1.000000 0.239216 0.007843
0.019608 0.003922 0.000000
0.003922 0.011765 0.007843
0.007843 0.007843 0.007843
0.003922 0.011765 0.000000
0.007843 0.007843 0.000000
0.000000 0.019608 0.000000
0.000000 0.015686 0.000000
0.003922 0.011765 0.000000
0.000000 0.015686 0.000000
0.000000 0.019608 0.000000
0.011765 0.019608 0.000000
0.019608 0.015686 0.000000
0.027451 0.011765 0.000000
0.039216 0.007843 0.000000
0.047059 0.007843 0.000000
0.054902 0.011765 0.000000
0.066667 0.007843 0.000000
0.078431 0.007843 0.000000
0.082353 0.003922 0.000000
0.098039 0.003922 0.003922
0.105882 0.003922 0.000000
0.113725 0.003922 0.000000
0.121569 0.000000 0.000000
0.133333 0.000000 0.000000
0.141176 0.000000 0.000000
0.152941 0.003922 0.000000
0.164706 0.000000 0.003922
0.180392 0.000000 0.000000
0.196078 0.000000 0.003922
0.203922 0.003922 0.000000
0.227451 0.000000 0.000000
0.239216 0.003922 0.003922
0.262745 0.000000 0.000000
0.282353 0.003922 0.003922
0.298039 0.000000 0.000000
0.317647 0.000000 0.000000
0.337255 0.000000 0.003922
0.360784 0.000000 0.003922
0.388235 0.003922 0.007843
0.407843 0.000000 0.003922
0.435294 0.000000 0.000000
0.470588 0.000000 0.003922
0.494118 0.000000 0.003922
0.517647 0.003922 0.000000
0.556863 0.003922 0.000000
0.584314 0.007843 0.000000
0.619608 0.003922 0.000000
0.650980 0.003922 0.000000
0.694118 0.000000 0.007843
0.721569 0.000000 0.007843
0.760784 0.000000 0.003922
0.788235 0.000000 0.003922
0.811765 0.000000 0.000000
0.843137 0.000000 0.000000
0.874510 0.000000 0.000000
0.901961 0.000000 0.000000
0.929412 0.000000 0.000000
0.949020 0.003922 0.000000
0.988235 0.003922 0.007843
0.996078 0.000000 0.007843
0.996078 0.003922 0.000000
0.996078 0.000000 0.000000
0.996078 0.000000 0.000000
1.000000 0.254902 0.000000
0.019608 0.003922 0.000000
0.000000 0.015686 0.007843
0.000000 0.019608 0.000000
0.007843 0.015686 0.000000
0.000000 0.019608 0.003922
0.007843 0.015686 0.003922
0.000000 0.027451 0.000000
0.003922 0.031373 0.003922
0.000000 0.023529 0.000000
0.003922 0.023529 0.000000
0.011765 0.019608 0.000000
0.019608 0.023529 0.000000
0.023529 0.027451 0.003922
0.035294 0.023529 0.003922
0.047059 0.019608 0.000000
0.054902 0.019608 0.000000
0.058824 0.015686 0.000000
0.070588 0.015686 0.003922
0.086275 0.015686 0.000000
0.090196 0.015686 0.000000
0.094118 0.019608 0.003922
0.098039 0.015686 0.003922
0.109804 0.011765 0.000000
0.125490 0.011765 0.000000
0.141176 0.007843 0.000000
0.149020 0.011765 0.000000
0.164706 0.011765 0.000000
0.184314 0.011765 0.000000
0.192157 0.015686 0.003922
0.207843 0.015686 0.000000
0.223529 0.011765 0.003922
0.243137 0.015686 0.003922
0.262745 0.011765 0.003922
0.282353 0.015686 0.003922
0.294118 0.015686 0.000000
0.321569 0.015686 0.000000
0.345098 0.019608 0.003922
0.368627 0.019608 0.003922
0.392157 0.019608 0.000000
0.411765 0.023529 0.000000
0.443137 0.023529 0.000000
0.470588 0.027451 0.003922
0.494118 0.031373 0.000000
0.529412 0.031373 0.000000
0.552941 0.035294 0.000000
0.588235 0.039216 0.000000
0.627451 0.043137 0.000000
0.658824 0.039216 0.000000
0.694118 0.035294 0.003922
0.721569 0.031373 0.000000
0.756863 0.027451 0.000000
0.788235 0.019608 0.000000
0.819608 0.007843 0.000000
0.847059 0.003922 0.003922
0.878431 0.000000 0.000000
0.913725 0.000000 0.000000
0.925490 0.003922 0.007843
0.964706 0.003922 0.000000
0.988235 0.003922 0.011765
0.996078 0.003922 0.000000
0.996078 0.000000 0.000000
0.996078 0.000000 0.007843
0.988235 0.003922 0.000000
0.996078 0.266667 0.003922
0.023529 0.011765 0.000000
0.003922 0.031373 0.000000
0.003922 0.031373 0.000000
0.000000 0.031373 0.000000
0.003922 0.023529 0.000000
0.000000 0.039216 0.000000
0.000000 0.035294 0.000000
0.000000 0.039216 0.000000
0.003922 0.031373 0.000000
0.003922 0.031373 0.000000
0.011765 0.031373 0.003922
0.019608 0.031373 0.000000
0.023529 0.027451 0.000000
0.031373 0.031373 0.000000
0.039216 0.027451 0.000000
0.047059 0.027451 0.003922
0.058824 0.023529 0.000000
0.066667 0.023529 0.000000
0.078431 0.027451 0.000000
0.086275 0.027451 0.000000
0.094118 0.027451 0.000000
0.105882 0.023529 0.003922
0.113725 0.023529 0.000000
0.121569 0.027451 0.000000
0.137255 0.023529 0.000000
0.145098 0.023529 0.003922
0.160784 0.023529 0.000000
0.180392 0.027451 0.000000
0.196078 0.027451 0.000000
0.211765 0.027451 0.000000
0.223529 0.027451 0.000000
0.239216 0.031373 0.000000
0.262745 0.031373 0.000000
0.282353 0.035294 0.000000
0.305882 0.039216 0.003922
0.325490 0.043137 0.003922
0.345098 0.043137 0.003922
0.368627 0.047059 0.003922
0.392157 0.047059 0.007843
0.419608 0.050980 0.011765
0.454902 0.058824 0.000000
0.478431 0.058824 0.000000
0.509804 0.054902 0.000000
0.529412 0.062745 0.000000
0.560784 0.062745 0.003922
0.588235 0.066667 0.007843
0.627451 0.066667 0.003922
0.654902 0.070588 0.007843
0.694118 0.074510 0.000000
0.725490 0.070588 0.000000
0.752941 0.070588 0.000000
0.788235 0.066667 0.000000
0.819608 0.058824 0.000000
0.847059 0.043137 0.000000
0.878431 0.031373 0.003922
0.901961 0.019608 0.003922
0.929412 0.000000 0.000000
0.972549 0.000000 0.000000
0.988235 0.003922 0.011765
0.996078 0.000000 0.000000
0.996078 0.000000 0.000000
0.996078 0.000000 0.007843
0.996078 0.000000 0.007843
1.000000 0.278431 0.003922
0.023529 0.023529 0.000000
0.011765 0.039216 0.007843
0.000000 0.043137 0.000000
0.000000 0.039216 0.000000
0.000000 0.043137 0.003922
0.000000 0.043137 0.000000
0.000000 0.043137 0.003922
0.000000 0.043137 0.003922
0.000000 0.035294 0.000000
0.007843 0.039216 0.000000
0.011765 0.043137 0.000000
0.015686 0.039216 0.000000
0.027451 0.039216 0.003922
0.031373 0.043137 0.000000
0.035294 0.043137 0.000000
0.043137 0.043137 0.000000
0.054902 0.039216 0.000000
0.066667 0.039216 0.000000
0.074510 0.035294 0.000000
0.086275 0.035294 0.000000
0.094118 0.039216 0.003922
0.101961 0.035294 0.003922
0.113725 0.035294 0.000000
0.121569 0.031373 0.000000
0.133333 0.039216 0.000000
0.145098 0.039216 0.000000
0.156863 0.039216 0.000000
0.176471 0.043137 0.000000
0.192157 0.043137 0.000000
0.207843 0.039216 0.003922
0.227451 0.043137 0.003922
0.239216 0.043137 0.000000
0.254902 0.050980 0.000000
0.278431 0.058824 0.007843
0.294118 0.062745 0.000000
0.317647 0.058824 0.000000
0.337255 0.066667 0.003922
0.364706 0.066667 0.003922
0.392157 0.074510 0.000000
0.415686 0.082353 0.003922
0.439216 0.078431 0.000000
0.466667 0.082353 0.000000
0.501961 0.086275 0.000000
0.529412 0.090196 0.003922
0.552941 0.094118 0.000000
0.588235 0.094118 0.000000
0.623529 0.090196 0.000000
0.654902 0.098039 0.003922
0.690196 0.094118 0.003922
0.725490 0.098039 0.003922
0.760784 0.094118 0.003922
0.788235 0.098039 0.003922
0.823529 0.090196 0.000000
0.847059 0.090196 0.000000
0.878431 0.082353 0.000000
0.905882 0.066667 0.000000
0.929412 0.062745 0.000000
0.960784 0.035294 0.019608
0.988235 0.015686 0.000000
1.000000 0.003922 0.003922
0.996078 0.000000 0.000000
0.996078 0.003922 0.000000
0.996078 0.000000 0.007843
1.000000 0.286275 0.007843
0.039216 0.019608 0.003922
0.000000 0.058824 0.000000
0.003922 0.043137 0.007843
0.000000 0.054902 0.003922
0.003922 0.043137 0.000000
0.000000 0.054902 0.000000
0.000000 0.050980 0.000000
0.000000 0.050980 0.000000
0.000000 0.047059 0.000000
0.007843 0.047059 0.003922
0.007843 0.050980 0.000000
0.015686 0.047059 0.000000
0.023529 0.047059 0.000000
0.031373 0.043137 0.000000
0.039216 0.047059 0.000000
0.043137 0.050980 0.000000
0.058824 0.043137 0.000000
0.070588 0.047059 0.000000
0.078431 0.047059 0.003922
0.082353 0.043137 0.000000
0.094118 0.047059 0.000000
0.101961 0.047059 0.000000
0.113725 0.043137 0.000000
0.121569 0.043137 0.000000
0.129412 0.054902 0.000000
0.145098 0.054902 0.000000
0.160784 0.058824 0.003922
0.172549 0.058824 0.003922
0.184314 0.058824 0.000000
0.200000 0.058824 0.000000
0.215686 0.062745 0.000000
0.235294 0.066667 0.003922
0.254902 0.070588 0.000000
0.266667 0.078431 0.000000
0.294118 0.078431 0.000000
0.309804 0.082353 0.003922
0.337255 0.082353 0.003922
0.352941 0.086275 0.000000
0.384314 0.094118 0.000000
0.411765 0.098039 0.007843
0.439216 0.098039 0.000000
0.466667 0.109804 0.007843
0.498039 0.105882 0.011765
0.521569 0.109804 0.003922
0.549020 0.113725 0.000000
0.588235 0.121569 0.000000
0.627451 0.121569 0.000000
0.650980 0.125490 0.000000
0.694118 0.129412 0.000000
0.721569 0.125490 0.000000
0.752941 0.125490 0.000000
0.792157 0.125490 0.003922
0.823529 0.121569 0.003922
