assets/luts/LUTs/PEACOCK.CUBE
#Generated with IWLTBAP LUT Generator
#Website: https://luts.iwltbap.com
TITLE "lake"
LUT_3D_SIZE 8
0.000000 0.003922 0.000000
0.000000 0.000000 0.000000
0.070588 0.000000 0.000000
0.180392 0.000000 0.000000
0.368627 0.000000 0.000000
0.627451 0.000000 0.000000
0.898039 0.000000 0.000000
0.996078 0.113725 0.000000
0.019608 0.003922 0.000000
0.000000 0.019608 0.000000
0.082353 0.003922 0.000000
0.180392 0.000000 0.000000
0.337255 0.000000 0.003922
0.584314 0.007843 0.000000
0.874510 0.000000 0.000000
1.000000 0.254902 0.000000
0.054902 0.074510 0.000000
0.007843 0.094118 0.000000
0.078431 0.094118 0.000000
0.168627 0.113725 0.000000
0.301961 0.152941 0.000000
0.549020 0.215686 0.003922
0.850980 0.250980 0.000000
0.988235 0.376471 0.003922
0.117647 0.192157 0.003922
0.011765 0.247059 0.003922
0.137255 0.250980 0.000000
0.227451 0.250980 0.000000
0.345098 0.290196 0.003922
0.529412 0.341176 0.007843
0.807843 0.403922 0.000000
0.949020 0.505882 0.003922
0.274510 0.427451 0.000000
0.074510 0.529412 0.000000
0.278431 0.537255 0.003922
0.407843 0.533333 0.000000
0.525490 0.533333 0.000000
0.674510 0.552941 0.000000
0.847059 0.564706 0.000000
0.960784 0.658824 0.000000
0.454902 0.749020 0.000000
0.207843 0.800000 0.003922
0.392157 0.800000 0.011765
0.552941 0.800000 0.003922
0.678431 0.792157 0.000000
0.792157 0.776471 0.003922
0.921569 0.764706 0.003922
0.992157 0.850980 0.003922
0.474510 0.933333 0.000000
0.266667 0.952941 0.000000
0.419608 0.949020 0.000000
0.580392 0.952941 0.003922
0.698039 0.945098 0.000000
0.819608 0.937255 0.003922
0.949020 0.925490 0.000000
0.952941 0.956863 0.000000
0.850980 1.000000 0.517647
0.713725 1.000000 0.588235
0.803922 1.000000 0.619608
0.870588 0.996078 0.600000
0.921569 0.992157 0.560784
0.988235 0.976471 0.517647
0.996078 0.964706 0.474510
1.000000 0.917647 0.400000
0.000000 0.000000 0.000000
0.003922 0.000000 0.000000
0.035294 0.003922 0.000000
0.125490 0.015686 0.000000
0.258824 0.054902 0.000000
0.400000 0.078431 0.000000
0.698039 0.105882 0.000000
0.560784 0.317647 0.000000
0.043137 0.003922 0.000000
0.011765 0.019608 0.015686
0.090196 0.011765 0.015686
0.196078 0.007843 0.007843
0.352941 0.000000 0.000000
0.607843 0.003922 0.003922
0.890196 0.007843 0.007843
0.996078 0.011765 0.007843
0.074510 0.070588 0.000000
0.007843 0.101961 0.007843
0.082353 0.098039 0.000000
0.180392 0.113725 0.003922
0.337255 0.149020 0.000000
0.596078 0.203922 0.000000
0.882353 0.227451 0.000000
1.000000 0.317647 0.000000
0.137255 0.184314 0.000000
0.003922 0.243137 0.007843
0.133333 0.250980 0.000000
0.227451 0.250980 0.000000
0.364706 0.286275 0.000000
0.552941 0.333333 0.000000
0.847059 0.396078 0.000000
0.992157 0.486275 0.000000
0.278431 0.423529 0.007843
0.011765 0.529412 0.000000
0.258824 0.537255 0.000000
0.407843 0.533333 0.000000
0.525490 0.533333 0.000000
0.694118 0.549020 0.000000
0.866667 0.549020 0.003922
0.988235 0.647059 0.000000
0.494118 0.749020 0.003922
0.196078 0.796078 0.000000
0.376471 0.796078 0.003922
0.545098 0.800000 0.000000
0.678431 0.784314 0.000000
0.803922 0.764706 0.000000
0.929412 0.752941 0.003922
0.996078 0.839216 0.011765
0.509804 0.929412 0.000000
0.266667 0.952941 0.000000
0.415686 0.956863 0.000000
0.576471 0.949020 0.000000
0.709804 0.949020 0.003922
0.827451 0.933333 0.000000
0.964706 0.925490 0.000000
0.976471 0.960784 0.000000
0.874510 1.000000 0.564706
0.729412 0.996078 0.654902
0.807843 1.000000 0.670588
0.870588 1.000000 0.674510
0.917647 0.992157 0.631373
0.980392 0.984314 0.588235
1.000000 0.968627 0.545098
1.000000 0.917647 0.478431
0.000000 0.000000 0.007843
0.003922 0.000000 0.019608
0.043137 0.003922 0.035294
0.145098 0.007843 0.031373
0.290196 0.015686 0.015686
0.427451 0.050980 0.003922
0.729412 0.058824 0.000000
0.666667 0.309804 0.000000
0.078431 0.000000 0.023529
0.023529 0.015686 0.105882
0.101961 0.007843 0.101961
0.211765 0.000000 0.109804
0.396078 0.000000 0.125490
0.658824 0.000000 0.098039
0.925490 0.003922 0.007843
0.996078 0.000000 0.101961
0.086275 0.074510 0.054902
0.000000 0.101961 0.090196
0.078431 0.101961 0.086275
0.215686 0.082353 0.074510
0.407843 0.078431 0.047059
0.674510 0.039216 0.000000
0.929412 0.000000 0.000000
0.996078 0.000000 0.000000
0.141176 0.188235 0.007843
0.000000 0.250980 0.015686
0.039216 0.266667 0.039216
0.227451 0.258824 0.027451
0.380392 0.274510 0.003922
0.603922 0.321569 0.000000
0.898039 0.352941 0.000000
1.000000 0.427451 0.000000
0.270588 0.447059 0.000000
0.000000 0.533333 0.000000
0.094118 0.541176 0.003922
0.384314 0.552941 0.000000
0.537255 0.549020 0.003922
0.705882 0.545098 0.000000
0.874510 0.529412 0.003922
0.980392 0.611765 0.000000
0.486275 0.756863 0.007843
0.007843 0.792157 0.000000
0.247059 0.800000 0.003922
0.509804 0.803922 0.000000
0.662745 0.792157 0.003922
0.807843 0.776471 0.003922
0.945098 0.749020 0.000000
1.000000 0.827451 0.000000
0.517647 0.937255 0.003922
0.003922 0.956863 0.000000
0.321569 0.952941 0.000000
0.525490 0.952941 0.000000
0.682353 0.949020 0.000000
0.819608 0.941176 0.000000
0.964706 0.925490 0.000000
0.976471 0.956863 0.007843
0.898039 0.992157 0.694118
0.737255 1.000000 0.729412
0.807843 1.000000 0.741176
0.882353 0.992157 0.764706
0.913725 0.988235 0.737255
0.968627 0.980392 0.709804
1.000000 0.968627 0.682353
1.000000 0.925490 0.615686
0.011765 0.000000 0.094118
0.000000 0.000000 0.109804
0.047059 0.011765 0.125490
0.149020 0.003922 0.141176
0.325490 0.000000 0.172549
0.501961 0.000000 0.152941
0.780392 0.000000 0.090196
0.780392 0.078431 0.125490
0.117647 0.000000 0.141176
0.058824 0.000000 0.239216
0.141176 0.003922 0.239216
0.250980 0.000000 0.239216
0.419608 0.000000 0.282353
0.682353 0.000000 0.341176
0.964706 0.003922 0.349020
1.000000 0.007843 0.466667
0.133333 0.050980 0.188235
0.000000 0.074510 0.231373
0.082353 0.074510 0.231373
0.243137 0.062745 0.247059
0.439216 0.000000 0.286275
0.721569 0.000000 0.298039
0.984314 0.000000 0.270588
0.992157 0.000000 0.388235
0.105882 0.184314 0.141176
0.003922 0.250980 0.219608
0.000000 0.250980 0.219608
0.192157 0.250980 0.231373
0.447059 0.231373 0.211765
0.721569 0.211765 0.172549
0.972549 0.160784 0.098039
0.992157 0.266667 0.258824
0.192157 0.439216 0.090196
0.011765 0.501961 0.172549
0.003922 0.525490 0.105882
0.239216 0.549020 0.184314
0.533333 0.556863 0.164706
0.709804 0.513725 0.000000
0.901961 0.474510 0.007843
0.992157 0.552941 0.000000
0.380392 0.760784 0.000000
0.000000 0.796078 0.000000
0.000000 0.803922 0.000000
0.360784 0.803922 0.000000
0.631373 0.800000 0.000000
0.807843 0.776471 0.003922
0.956863 0.729412 0.000000
0.996078 0.807843 0.000000
0.439216 0.945098 0.003922
0.000000 0.968627 0.000000
0.003922 0.964706 0.000000
0.411765 0.952941 0.000000
0.658824 0.952941 0.000000
0.807843 0.945098 0.003922
0.960784 0.933333 0.000000
0.972549 0.972549 0.007843
0.917647 0.980392 0.803922
0.686275 1.000000 0.784314
0.788235 0.996078 0.815686
0.878431 0.988235 0.831373
0.921569 0.984314 0.839216
0.964706 0.972549 0.819608
0.996078 0.968627 0.788235
1.000000 0.937255 0.733333
0.000000 0.000000 0.250980
0.000000 0.000000 0.262745
0.086275 0.000000 0.282353
0.223529 0.000000 0.317647
0.345098 0.000000 0.329412
0.517647 0.000000 0.329412
0.796078 0.000000 0.388235
0.843137 0.000000 0.505882
0.207843 0.003922 0.298039
0.113725 0.000000 0.423529
0.211765 0.000000 0.439216
0.345098 0.000000 0.470588
0.494118 0.000000 0.490196
0.709804 0.000000 0.529412
0.968627 0.000000 0.568627
0.996078 0.003922 0.705882
0.215686 0.000000 0.364706
0.003922 0.039216 0.435294
0.141176 0.011765 0.454902
0.329412 0.000000 0.474510
0.509804 0.003922 0.501961
0.745098 0.003922 0.537255
0.988235 0.000000 0.545098
1.000000 0.000000 0.682353
0.145098 0.141176 0.376471
0.000000 0.247059 0.423529
0.000000 0.203922 0.439216
0.223529 0.196078 0.466667
0.494118 0.211765 0.509804
0.764706 0.149020 0.521569
1.000000 0.000000 0.490196
1.000000 0.152941 0.603922
0.003922 0.403922 0.356863
0.000000 0.501961 0.450980
0.000000 0.505882 0.458824
0.000000 0.513725 0.474510
0.462745 0.529412 0.490196
0.749020 0.474510 0.435294
0.984314 0.403922 0.372549
0.996078 0.505882 0.498039
0.000000 0.745098 0.243137
0.000000 0.764706 0.372549
0.000000 0.776471 0.341176
0.000000 0.788235 0.317647
0.552941 0.792157 0.478431
0.788235 0.784314 0.419608
0.952941 0.678431 0.164706
0.996078 0.756863 0.337255
0.196078 0.956863 0.000000
0.003922 0.972549 0.000000
0.000000 0.972549 0.023529
0.007843 0.960784 0.333333
0.596078 0.952941 0.435294
0.800000 0.952941 0.454902
0.960784 0.933333 0.243137
0.980392 0.956863 0.478431
0.917647 0.972549 0.874510
0.400000 0.996078 0.796078
0.635294 1.000000 0.823529
0.811765 0.996078 0.862745
0.921569 0.980392 0.890196
0.960784 0.980392 0.894118
1.000000 0.968627 0.878431
1.000000 0.941176 0.839216
0.003922 0.000000 0.537255
0.000000 0.003922 0.541176
0.160784 0.000000 0.556863
0.286275 0.003922 0.537255
0.415686 0.000000 0.537255
0.552941 0.000000 0.521569
0.815686 0.000000 0.580392
0.862745 0.000000 0.756863
0.301961 0.003922 0.529412
0.203922 0.000000 0.678431
0.298039 0.000000 0.686275
0.427451 0.000000 0.701961
0.588235 0.007843 0.737255
0.772549 0.000000 0.756863
0.976471 0.003922 0.756863
1.000000 0.000000 0.917647
0.294118 0.000000 0.607843
0.000000 0.000000 0.705882
0.211765 0.000000 0.705882
0.388235 0.000000 0.717647
0.568627 0.000000 0.741176
0.780392 0.000000 0.768627
0.992157 0.003922 0.760784
1.000000 0.000000 0.898039
0.184314 0.078431 0.600000
0.000000 0.145098 0.662745
0.000000 0.141176 0.662745
0.235294 0.149020 0.713725
0.521569 0.113725 0.745098
0.768627 0.015686 0.764706
0.992157 0.003922 0.745098
0.996078 0.101961 0.858824
0.000000 0.294118 0.549020
0.003922 0.482353 0.698039
0.003922 0.458824 0.698039
0.000000 0.392157 0.674510
0.415686 0.427451 0.729412
0.768627 0.478431 0.772549
0.992157 0.454902 0.729412
0.996078 0.564706 0.819608
0.000000 0.686275 0.607843
0.000000 0.752941 0.701961
0.000000 0.756863 0.713725
0.000000 0.760784 0.698039
0.000000 0.760784 0.698039
0.745098 0.764706 0.737255
0.949020 0.682353 0.670588
1.000000 0.764706 0.764706
0.003922 0.937255 0.349020
0.000000 0.941176 0.552941
0.003922 0.945098 0.541176
0.003922 0.952941 0.545098
0.223529 0.949020 0.615686
0.800000 0.941176 0.760784
0.945098 0.925490 0.698039
0.968627 0.956863 0.780392
0.862745 0.976471 0.956863
0.105882 1.000000 0.960784
0.470588 0.992157 0.949020
0.674510 1.000000 0.929412
0.831373 1.000000 0.925490
0.949020 0.976471 0.945098
0.996078 0.968627 0.929412
1.000000 0.952941 0.905882
0.000000 0.000000 0.749020
0.066667 0.000000 0.752941
0.207843 0.003922 0.749020
0.333333 0.003922 0.733333
0.450980 0.003922 0.725490
0.603922 0.000000 0.741176
0.831373 0.000000 0.784314
0.784314 0.003922 0.862745
0.392157 0.000000 0.772549
0.274510 0.000000 0.882353
0.356863 0.000000 0.882353
0.470588 0.000000 0.878431
0.607843 0.000000 0.901961
0.760784 0.003922 0.909804
0.949020 0.003922 0.909804
0.984314 0.000000 0.992157
0.349020 0.003922 0.796078
0.113725 0.000000 0.901961
0.282353 0.003922 0.905882
0.435294 0.000000 0.905882
0.596078 0.000000 0.917647
0.768627 0.003922 0.929412
0.964706 0.003922 0.933333
1.000000 0.000000 1.000000
0.207843 0.000000 0.792157
0.000000 0.101961 0.858824
0.003922 0.090196 0.894118
0.301961 0.019608 0.898039
0.521569 0.007843 0.909804
0.725490 0.003922 0.905882
0.952941 0.003922 0.929412
1.000000 0.125490 1.000000
0.000000 0.219608 0.733333
0.000000 0.341176 0.835294
0.003922 0.286275 0.819608
0.003922 0.270588 0.831373
0.415686 0.360784 0.905882
0.701961 0.388235 0.909804
0.952941 0.400000 0.913725
0.992157 0.560784 1.000000
0.003922 0.572549 0.796078
0.000000 0.650980 0.886275
0.003922 0.635294 0.886275
0.000000 0.607843 0.878431
0.000000 0.564706 0.878431
0.686275 0.662745 0.898039
0.941176 0.721569 0.913725
1.000000 0.803922 0.972549
0.003922 0.905882 0.835294
0.000000 0.960784 0.909804
0.003922 0.956863 0.909804
0.003922 0.949020 0.905882
0.000000 0.945098 0.909804
0.576471 0.929412 0.898039
0.921569 0.917647 0.901961
0.960784 0.945098 0.949020
0.886275 0.949020 1.000000
0.494118 0.964706 1.000000
0.639216 0.960784 1.000000
0.752941 0.976471 1.000000
0.843137 0.972549 1.000000
0.917647 0.956863 0.992157
0.992157 0.972549 0.996078
1.000000 0.984314 0.980392
0.078431 0.000000 0.878431
0.121569 0.000000 0.882353
0.223529 0.000000 0.866667
0.337255 0.003922 0.858824
0.427451 0.000000 0.835294
0.584314 0.000000 0.854902
0.772549 0.000000 0.898039
0.737255 0.000000 0.929412
0.435294 0.000000 0.925490
0.305882 0.003922 1.000000
0.388235 0.000000 1.000000
0.482353 0.000000 1.000000
0.592157 0.000000 0.992157
0.733333 0.000000 1.000000
0.890196 0.000000 1.000000
0.913725 0.000000 1.000000
0.376471 0.003922 0.952941
0.211765 0.003922 1.000000
0.321569 0.003922 1.000000
0.454902 0.000000 1.000000
0.588235 0.000000 1.000000
0.737255 0.003922 1.000000
0.898039 0.003922 1.000000
0.925490 0.003922 0.996078
0.254902 0.003922 0.921569
0.003922 0.000000 0.996078
0.062745 0.000000 1.000000
0.341176 0.000000 1.000000
0.529412 0.000000 1.000000
0.701961 0.000000 1.000000
0.882353 0.000000 1.000000
0.925490 0.000000 1.000000
0.007843 0.250980 0.929412
0.003922 0.192157 0.968627
0.000000 0.231373 0.984314
0.011765 0.278431 1.000000
0.419608 0.278431 1.000000
0.658824 0.282353 1.000000
0.862745 0.313725 1.000000
0.952941 0.501961 1.000000
0.000000 0.396078 0.890196
0.000000 0.494118 1.000000
0.003922 0.454902 0.992157
0.000000 0.403922 0.972549
0.192157 0.494118 1.000000
0.666667 0.607843 1.000000
0.866667 0.647059 0.996078
0.984314 0.764706 1.000000
0.000000 0.717647 0.972549
0.000000 0.768627 0.996078
0.000000 0.756863 1.000000
0.003922 0.733333 0.996078
0.007843 0.721569 1.000000
0.533333 0.741176 1.000000
0.890196 0.850980 0.996078
0.984314 0.917647 0.992157
0.011765 0.949020 1.000000
0.003922 1.000000 1.000000
0.000000 0.996078 0.996078
0.003922 1.000000 1.000000
0.003922 1.000000 0.992157
0.662745 0.996078 1.000000
0.882353 0.992157 1.000000
1.000000 0.996078 1.000000
