assets/luts/LUTs/POLAR.CUBE
#Generated with IWLTBAP LUT Generator
#Website: https://luts.iwltbap.com
TITLE "POLAR"
LUT_3D_SIZE 64
0.000000 0.000000 0.000000
0.000000 0.000000 0.000000
0.000000 0.000000 0.000000
0.007843 0.003922 0.000000
0.015686 0.000000 0.000000
0.023529 0.000000 0.000000
0.031373 0.000000 0.000000
0.039216 0.000000 0.000000
0.047059 0.000000 0.000000
0.058824 0.000000 0.000000
0.074510 0.003922 0.003922
0.090196 0.000000 0.000000
0.086275 0.003922 0.000000
0.098039 0.003922 0.003922
0.117647 0.000000 0.000000
0.121569 0.000000 0.000000
0.133333 0.000000 0.003922
0.145098 0.000000 0.000000
0.156863 0.000000 0.000000
0.172549 0.000000 0.000000
0.188235 0.000000 0.000000
0.200000 0.000000 0.000000
0.211765 0.000000 0.000000
0.231373 0.003922 0.000000
0.239216 0.000000 0.000000
0.254902 0.000000 0.000000
0.270588 0.000000 0.000000
0.290196 0.000000 0.000000
0.309804 0.003922 0.003922
0.329412 0.000000 0.000000
0.352941 0.000000 0.000000
0.368627 0.000000 0.000000
0.392157 0.000000 0.000000
0.415686 0.003922 0.000000
0.435294 0.000000 0.000000
0.458824 0.000000 0.000000
0.486275 0.000000 0.000000
0.509804 0.000000 0.000000
0.533333 0.003922 0.000000
0.556863 0.003922 0.000000
0.588235 0.003922 0.000000
0.615686 0.000000 0.000000
0.647059 0.000000 0.000000
0.682353 0.000000 0.003922
0.713725 0.003922 0.007843
0.737255 0.003922 0.000000
0.768627 0.003922 0.000000
0.800000 0.000000 0.003922
0.811765 0.007843 0.000000
0.847059 0.003922 0.000000
0.874510 0.000000 0.000000
0.901961 0.003922 0.000000
0.929412 0.000000 0.000000
0.956863 0.000000 0.000000
0.980392 0.003922 0.003922
0.996078 0.000000 0.007843
0.996078 0.000000 0.007843
0.996078 0.000000 0.007843
0.996078 0.000000 0.007843
0.996078 0.000000 0.000000
0.996078 0.000000 0.000000
0.996078 0.000000 0.000000
0.996078 0.000000 0.000000
1.000000 0.003922 0.003922
0.000000 0.000000 0.000000
0.000000 0.007843 0.003922
0.000000 0.007843 0.000000
0.003922 0.003922 0.000000
0.011765 0.007843 0.000000
0.019608 0.003922 0.000000
0.035294 0.003922 0.000000
0.043137 0.003922 0.000000
0.054902 0.000000 0.000000
0.054902 0.011765 0.003922
0.074510 0.003922 0.000000
0.086275 0.007843 0.003922
0.086275 0.007843 0.003922
0.101961 0.000000 0.000000
0.113725 0.003922 0.000000
0.121569 0.003922 0.000000
0.129412 0.007843 0.000000
0.152941 0.003922 0.003922
0.160784 0.003922 0.007843
0.168627 0.003922 0.007843
0.192157 0.003922 0.003922
0.200000 0.003922 0.000000
0.207843 0.007843 0.003922
0.215686 0.003922 0.000000
0.235294 0.000000 0.000000
0.250980 0.000000 0.000000
0.270588 0.003922 0.000000
0.290196 0.000000 0.000000
0.309804 0.003922 0.003922
0.329412 0.000000 0.000000
0.352941 0.000000 0.000000
0.368627 0.000000 0.000000
0.392157 0.000000 0.007843
0.411765 0.003922 0.007843
0.431373 0.000000 0.000000
0.454902 0.003922 0.000000
0.478431 0.003922 0.000000
0.509804 0.000000 0.000000
0.537255 0.000000 0.000000
0.556863 0.003922 0.000000
0.592157 0.000000 0.003922
0.623529 0.000000 0.003922
0.647059 0.000000 0.000000
0.678431 0.000000 0.000000
0.709804 0.000000 0.000000
0.737255 0.003922 0.000000
0.768627 0.003922 0.000000
0.800000 0.000000 0.003922
0.827451 0.000000 0.000000
0.847059 0.000000 0.000000
0.882353 0.000000 0.000000
0.909804 0.003922 0.003922
0.929412 0.000000 0.000000
0.952941 0.000000 0.000000
0.980392 0.003922 0.003922
0.996078 0.000000 0.000000
0.996078 0.000000 0.007843
0.996078 0.000000 0.007843
0.996078 0.000000 0.000000
0.996078 0.000000 0.000000
0.996078 0.000000 0.000000
0.996078 0.000000 0.000000
1.000000 0.007843 0.000000
1.000000 0.007843 0.000000
0.003922 0.003922 0.003922
0.007843 0.007843 0.000000
0.003922 0.011765 0.000000
0.007843 0.007843 0.000000
0.015686 0.011765 0.000000
0.027451 0.011765 0.000000
0.031373 0.011765 0.000000
0.039216 0.007843 0.000000
0.050980 0.007843 0.000000
0.054902 0.011765 0.003922
0.074510 0.003922 0.000000
0.082353 0.007843 0.000000
0.090196 0.007843 0.000000
0.094118 0.011765 0.000000
0.113725 0.011765 0.007843
0.121569 0.003922 0.000000
0.125490 0.011765 0.000000
0.145098 0.007843 0.000000
0.160784 0.011765 0.007843
0.168627 0.007843 0.000000
0.184314 0.007843 0.000000
0.196078 0.007843 0.000000
0.207843 0.007843 0.000000
0.227451 0.011765 0.003922
0.235294 0.007843 0.000000
0.254902 0.003922 0.000000
0.270588 0.003922 0.000000
0.286275 0.007843 0.000000
0.309804 0.003922 0.000000
0.329412 0.000000 0.000000
0.352941 0.000000 0.000000
0.372549 0.000000 0.000000
0.388235 0.000000 0.003922
0.407843 0.000000 0.003922
0.431373 0.000000 0.000000
0.454902 0.003922 0.000000
0.478431 0.003922 0.007843
0.505882 0.000000 0.003922
0.533333 0.003922 0.000000
0.556863 0.003922 0.000000
0.592157 0.000000 0.003922
0.615686 0.000000 0.000000
0.647059 0.000000 0.000000
0.682353 0.000000 0.000000
0.705882 0.003922 0.000000
0.733333 0.000000 0.000000
0.768627 0.003922 0.000000
0.792157 0.003922 0.003922
0.823529 0.003922 0.000000
0.847059 0.003922 0.000000
0.878431 0.000000 0.000000
0.905882 0.000000 0.000000
0.921569 0.000000 0.000000
0.949020 0.003922 0.000000
0.980392 0.003922 0.000000
1.000000 0.003922 0.003922
0.996078 0.000000 0.000000
0.996078 0.000000 0.000000
0.996078 0.000000 0.000000
1.000000 0.007843 0.000000
1.000000 0.007843 0.000000
0.996078 0.003922 0.000000
0.996078 0.000000 0.000000
0.996078 0.000000 0.007843
0.007843 0.015686 0.003922
0.000000 0.019608 0.003922
0.000000 0.015686 0.000000
0.003922 0.011765 0.000000
0.015686 0.011765 0.000000
0.019608 0.015686 0.000000
0.035294 0.015686 0.000000
0.043137 0.015686 0.000000
0.050980 0.019608 0.007843
0.058824 0.015686 0.000000
0.074510 0.015686 0.000000
0.086275 0.015686 0.000000
0.082353 0.011765 0.000000
0.105882 0.011765 0.011765
0.117647 0.007843 0.003922
0.121569 0.011765 0.000000
0.117647 0.019608 0.000000
0.141176 0.019608 0.007843
0.160784 0.011765 0.000000
0.168627 0.015686 0.003922
0.184314 0.011765 0.000000
0.196078 0.019608 0.007843
0.207843 0.015686 0.000000
0.227451 0.011765 0.000000
0.231373 0.015686 0.000000
0.247059 0.015686 0.000000
0.274510 0.007843 0.000000
0.290196 0.011765 0.000000
0.305882 0.011765 0.000000
0.329412 0.011765 0.000000
0.352941 0.007843 0.000000
0.360784 0.003922 0.000000
0.392157 0.003922 0.000000
0.411765 0.003922 0.000000
0.431373 0.000000 0.003922
0.454902 0.000000 0.003922
0.478431 0.003922 0.007843
0.509804 0.000000 0.000000
0.533333 0.003922 0.000000
0.556863 0.000000 0.007843
0.584314 0.000000 0.000000
0.615686 0.000000 0.003922
0.647059 0.000000 0.000000
0.674510 0.003922 0.003922
0.705882 0.003922 0.000000
0.733333 0.000000 0.000000
0.768627 0.003922 0.000000
0.800000 0.000000 0.003922
0.827451 0.000000 0.000000
0.850980 0.000000 0.000000
0.878431 0.000000 0.000000
0.905882 0.000000 0.000000
0.929412 0.000000 0.000000
0.956863 0.000000 0.000000
0.980392 0.003922 0.003922
0.996078 0.000000 0.007843
0.996078 0.000000 0.000000
0.996078 0.000000 0.000000
0.996078 0.000000 0.000000
1.000000 0.003922 0.003922
0.996078 0.000000 0.000000
1.000000 0.003922 0.003922
1.000000 0.003922 0.003922
0.996078 0.000000 0.000000
0.007843 0.015686 0.003922
0.007843 0.015686 0.003922
0.003922 0.023529 0.000000
0.011765 0.019608 0.000000
0.019608 0.023529 0.000000
0.027451 0.023529 0.003922
0.035294 0.023529 0.000000
0.039216 0.019608 0.000000
0.058824 0.015686 0.007843
0.058824 0.015686 0.007843
0.062745 0.019608 0.003922
0.074510 0.015686 0.000000
0.094118 0.019608 0.000000
0.098039 0.023529 0.000000
0.101961 0.023529 0.000000
0.121569 0.023529 0.003922
0.129412 0.019608 0.003922
0.149020 0.019608 0.000000
0.164706 0.015686 0.003922
0.168627 0.023529 0.000000
0.172549 0.019608 0.000000
0.192157 0.023529 0.000000
0.215686 0.023529 0.000000
0.231373 0.015686 0.000000
0.231373 0.023529 0.003922
0.250980 0.019608 0.003922
0.274510 0.019608 0.000000
0.290196 0.019608 0.000000
0.313725 0.019608 0.000000
0.329412 0.019608 0.000000
0.352941 0.019608 0.007843
0.368627 0.019608 0.003922
0.388235 0.015686 0.000000
0.415686 0.007843 0.003922
0.435294 0.003922 0.000000
0.454902 0.000000 0.003922
0.486275 0.000000 0.007843
0.505882 0.000000 0.000000
0.529412 0.000000 0.000000
0.564706 0.000000 0.000000
0.588235 0.000000 0.003922
0.615686 0.000000 0.000000
0.647059 0.000000 0.000000
0.674510 0.003922 0.000000
0.705882 0.003922 0.000000
0.733333 0.000000 0.000000
0.768627 0.003922 0.000000
0.796078 0.000000 0.000000
0.827451 0.000000 0.000000
0.850980 0.000000 0.000000
0.878431 0.000000 0.000000
0.905882 0.000000 0.000000
0.929412 0.000000 0.000000
0.956863 0.000000 0.000000
0.980392 0.003922 0.003922
1.000000 0.003922 0.003922
0.996078 0.000000 0.000000
0.996078 0.000000 0.000000
0.996078 0.000000 0.000000
0.996078 0.000000 0.000000
0.996078 0.000000 0.000000
0.996078 0.000000 0.000000
0.996078 0.000000 0.000000
1.000000 0.003922 0.003922
0.007843 0.027451 0.003922
0.003922 0.031373 0.003922
0.003922 0.031373 0.000000
0.015686 0.027451 0.000000
0.023529 0.027451 0.003922
0.027451 0.031373 0.000000
0.039216 0.027451 0.000000
0.047059 0.031373 0.000000
0.047059 0.027451 0.003922
0.070588 0.027451 0.003922
0.078431 0.027451 0.003922
0.082353 0.031373 0.000000
0.086275 0.027451 0.000000
0.098039 0.023529 0.000000
0.105882 0.027451 0.000000
0.121569 0.031373 0.007843
0.137255 0.031373 0.003922
0.149020 0.031373 0.000000
0.160784 0.031373 0.000000
0.164706 0.031373 0.000000
0.184314 0.031373 0.003922
0.200000 0.031373 0.007843
0.215686 0.031373 0.003922
0.227451 0.027451 0.007843
0.227451 0.031373 0.000000
0.254902 0.031373 0.000000
0.270588 0.035294 0.003922
0.294118 0.031373 0.000000
0.313725 0.027451 0.000000
0.333333 0.031373 0.007843
0.345098 0.031373 0.003922
0.368627 0.027451 0.000000
0.380392 0.027451 0.000000
0.411765 0.023529 0.003922
0.435294 0.027451 0.000000
0.454902 0.023529 0.000000
0.482353 0.015686 0.000000
0.513725 0.011765 0.000000
0.537255 0.007843 0.003922
0.564706 0.000000 0.007843
0.588235 0.003922 0.000000
0.611765 0.003922 0.000000
0.647059 0.000000 0.000000
0.682353 0.000000 0.000000
0.705882 0.003922 0.000000
0.733333 0.000000 0.000000
0.768627 0.003922 0.000000
0.792157 0.003922 0.003922
0.827451 0.000000 0.000000
0.847059 0.003922 0.000000
0.882353 0.003922 0.003922
0.901961 0.003922 0.000000
0.929412 0.000000 0.000000
0.956863 0.000000 0.000000
0.988235 0.003922 0.007843
1.000000 0.003922 0.003922
0.996078 0.000000 0.000000
0.996078 0.000000 0.000000
0.996078 0.000000 0.000000
1.000000 0.003922 0.003922
1.000000 0.003922 0.003922
1.000000 0.003922 0.003922
0.996078 0.003922 0.000000
0.996078 0.000000 0.000000
0.000000 0.039216 0.000000
0.000000 0.039216 0.000000
0.000000 0.039216 0.000000
0.011765 0.043137 0.000000
0.023529 0.035294 0.000000
0.031373 0.039216 0.000000
0.035294 0.035294 0.000000
0.039216 0.039216 0.000000
0.050980 0.035294 0.000000
0.062745 0.035294 0.000000
0.070588 0.031373 0.000000
0.086275 0.035294 0.003922
0.086275 0.035294 0.003922
0.101961 0.035294 0.003922
0.117647 0.039216 0.011765
0.117647 0.039216 0.003922
0.133333 0.039216 0.000000
0.145098 0.031373 0.000000
0.156863 0.039216 0.000000
0.168627 0.039216 0.003922
0.184314 0.039216 0.000000
0.196078 0.039216 0.003922
0.211765 0.039216 0.003922
0.231373 0.035294 0.000000
0.235294 0.039216 0.000000
0.254902 0.043137 0.000000
0.274510 0.039216 0.000000
0.294118 0.043137 0.000000
0.313725 0.043137 0.000000
0.329412 0.039216 0.000000
0.349020 0.043137 0.000000
0.372549 0.043137 0.003922
0.384314 0.039216 0.000000
0.407843 0.039216 0.000000
0.431373 0.039216 0.000000
0.454902 0.039216 0.000000
0.482353 0.035294 0.003922
0.498039 0.027451 0.000000
0.529412 0.023529 0.000000
0.556863 0.023529 0.007843
0.588235 0.019608 0.007843
0.615686 0.007843 0.000000
0.643137 0.000000 0.000000
0.674510 0.003922 0.003922
0.705882 0.003922 0.000000
0.737255 0.003922 0.000000
0.768627 0.003922 0.000000
0.800000 0.000000 0.003922
0.819608 0.000000 0.000000
0.847059 0.003922 0.003922
0.874510 0.000000 0.000000
0.905882 0.000000 0.000000
0.929412 0.000000 0.000000
0.956863 0.000000 0.000000
0.984314 0.000000 0.003922
0.996078 0.000000 0.007843
0.996078 0.000000 0.000000
0.996078 0.000000 0.000000
0.996078 0.000000 0.000000
0.996078 0.000000 0.000000
0.996078 0.000000 0.000000
1.000000 0.003922 0.003922
1.000000 0.003922 0.003922
0.996078 0.000000 0.000000
0.000000 0.054902 0.003922
0.000000 0.050980 0.000000
0.007843 0.047059 0.003922
0.019608 0.050980 0.007843
0.023529 0.047059 0.000000
0.035294 0.047059 0.003922
0.035294 0.050980 0.000000
0.043137 0.050980 0.000000
0.058824 0.043137 0.000000
0.058824 0.043137 0.000000
0.078431 0.047059 0.003922
0.078431 0.047059 0.003922
0.082353 0.043137 0.003922
0.098039 0.043137 0.000000
0.113725 0.050980 0.000000
0.125490 0.047059 0.003922
0.137255 0.050980 0.007843
0.152941 0.047059 0.003922
0.156863 0.054902 0.000000
0.164706 0.054902 0.000000
0.184314 0.050980 0.003922
0.200000 0.050980 0.007843
0.215686 0.050980 0.003922
0.227451 0.047059 0.000000
0.243137 0.047059 0.003922
0.258824 0.054902 0.003922
0.278431 0.058824 0.007843
0.290196 0.058824 0.003922
0.305882 0.058824 0.000000
0.329412 0.058824 0.000000
0.352941 0.054902 0.000000
0.368627 0.058824 0.007843
0.392157 0.054902 0.003922
0.407843 0.058824 0.003922
0.435294 0.058824 0.000000
0.454902 0.058824 0.000000
0.478431 0.054902 0.003922
0.498039 0.054902 0.000000
0.529412 0.054902 0.000000
0.549020 0.054902 0.000000
0.588235 0.047059 0.003922
0.607843 0.043137 0.000000
0.635294 0.039216 0.000000
0.662745 0.035294 0.003922
0.694118 0.035294 0.003922
0.717647 0.027451 0.000000
0.745098 0.015686 0.000000
0.772549 0.015686 0.003922
0.803922 0.007843 0.000000
0.831373 0.003922 0.000000
0.850980 0.000000 0.000000
0.878431 0.000000 0.000000
0.905882 0.000000 0.000000
0.929412 0.000000 0.000000
0.956863 0.003922 0.000000
0.980392 0.003922 0.003922
0.996078 0.000000 0.000000
0.996078 0.000000 0.000000
1.000000 0.003922 0.003922
0.996078 0.000000 0.000000
0.996078 0.000000 0.000000
0.996078 0.000000 0.000000
1.000000 0.003922 0.003922
0.996078 0.000000 0.000000
0.007843 0.062745 0.003922
0.007843 0.062745 0.003922
0.015686 0.062745 0.007843
0.019608 0.062745 0.000000
0.027451 0.058824 0.000000
0.035294 0.062745 0.000000
0.047059 0.062745 0.003922
0.058824 0.070588 0.003922
0.070588 0.058824 0.000000
0.066667 0.058824 0.000000
0.078431 0.066667 0.007843
0.086275 0.062745 0.000000
0.098039 0.062745 0.003922
0.117647 0.054902 0.003922
0.113725 0.066667 0.003922
0.125490 0.062745 0.000000
0.149020 0.062745 0.011765
0.164706 0.062745 0.007843
0.168627 0.066667 0.007843
0.176471 0.070588 0.003922
0.196078 0.066667 0.007843
0.207843 0.066667 0.003922
0.219608 0.070588 0.000000
0.235294 0.066667 0.000000
0.247059 0.066667 0.003922
0.266667 0.078431 0.000000
0.282353 0.078431 0.000000
0.298039 0.070588 0.000000
0.317647 0.074510 0.000000
0.337255 0.074510 0.000000
0.360784 0.074510 0.007843
0.380392 0.070588 0.003922
0.388235 0.082353 0.000000
0.415686 0.082353 0.000000
0.435294 0.082353 0.000000
0.462745 0.078431 0.000000
0.490196 0.078431 0.003922
0.513725 0.070588 0.000000
0.545098 0.070588 0.003922
0.568627 0.078431 0.000000
0.592157 0.074510 0.000000
0.623529 0.070588 0.000000
0.658824 0.066667 0.000000
0.686275 0.062745 0.000000
0.717647 0.062745 0.000000
0.741176 0.054902 0.003922
0.772549 0.047059 0.000000
0.800000 0.039216 0.000000
0.831373 0.023529 0.003922
0.858824 0.011765 0.000000
0.882353 0.000000 0.000000
0.901961 0.003922 0.000000
0.929412 0.000000 0.000000
0.956863 0.000000 0.000000
0.976471 0.000000 0.000000
0.996078 0.000000 0.000000
1.000000 0.007843 0.000000
1.000000 0.007843 0.000000
1.000000 0.007843 0.000000
0.996078 0.003922 0.000000
0.996078 0.000000 0.000000
0.996078 0.000000 0.000000
0.996078 0.000000 0.000000
0.996078 0.000000 0.000000
0.003922 0.070588 0.000000
0.000000 0.074510 0.000000
0.000000 0.074510 0.000000
0.015686 0.074510 0.000000
0.027451 0.078431 0.007843
0.043137 0.078431 0.003922
0.050980 0.078431 0.007843
0.062745 0.074510 0.000000
0.070588 0.074510 0.003922
0.074510 0.078431 0.007843
0.070588 0.074510 0.003922
0.078431 0.074510 0.003922
0.098039 0.070588 0.007843
0.109804 0.062745 0.007843
0.105882 0.070588 0.003922
0.137255 0.074510 0.015686
0.137255 0.078431 0.003922
0.156863 0.074510 0.007843
0.164706 0.074510 0.003922
0.180392 0.082353 0.003922
0.192157 0.082353 0.000000
0.203922 0.074510 0.000000
0.215686 0.078431 0.000000
0.227451 0.078431 0.003922
0.258824 0.082353 0.000000
0.270588 0.082353 0.003922
0.286275 0.082353 0.000000
0.301961 0.090196 0.000000
0.313725 0.086275 0.000000
0.333333 0.090196 0.000000
0.352941 0.086275 0.000000
0.372549 0.090196 0.003922
0.396078 0.090196 0.000000
0.419608 0.098039 0.003922
0.439216 0.098039 0.000000
0.466667 0.098039 0.000000
0.486275 0.094118 0.000000
0.513725 0.090196 0.007843
0.541176 0.094118 0.000000
0.564706 0.094118 0.000000
0.592157 0.098039 0.003922
0.619608 0.098039 0.007843
0.650980 0.086275 0.003922
0.682353 0.094118 0.000000
0.717647 0.086275 0.007843
0.741176 0.082353 0.007843
0.768627 0.074510 0.003922
0.796078 0.074510 0.003922
0.827451 0.066667 0.000000
0.850980 0.062745 0.003922
0.882353 0.050980 0.003922
0.909804 0.039216 0.003922
0.929412 0.027451 0.003922
0.952941 0.007843 0.000000
0.980392 0.003922 0.003922
0.996078 0.000000 0.007843
0.996078 0.003922 0.000000
0.996078 0.000000 0.000000
0.996078 0.000000 0.000000
0.996078 0.000000 0.000000
0.996078 0.000000 0.000000
0.996078 0.000000 0.007843
0.996078 0.000000 0.007843
0.996078 0.000000 0.007843
0.000000 0.090196 0.003922
0.000000 0.090196 0.003922
0.000000 0.090196 0.000000
0.011765 0.086275 0.000000
0.027451 0.086275 0.000000
0.035294 0.090196 0.000000
0.050980 0.086275 0.003922
0.062745 0.094118 0.011765
0.058824 0.090196 0.000000
0.078431 0.086275 0.003922
0.094118 0.090196 0.011765
0.082353 0.090196 0.007843
0.090196 0.086275 0.000000
0.113725 0.082353 0.003922
0.105882 0.086275 0.003922
0.121569 0.090196 0.007843
0.141176 0.082353 0.000000
0.156863 0.086275 0.007843
0.160784 0.090196 0.003922
0.172549 0.094118 0.000000
0.192157 0.090196 0.000000
0.211765 0.090196 0.007843
0.215686 0.090196 0.000000
0.231373 0.090196 0.003922
0.254902 0.094118 0.015686
0.274510 0.090196 0.011765
0.282353 0.094118 0.003922
0.301961 0.098039 0.003922
0.317647 0.098039 0.000000
0.337255 0.105882 0.000000
0.356863 0.105882 0.000000
0.368627 0.105882 0.000000
0.400000 0.105882 0.000000
0.423529 0.109804 0.003922
0.447059 0.113725 0.003922
0.466667 0.109804 0.000000
0.494118 0.113725 0.007843
0.517647 0.113725 0.000000
0.549020 0.113725 0.000000
0.568627 0.117647 0.003922
0.600000 0.109804 0.000000
0.623529 0.109804 0.000000
0.658824 0.113725 0.003922
0.686275 0.109804 0.000000
0.709804 0.113725 0.000000
0.741176 0.109804 0.000000
0.776471 0.105882 0.003922
0.796078 0.101961 0.000000
0.823529 0.098039 0.000000
0.850980 0.094118 0.003922
0.886275 0.090196 0.003922
0.909804 0.078431 0.000000
0.941176 0.074510 0.003922
0.960784 0.062745 0.003922
0.984314 0.054902 0.003922
1.000000 0.039216 0.000000
1.000000 0.019608 0.003922
0.996078 0.011765 0.007843
1.000000 0.003922 0.003922
0.996078 0.000000 0.007843
0.996078 0.000000 0.000000
0.996078 0.000000 0.000000
0.996078 0.003922 0.000000
0.996078 0.000000 0.000000
0.000000 0.101961 0.003922
0.003922 0.105882 0.000000
0.003922 0.105882 0.000000
0.011765 0.101961 0.000000
0.023529 0.101961 0.000000
0.039216 0.101961 0.000000
0.047059 0.101961 0.000000
0.062745 0.101961 0.000000
0.078431 0.098039 0.003922
0.082353 0.098039 0.003922
0.082353 0.101961 0.007843
0.101961 0.094118 0.003922
0.090196 0.101961 0.000000
0.105882 0.098039 0.000000
0.113725 0.094118 0.007843
0.133333 0.101961 0.011765
0.141176 0.094118 0.007843
0.156863 0.094118 0.003922
0.164706 0.094118 0.000000
0.168627 0.101961 0.000000
0.184314 0.098039 0.003922
0.200000 0.105882 0.003922
0.211765 0.105882 0.000000
0.227451 0.101961 0.003922
0.250980 0.105882 0.000000
0.270588 0.109804 0.007843
0.286275 0.105882 0.003922
0.305882 0.109804 0.003922
0.313725 0.113725 0.000000
0.333333 0.117647 0.000000
0.356863 0.117647 0.003922
0.372549 0.117647 0.000000
0.403922 0.117647 0.000000
0.423529 0.121569 0.003922
0.450980 0.125490 0.007843
0.470588 0.121569 0.003922
0.490196 0.125490 0.000000
0.521569 0.129412 0.000000
0.545098 0.129412 0.000000
0.572549 0.129412 0.000000
0.603922 0.133333 0.000000
0.635294 0.129412 0.003922
0.658824 0.133333 0.000000
0.682353 0.133333 0.000000
0.717647 0.137255 0.003922
0.741176 0.129412 0.000000
0.772549 0.129412 0.000000
0.796078 0.129412 0.000000
0.827451 0.129412 0.000000
0.850980 0.129412 0.003922
0.874510 0.121569 0.000000
0.905882 0.113725 0.000000
0.933333 0.105882 0.000000
0.960784 0.101961 0.000000
0.984314 0.094118 0.000000
0.996078 0.090196 0.000000
0.996078 0.082353 0.000000
1.000000 0.074510 0.000000
0.996078 0.058824 0.000000
0.996078 0.039216 0.000000
0.996078 0.019608 0.003922
1.000000 0.003922 0.003922
0.996078 0.000000 0.000000
0.996078 0.000000 0.007843
0.000000 0.109804 0.000000
0.000000 0.109804 0.000000
0.000000 0.117647 0.000000
0.007843 0.109804 0.000000
0.019608 0.109804 0.000000
0.035294 0.113725 0.000000
0.050980 0.113725 0.003922
0.062745 0.121569 0.007843
0.070588 0.113725 0.000000
0.078431 0.113725 0.000000
0.094118 0.117647 0.007843
0.109804 0.109804 0.000000
0.125490 0.109804 0.003922
0.113725 0.113725 0.003922
0.125490 0.109804 0.003922
0.129412 0.101961 0.000000
0.133333 0.109804 0.007843
0.152941 0.105882 0.003922
0.164706 0.109804 0.007843
0.172549 0.109804 0.007843
0.192157 0.113725 0.015686
0.207843 0.113725 0.011765
0.223529 0.117647 0.003922
0.235294 0.113725 0.000000
0.262745 0.117647 0.003922
0.274510 0.121569 0.000000
0.290196 0.121569 0.000000
0.305882 0.121569 0.003922
0.321569 0.129412 0.003922
0.341176 0.125490 0.003922
0.360784 0.129412 0.003922
0.380392 0.133333 0.003922
0.396078 0.137255 0.000000
0.423529 0.141176 0.000000
0.447059 0.141176 0.000000
0.474510 0.145098 0.003922
0.498039 0.145098 0.003922
0.517647 0.145098 0.000000
0.549020 0.149020 0.000000
0.576471 0.145098 0.000000
0.600000 0.149020 0.003922
0.631373 0.152941 0.007843
0.658824 0.152941 0.000000
0.682353 0.152941 0.000000
0.717647 0.156863 0.000000
0.745098 0.152941 0.000000
0.772549 0.156863 0.000000
0.800000 0.152941 0.000000
0.831373 0.152941 0.003922
0.854902 0.152941 0.003922
0.882353 0.145098 0.000000
0.909804 0.145098 0.003922
0.937255 0.137255 0.000000
0.956863 0.133333 0.000000
0.984314 0.129412 0.000000
1.000000 0.117647 0.000000
0.988235 0.117647 0.000000
0.992157 0.109804 0.000000
0.996078 0.105882 0.000000
0.996078 0.090196 0.000000
1.000000 0.082353 0.007843
1.000000 0.062745 0.003922
1.000000 0.054902 0.000000
0.996078 0.043137 0.000000
0.000000 0.121569 0.000000
0.000000 0.129412 0.000000
0.000000 0.129412 0.000000
0.003922 0.125490 0.000000
0.015686 0.133333 0.000000
0.031373 0.129412 0.003922
0.047059 0.129412 0.000000
0.062745 0.129412 0.003922
0.078431 0.133333 0.000000
0.090196 0.129412 0.000000
0.094118 0.129412 0.007843
0.094118 0.129412 0.007843
0.121569 0.125490 0.003922
0.117647 0.121569 0.000000
0.121569 0.125490 0.000000
0.141176 0.129412 0.007843
0.141176 0.121569 0.007843
0.156863 0.117647 0.011765
0.164706 0.121569 0.011765
0.176471 0.117647 0.003922
0.196078 0.121569 0.003922
0.207843 0.125490 0.003922
0.219608 0.129412 0.000000
0.227451 0.133333 0.000000
0.262745 0.133333 0.003922
0.274510 0.133333 0.007843
0.290196 0.133333 0.003922
0.305882 0.141176 0.000000
0.329412 0.141176 0.000000
0.349020 0.145098 0.000000
0.356863 0.145098 0.000000
0.380392 0.149020 0.000000
0.407843 0.152941 0.003922
0.435294 0.152941 0.003922
0.450980 0.156863 0.003922
0.478431 0.156863 0.003922
0.501961 0.156863 0.007843
0.525490 0.160784 0.000000
0.552941 0.164706 0.000000
0.576471 0.168627 0.000000
0.611765 0.168627 0.003922
0.635294 0.168627 0.003922
0.666667 0.168627 0.000000
0.694118 0.172549 0.003922
0.717647 0.176471 0.003922
0.752941 0.176471 0.003922
0.776471 0.172549 0.000000
0.800000 0.172549 0.000000
0.831373 0.172549 0.000000
0.854902 0.172549 0.003922
0.886275 0.168627 0.003922
0.909804 0.164706 0.000000
0.933333 0.160784 0.000000
