assets/luts/LUTs/POLAR.CUBE
#Generated with IWLTBAP LUT Generator
#Website: https://luts.iwltbap.com
TITLE "POLAR"
LUT_3D_SIZE 4
0.000000 0.000000 0.000000
0.200000 0.000000 0.000000
0.647059 0.000000 0.000000
1.000000 0.003922 0.003922
0.000000 0.262745 0.000000
0.270588 0.274510 0.007843
0.690196 0.329412 0.000000
1.000000 0.325490 0.000000
0.011765 0.862745 0.003922
0.423529 0.878431 0.000000
0.831373 0.843137 0.000000
0.996078 0.741176 0.000000
0.105882 1.000000 0.058824
0.509804 1.000000 0.156863
0.839216 0.996078 0.262745
1.000000 1.000000 0.184314
0.000000 0.003922 0.254902
0.227451 0.003922 0.282353
0.615686 0.000000 0.317647
0.996078 0.003922 0.337255
0.000000 0.211765 0.270588
0.160784 0.243137 0.309804
0.729412 0.196078 0.313725
0.996078 0.184314 0.325490
0.000000 0.827451 0.356863
0.003922 0.854902 0.301961
0.819608 0.835294 0.352941
1.000000 0.729412 0.325490
0.321569 1.000000 0.443137
0.572549 0.992157 0.474510
0.874510 1.000000 0.552941
1.000000 1.000000 0.482353
0.000000 0.000000 0.678431
0.262745 0.000000 0.666667
0.701961 0.000000 0.705882
1.000000 0.000000 0.737255
0.000000 0.274510 0.686275
0.007843 0.168627 0.721569
0.737255 0.160784 0.772549
1.000000 0.172549 0.756863
0.003922 0.647059 0.713725
0.000000 0.670588 0.741176
0.698039 0.756863 0.768627
1.000000 0.815686 0.788235
0.000000 0.996078 0.749020
0.360784 0.996078 0.733333
0.878431 1.000000 0.839216
1.000000 1.000000 0.847059
0.003922 0.000000 0.988235
0.000000 0.003922 0.984314
0.545098 0.000000 0.984314
0.992157 0.003922 0.996078
0.000000 0.160784 0.992157
0.000000 0.152941 1.000000
0.549020 0.133333 0.996078
0.996078 0.286275 0.996078
0.000000 0.627451 0.996078
0.003922 0.654902 0.992157
0.635294 0.698039 1.000000
0.996078 0.807843 0.996078
0.003922 0.952941 1.000000
0.309804 0.968627 1.000000
0.815686 0.988235 1.000000
1.000000 1.000000 1.000000
