assets/luts/LUTs/POLAR.CUBE
#Generated with IWLTBAP LUT Generator
#Website: https://luts.iwltbap.com
TITLE "POLAR"
LUT_3D_SIZE 8
0.000000 0.000000 0.000000
0.058824 0.000000 0.000000
0.156863 0.000000 0.000000
0.290196 0.000000 0.000000
0.486275 0.000000 0.000000
0.737255 0.003922 0.000000
0.980392 0.003922 0.003922
1.000000 0.003922 0.003922
0.003922 0.070588 0.000000
0.074510 0.078431 0.007843
0.164706 0.074510 0.003922
0.301961 0.090196 0.000000
0.486275 0.094118 0.000000
0.741176 0.082353 0.007843
0.980392 0.003922 0.003922
0.996078 0.000000 0.007843
0.000000 0.207843 0.000000
0.090196 0.227451 0.000000
0.196078 0.215686 0.000000
0.313725 0.215686 0.000000
0.513725 0.247059 0.000000
0.760784 0.282353 0.000000
0.984314 0.278431 0.000000
0.996078 0.254902 0.000000
0.003922 0.431373 0.000000
0.003922 0.470588 0.000000
0.341176 0.494118 0.003922
0.439216 0.450980 0.000000
0.549020 0.431373 0.000000
0.784314 0.470588 0.003922
0.988235 0.478431 0.000000
0.996078 0.454902 0.000000
0.003922 0.725490 0.003922
0.000000 0.752941 0.000000
0.349020 0.764706 0.000000
0.596078 0.760784 0.000000
0.705882 0.721569 0.000000
0.800000 0.666667 0.000000
0.984314 0.662745 0.000000
1.000000 0.627451 0.000000
0.000000 0.913725 0.007843
0.003922 0.917647 0.000000
0.286275 0.921569 0.007843
0.615686 0.921569 0.003922
0.756863 0.901961 0.000000
0.874510 0.882353 0.000000
0.980392 0.843137 0.003922
1.000000 0.796078 0.003922
0.000000 0.996078 0.000000
0.000000 1.000000 0.000000
0.329412 1.000000 0.000000
0.596078 1.000000 0.000000
0.760784 0.996078 0.000000
0.862745 0.984314 0.000000
0.968627 0.976471 0.000000
1.000000 0.952941 0.003922
0.105882 1.000000 0.058824
0.258824 0.996078 0.070588
0.447059 1.000000 0.137255
0.627451 0.996078 0.203922
0.780392 1.000000 0.266667
0.862745 1.000000 0.254902
0.937255 1.000000 0.235294
1.000000 1.000000 0.184314
0.003922 0.000000 0.078431
0.070588 0.000000 0.094118
0.168627 0.000000 0.094118
0.290196 0.000000 0.105882
0.443137 0.000000 0.086275
0.686275 0.003922 0.078431
0.941176 0.003922 0.058824
1.000000 0.000000 0.050980
0.000000 0.066667 0.105882
0.058824 0.070588 0.098039
0.168627 0.066667 0.101961
0.298039 0.047059 0.101961
0.490196 0.003922 0.098039
0.741176 0.000000 0.086275
0.980392 0.003922 0.050980
1.000000 0.000000 0.031373
0.003922 0.188235 0.125490
0.000000 0.207843 0.094118
0.192157 0.203922 0.098039
0.313725 0.207843 0.094118
0.525490 0.231373 0.086275
0.776471 0.243137 0.058824
0.992157 0.227451 0.015686
1.000000 0.192157 0.007843
0.000000 0.407843 0.003922
0.003922 0.443137 0.000000
0.294118 0.470588 0.000000
0.423529 0.435294 0.023529
0.552941 0.419608 0.027451
0.800000 0.447059 0.000000
1.000000 0.450980 0.000000
1.000000 0.423529 0.000000
0.000000 0.709804 0.000000
0.003922 0.733333 0.000000
0.258824 0.749020 0.000000
0.576471 0.756863 0.000000
0.701961 0.717647 0.000000
0.811765 0.662745 0.000000
0.996078 0.647059 0.003922
1.000000 0.611765 0.003922
0.007843 0.901961 0.003922
0.000000 0.921569 0.000000
0.231373 0.917647 0.000000
0.596078 0.917647 0.000000
0.752941 0.905882 0.000000
0.878431 0.882353 0.000000
0.984314 0.827451 0.000000
1.000000 0.784314 0.003922
0.007843 1.000000 0.000000
0.000000 1.000000 0.000000
0.321569 1.000000 0.023529
0.592157 0.996078 0.152941
0.772549 1.000000 0.223529
0.866667 0.992157 0.188235
0.984314 0.972549 0.113725
0.996078 0.949020 0.000000
0.203922 1.000000 0.231373
0.301961 1.000000 0.223529
0.462745 0.996078 0.250980
0.635294 1.000000 0.309804
0.796078 1.000000 0.360784
0.874510 1.000000 0.352941
0.945098 1.000000 0.313725
1.000000 1.000000 0.274510
0.000000 0.000000 0.203922
0.031373 0.000000 0.203922
0.188235 0.000000 0.235294
0.278431 0.000000 0.219608
0.450980 0.003922 0.254902
0.698039 0.003922 0.278431
0.952941 0.000000 0.282353
1.000000 0.003922 0.258824
0.003922 0.082353 0.219608
0.003922 0.058824 0.235294
0.180392 0.054902 0.247059
0.309804 0.035294 0.247059
0.505882 0.000000 0.270588
0.760784 0.003922 0.290196
0.992157 0.003922 0.266667
1.000000 0.000000 0.266667
0.000000 0.172549 0.223529
0.000000 0.180392 0.243137
0.125490 0.188235 0.254902
0.337255 0.192157 0.258824
0.541176 0.156863 0.254902
0.792157 0.094118 0.258824
0.996078 0.011765 0.254902
1.000000 0.003922 0.258824
0.000000 0.352941 0.294118
0.000000 0.388235 0.305882
0.000000 0.415686 0.274510
0.400000 0.431373 0.247059
0.580392 0.411765 0.254902
0.811765 0.423529 0.258824
1.000000 0.415686 0.258824
1.000000 0.396078 0.254902
0.000000 0.666667 0.317647
0.003922 0.694118 0.290196
0.003922 0.717647 0.184314
0.509804 0.749020 0.235294
0.690196 0.713725 0.235294
0.823529 0.658824 0.219608
0.996078 0.635294 0.239216
0.996078 0.600000 0.239216
0.000000 0.901961 0.172549
0.003922 0.905882 0.176471
0.000000 0.909804 0.219608
0.509804 0.909804 0.274510
0.752941 0.905882 0.313725
0.866667 0.882353 0.270588
0.984314 0.831373 0.215686
1.000000 0.780392 0.243137
0.011765 0.996078 0.270588
0.000000 0.996078 0.274510
0.274510 1.000000 0.309804
0.580392 1.000000 0.372549
0.796078 0.996078 0.443137
0.886275 0.984314 0.411765
0.980392 0.968627 0.360784
0.996078 0.949020 0.274510
0.294118 1.000000 0.396078
0.352941 1.000000 0.392157
0.517647 0.996078 0.411765
0.650980 1.000000 0.443137
0.815686 1.000000 0.490196
0.886275 1.000000 0.494118
0.952941 1.000000 0.474510
0.992157 1.000000 0.427451
0.000000 0.000000 0.376471
0.000000 0.000000 0.384314
0.200000 0.000000 0.380392
0.345098 0.003922 0.380392
0.474510 0.000000 0.380392
0.713725 0.000000 0.431373
0.964706 0.000000 0.458824
0.996078 0.000000 0.454902
0.000000 0.054902 0.392157
0.000000 0.035294 0.392157
0.172549 0.007843 0.392157
0.368627 0.003922 0.419608
0.521569 0.000000 0.411765
0.780392 0.000000 0.458824
0.996078 0.003922 0.478431
1.000000 0.000000 0.454902
0.000000 0.219608 0.388235
0.000000 0.223529 0.411765
0.007843 0.156863 0.411765
0.360784 0.160784 0.423529
0.556863 0.141176 0.435294
0.807843 0.007843 0.466667
1.000000 0.000000 0.470588
1.000000 0.003922 0.458824
0.000000 0.325490 0.396078
0.000000 0.356863 0.423529
0.000000 0.356863 0.431373
0.270588 0.368627 0.439216
0.596078 0.392157 0.450980
0.823529 0.400000 0.462745
1.000000 0.415686 0.470588
1.000000 0.431373 0.466667
0.000000 0.568627 0.486275
0.000000 0.596078 0.513725
0.000000 0.623529 0.498039
0.003922 0.666667 0.450980
0.666667 0.701961 0.486275
0.823529 0.650980 0.466667
0.992157 0.647059 0.470588
1.000000 0.627451 0.470588
0.000000 0.854902 0.486275
0.003922 0.870588 0.486275
0.000000 0.878431 0.462745
0.294118 0.886275 0.466667
0.749020 0.901961 0.537255
0.870588 0.870588 0.517647
0.984314 0.823529 0.462745
1.000000 0.796078 0.482353
0.011765 0.996078 0.474510
0.000000 1.000000 0.482353
0.125490 0.996078 0.490196
0.560784 0.992157 0.533333
0.784314 0.988235 0.592157
0.901961 0.984314 0.619608
0.980392 0.968627 0.556863
1.000000 0.941176 0.474510
0.368627 0.996078 0.541176
0.415686 1.000000 0.541176
0.537255 1.000000 0.552941
0.678431 0.996078 0.584314
0.823529 1.000000 0.635294
0.909804 1.000000 0.654902
0.960784 1.000000 0.623529
1.000000 0.996078 0.600000
0.000000 0.000000 0.564706
0.000000 0.000000 0.556863
0.207843 0.000000 0.545098
0.384314 0.003922 0.549020
0.560784 0.000000 0.564706
0.752941 0.003922 0.592157
0.980392 0.003922 0.623529
1.000000 0.000000 0.619608
0.007843 0.015686 0.580392
0.000000 0.000000 0.580392
0.176471 0.000000 0.592157
0.392157 0.003922 0.600000
0.607843 0.007843 0.615686
0.807843 0.000000 0.635294
1.000000 0.000000 0.635294
1.000000 0.003922 0.631373
0.000000 0.231373 0.568627
0.000000 0.211765 0.603922
0.000000 0.141176 0.600000
0.360784 0.113725 0.631373
0.607843 0.070588 0.635294
0.827451 0.000000 0.654902
0.996078 0.003922 0.643137
0.996078 0.003922 0.631373
0.000000 0.396078 0.576471
0.000000 0.415686 0.611765
0.000000 0.403922 0.619608
0.121569 0.313725 0.615686
0.588235 0.360784 0.662745
0.843137 0.380392 0.670588
1.000000 0.407843 0.647059
0.996078 0.427451 0.619608
0.000000 0.533333 0.596078
0.000000 0.552941 0.619608
0.000000 0.560784 0.623529
0.000000 0.572549 0.643137
0.529412 0.627451 0.647059
0.823529 0.658824 0.666667
0.984314 0.674510 0.658824
1.000000 0.686275 0.670588
0.003922 0.745098 0.666667
0.003922 0.768627 0.674510
0.000000 0.780392 0.682353
0.011765 0.823529 0.674510
0.552941 0.850980 0.658824
0.866667 0.870588 0.713725
0.960784 0.831373 0.670588
1.000000 0.819608 0.678431
0.003922 0.988235 0.654902
0.007843 0.992157 0.650980
0.007843 0.992157 0.643137
0.388235 0.992157 0.654902
0.725490 0.988235 0.717647
0.913725 0.984314 0.780392
0.972549 0.964706 0.733333
0.996078 0.945098 0.670588
0.000000 1.000000 0.631373
0.254902 0.996078 0.635294
0.541176 1.000000 0.690196
0.670588 0.996078 0.713725
0.819608 1.000000 0.756863
0.925490 1.000000 0.803922
0.972549 1.000000 0.780392
1.000000 1.000000 0.749020
0.000000 0.000000 0.729412
0.000000 0.000000 0.729412
0.160784 0.003922 0.725490
0.368627 0.000000 0.721569
0.556863 0.000000 0.729412
0.756863 0.000000 0.772549
0.956863 0.000000 0.792157
0.996078 0.000000 0.800000
0.003922 0.000000 0.745098
0.000000 0.000000 0.768627
0.062745 0.000000 0.764706
0.368627 0.003922 0.764706
0.584314 0.003922 0.796078
0.800000 0.003922 0.819608
0.996078 0.000000 0.839216
1.000000 0.000000 0.831373
0.000000 0.172549 0.741176
0.000000 0.133333 0.768627
0.000000 0.109804 0.780392
0.294118 0.050980 0.792157
0.560784 0.000000 0.807843
0.800000 0.000000 0.827451
1.000000 0.000000 0.847059
1.000000 0.003922 0.819608
0.000000 0.403922 0.752941
0.000000 0.407843 0.796078
0.003922 0.364706 0.800000
0.007843 0.294118 0.807843
0.517647 0.325490 0.823529
0.792157 0.388235 0.839216
1.000000 0.396078 0.850980
1.000000 0.419608 0.811765
0.000000 0.556863 0.776471
0.000000 0.572549 0.803922
0.000000 0.572549 0.811765
0.007843 0.560784 0.811765
0.466667 0.564706 0.823529
0.788235 0.631373 0.835294
0.984314 0.658824 0.847059
0.996078 0.678431 0.807843
0.003922 0.694118 0.784314
0.000000 0.705882 0.792157
0.000000 0.713725 0.796078
0.007843 0.721569 0.803922
0.443137 0.752941 0.803922
0.772549 0.815686 0.823529
0.952941 0.843137 0.831373
1.000000 0.858824 0.835294
0.000000 0.909804 0.854902
0.000000 0.921569 0.862745
0.000000 0.933333 0.870588
0.003922 0.945098 0.862745
0.356863 0.968627 0.850980
0.827451 0.968627 0.850980
0.968627 0.968627 0.874510
0.996078 0.952941 0.843137
0.007843 0.996078 0.827451
0.003922 1.000000 0.815686
0.000000 1.000000 0.803922
0.470588 1.000000 0.811765
0.749020 1.000000 0.831373
0.909804 1.000000 0.882353
0.976471 0.996078 0.909804
1.000000 1.000000 0.890196
0.003922 0.000000 0.886275
0.000000 0.000000 0.878431
0.003922 0.000000 0.882353
0.298039 0.000000 0.882353
0.494118 0.003922 0.890196
0.694118 0.000000 0.913725
0.894118 0.000000 0.929412
1.000000 0.000000 0.976471
0.003922 0.000000 0.901961
0.003922 0.003922 0.937255
0.000000 0.000000 0.925490
0.282353 0.000000 0.933333
0.513725 0.000000 0.952941
0.725490 0.007843 0.960784
0.917647 0.000000 0.968627
1.000000 0.000000 1.000000
0.000000 0.113725 0.898039
0.000000 0.113725 0.937255
0.000000 0.090196 0.945098
0.164706 0.039216 0.960784
0.478431 0.003922 0.964706
0.721569 0.000000 0.964706
0.925490 0.027451 0.972549
1.000000 0.000000 1.000000
0.000000 0.356863 0.917647
0.003922 0.360784 0.960784
0.003922 0.298039 0.941176
0.000000 0.282353 0.964706
0.439216 0.298039 0.964706
0.698039 0.341176 0.964706
0.921569 0.415686 0.972549
1.000000 0.431373 1.000000
0.003922 0.556863 0.937255
0.000000 0.572549 0.964706
0.000000 0.549020 0.960784
0.003922 0.537255 0.968627
0.400000 0.529412 0.972549
0.709804 0.588235 0.964706
0.925490 0.662745 0.972549
1.000000 0.674510 0.996078
0.000000 0.678431 0.937255
0.000000 0.701961 0.960784
0.000000 0.701961 0.960784
0.000000 0.705882 0.960784
0.372549 0.752941 0.968627
0.733333 0.784314 0.960784
0.929412 0.827451 0.964706
0.996078 0.839216 0.980392
0.003922 0.835294 0.949020
0.000000 0.847059 0.968627
0.000000 0.847059 0.960784
0.000000 0.866667 0.968627
0.435294 0.886275 0.960784
0.729412 0.909804 0.960784
0.929412 0.949020 0.964706
1.000000 0.956863 0.956863
0.003922 0.996078 1.000000
0.000000 1.000000 1.000000
0.003922 1.000000 1.000000
0.000000 1.000000 1.000000
0.329412 1.000000 1.000000
0.780392 1.000000 0.956863
0.980392 1.000000 0.976471
1.000000 1.000000 0.984314
0.003922 0.000000 0.988235
0.000000 0.003922 0.988235
0.000000 0.003922 0.984314
0.172549 0.000000 0.972549
0.411765 0.000000 0.980392
0.607843 0.000000 0.996078
0.796078 0.000000 1.000000
0.992157 0.003922 0.996078
0.003922 0.000000 0.996078
0.000000 0.000000 0.996078
0.003922 0.000000 0.996078
0.125490 0.003922 1.000000
0.431373 0.000000 1.000000
0.631373 0.000000 1.000000
0.815686 0.000000 0.996078
1.000000 0.003922 1.000000
0.003922 0.109804 1.000000
0.000000 0.105882 1.000000
0.000000 0.082353 1.000000
0.000000 0.047059 1.000000
0.403922 0.000000 1.000000
0.627451 0.000000 1.000000
0.823529 0.082353 1.000000
1.000000 0.172549 1.000000
0.003922 0.286275 0.992157
0.000000 0.274510 0.996078
0.000000 0.274510 0.996078
0.003922 0.278431 0.996078
0.360784 0.290196 0.996078
0.627451 0.329412 1.000000
0.831373 0.396078 1.000000
1.000000 0.474510 1.000000
0.000000 0.521569 0.996078
0.000000 0.541176 1.000000
0.007843 0.537255 0.996078
0.000000 0.501961 1.000000
0.396078 0.517647 1.000000
0.654902 0.568627 1.000000
0.858824 0.623529 1.000000
1.000000 0.694118 1.000000
0.000000 0.682353 1.000000
0.000000 0.694118 1.000000
0.000000 0.701961 1.000000
0.164706 0.721569 1.000000
0.568627 0.764706 1.000000
0.717647 0.764706 1.000000
0.886275 0.811765 1.000000
0.996078 0.847059 1.000000
0.000000 0.811765 0.992157
0.000000 0.823529 1.000000
0.003922 0.839216 0.996078
0.313725 0.854902 1.000000
0.584314 0.878431 1.000000
0.796078 0.913725 1.000000
0.949020 0.945098 1.000000
1.000000 0.964706 0.996078
0.003922 0.952941 1.000000
0.003922 0.960784 1.000000
0.207843 0.968627 1.000000
0.486275 0.964706 1.000000
0.694118 0.980392 1.000000
0.874510 0.988235 1.000000
1.000000 1.000000 1.000000
1.000000 1.000000 1.000000
