assets/luts/LUTs/SLAYER.CUBE
LUT_3D_SIZE 6
0.000000 0.000000 0.000000
0.002139 0.000000 0.001146
0.232907 0.000000 0.034922
0.530488 0.000000 0.061115
0.692730 0.000000 0.090265
0.696446 0.000000 0.097208
0.000000 0.000000 0.000000
0.000000 0.000000 0.000000
0.222718 0.047922 0.000000
0.529036 0.000000 0.056276
0.692728 0.000000 0.084512
0.696251 0.000000 0.092207
0.007487 0.146496 0.041328
0.009286 0.145995 0.039103
0.179256 0.182731 0.016772
0.547875 0.271536 0.016890
0.724796 0.263657 0.015805
0.727039 0.243900 0.018697
0.064419 0.402284 0.099274
0.067236 0.402282 0.097426
0.044524 0.397210 0.109978
0.515247 0.517797 0.088240
0.733477 0.570190 0.096425
0.734288 0.564343 0.094537
0.113326 0.623467 0.161804
0.116284 0.623476 0.160583
0.119911 0.623559 0.159074
0.489717 0.737141 0.134053
0.741230 0.774540 0.140179
0.763882 0.775499 0.141892
0.118793 0.647358 0.167880
0.121036 0.647356 0.166967
0.102658 0.647344 0.173949
0.411190 0.742336 0.152375
0.729816 0.803897 0.144176
0.770989 0.808102 0.147646
-0.035521 -0.225817 0.000000
0.000000 -0.225928 0.000000
0.240024 -0.224692 0.060135
0.541465 -0.249120 0.097172
0.693185 -0.272110 0.131845
0.692805 -0.273961 0.138889
0.000000 0.002383 0.003105
0.003121 0.000000 0.005242
0.221712 0.000000 0.049056
0.530654 0.000000 0.086748
0.693946 0.000000 0.114202
0.697555 0.000000 0.121607
0.007207 0.143819 0.051479
0.008814 0.143708 0.045851
0.177189 0.179985 0.022765
0.549196 0.254737 0.025270
0.725819 0.233936 0.036364
0.726420 0.208777 0.041243
0.064233 0.401529 0.103062
0.066684 0.401714 0.101006
0.047133 0.397083 0.111356
0.515122 0.517390 0.090561
0.733143 0.565842 0.097422
0.733846 0.558942 0.095209
0.113320 0.623546 0.165459
0.115754 0.623540 0.163869
0.119793 0.623596 0.162283
0.482018 0.734857 0.138066
0.741253 0.774465 0.142559
0.763751 0.775002 0.144278
0.118850 0.647327 0.169857
0.120468 0.647329 0.168632
0.102414 0.647347 0.175255
0.390358 0.736028 0.155048
0.728676 0.803680 0.143106
0.770733 0.808100 0.146474
-0.043961 -0.226179 0.237404
0.039806 -0.226263 0.236837
0.266402 -0.227114 0.245055
0.580968 -0.248779 0.314747
0.729744 -0.273551 0.349795
0.729144 -0.275507 0.350260
0.015815 0.000000 0.229766
0.032122 0.000000 0.229943
0.251187 0.000000 0.236069
0.564965 0.000000 0.295779
0.724487 0.000000 0.326407
0.727797 0.000000 0.326650
0.000000 0.160572 0.198718
0.000000 0.160393 0.199108
0.160268 0.153499 0.217599
0.551942 0.141029 0.247508
0.716226 0.068365 0.280802
0.717888 0.039438 0.287783
0.063367 0.420262 0.227243
0.066049 0.417813 0.214900
0.054513 0.408107 0.184361
0.512759 0.520604 0.180722
0.737783 0.556196 0.193501
0.739190 0.547763 0.201686
0.113728 0.623969 0.179119
0.115670 0.623013 0.169224
0.119335 0.623264 0.166968
0.460684 0.726994 0.145494
0.740325 0.772799 0.145604
0.763027 0.771834 0.146961
0.118909 0.647340 0.123346
0.120995 0.647341 0.121455
0.095508 0.647359 0.133144
0.333670 0.719755 0.125962
0.722332 0.803535 0.100575
0.767218 0.808139 0.105928
0.033319 -0.250292 0.563783
0.035508 -0.249292 0.564387
0.309664 -0.248129 0.580165
0.614645 -0.258233 0.577411
0.787628 -0.282815 0.605483
0.786280 -0.285085 0.602850
0.041367 0.000000 0.554698
0.044744 0.000000 0.554831
0.276039 0.000000 0.568212
0.598129 0.000000 0.567626
0.781956 0.000000 0.594216
0.784640 0.000000 0.591226
0.049324 -0.075613 0.556062
0.052547 -0.073948 0.555370
0.148371 -0.073158 0.560308
0.591171 -0.068529 0.563286
0.781146 -0.047148 0.582307
0.783467 -0.041192 0.578015
0.010209 0.459555 0.518101
0.012605 0.459460 0.518180
0.006179 0.458509 0.517722
0.506777 0.504834 0.565727
0.758737 0.511903 0.576364
0.759534 0.508749 0.577233
0.044461 0.711251 0.553867
0.047845 0.710742 0.550540
0.053656 0.709154 0.542872
0.394037 0.732633 0.576620
0.739335 0.787921 0.597075
0.769753 0.784120 0.600677
0.054893 0.747505 0.534546
0.058691 0.746201 0.529392
0.019800 0.743666 0.520114
0.194521 0.760183 0.546129
0.714761 0.832705 0.579062
0.772651 0.838031 0.585798
0.069145 -0.265096 0.807078
0.071861 -0.265040 0.807262
0.227041 -0.265280 0.814883
0.636063 -0.271944 0.817551
0.791529 -0.286492 0.812787
0.790009 -0.289497 0.811200
0.064727 0.000000 0.798709
0.067502 0.000000 0.798859
0.162328 0.000000 0.804329
0.615435 0.000000 0.809420
0.786410 0.000000 0.808218
0.788590 0.000000 0.806116
0.063376 0.000000 0.795828
0.065225 0.000000 0.796285
-0.079492 0.044553 0.797476
0.600219 0.000000 0.807508
0.786809 0.000000 0.806328
0.788267 0.000000 0.802194
0.000000 0.455721 0.754913
0.000000 0.451361 0.756068
0.000000 0.440412 0.758873
0.494563 0.419587 0.832425
0.798374 0.398464 0.829874
0.802229 0.396012 0.825308
0.030330 0.697814 0.743747
0.032726 0.697792 0.743725
0.036269 0.697484 0.744020
0.260477 0.724482 0.766532
0.731068 0.757384 0.797532
0.776247 0.757740 0.798513
0.036214 0.772886 0.737445
0.038568 0.772902 0.736471
0.003396 0.772730 0.734613
-0.089868 0.787809 0.746873
0.715854 0.839030 0.802187
0.774338 0.847810 0.802544
0.072137 -0.267208 0.835740
0.074821 -0.267206 0.835730
0.161602 -0.267399 0.839837
0.630396 -0.274058 0.843552
0.794965 -0.287724 0.838844
0.792915 -0.288957 0.838507
0.068075 0.000000 0.832622
0.070785 0.000000 0.832622
0.058663 0.000000 0.834822
0.608751 0.000000 0.840945
0.789955 0.000000 0.839075
0.791965 0.000000 0.839169
0.066141 0.000000 0.832622
0.068810 0.000000 0.832622
-0.078435 0.045208 0.831971
0.591984 0.000000 0.840933
0.790583 0.000000 0.839065
0.791959 0.000000 0.839169
0.000000 0.434461 0.810383
0.000000 0.427055 0.812741
0.000000 0.410177 0.817699
0.494496 0.378054 0.881874
0.798148 0.350082 0.877788
0.806178 0.341486 0.877752
0.030159 0.690983 0.798477
0.032470 0.689906 0.798393
0.035845 0.687029 0.798372
0.239544 0.709311 0.817823
0.730405 0.741527 0.862332
0.786360 0.738162 0.860939
0.034894 0.754550 0.800615
0.037279 0.754448 0.800541
0.040858 0.754534 0.800782
0.095928 0.765181 0.809660
0.712426 0.811372 0.850818
0.774761 0.813497 0.853724
