assets/luts/LUTs/SLAYER.CUBE
LUT_3D_SIZE 16
0.000000 0.000000 0.000000
0.000000 0.000000 0.000000
0.000000 0.000000 0.000000
0.002139 0.000000 0.001146
0.030646 0.000000 0.011618
0.098253 0.000000 0.023367
0.232907 0.000000 0.034922
0.357322 0.000000 0.044392
0.449335 0.000000 0.051935
0.530488 0.000000 0.061115
0.619293 0.000000 0.072681
0.688088 0.000000 0.083412
0.692730 0.000000 0.090265
0.693839 0.000000 0.094300
0.695009 0.000000 0.096327
0.696446 0.000000 0.097208
0.000000 0.000000 0.000000
0.000000 0.000000 0.000000
0.000000 0.000000 0.000000
0.001096 0.000000 0.000516
0.029146 0.000000 0.009469
0.095966 0.000000 0.019150
0.231540 0.000000 0.032568
0.357142 0.000000 0.043731
0.449106 0.000000 0.050966
0.530294 0.000000 0.060098
0.619100 0.000000 0.071705
0.688133 0.000000 0.082502
0.692747 0.000000 0.089412
0.693774 0.000000 0.093519
0.694944 0.000000 0.095552
0.696420 0.000000 0.096454
0.000000 0.000000 0.000000
0.000000 0.000000 0.000000
0.000000 0.000000 0.000000
0.000000 0.000000 0.000000
0.025965 0.007853 0.000000
0.091483 0.017034 0.000000
0.226585 0.015779 0.000000
0.354716 0.000000 0.036023
0.448533 0.000000 0.049623
0.529905 0.000000 0.058034
0.618753 0.000000 0.069478
0.687941 0.000000 0.080553
0.692816 0.000000 0.087463
0.693711 0.000000 0.091719
0.695059 0.000000 0.093868
0.696377 0.000000 0.094762
0.000000 0.000000 0.000000
0.000000 0.000000 0.000000
0.000000 0.000000 0.000000
0.000000 0.000000 0.000000
0.022060 0.013782 0.000000
0.087072 0.033506 0.000000
0.222718 0.047922 0.000000
0.351084 0.038582 0.000000
0.447873 0.000000 0.036145
0.529036 0.000000 0.056276
0.617948 0.000000 0.067357
0.687554 0.000000 0.078033
0.692728 0.000000 0.084512
0.693741 0.000000 0.088989
0.694938 0.000000 0.091226
0.696251 0.000000 0.092207
0.000000 0.013827 0.006184
0.000000 0.013706 0.006072
0.000000 0.013898 0.004832
0.008577 0.015712 0.000000
0.017917 0.018691 0.000000
0.077416 0.048169 0.000000
0.218113 0.076069 0.000000
0.350321 0.081813 0.000000
0.449850 0.071084 0.000000
0.532701 0.036465 0.000129
0.618321 0.000000 0.058979
0.686825 0.000000 0.078348
0.691523 0.000000 0.084948
0.692510 0.000000 0.087658
0.694115 0.000000 0.089260
0.695375 0.000000 0.089997
0.000000 0.057324 0.020865
0.000000 0.057230 0.020499
0.000000 0.056979 0.019973
0.000000 0.057130 0.016855
0.028758 0.060735 0.000097
0.065979 0.069802 0.000000
0.202336 0.117096 0.000000
0.347929 0.138763 0.000000
0.453186 0.142646 0.000000
0.546294 0.137902 0.000000
0.631412 0.121093 0.005508
0.698575 0.088904 0.013711
0.702486 0.047768 0.018492
0.701207 0.011180 0.051272
0.701070 0.001187 0.068030
0.701287 0.000000 0.076689
0.007487 0.146496 0.041328
0.007991 0.146461 0.040795
0.008927 0.146333 0.039683
0.009286 0.145995 0.039103
0.008976 0.145549 0.040046
0.064004 0.155126 0.022968
0.179256 0.182731 0.016772
0.337228 0.233874 0.021140
0.445274 0.256877 0.017525
0.547875 0.271536 0.016890
0.642350 0.275782 0.015222
0.716654 0.271836 0.013402
0.724796 0.263657 0.015805
0.725190 0.256575 0.017363
0.725973 0.250598 0.018456
0.727039 0.243900 0.018697
0.029432 0.244377 0.061840
0.029949 0.244361 0.061349
0.031005 0.244275 0.060348
0.032042 0.244188 0.059302
0.031813 0.243816 0.059323
0.021905 0.242089 0.068766
0.165480 0.279794 0.042782
0.319182 0.315838 0.044686
0.435990 0.351736 0.052364
0.537819 0.376578 0.049096
0.638500 0.394093 0.046228
0.712824 0.401356 0.045219
0.723624 0.400543 0.044224
0.723660 0.398768 0.043781
0.724840 0.396468 0.043198
0.726141 0.393101 0.042221
0.047143 0.324382 0.079804
0.047680 0.324457 0.079394
0.048786 0.324357 0.078507
0.049897 0.324288 0.077585
0.050914 0.324146 0.076739
0.046291 0.322823 0.079851
0.058953 0.329108 0.080851
0.306834 0.399411 0.058687
0.425776 0.420263 0.067728
0.525646 0.449661 0.077441
0.629599 0.473630 0.074415
0.708854 0.485607 0.069320
0.727688 0.487913 0.068689
0.727240 0.486989 0.068727
0.728309 0.485436 0.068265
0.729520 0.482127 0.067247
0.064419 0.402284 0.099274
0.064967 0.402289 0.098926
0.066087 0.402206 0.098210
0.067236 0.402282 0.097426
0.068386 0.402090 0.096612
0.068730 0.401744 0.096146
0.044524 0.397210 0.109978
0.238677 0.456009 0.089672
0.425387 0.507304 0.077582
0.515247 0.517797 0.088240
0.619347 0.547114 0.099091
0.701901 0.564545 0.100210
0.733477 0.570190 0.096425
0.732200 0.569401 0.096232
0.733379 0.567947 0.095673
0.734288 0.564343 0.094537
0.084213 0.491550 0.122579
0.084793 0.491525 0.122259
0.085916 0.491527 0.121636
0.087097 0.491431 0.120978
0.088260 0.491353 0.120325
0.089422 0.491166 0.119588
0.084647 0.489384 0.121687
0.056282 0.489402 0.139859
0.396629 0.588313 0.101452
0.517378 0.611492 0.098360
0.608490 0.622809 0.109647
0.698746 0.645258 0.119703
0.739277 0.653971 0.123222
0.741583 0.654228 0.123443
0.742311 0.652696 0.123044
0.742979 0.648953 0.122218
0.104100 0.581344 0.148295
0.104691 0.581332 0.148021
0.105834 0.581306 0.147503
0.107024 0.581245 0.146932
0.108203 0.581123 0.146398
0.109344 0.580974 0.145738
0.110043 0.580373 0.145172
0.082474 0.575012 0.156381
0.318590 0.643062 0.143022
0.507257 0.697131 0.115113
0.606611 0.710860 0.119924
0.694324 0.721763 0.129529
0.743028 0.730482 0.134544
0.754756 0.732435 0.135529
0.754710 0.731047 0.135243
0.755505 0.727726 0.134689
0.113326 0.623467 0.161804
0.113905 0.623468 0.161564
0.115064 0.623471 0.161072
0.116284 0.623476 0.160583
0.117457 0.623484 0.160073
0.118711 0.623530 0.159559
0.119911 0.623559 0.159074
0.111196 0.621545 0.162074
0.143345 0.636504 0.163702
0.489717 0.737141 0.134053
0.597754 0.756357 0.124316
0.691207 0.769154 0.135197
0.741230 0.774540 0.140179
0.762624 0.776499 0.142139
0.762877 0.776185 0.142004
0.763882 0.775499 0.141892
0.112599 0.621581 0.160782
0.113179 0.621581 0.160538
0.114356 0.621581 0.160069
0.115571 0.621581 0.159577
0.116777 0.621581 0.159070
0.117996 0.621581 0.158546
0.119208 0.621581 0.158018
0.118806 0.621189 0.157964
0.039504 0.611766 0.186930
0.465897 0.728481 0.140352
0.584290 0.753178 0.123082
0.680676 0.767525 0.133827
0.734392 0.774545 0.139339
0.759244 0.777140 0.141714
0.763246 0.777693 0.142045
0.764121 0.777602 0.142009
0.112599 0.622875 0.160828
0.113181 0.622875 0.160576
0.114350 0.622875 0.160090
0.115562 0.622875 0.159598
0.116765 0.622875 0.159099
0.117984 0.622875 0.158562
0.119197 0.622875 0.158045
0.120443 0.622873 0.157534
0.056100 0.614408 0.181879
0.444494 0.723347 0.143360
0.575440 0.752892 0.123202
0.673095 0.767468 0.132897
0.729827 0.775028 0.138869
0.756521 0.778032 0.141395
0.763484 0.778597 0.142023
0.764155 0.778500 0.141981
0.118793 0.647358 0.167880
0.119299 0.647358 0.167663
0.120293 0.647358 0.167284
0.121036 0.647356 0.166967
0.120690 0.647353 0.167075
0.116092 0.647348 0.168877
0.102658 0.647344 0.173949
0.078146 0.647339 0.182682
-0.075071 0.641583 0.212741
0.411190 0.742336 0.152375
0.563635 0.779766 0.129753
0.666606 0.795252 0.137814
0.729816 0.803897 0.144176
0.759796 0.807120 0.146799
0.770155 0.808144 0.147741
0.770989 0.808102 0.147646
-0.031537 -0.225435 -0.041258
-0.020071 -0.225462 -0.041328
0.000000 -0.225433 -0.041553
0.000000 -0.225369 -0.040947
0.021345 -0.225229 -0.038415
0.100054 -0.224953 -0.032262
0.240950 -0.224699 -0.014619
0.369628 -0.224519 0.029311
0.462449 -0.232031 0.044287
0.539899 -0.249597 0.061388
0.624405 -0.263405 0.078482
0.689977 -0.269294 0.091248
0.691255 -0.272195 0.097092
0.689627 -0.273493 0.100516
0.689956 -0.273938 0.102403
0.691002 -0.274032 0.103225
0.000000 0.000000 0.000000
0.000000 0.000000 0.000000
0.000000 0.000000 0.000000
0.001099 0.000000 0.000646
0.029183 0.000000 0.011954
0.096277 0.000000 0.024377
0.231841 0.000000 0.038109
0.357095 0.000000 0.048115
0.449377 0.000000 0.055248
0.530547 0.000000 0.064442
0.619298 0.000000 0.075800
0.688156 0.000000 0.086492
0.692995 0.000000 0.093246
0.693842 0.000000 0.097059
0.695229 0.000000 0.099000
0.696429 0.000000 0.099827
0.000000 0.000000 0.000000
0.000000 0.000000 0.000000
0.000000 0.000000 0.000000
0.000000 0.000000 0.000000
0.025767 0.000000 0.002560
0.091302 0.000000 0.001673
0.226632 0.000000 0.020445
0.354982 0.000000 0.042484
0.448787 0.000000 0.053813
0.530121 0.000000 0.062299
0.618910 0.000000 0.073748
0.688132 0.000000 0.084436
0.692904 0.000000 0.091386
0.693825 0.000000 0.095348
0.695211 0.000000 0.097330
0.696602 0.000000 0.098219
0.000000 0.000000 0.000000
0.000000 0.000000 0.000000
0.000000 0.000000 0.000000
0.000000 0.000000 0.000000
0.022183 0.012852 0.000000
0.086907 0.030755 0.000000
0.222415 0.043331 0.000000
0.350976 0.029358 0.000000
0.447835 0.000000 0.043977
0.529260 0.000000 0.060544
0.618146 0.000000 0.071671
0.687635 0.000000 0.081804
0.692790 0.000000 0.088616
0.693791 0.000000 0.092753
0.694959 0.000000 0.094841
0.696434 0.000000 0.095801
0.000000 0.013306 0.006847
0.000000 0.013315 0.006679
0.000000 0.013434 0.005913
0.007335 0.015133 0.000000
0.017451 0.018188 0.000000
0.077403 0.047073 0.000000
0.218029 0.073733 0.000000
0.350049 0.078432 0.000000
0.449638 0.066167 0.000000
0.532465 0.017096 0.002830
0.618173 0.000000 0.065001
0.686988 0.000000 0.082067
0.691873 0.000000 0.088298
0.692848 0.000000 0.091304
0.694229 0.000000 0.092872
0.695599 0.000000 0.093553
0.000000 0.056713 0.021053
0.000000 0.056787 0.020738
0.000000 0.056498 0.020133
0.000000 0.056600 0.017491
0.028054 0.060179 0.000097
0.065584 0.069273 0.000000
0.202284 0.116244 0.000000
0.347986 0.137461 0.000000
0.452976 0.140026 0.000000
0.546018 0.134300 0.001032
0.631087 0.116092 0.008778
0.698076 0.080759 0.017083
0.702009 0.023009 0.021701
0.700565 0.007077 0.063473
0.700591 0.000000 0.076732
0.700854 0.000000 0.083859
0.007401 0.146048 0.041966
0.007783 0.146138 0.041419
0.008816 0.145985 0.040244
0.009216 0.145734 0.039651
0.008727 0.145188 0.040672
0.062954 0.154622 0.023267
0.179026 0.182374 0.017072
0.337251 0.233203 0.021254
0.445314 0.255794 0.017539
0.547963 0.270131 0.016818
0.642358 0.274114 0.014963
0.716736 0.269371 0.015336
0.725008 0.260863 0.017981
0.725253 0.253485 0.019837
0.725769 0.247237 0.021221
0.727077 0.240518 0.021652
0.029406 0.244176 0.062589
0.029776 0.244204 0.062044
0.030928 0.244172 0.060972
0.031987 0.244030 0.059954
0.031793 0.243667 0.059905
0.021766 0.241978 0.069309
0.164472 0.279329 0.043221
0.319114 0.315794 0.045046
0.435948 0.351380 0.052636
0.537856 0.375997 0.049280
0.638492 0.393270 0.046380
0.712802 0.400555 0.045350
0.723643 0.399775 0.044286
0.723668 0.397743 0.043833
0.724844 0.395542 0.043193
0.726002 0.392049 0.042174
0.047112 0.324276 0.080587
0.047503 0.324306 0.080059
0.048705 0.324229 0.079141
0.049856 0.324169 0.078229
0.050910 0.324108 0.077327
0.046324 0.322860 0.080418
0.058126 0.328820 0.081921
0.306195 0.399161 0.059088
0.425747 0.420159 0.068117
0.525639 0.449382 0.077759
0.629582 0.473143 0.074677
0.708906 0.485141 0.069560
0.727637 0.487289 0.068921
0.727168 0.486339 0.068941
0.728255 0.484654 0.068447
0.729462 0.481425 0.067429
0.064399 0.402267 0.100078
0.064775 0.402168 0.099600
0.066008 0.402244 0.098802
0.067181 0.402153 0.098011
0.068349 0.402017 0.097198
0.068715 0.401632 0.096722
0.044791 0.397140 0.110284
0.236706 0.455300 0.090081
0.425001 0.507230 0.077943
0.515226 0.517713 0.088648
0.619329 0.546904 0.099434
0.701888 0.564276 0.100520
0.733467 0.569659 0.096663
0.732237 0.568939 0.096457
0.733356 0.567391 0.095913
0.734335 0.563912 0.094794
0.084210 0.491420 0.123350
0.084571 0.491471 0.122892
0.085847 0.491430 0.122212
0.087053 0.491391 0.121552
0.088225 0.491246 0.120888
0.089370 0.491050 0.120150
0.084728 0.489356 0.122184
0.056169 0.489235 0.140272
0.395699 0.587975 0.102003
0.517181 0.611335 0.098706
0.608489 0.622805 0.110057
0.698741 0.645024 0.120101
0.739209 0.653748 0.123563
0.741651 0.653957 0.123766
0.742227 0.652316 0.123409
0.742915 0.648531 0.122546
0.104087 0.581241 0.149057
0.104481 0.581271 0.148611
0.105744 0.581206 0.148022
0.106952 0.581159 0.147457
0.108177 0.581123 0.146877
0.109338 0.580876 0.146255
0.110031 0.580345 0.145700
0.082430 0.574978 0.156818
0.316409 0.642364 0.143405
0.506895 0.696922 0.115554
0.606393 0.710677 0.120295
0.694296 0.721662 0.129930
0.742993 0.730379 0.134928
0.754692 0.732269 0.135893
0.754647 0.730842 0.135617
0.755510 0.727476 0.135087
0.113314 0.623474 0.162521
0.113673 0.623474 0.162079
0.114985 0.623476 0.161563
0.116220 0.623480 0.161071
0.117454 0.623487 0.160526
0.118679 0.623534 0.160028
0.119902 0.623564 0.159541
0.111333 0.621535 0.162447
0.142317 0.636104 0.164458
0.488960 0.736926 0.134626
0.597497 0.756249 0.124676
0.691110 0.769106 0.135591
0.741193 0.774499 0.140584
0.762608 0.776476 0.142562
0.762955 0.776102 0.142424
0.763855 0.775420 0.142303
0.112616 0.621581 0.161536
0.112975 0.621581 0.161080
0.114293 0.621581 0.160564
0.115502 0.621581 0.160036
0.116772 0.621581 0.159539
0.117964 0.621581 0.159016
0.119198 0.621581 0.158498
0.118832 0.621199 0.158439
0.040002 0.611691 0.187128
0.464645 0.728165 0.140976
0.583902 0.753237 0.123456
0.680350 0.767452 0.134187
0.734361 0.774549 0.139756
0.759235 0.777145 0.142142
0.763248 0.777697 0.142461
0.764122 0.777606 0.142443
0.112616 0.622875 0.161564
0.112975 0.622875 0.161102
0.114288 0.622875 0.160585
0.115505 0.622875 0.160079
0.116770 0.622875 0.159555
0.117949 0.622875 0.159045
0.119178 0.622875 0.158534
0.120424 0.622875 0.157995
0.056730 0.614453 0.182034
0.442830 0.722837 0.143989
0.575113 0.752990 0.123600
0.672863 0.767407 0.133272
0.729804 0.775038 0.139270
0.756476 0.778026 0.141779
0.763485 0.778598 0.142439
0.764154 0.778502 0.142383
0.118801 0.647321 0.168413
0.119097 0.647322 0.167999
0.120197 0.647322 0.167562
0.120970 0.647321 0.167263
0.120673 0.647357 0.167369
0.116095 0.647350 0.169103
0.102679 0.647344 0.174141
0.078130 0.647339 0.182856
-0.074277 0.641580 0.212832
0.409453 0.741826 0.152782
0.563057 0.779608 0.129857
0.666132 0.795170 0.137835
0.729786 0.803882 0.144205
0.759694 0.807113 0.146789
0.770114 0.808143 0.147705
0.770939 0.808102 0.147604
-0.033076 -0.225648 0.000000
-0.021115 -0.225667 0.000000
0.000000 -0.225731 0.000000
0.000000 -0.225689 0.000000
0.022048 -0.225457 0.005784
0.099234 -0.225003 0.021463
0.240642 -0.224714 0.038235
0.369373 -0.224501 0.050848
0.462876 -0.231979 0.062096
0.540454 -0.249497 0.075839
0.625015 -0.263328 0.091372
0.690513 -0.269271 0.103176
0.691966 -0.272159 0.109693
0.690248 -0.273460 0.113911
0.690531 -0.273916 0.116186
0.691715 -0.273998 0.117118
0.000000 0.000000 0.000000
0.000000 0.000000 0.000000
0.000000 0.000000 0.000000
0.002197 0.000000 0.001792
0.029295 0.000000 0.016976
0.095695 0.000000 0.034702
0.231688 0.000000 0.051509
0.356779 0.000000 0.061438
0.449762 0.000000 0.069181
0.531057 0.000000 0.078212
0.619699 0.000000 0.089185
0.688772 0.000000 0.099448
0.693612 0.000000 0.106393
0.694496 0.000000 0.110875
0.696050 0.000000 0.113256
0.697265 0.000000 0.114178
0.000000 0.000000 0.000000
0.000000 0.000000 0.000000
0.000000 0.000000 0.000000
0.000000 0.000000 0.000000
0.025441 0.000000 0.012702
0.091289 0.000000 0.027145
0.227574 0.000000 0.042416
0.355846 0.000000 0.056616
0.449314 0.000000 0.064424
0.530590 0.000000 0.073318
0.619350 0.000000 0.083830
0.688540 0.000000 0.094523
0.693283 0.000000 0.100781
0.694367 0.000000 0.104785
0.695615 0.000000 0.107409
0.696952 0.000000 0.108512
0.000000 0.000000 0.000000
0.000000 0.000000 0.000000
0.000000 0.000000 0.000000
0.000000 0.000000 0.000000
0.022096 0.007572 0.000000
0.086327 0.017895 0.000000
0.221802 0.019608 0.000000
0.351008 0.000000 0.038490
0.448051 0.000000 0.060054
0.529804 0.000000 0.071839
0.618669 0.000000 0.081779
0.688142 0.000000 0.092179
0.693284 0.000000 0.098454
0.694270 0.000000 0.102369
0.695570 0.000000 0.104650
0.696852 0.000000 0.105824
0.000000 0.012545 0.008624
0.000000 0.012467 0.008507
0.000000 0.012436 0.008046
0.000000 0.013682 0.005480
0.016219 0.016855 0.000000
0.077454 0.043125 0.000000
0.217417 0.066025 0.000000
0.349377 0.066542 0.000153
0.449094 0.046022 0.004840
0.531725 0.000000 0.052497
0.617957 0.000000 0.079075
0.687225 0.000000 0.091595
0.692431 0.000000 0.097199
0.693459 0.000000 0.100127
0.694918 0.000000 0.101703
0.696308 0.000000 0.102466
0.000000 0.055439 0.025593
0.000000 0.055442 0.025183
0.000000 0.055414 0.023832
0.000000 0.055316 0.022827
0.022230 0.058638 0.004430
0.064372 0.067905 0.001566
0.202282 0.112636 0.000097
0.348130 0.131663 0.000000
0.452552 0.131676 0.001419
0.545020 0.121652 0.009296
0.629746 0.097917 0.017639
0.696820 0.043714 0.025635
0.700513 0.008096 0.071529
0.699355 0.000000 0.089304
0.699172 0.000000 0.097017
0.699353 0.000000 0.101698
0.007177 0.145068 0.042780
0.007539 0.145079 0.042370
0.008453 0.145141 0.041258
0.009004 0.144870 0.040545
0.008206 0.144296 0.041780
0.059876 0.153342 0.023835
0.178388 0.181466 0.017758
0.337200 0.230947 0.021408
0.445522 0.252150 0.017703
0.548214 0.264935 0.017131
0.643304 0.267415 0.018067
0.717313 0.260877 0.021380
0.725262 0.251009 0.025019
0.725526 0.242696 0.027544
0.726066 0.235865 0.029086
0.727077 0.228803 0.029601
0.029285 0.243702 0.064016
0.029676 0.243709 0.063620
0.030604 0.243760 0.062477
0.031812 0.243663 0.061400
0.031732 0.243305 0.061258
0.021425 0.241539 0.070451
0.161032 0.278038 0.044286
0.318893 0.315408 0.045852
0.435922 0.350286 0.053122
0.537959 0.373995 0.049447
0.638483 0.390370 0.046312
0.712773 0.397636 0.045180
0.723668 0.396580 0.044048
0.723420 0.394258 0.043479
0.724589 0.392028 0.042703
0.725818 0.388001 0.041678
0.047074 0.323997 0.082063
0.047442 0.324006 0.081719
0.048400 0.324017 0.080633
0.049689 0.323954 0.079649
0.050788 0.323859 0.078742
0.046500 0.322651 0.081539
0.055383 0.328005 0.084714
0.304132 0.398536 0.060044
0.425773 0.420115 0.069011
0.525632 0.448639 0.078459
0.629689 0.471937 0.075131
0.708844 0.483378 0.069927
0.727545 0.485195 0.069193
0.727098 0.484139 0.069147
0.728284 0.482321 0.068626
0.729516 0.478875 0.067572
0.064350 0.401918 0.101528
0.064735 0.401927 0.101231
0.065675 0.402012 0.100240
0.067014 0.401891 0.099389
0.068227 0.401860 0.098557
0.068674 0.401491 0.098079
0.045698 0.397144 0.110882
0.230271 0.453096 0.090999
0.424055 0.506893 0.078746
0.515179 0.517612 0.089510
0.619320 0.546293 0.100242
0.701909 0.563165 0.101036
0.733417 0.568231 0.097120
0.732158 0.567346 0.096870
0.733087 0.565558 0.096294
0.734029 0.562012 0.095102
0.084155 0.491179 0.124785
0.084532 0.491186 0.124475
0.085497 0.491278 0.123558
0.086861 0.491169 0.122851
0.088101 0.491141 0.122179
0.089298 0.490892 0.121445
0.084951 0.489279 0.123290
0.055613 0.488775 0.141230
0.392373 0.586770 0.103419
0.516589 0.611223 0.099521
0.608461 0.622609 0.110946
0.698749 0.644595 0.120915
0.739070 0.652885 0.124335
0.741503 0.652896 0.124453
0.741885 0.650896 0.124059
0.742673 0.646990 0.123197
0.104048 0.581060 0.150392
0.104466 0.581065 0.150164
0.105372 0.581113 0.149308
0.106810 0.581059 0.148697
0.108027 0.580973 0.148130
0.109231 0.580752 0.147498
0.109989 0.580196 0.146884
0.082392 0.574606 0.157742
0.308107 0.639716 0.144090
0.505553 0.696608 0.116655
0.605786 0.710468 0.121096
0.694251 0.721693 0.130844
0.742918 0.729890 0.135807
0.754620 0.731687 0.136756
0.754715 0.729816 0.136410
0.755398 0.726694 0.135876
0.113318 0.623488 0.163929
0.113696 0.623487 0.163733
0.114630 0.623486 0.162863
0.116062 0.623489 0.162332
0.117348 0.623498 0.161806
0.118615 0.623546 0.161268
0.119892 0.623581 0.160776
0.111848 0.621712 0.163487
0.138629 0.635174 0.166525
0.486353 0.736110 0.136075
0.596550 0.756214 0.125525
0.690638 0.768979 0.136455
0.741331 0.774601 0.141452
0.762631 0.776614 0.143481
0.762883 0.776014 0.143301
0.763798 0.775339 0.143222
0.112616 0.621581 0.162933
0.112981 0.621581 0.162734
0.113947 0.621581 0.161888
0.115354 0.621581 0.161322
0.116633 0.621581 0.160785
0.117929 0.621581 0.160275
0.119151 0.621581 0.159744
0.118873 0.621219 0.159664
0.042349 0.611902 0.187350
0.460594 0.726934 0.142558
0.582734 0.753054 0.124305
0.679932 0.767332 0.135045
0.734122 0.774522 0.140667
0.759223 0.777145 0.143070
0.763252 0.777702 0.143397
0.764123 0.777610 0.143377
0.112616 0.622875 0.162968
0.112981 0.622875 0.162751
0.113947 0.622875 0.161904
0.115345 0.622875 0.161344
0.116622 0.622875 0.160823
0.117919 0.622875 0.160296
0.119144 0.622875 0.159765
0.120378 0.622875 0.159254
0.058839 0.614583 0.182278
0.437373 0.720864 0.145629
0.573566 0.752584 0.124581
0.671940 0.767224 0.134111
0.729567 0.774997 0.140173
0.756365 0.778012 0.142710
0.763491 0.778600 0.143377
0.764150 0.778496 0.143327
0.118823 0.647325 0.169411
0.119139 0.647326 0.169253
0.119855 0.647326 0.168498
0.120817 0.647326 0.168160
0.120508 0.647321 0.168240
0.116007 0.647353 0.169927
0.102656 0.647345 0.174884
0.078039 0.647338 0.183493
-0.071070 0.641693 0.213250
0.402090 0.739636 0.154036
0.561200 0.779305 0.130219
0.665031 0.794938 0.137846
0.729250 0.803807 0.144289
0.759453 0.807090 0.146872
0.770047 0.808144 0.147766
0.770863 0.808101 0.147673
-0.035521 -0.225817 0.000000
-0.024795 -0.225818 0.000000
0.000000 -0.225874 0.000000
0.000000 -0.225928 0.000000
0.024891 -0.225732 0.014877
0.099491 -0.225108 0.038835
0.240024 -0.224692 0.060135
0.369243 -0.224493 0.073059
0.463639 -0.231799 0.083923
0.541465 -0.249120 0.097172
0.625890 -0.263083 0.111998
0.691683 -0.269177 0.124932
0.693185 -0.272110 0.131845
0.691391 -0.273431 0.136078
0.691746 -0.273877 0.138232
0.692805 -0.273961 0.138889
0.002526 0.000000 0.008963
0.003763 0.000000 0.008949
0.005895 0.000000 0.008711
0.007509 0.000000 0.008076
0.032045 0.000000 0.024347
0.096288 0.000000 0.046658
0.231142 0.000000 0.067131
0.356625 0.000000 0.078624
0.450428 0.000000 0.087398
0.531841 0.000000 0.097392
0.620651 0.000000 0.108747
0.689802 0.000000 0.120382
0.694662 0.000000 0.127647
0.695613 0.000000 0.132152
0.696932 0.000000 0.134322
0.698086 0.000000 0.134954
0.000000 0.003264 0.007284
0.000000 0.002860 0.007387
0.003636 0.000000 0.007530
0.006044 0.000000 0.006919
0.027162 0.000000 0.020445
0.090900 0.000000 0.041808
0.227907 0.000000 0.062600
0.355886 0.000000 0.075311
0.449990 0.000000 0.083693
0.531377 0.000000 0.093191
0.620131 0.000000 0.103955
0.689463 0.000000 0.115608
0.694386 0.000000 0.122795
0.695416 0.000000 0.127182
0.696689 0.000000 0.129309
0.698095 0.000000 0.130027
0.000000 0.002383 0.003105
0.000000 0.002399 0.003129
0.000000 0.002751 0.004028
0.003121 0.000000 0.005242
0.021606 0.000000 0.014910
0.085446 0.000000 0.032132
0.221712 0.000000 0.049056
0.351923 0.000000 0.065438
0.448831 0.000000 0.078159
0.530654 0.000000 0.086748
0.619510 0.000000 0.096111
0.688987 0.000000 0.106998
0.693946 0.000000 0.114202
0.694904 0.000000 0.118444
0.696317 0.000000 0.120661
0.697555 0.000000 0.121607
0.000000 0.012961 0.011492
0.000000 0.012918 0.011421
0.000000 0.012784 0.011170
0.000000 0.012514 0.010581
0.014491 0.014774 0.007239
0.077487 0.032581 0.007088
0.216546 0.046785 0.010654
0.348667 0.035066 0.014797
0.448369 0.005718 0.052229
0.530573 0.000000 0.080444
0.617706 0.000000 0.096870
0.687762 0.000000 0.105332
0.693503 0.000000 0.111580
0.694475 0.000000 0.115377
0.695947 0.000000 0.117398
0.697335 0.000000 0.118297
0.000000 0.054393 0.033375
0.000000 0.054309 0.033101
0.000000 0.054078 0.032208
0.000000 0.053838 0.031097
0.009490 0.056477 0.023258
0.062362 0.065701 0.014480
0.202435 0.105005 0.012199
0.348577 0.120624 0.011047
0.451630 0.116990 0.015620
0.543503 0.099311 0.022846
0.627540 0.054255 0.030953
0.694506 0.008177 0.083924
0.698095 0.000000 0.105511
0.696684 0.000000 0.115977
0.696575 0.000000 0.120675
0.697112 -0.012597 0.123191
0.007207 0.143819 0.051479
0.007542 0.143799 0.050821
0.008390 0.143761 0.048538
0.008814 0.143708 0.045851
0.007578 0.143112 0.047256
0.051750 0.151294 0.028345
0.177189 0.179985 0.022765
0.337189 0.226802 0.025398
0.445555 0.245092 0.023288
0.549196 0.254737 0.025270
0.644643 0.254336 0.028543
0.718374 0.245672 0.032826
0.725819 0.233936 0.036364
0.725451 0.224057 0.039084
0.725923 0.216558 0.040495
0.726420 0.208777 0.041243
0.029094 0.242895 0.064929
0.029485 0.242905 0.064601
0.030431 0.242955 0.063793
0.031488 0.243077 0.062691
0.031615 0.242692 0.062434
