assets/luts/LUTs/Supremacy DJI Air3 DLOG-M LUT.CUBE
TITLE "Generated by Resolve"
LUT_3D_SIZE 5
0.00389105 0.00396735 0.00280766
0.149233 0.00741588 1.5259e-05
0.447929 0.0268406 0
0.778698 0.0545052 0
0.975067 0.090135 0
0.0152743 0.144335 0.00489815
0.17322 0.145022 0.00909438
0.485435 0.156268 0
0.810895 0.184329 0
0.984482 0.221134 0
0.0508583 0.45359 0.0180514
0.203418 0.462043 0.043946
0.529168 0.465156 0.0311131
0.854704 0.469291 0
0.994064 0.499809 0
0.11223 0.805447 0.0399329
0.263233 0.815641 0.061799
0.584817 0.812528 0.133227
0.874937 0.818128 0.0726635
0.999527 0.823285 0.217868
0.198276 0.995819 0.0706798
0.362768 0.995407 0.106355
0.682872 0.992111 0.277455
0.923506 0.990295 0.432914
0.998093 0.994141 0.603586
0.000137331 0.0123598 0.0788739
0.127687 0.0148165 0.135943
0.501976 0 0.0785687
0.817121 0.0267338 0.0326085
0.983841 0.0700847 0.0326085
0 0.149081 0.150576
0.153948 0.154101 0.147585
0.507683 0.151644 0.103395
0.841154 0.163577 0.0361791
0.993927 0.191638 0.0326085
0.00677501 0.445335 0.138796
0.165759 0.474235 0.136477
0.534325 0.470314 0.141344
0.862242 0.472053 0.0859846
0.999512 0.487633 0.0492103
0.0734569 0.816068 0.0767071
0.243732 0.823392 0.160616
0.578286 0.819333 0.24802
0.883085 0.819898 0.18851
0.999557 0.826932 0.35761
0.166018 0.997116 0.125368
0.337987 0.996445 0.197879
0.673274 0.992935 0.403098
0.923217 0.990723 0.572259
0.998169 0.9944 0.727428
0 0.0356298 0.244175
0.0383764 0.0479744 0.327123
0.408072 0.045594 0.420829
0.842374 0 0.340902
0.998138 0.0122072 0.276967
0 0.167926 0.341772
0.07364 0.185946 0.377905
0.452064 0.179034 0.454826
0.888151 0.0910353 0.360525
1 0.168597 0.346075
0 0.467048 0.471519
0.0722515 0.488014 0.500008
0.488396 0.487221 0.467399
0.84535 0.489204 0.433433
1 0.488411 0.425422
0 0.771756 0.516548
0.111528 0.802625 0.514763
0.446708 0.838315 0.439628
0.861021 0.829908 0.456016
0.999924 0.830579 0.550576
0.0326085 0.997162 0.469306
0.172396 0.998474 0.439979
0.61062 0.996719 0.528603
0.917357 0.992111 0.734127
0.998474 0.995361 0.844541
0 0.0740368 0.479759
0.0326085 0.0852827 0.536355
0.180926 0.108705 0.722942
0.723888 0.0989395 0.755962
0.995361 0.0387579 0.697826
0 0.206531 0.564416
0.0493629 0.224826 0.59704
0.224369 0.25716 0.748119
0.77116 0.233387 0.782391
0.998535 0.188525 0.73669
0 0.489006 0.710643
0.0327764 0.513191 0.738445
0.298695 0.541527 0.774578
0.818128 0.507286 0.824216
0.999863 0.498833 0.766583
0 0.822293 0.826673
0.0326085 0.837369 0.843061
0.378256 0.842664 0.862013
0.827741 0.841154 0.819608
1 0.834394 0.820798
0 0.996628 0.89012
0.0326085 0.997681 0.89192
0.128878 0.999695 0.864591
0.879393 0.997726 0.854582
0.999115 0.997314 0.946166
0 0.123735 0.720714
0.0326085 0.134722 0.751812
0.114122 0.167376 0.852415
0.453071 0.181338 0.990845
0.927352 0.18201 0.974273
0 0.258579 0.771908
0.0326085 0.273442 0.804273
0.112886 0.311986 0.902922
0.531746 0.332647 0.9935
0.94728 0.322881 0.986038
0 0.528252 0.882231
0.0326085 0.546151 0.90425
0.0900435 0.573617 0.967407
0.623194 0.586358 0.995544
0.960647 0.583261 0.989029
0 0.835615 0.967086
0.0326085 0.84889 0.974212
0.0900435 0.86595 0.99118
0.734279 0.860761 0.999893
0.981003 0.859541 0.99379
0.0501717 0.999344 1
0.202899 0.999374 1
0.530282 0.999481 1
0.854994 0.99971 1
1 1 1
