assets/luts/LUTs/Supremacy DJI Air3 DLOG-M LUT.CUBE
TITLE "Generated by Resolve"
LUT_3D_SIZE 65
0.00389105 0.00396735 0.00280766
0.00767529 0.0040589 0.00306706
0.0122225 0.00411994 0.00325017
0.0178378 0.00407416 0.00300603
0.0238804 0.00404364 0.0027924
0.03093 0.00404364 0.00257877
0.0374914 0.00418097 0.00233463
0.0452735 0.00434882 0.00207523
0.0532235 0.00453193 0.00183108
0.0624094 0.00471504 0.00157168
0.0732586 0.00489815 0.00128176
0.0840009 0.00508125 0.0010071
0.0948806 0.00534066 0.000717174
0.105669 0.00575265 0.000457771
0.119554 0.00613413 0.000198367
0.134447 0.00665293 3.0518e-05
0.149233 0.00741588 1.5259e-05
0.163836 0.00814832 0
0.178897 0.00895705 0
0.19408 0.00987259 0
0.209369 0.011017 0
0.226154 0.012253 0
0.242985 0.0134279 0
0.261143 0.0146944 0
0.279713 0.0159152 0
0.299443 0.0171511 0
0.321218 0.0184024 0
0.342641 0.0196536 0
0.362783 0.0208896 0
0.383337 0.0221408 0
0.40531 0.0236973 0
0.4271 0.0252537 0
0.447929 0.0268406 0
0.468421 0.028397 0
0.491341 0.029984 0
0.514778 0.0315404 0
0.53727 0.0330816 0
0.559426 0.034638 0
0.580865 0.036286 0
0.601511 0.0378576 0
0.622003 0.039704 0
0.642512 0.0415656 0
0.66331 0.0434424 0
0.685267 0.0453498 0
0.706798 0.0472114 0
0.725505 0.0490578 0
0.744198 0.0508583 0
0.761578 0.0527047 0
0.778698 0.0545052 0
0.795544 0.0562905 0
0.812375 0.0583505 0
0.828687 0.0607004 0
0.84387 0.062974 0
0.85893 0.0652476 0
0.872618 0.0674296 0
0.886412 0.0697032 0
0.899031 0.0719768 0
0.91136 0.0742351 0
0.923003 0.0765087 0
0.933852 0.0786755 0
0.94432 0.0809491 0
0.95256 0.0832074 0
0.960739 0.0853895 0
0.96788 0.0876783 0
0.975067 0.090135 0
0.00425727 0.00762951 0.00337224
0.00822461 0.00773632 0.00347906
0.0129702 0.00776684 0.0034638
0.0185397 0.00773632 0.00325017
0.024567 0.00773632 0.00303655
0.0314183 0.00767529 0.00280766
0.0379644 0.0078584 0.00259403
0.0458076 0.00807202 0.00236515
0.0536049 0.00823987 0.00209049
0.0629892 0.00842298 0.00183108
0.0737469 0.00862135 0.0015259
0.0845808 0.00877394 0.00120546
0.095491 0.00898756 0.000900282
0.106462 0.00933852 0.000564584
0.12076 0.00967422 0.000259403
0.13579 0.0102693 4.57771e-05
0.150317 0.0111238 3.0518e-05
0.165209 0.0120699 0
0.180255 0.0130617 0
0.1953 0.014023 0
0.210742 0.0150759 0
0.227481 0.0161746 0
0.244465 0.0173037 0
0.262592 0.0184176 0
0.281285 0.0195926 0
0.301289 0.020737 0
0.323064 0.021912 0
0.344182 0.023209 0
0.364492 0.0246891 0
0.385183 0.0261845 0
0.406973 0.0277104 0
0.428946 0.0292058 0
0.449302 0.0307317 0
0.469993 0.0322271 0
0.493126 0.0337682 0
0.516533 0.0352483 0
0.538949 0.0367895 0
0.561105 0.0383764 0
0.582238 0.0402228 0
0.603052 0.0420844 0
0.623377 0.0438697 0
0.6439 0.045655 0
0.664775 0.0474556 0
0.686381 0.0492256 0
0.707897 0.0510719 0
0.726619 0.0528572 0
0.745159 0.0545663 0
0.762463 0.0563516 0
0.779446 0.0583505 0
0.796445 0.0607309 0
0.813275 0.0630045 0
0.829374 0.0652628 0
0.844694 0.0675212 0
0.859648 0.0697032 0
0.873457 0.0719615 0
0.887266 0.0742199 0
0.899672 0.0764019 0
0.912016 0.0786603 0
0.923613 0.0809339 0
0.934554 0.0831159 0
0.944854 0.0853895 0
0.953079 0.0875715 0
0.961334 0.0898451 0
0.968322 0.0921187 0
0.975509 0.0945907 0
0.00462348 0.0119631 0.00393683
0.00865187 0.0120546 0.00386053
0.0136721 0.0121157 0.00373846
0.0191043 0.0121004 0.00354009
0.0251774 0.0120699 0.00332647
0.0319677 0.0119783 0.00309758
0.0385901 0.0122225 0.0028687
0.0462654 0.0124666 0.00260929
0.0542 0.0127565 0.00236515
0.063859 0.0130007 0.00207523
0.0744335 0.0131685 0.00172427
0.0851911 0.0134279 0.00138857
0.0961776 0.0137179 0.00105287
0.107057 0.0140078 0.000671397
0.121981 0.0143587 0.00030518
0.137148 0.0148775 6.10361e-05
0.151644 0.0156405 3.0518e-05
0.166567 0.0165103 1.5259e-05
0.181338 0.0173037 0
0.196658 0.0182498 0
0.211978 0.0191958 0
0.228809 0.0201419 0
0.245808 0.0211643 0
0.264179 0.0222019 0
0.282567 0.0234531 0
0.303105 0.0248112 0
0.324697 0.0261692 0
0.345754 0.0275273 0
0.366033 0.0288853 0
0.386664 0.0303044 0
0.408453 0.0317235 0
0.430503 0.0332036 0
0.450675 0.0346227 0
0.471534 0.0361181 0
0.494499 0.0375525 0
0.51812 0.0392004 0
0.540597 0.0409705 0
0.562387 0.0427558 0
0.583597 0.0446021 0
0.604257 0.0464027 0
0.62475 0.048188 0
0.645274 0.0499733 0
0.666072 0.0517433 0
0.687861 0.0535286 0
0.709194 0.055314 0
0.727901 0.057023 0
0.746609 0.0593271 0
0.76379 0.0616159 0
0.780758 0.0638895 0
0.797757 0.0662394 0
0.814588 0.0684977 0
0.830594 0.0707713 0
0.845914 0.0730297 0
0.860761 0.0752117 0
0.874586 0.0773938 0
0.888273 0.0795605 0
0.900694 0.0818189 0
0.91313 0.0840925 0
0.924483 0.0862745 0
0.935531 0.0884565 0
0.945495 0.0906386 0
0.95375 0.0928969 0
0.96202 0.095079 0
0.968948 0.0973526 0
0.976181 0.099733 0
0.00476081 0.016968 0.00427253
0.00868238 0.0171054 0.00415045
0.0137179 0.017258 0.00404364
0.0192874 0.0173037 0.00386053
0.0254826 0.0172122 0.00358587
0.0324102 0.0171969 0.00337224
0.0392767 0.0173037 0.00311284
0.0472267 0.0174105 0.00282292
0.055375 0.0175631 0.002533
0.0654459 0.0177615 0.00221256
0.0758068 0.0180056 0.00183108
0.0864729 0.0182498 0.00149538
0.0970779 0.0184939 0.00109865
0.108309 0.0187686 0.000701915
0.123476 0.0191043 0.00030518
0.138369 0.0195315 6.10361e-05
0.15314 0.0202029 3.0518e-05
0.168185 0.0209049 1.5259e-05
0.182956 0.0216373 0
0.19826 0.0225223 0
0.213611 0.0234989 0
0.230442 0.0246128 0
0.247425 0.025742 0
0.265461 0.0268559 0
0.284169 0.0280919 0
0.304784 0.0293889 0
0.326192 0.0305638 0
0.347295 0.0319066 0
0.367422 0.0331579 0
0.388327 0.0345006 0
0.410117 0.0358129 0
0.431876 0.0372168 0
0.452232 0.0386816 0
0.473075 0.0403754 0
0.496086 0.0420233 0
0.519875 0.0437324 0
0.541894 0.0454414 0
0.56405 0.0472114 0
0.585168 0.049012 0
0.605646 0.050782 0
0.626307 0.0525673 0
0.646815 0.0542763 0
0.667735 0.0560464 0
0.689509 0.0580453 0
0.71046 0.0603189 0
0.729335 0.0626841 0
0.747845 0.0649424 0
0.765118 0.067216 0
0.782116 0.0694896 0
0.799084 0.0717479 0
0.81593 0.0740215 0
0.831937 0.0762188 0
0.847135 0.0784772 0
0.861997 0.0806439 0
0.8757 0.0828107 0
0.889464 0.0850843 0
0.901793 0.0872663 0
0.914031 0.0894331 0
0.925383 0.0916304 0
0.936324 0.0937972 0
0.946242 0.0960555 0
0.954498 0.0982528 0
0.962585 0.10042 0
0.969573 0.102708 0
0.976745 0.105074 0
0.00486763 0.022034 0.00459297
0.00874342 0.0222477 0.00445563
0.0137179 0.0225376 0.00436408
0.0193637 0.0225223 0.00411994
0.0256809 0.0224155 0.00386053
0.0327764 0.0224613 0.00361639
0.0399329 0.0224002 0.00329595
0.0481117 0.0224155 0.00302129
0.0565042 0.0224613 0.00268559
0.0667277 0.0225834 0.00231937
0.0771038 0.0229496 0.00195315
0.0874647 0.02327 0.00157168
0.0980545 0.0235752 0.00115969
0.109636 0.0238956 0.000732433
0.124697 0.0242466 0.000320439
0.139727 0.0246891 6.10361e-05
0.154513 0.0253758 3.0518e-05
0.169268 0.0260319 1.5259e-05
0.184466 0.0268101 0
0.199893 0.0277256 0
0.215366 0.0285801 0
0.232212 0.029572 0
0.249042 0.0305638 0
0.267399 0.0316167 0
0.286076 0.0327916 0
0.306813 0.0339513 0
0.328405 0.0351873 0
0.34934 0.0363775 0
0.369314 0.037583 0
0.390356 0.0390326 0
0.411963 0.0405432 0
0.433768 0.0420996 0
0.454124 0.0437171 0
0.474647 0.045304 0
0.498253 0.0469825 0
0.521874 0.0486305 0
0.543923 0.0502632 0
0.566079 0.0519722 0
0.586725 0.0536812 0
0.60737 0.0553902 0
0.628031 0.0571603 0
0.648356 0.0593423 0
0.669413 0.0616922 0
0.691188 0.0638895 0
0.712062 0.0661479 0
0.73077 0.0684215 0
0.749172 0.0706645 0
0.766461 0.0729381 0
0.783429 0.0751202 0
0.800412 0.0773022 0
0.817258 0.0795605 0
0.833036 0.0817273 0
0.848341 0.0839857 0
0.862867 0.0860914 0
0.876799 0.0883497 0
0.890471 0.0905318 0
0.9028 0.0926986 0
0.915251 0.0948806 0
0.92636 0.0970626 0
0.937301 0.0992294 0
0.947005 0.101427 0
0.95523 0.103593 0
0.963272 0.105852 0
0.970184 0.108156 0
0.977462 0.111406 0
0.00500496 0.0282139 0.00489815
0.00881971 0.0286412 0.00479133
0.0138094 0.0290074 0.00468452
0.0194553 0.0289464 0.00440986
0.0260471 0.0289006 0.00415045
0.0332036 0.0288853 0.00387579
0.0406043 0.0287633 0.00355535
0.049134 0.0285801 0.00320439
0.0576638 0.028397 0.00283818
0.0683146 0.0285801 0.00247196
0.0784772 0.0289616 0.00205997
0.0886549 0.0292668 0.00164797
0.0992294 0.029633 0.00122072
0.111147 0.0298924 0.00077821
0.126055 0.0301213 0.000335698
0.141222 0.0305028 6.10361e-05
0.155856 0.0309911 3.0518e-05
0.170886 0.0314946 0
0.186084 0.032166 0
0.201251 0.0328985 0
0.217288 0.0337072 0
0.234134 0.0345769 0
0.250919 0.0354925 0
0.269459 0.0364843 0
0.287846 0.0375372 0
0.309026 0.0387427 0
0.330617 0.0400854 0
0.351064 0.041413 0
0.371374 0.0428321 0
0.392203 0.0442512 0
0.413993 0.0457465 0
0.435508 0.0472877 0
0.456001 0.0487831 0
0.476982 0.0503395 0
0.500603 0.051957 0
0.52398 0.0535286 0
0.546136 0.0551614 0
0.567926 0.0567941 0
0.588769 0.0589303 0
0.609415 0.0611276 0
0.629587 0.0632944 0
0.650111 0.0655528 0
0.671427 0.0678264 0
0.693034 0.0700847 0
0.713817 0.072343 0
0.732372 0.0745098 0
0.75079 0.0767071 0
0.767773 0.0788739 0
0.784909 0.081117 0
0.802045 0.083299 0
0.818723 0.085481 0
0.834516 0.0876631 0
0.849836 0.0898451 0
0.864347 0.0920119 0
0.878279 0.0941939 0
0.891676 0.0962844 0
0.904128 0.0985428 0
0.916365 0.100633 0
0.927443 0.1028 0
0.938476 0.104982 0
0.947799 0.107149 0
0.956115 0.109911 0
0.964004 0.112886 0
0.970993 0.115892 0
0.978149 0.119265 0
0.00546273 0.034699 0.00495918
0.00933852 0.0351263 0.00492866
0.0144503 0.0353704 0.00488289
0.0201572 0.0353704 0.00485237
0.0268559 0.0353246 0.00482185
0.0339361 0.0352483 0.00477607
0.0414282 0.0351873 0.00437934
0.0496834 0.0350805 0.00389105
0.0583505 0.0349432 0.00335698
0.0690929 0.03505 0.00291447
0.0795605 0.0352483 0.00242618
0.090135 0.0354467 0.00198367
0.100832 0.0357366 0.0015259
0.113024 0.0359197 0.00105287
0.127825 0.0361791 0.00062562
0.142718 0.0365454 0.000289921
0.157351 0.0369268 0.000167849
0.172396 0.0374151 4.57771e-05
0.187564 0.0379644 0
0.202884 0.0386053 0
0.219059 0.0394141 0
0.235767 0.040238 0
0.253147 0.0412146 0
0.271382 0.0421759 0
0.289921 0.0433509 0
0.311254 0.0445411 0
0.332647 0.0457313 0
0.353124 0.0469825 0
0.373266 0.0482643 0
0.394232 0.0495918 0
0.416007 0.0509957 0
0.437217 0.0524147 0
0.457725 0.0538949 0
0.478965 0.0553902 0
0.502373 0.0568856 0
0.525841 0.0589303 0
0.547799 0.0610056 0
0.569955 0.0631723 0
0.590509 0.0652628 0
0.610956 0.0674144 0
0.631479 0.0695964 0
0.652171 0.0718547 0
0.673289 0.0740215 0
0.695232 0.0762036 0
0.715419 0.0783856 0
0.734127 0.0805524 0
0.75227 0.0827192 0
0.769406 0.0849012 0
0.786542 0.0871595 0
0.80351 0.08925 0
0.820493 0.0914321 0
0.836149 0.0936141 0
0.851331 0.0957656 0
0.865827 0.0979477 0
0.879637 0.100038 0
0.892912 0.102205 0
0.905257 0.10428 0
0.917678 0.106462 0
0.92871 0.108965 0
0.939498 0.111818 0
0.948699 0.114794 0
0.956954 0.117769 0
0.964752 0.12076 0
0.971801 0.123857 0
0.978759 0.126986 0
0.00598154 0.0419471 0.00500496
0.0100252 0.0423285 0.00502022
0.0153201 0.0426184 0.00508125
0.0209506 0.0425422 0.00534066
0.0277104 0.0424506 0.00556954
0.0347448 0.0423133 0.00582895
0.0421759 0.0423743 0.0053254
0.0501869 0.042298 0.00463874
0.0588388 0.0422522 0.00396735
0.0697032 0.0423133 0.00340276
0.0805371 0.0423133 0.00288396
0.0916304 0.0423896 0.00239567
0.102419 0.0424659 0.00190738
0.11519 0.0428321 0.00144961
0.129717 0.0431983 0.0010071
0.144335 0.0435798 0.00062562
0.158968 0.0440986 0.000366217
0.173877 0.0446937 0.000106813
0.1888 0.0452125 0
0.204364 0.0458839 0
0.220539 0.0464027 0
0.237522 0.0472114 0
0.25507 0.0480507 0
0.273457 0.0488441 0
0.292409 0.049897 0
0.313832 0.0509346 0
0.335409 0.0520485 0
0.355718 0.0532387 0
0.375509 0.0543526 0
0.397009 0.0556802 0
0.418769 0.0570077 0
0.439811 0.058732 0
0.460151 0.0605173 0
0.481529 0.0623026 0
0.505119 0.064271 0
0.52842 0.0662394 0
0.55021 0.0682078 0
0.572259 0.0701915 0
0.592569 0.0722515 0
0.613199 0.0742351 0
0.633722 0.0764019 0
0.654063 0.0784619 0
0.675669 0.0805524 0
0.697276 0.0827039 0
0.717342 0.0847944 0
0.736049 0.0869764 0
0.754055 0.0890516 0
0.771313 0.0912184 0
0.788296 0.0933089 0
0.805295 0.0954757 0
0.822141 0.0975662 0
0.837644 0.0996414 0
0.853071 0.101808 0
0.867185 0.103883 0
0.881117 0.106065 0
0.894347 0.108293 0
0.906676 0.111131 0
0.918959 0.114 0
0.929824 0.116838 0
0.940856 0.119814 0
0.949584 0.122667 0
0.957916 0.125643 0
0.965621 0.128634 0
0.972595 0.131609 0
0.979446 0.134859 0
0.00650034 0.049897 0.00500496
0.0108186 0.0501869 0.00508125
0.0162051 0.0504921 0.00526436
0.0217441 0.0504005 0.00579843
0.0285801 0.050248 0.00631724
0.0355077 0.0501106 0.00686656
0.0428321 0.0501106 0.00624094
0.0506447 0.0502632 0.00543221
0.059144 0.0504005 0.00456245
0.0700847 0.0502632 0.00387579
0.081529 0.0501106 0.00335698
0.0931106 0.049958 0.00280766
0.104173 0.049958 0.00227359
0.117235 0.0503243 0.00183108
0.131334 0.0505531 0.00138857
0.145968 0.0510109 0.000961318
0.160464 0.0515908 0.000564584
0.174975 0.0521096 0.000183108
0.19028 0.0526284 0
0.205722 0.0530251 0
0.222309 0.0535286 0
0.23946 0.0542 0
0.257145 0.0548714 0
0.275715 0.0556039 0
0.295186 0.0565042 0
0.316594 0.0574655 0
0.338155 0.0588388 0
0.358114 0.0602121 0
0.378256 0.0617075 0
0.399771 0.0633707 0
0.421378 0.0649424 0
0.442237 0.0666361 0
0.462577 0.0683146 0
0.484474 0.0700847 0
0.50808 0.0719615 0
0.530816 0.0738231 0
0.552972 0.0757153 0
0.574502 0.0776684 0
0.595148 0.0795605 0
0.615778 0.0815442 0
0.636133 0.0835889 0
0.656657 0.0856794 0
0.678248 0.0876631 0
0.700023 0.0897383 0
0.719738 0.0918135 0
0.738293 0.0938888 0
0.756268 0.0959793 0
0.773236 0.0980392 0
0.790372 0.10013 0
0.807355 0.102205 0
0.823957 0.10428 0
0.839536 0.106371 0
0.854841 0.108705 0
0.869032 0.111559 0
0.882963 0.114519 0
0.895903 0.11725 0
0.908354 0.120089 0
0.920256 0.122927 0
0.931304 0.12578 0
0.942229 0.128618 0
0.950637 0.131472 0
0.95903 0.134447 0
0.96643 0.137423 0
0.973526 0.140414 0
0.980148 0.143526 0
0.00709544 0.0581369 0.00489815
0.0117037 0.0585336 0.00517281
0.0171206 0.0588388 0.00550851
0.0225834 0.0585641 0.00622568
0.0293889 0.0584421 0.00698863
0.0361944 0.0581674 0.00770581
0.0436408 0.0583505 0.00726329
0.0514534 0.0585489 0.00654612
0.0601205 0.0585489 0.00576791
0.0710765 0.0584573 0.00505074
0.0824292 0.0583505 0.00437934
0.0939956 0.0579538 0.00360113
0.105165 0.0579538 0.00299077
0.11899 0.0582437 0.00242618
0.133623 0.0584421 0.00187686
0.148394 0.0589303 0.00138857
0.162768 0.0595254 0.000915541
0.177539 0.0601358 0.000457771
0.192584 0.0608225 0.000198367
0.207767 0.0614023 9.15541e-05
0.224384 0.0620127 1.5259e-05
0.241352 0.0626841 0
0.259236 0.0634623 0
0.27808 0.0643626 0
0.297581 0.065156 0
0.319356 0.0662394 0
0.340414 0.0673228 0
0.360723 0.0686198 0
0.38085 0.0699931 0
0.402365 0.0713817 0
0.42414 0.0729534 0
0.444984 0.0746166 0
0.465156 0.0762036 0
0.487419 0.0778821 0
0.510643 0.0796521 0
0.533578 0.0814374 0
0.555367 0.0832074 0
0.577066 0.0850843 0
0.597711 0.0869764 0
0.618021 0.0888533 0
0.63856 0.090837 0
0.659068 0.0928206 0
0.680842 0.094789 0
0.702632 0.0967727 0
0.721813 0.0987411 0
0.740536 0.100816 0
0.758175 0.102815 0
0.775311 0.104891 0
0.792447 0.106966 0
0.809277 0.109377 0
0.825986 0.112352 0
0.841306 0.115053 0
0.856748 0.117906 0
0.870756 0.120745 0
0.884581 0.123476 0
0.897459 0.126314 0
0.909819 0.12903 0
0.921736 0.131884 0
0.932769 0.134722 0
0.943496 0.13756 0
0.951827 0.140414 0
0.960128 0.143252 0
0.967407 0.146227 0
0.97438 0.149081 0
0.980941 0.152316 0
0.00779736 0.0688029 0.00474556
0.0126955 0.0691997 0.00523384
0.0180667 0.0693065 0.00575265
0.0236362 0.0691997 0.00666819
0.0302586 0.0690929 0.00758373
0.0368505 0.0688945 0.00848402
0.04448 0.0689097 0.00831617
0.052491 0.0690013 0.00788891
0.0616007 0.0688945 0.0074464
0.0723583 0.0689097 0.00674449
0.0831922 0.0688182 0.00576791
0.0942855 0.0688029 0.00477607
0.10547 0.0688945 0.00395209
0.120348 0.0687114 0.00320439
0.136202 0.0686961 0.00250248
0.151522 0.0688182 0.00189212
0.166293 0.0692149 0.00144961
0.181323 0.069688 0.00102235
0.195956 0.0702831 0.000640879
0.210742 0.0710765 0.000335698
0.226734 0.07187 4.57771e-05
0.243427 0.0726635 0
0.261311 0.0734569 0
0.279683 0.0742351 0
0.299794 0.0751049 0
0.321584 0.0759899 0
0.342824 0.0769055 0
0.363287 0.0780804 0
0.383352 0.0791638 0
0.40531 0.0805524 0
0.427283 0.0819257 0
0.44773 0.0832227 0
0.468086 0.0848859 0
0.490562 0.0862745 0
0.513985 0.0879683 0
0.536721 0.0897383 0
0.558495 0.0913405 0
0.579828 0.0931868 0
0.600305 0.0948806 0
0.620951 0.0967575 0
0.641306 0.098558 0
0.66183 0.100435 0
0.683787 0.102403 0
0.705211 0.104189 0
0.724224 0.106172 0
0.743069 0.108293 0
0.76054 0.111009 0
0.777661 0.113725 0
0.794644 0.116411 0
0.811643 0.119142 0
0.828 0.121843 0
0.843473 0.124681 0
0.858671 0.127398 0
0.872602 0.130114 0
0.886534 0.13283 0
0.899138 0.135531 0
0.911681 0.138369 0
0.923308 0.141085 0
0.934264 0.143801 0
0.944701 0.146639 0
0.953002 0.149477 0
0.961334 0.152331 0
0.968383 0.155169 0
0.975433 0.158022 0
0.981582 0.160998 0
0.00851453 0.0796674 0.00456245
0.0136568 0.0798657 0.00529488
0.019089 0.0800488 0.00604257
0.0246891 0.079942 0.00709544
0.0310674 0.0797436 0.00814832
0.0374914 0.0796521 0.00923171
0.0453498 0.0796521 0.0093843
0.0533761 0.0794537 0.00923171
0.0630655 0.0793622 0.00914015
0.0735332 0.0793622 0.00842298
0.0840009 0.0795605 0.00720226
0.0945907 0.0798505 0.00598154
0.105684 0.0797589 0.00489815
0.121965 0.0793469 0.00399786
0.138781 0.0789654 0.00309758
0.154635 0.0787671 0.00239567
0.169802 0.079057 0.00201419
0.18471 0.0791638 0.0016022
0.199359 0.079942 0.00111391
0.213733 0.0809339 0.000564584
0.229099 0.0818189 7.62951e-05
0.245502 0.0827039 0
0.263066 0.0834211 0
0.2813 0.0843061 0
0.302007 0.0850843 0
0.323781 0.0856947 0
0.345235 0.0866712 0
0.365515 0.0875563 0
0.386297 0.0885481 0
0.408255 0.0897536 0
0.429816 0.0909133 0
0.450507 0.0922103 0
0.470832 0.0935988 0
0.493919 0.0949874 0
0.517342 0.0966506 0
0.539498 0.0981613 0
0.561639 0.0998398 0
0.582574 0.101427 0
0.603067 0.103182 0
0.623713 0.104891 0
0.644053 0.106752 0
0.664958 0.108843 0
0.68658 0.111391 0
0.70808 0.11397 0
0.72694 0.116548 0
0.745647 0.119127 0
0.763058 0.121721 0
0.780026 0.1243 0
0.797177 0.127001 0
0.814023 0.129564 0
0.83032 0.13228 0
0.845777 0.134981 0
0.860655 0.13756 0
0.874815 0.140276 0
0.888518 0.142977 0
0.901137 0.145693 0
0.913481 0.148272 0
0.924971 0.150988 0
0.936019 0.153811 0
0.945891 0.156405 0
0.954269 0.159243 0
0.962417 0.161959 0
0.969451 0.164797 0
0.976547 0.167651 0
0.981994 0.170092 0
0.00933852 0.090547 0.00444038
0.0146639 0.0906386 0.00534066
0.0200961 0.0907301 0.00631724
0.025742 0.0906386 0.0074464
0.0319677 0.0906233 0.00860609
0.0382239 0.0905318 0.00985733
0.0461738 0.0903487 0.0104219
0.0542763 0.0902266 0.0107271
0.0643626 0.0900435 0.0110628
0.074815 0.0900282 0.0102235
0.085008 0.090425 0.00881971
0.0952773 0.0906386 0.0075227
0.106447 0.0906386 0.00633249
0.123064 0.0902266 0.0052491
0.140002 0.0896468 0.0041352
0.156527 0.0893568 0.00329595
0.171862 0.0893416 0.00276188
0.187579 0.0893416 0.00227359
0.202457 0.0899367 0.00167849
0.216709 0.0908217 0.000991836
0.232074 0.0918288 0.000335698
0.24802 0.0927138 0.00015259
0.265476 0.0935988 4.57771e-05
0.28368 0.0944839 0
0.304051 0.0950027 0
0.326009 0.0956893 0
0.34728 0.0963607 0
0.367926 0.0971695 0
0.389059 0.0980545 0
0.410834 0.0989548 0
0.432731 0.100038 0
0.453254 0.101137 0
0.473854 0.102419 0
0.497459 0.103792 0
0.520668 0.10518 0
0.542824 0.106752 0
0.564782 0.108431 0
0.585672 0.110719 0
0.606165 0.112902 0
0.62649 0.115206 0
0.647166 0.117647 0
0.667933 0.119951 0
0.689891 0.122515 0
0.710948 0.124956 0
0.729656 0.127398 0
0.748425 0.129976 0
0.765545 0.132418 0
0.782696 0.134997 0
0.799695 0.13756 0
0.816663 0.140139 0
0.832761 0.142718 0
0.848066 0.145281 0
0.862867 0.147875 0
0.876814 0.150561 0
0.890578 0.153155 0
0.902922 0.155718 0
0.915358 0.158312 0
0.926665 0.161013 0
0.937514 0.163577 0
0.947204 0.166293 0
0.955459 0.168994 0
0.963516 0.17171 0
0.97055 0.174548 0
0.977584 0.177264 0
0.982437 0.179294 0
0.0106813 0.101411 0.00440986
0.0159152 0.101518 0.00549325
0.021149 0.10161 0.0065919
0.0268406 0.10161 0.00770581
0.0329137 0.101518 0.00886549
0.0391089 0.101503 0.010132
0.0469825 0.10132 0.0111238
0.0551003 0.101228 0.0119631
0.065156 0.101015 0.012726
0.0758221 0.10103 0.0124208
0.0860761 0.101213 0.011017
0.0965744 0.101503 0.00961318
0.107637 0.101518 0.00843824
0.123461 0.101305 0.00714122
0.139605 0.101122 0.00585946
0.155871 0.100923 0.00476081
0.172259 0.100618 0.00389105
0.188922 0.10042 0.00303655
0.204517 0.100526 0.00236515
0.220249 0.10103 0.00180056
0.236637 0.10161 0.00123598
0.252674 0.102419 0.000762951
0.269932 0.10341 0.000320439
0.287221 0.104372 0
0.307912 0.10518 0
0.329137 0.106065 0
0.349538 0.106752 0
0.370169 0.107652 0
0.391089 0.108553 0
0.413245 0.109789 0
0.434989 0.110994 0
0.45568 0.112352 0
0.476799 0.113985 0
0.500404 0.115465 0
0.52401 0.117357 0
0.546136 0.119127 0
0.568109 0.121035 0
0.588952 0.123064 0
0.609415 0.125093 0
0.629938 0.127398 0
0.650263 0.129564 0
0.671443 0.131868 0
0.693385 0.134188 0
0.713985 0.136492 0
0.732708 0.138933 0
0.750942 0.141344 0
0.768353 0.143801 0
0.785351 0.146242 0
0.802472 0.148684 0
0.819471 0.151247 0
0.835065 0.153689 0
0.850645 0.156268 0
0.864958 0.158709 0
0.879026 0.161288 0
0.892561 0.163851 0
