assets/luts/LUTs/Supremacy DJI Air3 DLOG-M LUT.CUBE
TITLE "Generated by Resolve"
LUT_3D_SIZE 9
0.00389105 0.00396735 0.00280766
0.0532235 0.00453193 0.00183108
0.149233 0.00741588 1.5259e-05
0.279713 0.0159152 0
0.447929 0.0268406 0
0.622003 0.039704 0
0.778698 0.0545052 0
0.899031 0.0719768 0
0.975067 0.090135 0
0.00650034 0.049897 0.00500496
0.059144 0.0504005 0.00456245
0.160464 0.0515908 0.000564584
0.295186 0.0565042 0
0.462577 0.0683146 0
0.636133 0.0835889 0
0.790372 0.10013 0
0.908354 0.120089 0
0.980148 0.143526 0
0.0152743 0.144335 0.00489815
0.0681315 0.144472 0.0161593
0.17322 0.145022 0.00909438
0.322118 0.145968 0.000885023
0.485435 0.156268 0
0.660349 0.16791 0
0.810895 0.184329 0
0.922423 0.202594 0
0.984482 0.221134 0
0.0302586 0.278096 0.00955215
0.0811322 0.281773 0.019791
0.187701 0.282414 0.0352483
0.334676 0.285298 0.0184482
0.529335 0.281453 0.00352483
0.683055 0.297948 0
0.828428 0.310689 0
0.935637 0.32546 0
0.990188 0.341436 0
0.0508583 0.45359 0.0180514
0.102419 0.459449 0.0262455
0.203418 0.462043 0.043946
0.360372 0.4598 0.059144
0.529168 0.465156 0.0311131
0.729488 0.456168 0.0087129
0.854704 0.469291 0
0.945373 0.488197 0
0.994064 0.499809 0
0.0794537 0.637507 0.0281529
0.135927 0.6439 0.0351415
0.228962 0.648188 0.0513771
0.378439 0.64683 0.0822156
0.561639 0.64509 0.0866712
0.721355 0.651484 0.0478676
0.882841 0.642008 0.0168154
0.968521 0.643885 0.00773632
0.999893 0.665156 0.021088
0.11223 0.805447 0.0399329
0.175509 0.811505 0.0469215
0.263233 0.815641 0.061799
0.407706 0.815778 0.0924086
0.584817 0.812528 0.133227
0.751522 0.812528 0.113313
0.874937 0.818128 0.0726635
0.969146 0.815488 0.0369116
0.999527 0.823285 0.217868
0.156527 0.933455 0.0541085
0.218021 0.937423 0.0612039
0.30811 0.940276 0.0766003
0.443595 0.940352 0.103807
0.606668 0.938888 0.148669
0.775006 0.935744 0.186755
0.897353 0.936614 0.150301
0.970565 0.940063 0.106752
0.997879 0.944244 0.304585
0.198276 0.995819 0.0706798
0.259068 0.99585 0.0759136
0.362768 0.995407 0.106355
0.516548 0.994018 0.185672
0.682872 0.992111 0.277455
0.825437 0.990417 0.378607
0.923506 0.990295 0.432914
0.976425 0.992538 0.426551
0.998093 0.994141 0.603586
0.000564584 0.0065919 0.0326085
0.0466163 0.00668345 0.0469978
0.169284 0.000961318 0.0318456
0.312886 0.00273136 0.0181125
0.471534 0.0157626 0.0137179
0.638209 0.0322271 0.0137179
0.788602 0.0487678 0.0137179
0.904906 0.0664378 0.0137179
0.977691 0.085893 0.0137179
0.0012665 0.0519722 0.0526436
0.0524147 0.0527047 0.0500343
0.161135 0.0517433 0.0413519
0.313085 0.0507973 0.0226444
0.481529 0.0597238 0.0137179
0.648554 0.0777752 0.0137179
0.798795 0.0958724 0.0137179
0.913802 0.115465 0.0137179
0.983246 0.136477 0.0137179
0.00259403 0.135271 0.0522621
0.049958 0.149752 0.0466926
0.168719 0.148806 0.0480201
0.324163 0.14786 0.0335851
0.50277 0.151659 0.0140536
0.673274 0.163989 0.0137179
0.819608 0.181048 0.0137179
0.927443 0.199619 0.0137179
0.987381 0.214038 0.0137179
0.0109102 0.280644 0.0326543
0.0693828 0.287358 0.0477302
0.183093 0.286732 0.0721599
0.339895 0.2869 0.0533761
0.5299 0.284977 0.0363012
0.695048 0.29575 0.0138247
0.836408 0.308278 0.0137179
0.940764 0.323232 0.0137179
0.992172 0.336538 0.0137179
0.0380407 0.4598 0.0305638
0.095964 0.463951 0.055375
0.19826 0.466514 0.0810407
0.360357 0.463264 0.101518
0.536538 0.466178 0.0682078
0.729824 0.459983 0.0449226
0.860517 0.469642 0.0137179
0.949218 0.487419 0.0137179
0.995727 0.497459 0.0137179
0.0681315 0.642695 0.0454261
0.130785 0.647852 0.0679179
0.224369 0.652155 0.0899519
0.377401 0.650446 0.127001
0.5635 0.648188 0.136202
0.726299 0.65304 0.0893568
0.884184 0.64509 0.0526436
0.968933 0.64683 0.0387579
1 0.667735 0.0619974
0.1028 0.809583 0.062089
0.172534 0.814603 0.0836957
0.260838 0.818738 0.102113
0.404562 0.819013 0.139742
0.585855 0.815183 0.185946
0.753582 0.81474 0.168734
0.877913 0.819318 0.117388
0.970977 0.8168 0.0746319
0.999542 0.825162 0.278264
0.147601 0.935836 0.0823072
0.215808 0.939284 0.100725
0.306447 0.941955 0.119799
0.440513 0.942336 0.154757
0.607523 0.940566 0.20058
0.776501 0.937011 0.244312
0.899016 0.937896 0.204379
0.971603 0.941054 0.166552
0.997909 0.945052 0.376013
0.189731 0.996185 0.099733
0.249042 0.996231 0.105074
0.356741 0.995697 0.152483
0.512016 0.994278 0.234882
0.681208 0.99234 0.340398
0.825315 0.99057 0.443259
0.923796 0.990463 0.498039
0.976593 0.992599 0.495308
0.998108 0.994217 0.663874
0.000137331 0.0123598 0.0788739
0.0184024 0.0171206 0.112764
0.127687 0.0148165 0.135943
0.318639 0.00123598 0.1037
0.501976 0 0.0785687
0.683055 0.00122072 0.039704
0.817121 0.0267338 0.0326085
0.920928 0.0484627 0.0326085
0.983841 0.0700847 0.0326085
3.0518e-05 0.0561227 0.111543
0.0274052 0.061799 0.125628
0.138369 0.0573739 0.150027
0.335424 0.0407568 0.106065
0.544305 0.0180972 0.0495155
0.698543 0.0391852 0.0344549
0.82855 0.0690929 0.0326085
0.930007 0.0943923 0.0326085
0.990234 0.114107 0.0326085
0 0.149081 0.150576
0.0330205 0.152468 0.158022
0.153948 0.154101 0.147585
0.316594 0.152331 0.131456
0.507683 0.151644 0.103395
0.696712 0.151797 0.065568
0.841154 0.163577 0.0361791
0.940581 0.184726 0.0326085
0.993927 0.191638 0.0326085
0.000198367 0.256977 0.157336
0.0383764 0.274098 0.154223
0.140414 0.297032 0.138506
0.323232 0.294453 0.139742
0.517723 0.293721 0.11873
0.70428 0.294453 0.0850843
0.851591 0.299245 0.043061
0.949142 0.313085 0.0326085
0.997299 0.317525 0.0326085
0.00677501 0.445335 0.138796
0.0507973 0.461707 0.125917
0.165759 0.474235 0.136477
0.344198 0.470832 0.170077
0.534325 0.470314 0.141344
0.719905 0.46894 0.116976
0.862242 0.472053 0.0859846
0.956054 0.481895 0.0356298
0.999512 0.487633 0.0492103
0.0230869 0.647334 0.0745251
0.0840925 0.6551 0.0962844
0.20383 0.658885 0.145144
0.361395 0.65716 0.188769
0.561639 0.65182 0.206943
0.732067 0.654246 0.159518
0.882338 0.649744 0.12604
0.967544 0.652506 0.109651
1 0.67013 0.14258
0.0734569 0.816068 0.0767071
0.139178 0.821241 0.104479
0.243732 0.823392 0.160616
0.390738 0.823407 0.200427
0.578286 0.819333 0.24802
0.75375 0.817243 0.236789
0.883085 0.819898 0.18851
0.972656 0.817563 0.142977
0.999557 0.826932 0.35761
0.119814 0.939666 0.101015
0.189731 0.943053 0.130114
0.290105 0.944106 0.179294
0.429114 0.94432 0.214466
0.60029 0.94284 0.263859
0.772641 0.939193 0.311437
0.899474 0.939178 0.274907
0.973083 0.941253 0.252506
0.998001 0.945724 0.455329
0.166018 0.997116 0.125368
0.224826 0.997147 0.137438
0.337987 0.996445 0.197879
0.496086 0.995026 0.288334
0.673274 0.992935 0.403098
0.822416 0.991028 0.511238
0.923217 0.990723 0.572259
0.976593 0.992782 0.572595
0.998169 0.9944 0.727428
0 0.0221256 0.152621
0.0144045 0.0271611 0.181216
0.0577554 0.0316014 0.262257
0.251087 0.0280308 0.259709
0.498817 0.002533 0.225711
0.687495 0 0.189197
0.839811 0 0.156664
0.946685 0.00132753 0.105074
0.996368 0.0184024 0.066331
0 0.0662394 0.190951
0.0205844 0.0723583 0.203845
0.0705882 0.0798657 0.263386
0.261311 0.07187 0.27715
0.511635 0.0431983 0.233112
0.722148 0.0137179 0.185275
0.863859 0.0137179 0.145281
0.959686 0.0149996 0.085481
1 0.0644541 0.098558
0 0.155581 0.24004
0.0181582 0.163043 0.252354
0.0941024 0.170901 0.274739
0.292042 0.159792 0.292241
0.516533 0.148684 0.25156
0.74931 0.0996262 0.18323
0.897017 0.0664378 0.0853895
0.969192 0.0989548 0.0567178
1 0.163577 0.152193
0 0.287053 0.290089
0.0149538 0.29778 0.303304
0.11426 0.301076 0.313634
0.303655 0.301656 0.289601
0.506889 0.299794 0.27042
0.69395 0.302022 0.2486
0.849149 0.303853 0.216114
0.953964 0.306081 0.179294
1 0.306981 0.195972
0 0.442039 0.317525
0.0175937 0.444282 0.317342
0.121584 0.45774 0.307912
0.267704 0.487022 0.27425
0.510262 0.479561 0.274907
0.707118 0.477775 0.260014
0.855924 0.480339 0.230869
0.957229 0.483482 0.195697
1 0.487022 0.230289
0.000671397 0.610101 0.307744
0.0381628 0.626474 0.306264
0.140261 0.650263 0.287373
0.292042 0.666819 0.268666
0.520088 0.664591 0.297383
0.717189 0.662013 0.278584
0.867185 0.661814 0.245487
0.963149 0.66183 0.232197
1 0.672709 0.258595
0.018967 0.804257 0.273945
0.0623941 0.813275 0.271061
0.159915 0.826535 0.245655
0.341939 0.830457 0.272648
0.549279 0.82681 0.327306
0.743389 0.821836 0.343847
0.879759 0.822995 0.288792
0.970108 0.822126 0.252659
0.999634 0.828138 0.450675
0.0322271 0.942153 0.187289
0.0886549 0.945815 0.196384
0.206546 0.94847 0.214191
0.392935 0.947433 0.288792
0.572931 0.946105 0.346075
0.762905 0.941939 0.404028
0.897353 0.940658 0.376532
0.97174 0.941863 0.394232
0.998245 0.946105 0.550759
0.108293 0.998581 0.171588
0.179568 0.998459 0.197452
0.290944 0.997986 0.24358
0.461692 0.996551 0.348135
0.651987 0.994278 0.465141
0.813855 0.992035 0.581033
0.921324 0.991211 0.649393
0.976242 0.993118 0.650614
0.998291 0.994766 0.785657
0 0.0356298 0.244175
0.0137179 0.039704 0.267857
0.0383764 0.0479744 0.327123
0.142718 0.0484627 0.473838
0.408072 0.045594 0.420829
0.66479 0.0171511 0.380148
0.842374 0 0.340902
0.948638 0 0.300343
0.998138 0.0122072 0.276967
0 0.0814374 0.280339
0.0162509 0.087068 0.295369
0.0501869 0.096376 0.346075
0.15288 0.099733 0.472053
0.419883 0.093019 0.437064
0.675471 0.0634928 0.392767
0.865217 0.0143587 0.350561
0.961547 0.0137179 0.306432
1 0.0705882 0.308675
0 0.167926 0.341772
0.0146487 0.175357 0.357427
0.07364 0.185946 0.377905
0.16968 0.195956 0.465492
0.452064 0.179034 0.454826
0.689342 0.162371 0.413611
0.888151 0.0910353 0.360525
0.980743 0.036408 0.288334
1 0.168597 0.346075
0 0.295369 0.411231
0.0137179 0.306264 0.425803
0.0734417 0.318822 0.44239
0.230594 0.32285 0.473442
0.484672 0.30663 0.478172
0.699672 0.300175 0.439124
0.876921 0.276188 0.38703
0.97789 0.24622 0.318624
1 0.310323 0.385565
0 0.467048 0.471519
0.0137179 0.47718 0.483299
0.0722515 0.488014 0.500008
0.262577 0.485847 0.504738
0.488396 0.487221 0.467399
0.693935 0.484672 0.447379
0.84535 0.489204 0.433433
0.954269 0.489387 0.402914
1 0.488411 0.425422
0 0.643702 0.515572
0.0137179 0.649409 0.522438
0.0788739 0.642161 0.517342
0.257954 0.654917 0.496269
0.437583 0.682139 0.445655
0.700053 0.670314 0.445502
0.857435 0.668101 0.44239
0.959625 0.668833 0.405127
1 0.673274 0.449821
0 0.771756 0.516548
0.0160525 0.782696 0.519875
0.111528 0.802625 0.514763
0.274891 0.823957 0.479362
0.446708 0.838315 0.439628
0.681392 0.834928 0.459815
0.861021 0.829908 0.456016
0.963821 0.828428 0.433783
0.999924 0.830579 0.550576
0.00740063 0.927947 0.512612
0.0499733 0.934157 0.513008
0.152468 0.942031 0.494697
0.291493 0.94847 0.453269
0.494102 0.951095 0.434455
0.719585 0.948165 0.481727
0.877546 0.94551 0.498238
0.965423 0.945006 0.531197
0.998688 0.946471 0.652506
0.0326085 0.997162 0.469306
0.0623026 0.997711 0.461891
0.172396 0.998474 0.439979
0.394247 0.998627 0.429114
0.61062 0.996719 0.528603
0.796582 0.99382 0.64596
0.917357 0.992111 0.734127
0.975555 0.993683 0.738445
0.998474 0.995361 0.844541
0 0.0523384 0.359167
0.0137179 0.0558938 0.378256
0.0332189 0.0647593 0.426352
0.0900435 0.0774853 0.516152
0.269291 0.0700847 0.684153
0.573983 0.0698863 0.593759
0.797009 0.0511482 0.550591
0.949218 0.00123598 0.520882
0.99852 0.0145571 0.483894
0 0.0999466 0.391455
0.0138094 0.104875 0.406058
0.0388952 0.11548 0.446525
0.104387 0.131197 0.531929
0.274571 0.124132 0.697459
0.58912 0.120089 0.606683
0.808377 0.100023 0.566827
0.959548 0.0248875 0.539879
1 0.0783551 0.509865
0 0.18526 0.450156
0.0137179 0.192325 0.464454
0.0608225 0.203159 0.485649
0.136629 0.217899 0.556283
0.280018 0.219226 0.70576
0.623209 0.202457 0.62356
0.823423 0.192325 0.587915
0.965194 0.127932 0.558892
1 0.176059 0.538384
0 0.310689 0.524178
0.0137179 0.321202 0.539498
0.0550088 0.334676 0.559243
0.171984 0.348837 0.584482
0.300908 0.360891 0.67126
0.6551 0.324712 0.649744
0.836027 0.322133 0.60856
0.96408 0.288808 0.575525
1 0.317876 0.564233
0 0.474845 0.600122
0.0137179 0.485649 0.611826
0.0389715 0.499428 0.628885
0.182559 0.50985 0.643885
0.429465 0.501595 0.684352
0.678614 0.488594 0.669398
0.851194 0.486046 0.631479
0.960952 0.479957 0.603738
1 0.492943 0.601694
0 0.654063 0.659434
0.0137179 0.663676 0.670314
0.0354925 0.675486 0.684703
0.200977 0.681025 0.700954
0.458091 0.674739 0.695796
0.665705 0.680644 0.64976
0.842237 0.676966 0.637507
0.958877 0.669963 0.618372
1 0.673823 0.640284
0 0.818891 0.709667
0.0137179 0.825711 0.717174
0.0339055 0.830594 0.723583
0.214191 0.818296 0.71751
0.435676 0.831937 0.68545
0.630793 0.844953 0.632166
0.846311 0.836423 0.628382
0.961257 0.830716 0.627176
1 0.83357 0.66331
0 0.921233 0.729183
0.0137179 0.925475 0.734768
0.0467689 0.930114 0.734936
0.24593 0.939956 0.719905
0.439307 0.949233 0.666087
0.61976 0.956207 0.597375
0.841031 0.951232 0.639231
0.961105 0.947723 0.652171
0.999359 0.946853 0.767315
0 0.993088 0.744671
0.0137179 0.993591 0.745647
0.0326085 0.995331 0.730617
0.097261 0.999023 0.672541
0.514565 0.998779 0.647334
0.758923 0.997055 0.708858
0.906371 0.994049 0.801465
0.974136 0.994461 0.826795
0.998764 0.996185 0.898909
0 0.0740368 0.479759
0.0137179 0.0776837 0.496666
0.0326085 0.0852827 0.536355
0.0692912 0.0977493 0.604944
0.180926 0.108705 0.722942
0.433097 0.0973678 0.842771
0.723888 0.0989395 0.755962
0.897673 0.0910201 0.713832
0.995361 0.0387579 0.697826
0 0.124681 0.509255
0.0137179 0.130373 0.521859
0.0332799 0.140688 0.558694
0.0826276 0.157076 0.620096
0.196918 0.170748 0.735714
0.439811 0.155856 0.861891
0.741161 0.156542 0.767483
0.906905 0.149752 0.729992
0.998444 0.0923323 0.716548
0 0.206531 0.564416
0.0137179 0.213169 0.577081
0.0493629 0.224826 0.59704
0.111269 0.241062 0.650797
0.224369 0.25716 0.748119
0.441703 0.242695 0.888395
0.77116 0.233387 0.782391
0.919936 0.232639 0.749752
0.998535 0.188525 0.73669
0 0.3308 0.632685
0.0137179 0.340398 0.64596
0.045716 0.353307 0.666636
0.153552 0.368109 0.689326
0.25861 0.385 0.75996
0.43653 0.387427 0.871733
0.791409 0.355703 0.802197
0.931579 0.356054 0.766598
0.999313 0.325826 0.75108
0 0.489006 0.710643
0.0137179 0.499611 0.721813
0.0327764 0.513191 0.738445
0.155322 0.526207 0.751675
0.298695 0.541527 0.774578
0.513008 0.539879 0.852689
0.818128 0.507286 0.824216
0.94432 0.508659 0.791257
0.999863 0.498833 0.766583
0 0.661463 0.775296
0.0137179 0.671244 0.784329
0.0326085 0.683055 0.796887
0.13933 0.693935 0.810605
0.336889 0.701335 0.825162
0.62388 0.688777 0.845228
0.833158 0.678264 0.834928
0.952575 0.676966 0.806195
1 0.678065 0.788006
0 0.822293 0.826673
0.0137179 0.829633 0.834379
0.0326085 0.837369 0.843061
0.143648 0.84387 0.853895
0.378256 0.842664 0.862013
0.647852 0.839124 0.849287
0.827741 0.841154 0.819608
0.956268 0.833585 0.810605
1 0.834394 0.820798
0 0.943496 0.86508
0.0137179 0.947127 0.870756
0.0326085 0.95079 0.876936
0.146242 0.950622 0.880018
0.377401 0.947219 0.877287
0.573114 0.954131 0.840604
0.800412 0.955917 0.803372
0.954879 0.950042 0.805737
0.999802 0.948104 0.864454
0 0.996628 0.89012
0.0137179 0.997101 0.892348
0.0326085 0.997681 0.89192
0.0792554 0.998047 0.885679
0.128878 0.999695 0.864591
0.629404 0.999557 0.830457
0.879393 0.997726 0.854582
0.97142 0.995621 0.90869
0.999115 0.997314 0.946166
0 0.0969558 0.604089
0.0137179 0.0999466 0.615961
0.0326085 0.106279 0.644419
0.0573587 0.120912 0.703166
0.142443 0.140398 0.779599
0.300175 0.145144 0.901244
0.594812 0.133364 0.949218
0.840208 0.136614 0.891798
0.967346 0.133227 0.850111
0 0.153155 0.625788
0.0137179 0.158038 0.635264
0.0326085 0.167117 0.664225
0.0667277 0.182132 0.720226
0.157626 0.201236 0.792309
0.318242 0.206531 0.909575
0.605112 0.19408 0.959991
0.85539 0.197864 0.899138
0.97464 0.192035 0.865827
0 0.231769 0.671611
0.0137179 0.23856 0.683055
0.0394141 0.249638 0.705196
0.0942092 0.26659 0.748287
0.189609 0.286732 0.815625
0.346075 0.297948 0.91368
0.610437 0.283207 0.969696
0.871122 0.279545 0.913802
0.9823 0.255726 0.891691
0 0.353658 0.738613
0.0137179 0.362585 0.750195
0.0386816 0.374975 0.766598
0.13756 0.390539 0.783734
0.231022 0.410849 0.836423
0.375158 0.426154 0.912581
0.604608 0.421927 0.967468
0.892805 0.394247 0.9243
0.990021 0.365347 0.908476
0 0.507698 0.801877
0.0137179 0.51812 0.812085
0.0326085 0.530282 0.827604
0.137285 0.54374 0.840497
0.273304 0.559609 0.861753
0.411032 0.57586 0.91548
0.629572 0.575525 0.961028
0.916014 0.536355 0.935821
0.991928 0.527687 0.914458
0 0.67364 0.864713
0.0137179 0.683238 0.872374
0.0326085 0.694667 0.883101
0.0981613 0.706966 0.895232
0.279042 0.716869 0.906264
0.432563 0.729168 0.934752
0.710002 0.720058 0.957458
0.930205 0.695796 0.944167
0.99498 0.693202 0.920043
0 0.828016 0.913359
0.0137179 0.83505 0.919463
0.0326085 0.842664 0.92636
0.0738231 0.851179 0.935714
0.273777 0.85687 0.944244
0.431022 0.864851 0.958358
0.764675 0.852277 0.959182
0.943145 0.840482 0.948257
0.998962 0.838193 0.929534
0 0.945205 0.947066
0.0137179 0.948852 0.950774
0.0326085 0.95256 0.954849
0.0735332 0.956207 0.959762
0.275227 0.958648 0.965057
0.462562 0.961105 0.969192
0.786679 0.954635 0.961852
0.948623 0.951217 0.9467
1 0.949599 0.946319
0 0.999176 0.965255
0.0137179 0.999557 0.966842
0.0910201 1 0.96791
0.272663 1 0.967712
0.476204 1 0.967147
0.676234 1 0.96585
0.795834 1 0.957702
0.95903 0.998734 0.956359
0.999557 0.998642 0.978851
0 0.123735 0.720714
0.0137179 0.127123 0.729961
0.0326085 0.134722 0.751812
0.0567178 0.148547 0.792599
0.114122 0.167376 0.852415
0.239582 0.185931 0.922606
0.453071 0.181338 0.990845
0.728054 0.188235 0.990845
0.927352 0.18201 0.974273
0 0.181201 0.737179
0.0137179 0.184726 0.746761
0.0326085 0.192584 0.768215
0.0567178 0.206546 0.811337
0.11603 0.227039 0.871
0.24593 0.24712 0.938781
0.478355 0.245502 0.99234
0.740047 0.257633 0.991058
0.941451 0.24094 0.98294
0 0.258579 0.771908
0.0137179 0.263722 0.781796
0.0326085 0.273442 0.804273
0.0567178 0.288808 0.846998
0.112886 0.311986 0.902922
0.256016 0.333211 0.960739
0.531746 0.332647 0.9935
0.766445 0.346761 0.991196
0.94728 0.322881 0.986038
0 0.377905 0.82707
0.0137179 0.384833 0.836423
0.0326085 0.395712 0.855665
0.0567178 0.410666 0.890791
0.0928206 0.429633 0.941466
0.247868 0.445487 0.981613
0.575525 0.446876 0.994217
0.791424 0.458762 0.991821
0.952483 0.440848 0.987182
0 0.528252 0.882231
0.0137179 0.536187 0.890227
0.0326085 0.546151 0.90425
0.0567178 0.558877 0.930892
0.0900435 0.573617 0.967407
0.249485 0.583947 0.998581
0.623194 0.586358 0.995544
0.823407 0.595315 0.992935
0.960647 0.583261 0.989029
0 0.688396 0.931487
0.0137179 0.696895 0.937011
0.0326085 0.706798 0.945373
0.0567178 0.717189 0.957977
0.0900435 0.729183 0.980713
0.369818 0.732067 1
0.675868 0.732052 0.997681
0.858549 0.736385 0.994598
0.970123 0.730297 0.991287
0 0.835615 0.967086
0.0137179 0.84184 0.969818
0.0326085 0.84889 0.974212
0.0567178 0.856611 0.98088
0.0900435 0.86595 0.99118
0.372045 0.870512 1
0.734279 0.860761 0.999893
0.89514 0.861387 0.996857
0.981003 0.859541 0.99379
0 0.947738 0.988937
0.0137179 0.951217 0.990585
0.0326085 0.954635 0.99237
0.0567178 0.958358 0.995254
0.141634 0.962463 0.999405
0.507698 0.961975 1
0.756695 0.959991 1
0.92578 0.95613 0.999741
0.991806 0.955398 0.996887
0.0501717 0.999344 1
0.102892 0.999359 1
0.202899 0.999374 1
0.351232 0.99942 1
0.530282 0.999481 1
0.709346 0.999588 1
0.854994 0.99971 1
0.954711 0.999863 1
1 1 1
