assets/luts/LUTs/TG_D-LOG-M_3_HEAVY.CUBE
LUT_3D_SIZE 6
0.000000 0.000000 0.000000
0.086585 0.000000 0.000000
0.303441 0.000000 0.000000
0.589474 0.000000 0.000000
0.819568 0.000000 0.000000
0.999990 0.000000 0.000000
0.000000 0.086585 0.000000
0.086585 0.086585 0.000000
0.303441 0.107944 0.000000
0.589474 0.140724 0.000000
0.819568 0.143406 0.000000
0.999990 0.135058 0.000000
0.000000 0.303441 0.000000
0.107944 0.303441 0.000000
0.303441 0.303441 0.000000
0.589474 0.367186 0.000000
0.819568 0.372406 0.000000
0.999990 0.356158 0.000000
0.000000 0.589474 0.000000
0.140724 0.589474 0.000000
0.367186 0.589474 0.000000
0.589474 0.589474 0.000000
0.819568 0.597200 0.000000
0.999990 0.573152 0.000000
0.000000 0.819568 0.000000
0.143406 0.819568 0.000000
0.372406 0.819568 0.000000
0.597200 0.819568 0.000000
0.819568 0.819568 0.000000
0.999990 0.787790 0.000000
0.000000 0.999990 0.000000
0.135058 0.999990 0.000000
0.356158 0.999990 0.000000
0.573152 0.999990 0.000000
0.787790 0.999990 0.000000
0.999990 0.999990 0.000000
0.000000 0.000000 0.086585
0.086585 0.000000 0.086585
0.303441 0.000000 0.107944
0.589474 0.000000 0.140724
0.819568 0.000000 0.143406
0.999990 0.000000 0.135058
0.000000 0.086585 0.086585
0.086585 0.086585 0.086585
0.305468 0.083803 0.083803
0.590604 0.080970 0.080970
0.819952 0.078183 0.078183
0.999990 0.075068 0.075068
0.000000 0.303441 0.107944
0.081320 0.306088 0.081320
0.306088 0.306088 0.081320
0.590604 0.355242 0.080970
0.819952 0.355391 0.078183
0.999990 0.338717 0.075068
0.000000 0.589474 0.140724
0.079779 0.590711 0.079779
0.355086 0.590711 0.079779
0.590711 0.590711 0.079779
0.819952 0.591692 0.078183
0.999990 0.565557 0.075068
0.000000 0.819568 0.143406
0.077462 0.819970 0.077462
0.355231 0.819970 0.077462
0.591650 0.819970 0.077462
0.819970 0.819970 0.077462
0.999990 0.784848 0.074906
0.000000 0.999990 0.135058
0.074536 0.999990 0.074536
0.338577 0.999990 0.074536
0.565497 0.999990 0.074536
0.784832 0.999990 0.074536
0.999990 0.999990 0.074536
0.000000 0.000000 0.303441
0.107944 0.000000 0.303441
0.303441 0.000000 0.303441
0.589474 0.000000 0.367186
0.819568 0.000000 0.372406
0.999990 0.000000 0.356158
0.000000 0.107944 0.303441
0.081320 0.081320 0.306088
0.306088 0.081320 0.306088
0.590639 0.080590 0.355193
0.819955 0.078070 0.355366
0.999990 0.075018 0.338705
0.000000 0.303441 0.303441
0.081320 0.306088 0.306088
0.303441 0.303441 0.303441
0.592072 0.299459 0.299459
0.821044 0.289950 0.289950
0.999990 0.279307 0.279307
0.000000 0.589474 0.367186
0.079779 0.590711 0.355086
0.288799 0.594189 0.288799
0.594189 0.594189 0.288799
0.821044 0.572642 0.289950
0.999990 0.542126 0.279307
0.000000 0.819568 0.372406
0.077462 0.819970 0.355231
0.280626 0.821526 0.280626
0.570439 0.821526 0.280626
0.821526 0.821526 0.280626
0.999990 0.775891 0.278319
0.000000 0.999990 0.356158
0.074536 0.999990 0.338577
0.271486 0.999990 0.271486
0.539333 0.999990 0.271486
0.774993 0.999990 0.271486
0.999990 0.999990 0.271486
0.000000 0.000000 0.589474
0.140724 0.000000 0.589474
0.367186 0.000000 0.589474
0.589474 0.000000 0.589474
0.819568 0.000000 0.597200
0.999990 0.000000 0.573152
0.000000 0.140724 0.589474
0.079779 0.079779 0.590711
0.355086 0.079779 0.590711
0.590711 0.079779 0.590711
0.819961 0.077837 0.591672
0.999990 0.074920 0.565541
0.000000 0.367186 0.589474
0.079779 0.355086 0.590711
0.288799 0.288799 0.594189
0.594189 0.288799 0.594189
0.821229 0.286671 0.571868
0.999990 0.277791 0.541580
0.000000 0.589474 0.589474
0.079779 0.590711 0.590711
0.288799 0.594189 0.594189
0.589474 0.589474 0.589474
0.820922 0.586477 0.586477
0.999990 0.576763 0.576763
0.000000 0.819568 0.597200
0.077462 0.819970 0.591650
0.280626 0.821526 0.570439
0.573733 0.822788 0.573733
0.822788 0.822788 0.573733
0.999990 0.789199 0.576763
0.000000 0.999990 0.573152
0.074536 0.999990 0.565497
0.271486 0.999990 0.539333
0.559863 0.999990 0.559863
0.782677 0.999990 0.559863
0.999990 0.999990 0.559863
0.000000 0.000000 0.819568
0.143406 0.000000 0.819568
0.372406 0.000000 0.819568
0.597200 0.000000 0.819568
0.819568 0.000000 0.819568
0.999990 0.000000 0.787790
0.000000 0.143406 0.819568
0.077462 0.077462 0.819970
0.355231 0.077462 0.819970
0.591650 0.077462 0.819970
0.819970 0.077462 0.819970
0.999990 0.074763 0.784842
0.000000 0.372406 0.819568
0.077462 0.355231 0.819970
0.280626 0.280626 0.821526
0.570439 0.280626 0.821526
0.821526 0.280626 0.821526
0.999990 0.275271 0.775488
0.000000 0.597200 0.819568
0.077462 0.591650 0.819970
0.280626 0.570439 0.821526
0.573733 0.573733 0.822788
0.822788 0.573733 0.822788
0.999990 0.570704 0.786840
0.000000 0.819568 0.819568
0.077462 0.819970 0.819970
0.280626 0.821526 0.821526
0.573733 0.822788 0.822788
0.819568 0.819568 0.819568
0.999990 0.817672 0.817672
0.000000 0.999990 0.787790
0.074536 0.999990 0.784832
0.271486 0.999990 0.774993
0.559863 0.999990 0.782677
0.809510 0.999990 0.809510
0.999990 0.999990 0.809510
0.000000 0.000000 0.999990
0.135058 0.000000 0.999990
0.356158 0.000000 0.999990
0.573152 0.000000 0.999990
0.787790 0.000000 0.999990
0.999990 0.000000 0.999990
0.000000 0.135058 0.999990
0.074536 0.074536 0.999990
0.338577 0.074536 0.999990
0.565497 0.074536 0.999990
0.784832 0.074536 0.999990
0.999990 0.074536 0.999990
0.000000 0.356158 0.999990
0.074536 0.338577 0.999990
0.271486 0.271486 0.999990
0.539333 0.271486 0.999990
0.774993 0.271486 0.999990
0.999990 0.271486 0.999990
0.000000 0.573152 0.999990
0.074536 0.565497 0.999990
0.271486 0.539333 0.999990
0.559863 0.559863 0.999990
0.782677 0.559863 0.999990
0.999990 0.559863 0.999990
0.000000 0.787790 0.999990
0.074536 0.784832 0.999990
0.271486 0.774993 0.999990
0.559863 0.782677 0.999990
0.809510 0.809510 0.999990
0.999990 0.809510 0.999990
0.000000 0.999990 0.999990
0.074536 0.999990 0.999990
0.271486 0.999990 0.999990
0.559863 0.999990 0.999990
0.809510 0.999990 0.999990
0.999990 0.999990 0.999990
