assets/luts/LUTs/TG_D-LOG-M_1_LIGHT.CUBE
LUT_3D_SIZE 16
0.000000 0.000000 0.000000
0.045314 -0.000219 -0.000219
0.108025 -0.000471 -0.000471
0.176648 -0.000739 -0.000739
0.246993 -0.001014 -0.001014
0.318663 -0.001299 -0.001299
0.391416 -0.001589 -0.001589
0.465083 -0.001879 -0.001879
0.539276 -0.002181 -0.002181
0.612317 -0.002481 -0.002481
0.683825 -0.002762 -0.002762
0.753609 -0.003049 -0.003049
0.821362 -0.003331 -0.003331
0.886552 -0.003590 -0.003590
0.948073 -0.003841 -0.003841
0.999990 -0.004057 -0.004057
-0.000363 0.045314 -0.000363
0.045314 0.045314 -0.000404
0.108025 0.049265 -0.000579
0.176648 0.051730 -0.000807
0.246993 0.053556 -0.001066
0.318663 0.055018 -0.001337
0.391416 0.056239 -0.001621
0.465083 0.057292 -0.001910
0.539276 0.058187 -0.002205
0.612317 0.058790 -0.002495
0.683825 0.059144 -0.002786
0.753609 0.059297 -0.003070
0.821362 0.059272 -0.003349
0.886552 0.059068 -0.003607
0.948073 0.058639 -0.003856
0.999990 0.057689 -0.004070
-0.000782 0.108025 -0.000782
0.049264 0.108025 -0.000799
0.108025 0.108025 -0.000870
0.176648 0.113406 -0.001037
0.246993 0.117364 -0.001247
0.318663 0.120515 -0.001481
0.391415 0.123145 -0.001740
0.465083 0.125407 -0.002006
0.539276 0.127325 -0.002292
0.612317 0.128614 -0.002575
0.683825 0.129376 -0.002843
0.753609 0.129709 -0.003120
0.821362 0.129662 -0.003385
0.886552 0.129231 -0.003655
0.948073 0.128328 -0.003900
0.999990 0.126306 -0.004111
-0.001224 0.176648 -0.001224
0.051728 0.176648 -0.001233
0.113405 0.176648 -0.001278
0.176648 0.176648 -0.001361
0.246993 0.182511 -0.001530
0.318663 0.187180 -0.001729
0.391415 0.191075 -0.001949
0.465083 0.194427 -0.002197
0.539276 0.197269 -0.002454
0.612317 0.199181 -0.002714
0.683825 0.200310 -0.002976
0.753609 0.200806 -0.003237
0.821362 0.200737 -0.003490
0.886552 0.200100 -0.003734
0.948073 0.198763 -0.003972
0.999990 0.195769 -0.004179
-0.001682 0.246992 -0.001682
0.053553 0.246992 -0.001688
0.117363 0.246992 -0.001717
0.182510 0.246992 -0.001779
0.246992 0.246992 -0.001869
0.318663 0.253166 -0.002042
0.391415 0.258316 -0.002237
0.465083 0.262746 -0.002454
0.539276 0.266504 -0.002677
0.612317 0.269032 -0.002922
0.683825 0.270525 -0.003160
0.753609 0.271181 -0.003402
0.821362 0.271092 -0.003639
0.886551 0.270250 -0.003871
0.948073 0.268482 -0.004098
0.999990 0.264524 -0.004296
-0.002156 0.318663 -0.002156
0.055012 0.318663 -0.002156
0.120513 0.318663 -0.002181
0.187179 0.318663 -0.002229
0.253165 0.318663 -0.002300
0.318663 0.318663 -0.002397
0.391415 0.325059 -0.002575
0.465083 0.330561 -0.002762
0.539276 0.335229 -0.002965
0.612317 0.338368 -0.003180
0.683825 0.340224 -0.003402
0.753609 0.341038 -0.003623
0.821362 0.340927 -0.003841
0.886551 0.339882 -0.004057
0.948073 0.337687 -0.004270
0.999990 0.332772 -0.004446
-0.002627 0.391415 -0.002627
0.056231 0.391415 -0.002640
0.123142 0.391415 -0.002652
0.191074 0.391415 -0.002690
0.258315 0.391415 -0.002750
0.325059 0.391415 -0.002832
0.391415 0.391415 -0.002933
0.465082 0.397983 -0.003110
0.539276 0.403554 -0.003294
0.612316 0.407302 -0.003490
0.683825 0.409517 -0.003687
0.753609 0.410490 -0.003885
0.821361 0.410357 -0.004084
0.886551 0.409110 -0.004283
0.948073 0.406490 -0.004470
0.999990 0.400623 -0.004635
-0.003120 0.465082 -0.003120
0.057279 0.465082 -0.003130
0.125402 0.465082 -0.003140
0.194425 0.465082 -0.003170
0.262745 0.465082 -0.003218
0.330561 0.465082 -0.003294
0.397983 0.465082 -0.003367
0.465082 0.465082 -0.003472
0.539275 0.471553 -0.003655
0.612316 0.475907 -0.003826
0.683824 0.478480 -0.004001
0.753608 0.479609 -0.004192
0.821361 0.479455 -0.004372
0.886551 0.478007 -0.004542
0.948072 0.474964 -0.004726
0.999990 0.468149 -0.004857
-0.003623 0.539276 -0.003623
0.058170 0.539276 -0.003623
0.127318 0.539276 -0.003639
0.197265 0.539275 -0.003655
0.266502 0.539275 -0.003703
0.335227 0.539275 -0.003765
0.403554 0.539275 -0.003841
0.471553 0.539275 -0.003929
0.539275 0.539275 -0.004029
0.612316 0.544232 -0.004192
0.683824 0.547161 -0.004347
0.753608 0.548447 -0.004518
0.821361 0.548272 -0.004681
0.886551 0.546623 -0.004857
0.948072 0.543158 -0.005005
0.999990 0.535400 -0.005127
-0.004111 0.612316 -0.004111
0.058766 0.612316 -0.004111
0.128605 0.612316 -0.004125
0.199176 0.612316 -0.004139
0.269029 0.612316 -0.004179
0.338366 0.612316 -0.004231
0.407301 0.612316 -0.004296
0.475906 0.612316 -0.004372
0.544232 0.612316 -0.004470
0.612315 0.612315 -0.004589
0.683824 0.615600 -0.004726
0.753608 0.617042 -0.004879
0.821361 0.616845 -0.005026
0.886551 0.614996 -0.005167
0.948072 0.611111 -0.005302
0.999990 0.602413 -0.005415
-0.004589 0.683824 -0.004589
0.059114 0.683824 -0.004589
0.129364 0.683824 -0.004612
0.200304 0.683824 -0.004612
0.270521 0.683824 -0.004658
0.340221 0.683824 -0.004703
0.409516 0.683824 -0.004748
0.478478 0.683824 -0.004814
0.547161 0.683824 -0.004900
0.615599 0.683823 -0.005005
0.683823 0.683823 -0.005107
0.753607 0.685421 -0.005245
0.821361 0.685203 -0.005378
0.886550 0.683155 -0.005506
0.948072 0.678851 -0.005631
0.999990 0.669215 -0.005717
-0.005066 0.753608 -0.005066
0.059259 0.753608 -0.005066
0.129694 0.753608 -0.005066
0.200797 0.753608 -0.005087
0.271176 0.753608 -0.005107
0.341035 0.753607 -0.005147
0.410487 0.753607 -0.005206
0.479607 0.753607 -0.005264
0.548446 0.753607 -0.005340
0.617041 0.753607 -0.005433
0.685420 0.753607 -0.005524
0.753607 0.753607 -0.005631
0.821360 0.753368 -0.005768
0.886550 0.751122 -0.005869
0.948072 0.746401 -0.005967
0.999990 0.735829 -0.006063
-0.005524 0.821360 -0.005524
0.059226 0.821360 -0.005524
0.129643 0.821360 -0.005524
0.200727 0.821360 -0.005542
0.271085 0.821360 -0.005560
0.340922 0.821360 -0.005596
0.410354 0.821360 -0.005648
0.479453 0.821360 -0.005700
0.548270 0.821360 -0.005768
0.616844 0.821360 -0.005836
0.685202 0.821360 -0.005934
0.753368 0.821360 -0.006031
0.821360 0.821360 -0.006156
0.886550 0.818915 -0.006248
0.948071 0.813777 -0.006338
0.999990 0.802272 -0.006397
-0.005967 0.886550 -0.005967
0.059011 0.886550 -0.005967
0.129209 0.886550 -0.005967
0.200087 0.886550 -0.005967
0.270242 0.886550 -0.005999
0.339876 0.886550 -0.006031
0.409106 0.886550 -0.006063
0.478004 0.886550 -0.006125
0.546621 0.886550 -0.006187
0.614995 0.886550 -0.006248
0.683154 0.886550 -0.006338
0.751121 0.886550 -0.006426
0.818914 0.886550 -0.006541
0.886549 0.886549 -0.006653
0.948071 0.880996 -0.006708
0.999990 0.868561 -0.006763
-0.006367 0.948071 -0.006367
0.058572 0.948071 -0.006367
0.128301 0.948071 -0.006397
0.198748 0.948071 -0.006397
0.268472 0.948071 -0.006426
0.337680 0.948071 -0.006455
0.406485 0.948071 -0.006484
0.474960 0.948071 -0.006513
0.543156 0.948071 -0.006569
0.611109 0.948071 -0.006653
0.678850 0.948071 -0.006708
0.746399 0.948071 -0.006790
0.813776 0.948071 -0.006896
0.880996 0.948071 -0.007001
0.948071 0.948071 -0.007103
0.999990 0.934707 -0.007128
-0.006736 0.999990 -0.006736
0.057611 0.999990 -0.006736
0.126274 0.999990 -0.006736
0.195751 0.999990 -0.006763
0.264513 0.999990 -0.006763
0.332764 0.999990 -0.006790
0.400618 0.999990 -0.006817
0.468145 0.999990 -0.006870
0.535397 0.999990 -0.006923
0.602410 0.999990 -0.006975
0.669213 0.999990 -0.007052
0.735827 0.999990 -0.007128
0.802271 0.999990 -0.007203
0.868560 0.999990 -0.007302
0.934706 0.999990 -0.007398
0.999990 0.999990 -0.007516
-0.000140 -0.000140 0.045314
0.045314 -0.000248 0.045314
0.108025 -0.000484 0.049265
0.176648 -0.000746 0.051730
0.246993 -0.001020 0.053556
0.318663 -0.001304 0.055018
0.391416 -0.001589 0.056239
0.465083 -0.001890 0.057292
0.539276 -0.002181 0.058187
0.612317 -0.002481 0.058790
0.683825 -0.002774 0.059144
0.753609 -0.003049 0.059297
0.821362 -0.003331 0.059272
0.886552 -0.003590 0.059068
0.948073 -0.003841 0.058639
0.999990 -0.004070 0.057689
-0.000378 0.045314 0.045314
0.045314 0.045314 0.045314
0.110189 0.043616 0.043616
0.182537 0.035457 0.035457
0.252744 0.028175 0.028175
0.323334 0.023939 0.023939
0.395127 0.021773 0.021773
0.468046 0.020641 0.020641
0.541667 0.020160 0.020160
0.614270 0.020125 0.020125
0.685438 0.020384 0.020384
0.754952 0.020840 0.020840
0.822486 0.021434 0.021434
0.887495 0.022116 0.022116
0.948869 0.022839 0.022839
0.999990 0.039454 0.039454
-0.000786 0.108025 0.049264
0.035858 0.109383 0.035858
0.108472 0.108472 0.033683
0.179790 0.110536 0.029424
0.250744 0.111914 0.025374
0.322153 0.113289 0.022701
0.394435 0.114772 0.021250
0.467630 0.116264 0.020458
0.541407 0.117661 0.020151
0.614102 0.118631 0.020201
0.685326 0.119218 0.020505
0.754875 0.119481 0.020974
0.822431 0.119447 0.021585
0.887455 0.119101 0.022269
0.948839 0.118352 0.022990
0.999990 0.120048 0.039453
-0.001228 0.176648 0.051728
0.026043 0.178000 0.026043
0.108657 0.177677 0.025489
0.177142 0.177142 0.024578
0.248754 0.181286 0.022753
0.320782 0.184684 0.021386
0.393515 0.187676 0.020665
0.467019 0.190379 0.020286
0.540998 0.192755 0.020214
0.613823 0.194350 0.020396
0.685131 0.195272 0.020762
0.754736 0.195642 0.021272
0.822330 0.195512 0.021881
0.887381 0.194865 0.022570
0.948783 0.193567 0.023288
0.999990 0.192383 0.039451
-0.001682 0.246992 0.053553
0.021786 0.248052 0.021786
0.110054 0.247936 0.021657
0.180464 0.247727 0.021431
0.247452 0.247452 0.021152
0.319722 0.252548 0.020591
0.392695 0.256924 0.020376
0.466406 0.260788 0.020328
0.540548 0.264123 0.020471
0.613494 0.266344 0.020773
0.684889 0.267620 0.021203
0.754556 0.268126 0.021745
0.822196 0.267940 0.022372
0.887279 0.267046 0.023049
0.948705 0.265268 0.023755
0.999990 0.262341 0.039447
-0.002156 0.318663 0.055012
0.020435 0.319456 0.020435
0.111937 0.319407 0.020423
0.183757 0.319314 0.020404
0.252115 0.319185 0.020397
0.319030 0.319030 0.020423
0.392090 0.324698 0.020509
0.465906 0.329684 0.020693
0.540147 0.333964 0.020979
0.613177 0.336814 0.021377
0.684642 0.338454 0.021859
0.754364 0.339111 0.022427
0.822045 0.338888 0.023056
0.887161 0.337771 0.023723
0.948612 0.335537 0.024405
0.999990 0.331238 0.039442
-0.002640 0.391415 0.056231
0.020572 0.391998 0.020572
0.113911 0.391974 0.020598
0.186888 0.391928 0.020651
0.256378 0.391860 0.020736
0.324440 0.391776 0.020872
0.391681 0.391681 0.021062
0.465536 0.397749 0.021379
0.539828 0.402953 0.021778
0.612908 0.406426 0.022236
0.684419 0.408432 0.022746
0.754181 0.409247 0.023326
0.821897 0.408996 0.023948
0.887041 0.407666 0.024594
0.948514 0.404993 0.025245
0.999990 0.399492 0.039436
-0.003120 0.465082 0.057279
0.021421 0.465520 0.021421
0.115832 0.465507 0.021458
0.189807 0.465482 0.021533
0.260286 0.465445 0.021654
0.329343 0.465397 0.021831
0.397587 0.465341 0.022071
0.465279 0.465279 0.022376
0.539591 0.471388 0.022826
0.612696 0.475473 0.023332
0.684234 0.477841 0.023862
0.754022 0.478814 0.024433
0.821762 0.478541 0.025039
0.886927 0.477004 0.025659
0.948418 0.473900 0.026276
0.999990 0.467293 0.039428
-0.003623 0.539276 0.058170
0.022724 0.539608 0.022724
0.117607 0.539601 0.022765
0.192413 0.539587 0.022849
0.263732 0.539565 0.022986
0.333635 0.539536 0.023178
0.402732 0.539502 0.023428
0.471283 0.539464 0.023743
0.539423 0.539423 0.024125
0.612539 0.544109 0.024641
0.684089 0.546834 0.025179
0.753893 0.547964 0.025738
0.821648 0.547668 0.026319
0.886828 0.545928 0.026912
0.948332 0.542397 0.027485
0.999990 0.534745 0.039418
-0.004111 0.612316 0.058766
0.024326 0.612570 0.024326
0.118925 0.612565 0.024367
0.194230 0.612557 0.024449
0.266091 0.612544 0.024585
0.336548 0.612526 0.024776
0.406208 0.612505 0.025026
0.475326 0.612480 0.025329
0.544039 0.612454 0.025708
0.612426 0.612426 0.026141
0.683982 0.615502 0.026680
0.753792 0.616786 0.027225
0.821556 0.616467 0.027779
0.886745 0.614524 0.028328
0.948258 0.610570 0.028843
0.999990 0.601910 0.039405
-0.004589 0.683824 0.059114
0.026112 0.684017 0.026112
0.119847 0.684014 0.026150
0.195368 0.684009 0.026230
0.267513 0.684001 0.026362
0.338278 0.683990 0.026545
0.408255 0.683976 0.026783
0.477697 0.683960 0.027077
0.546737 0.683942 0.027439
0.615456 0.683924 0.027857
0.683905 0.683905 0.028342
0.753718 0.685339 0.028857
0.821485 0.684997 0.029380
0.886679 0.682852 0.029892
0.948198 0.678475 0.030372
0.999990 0.668834 0.039391
-0.005066 0.753608 0.059259
0.028025 0.753752 0.028025
0.120450 0.753750 0.028063
0.195950 0.753747 0.028140
0.268171 0.753741 0.028261
0.339039 0.753734 0.028431
0.409132 0.753726 0.028651
0.478699 0.753715 0.028929
0.547870 0.753704 0.029267
0.616722 0.753691 0.029660
0.685309 0.753678 0.030119
0.753666 0.753666 0.030633
0.821434 0.753297 0.031128
0.886629 0.750950 0.031598
0.948151 0.746153 0.032028
0.999990 0.735549 0.039375
-0.005524 0.821360 0.059226
0.030002 0.821464 0.030002
0.120764 0.821463 0.030036
0.196032 0.821461 0.030107
0.268138 0.821458 0.030221
0.338928 0.821453 0.030379
0.408960 0.821447 0.030583
0.478474 0.821440 0.030847
0.547599 0.821433 0.031168
0.616409 0.821425 0.031533
0.684957 0.821416 0.031968
0.753278 0.821407 0.032449
0.821399 0.821399 0.032996
0.886595 0.818850 0.033423
0.948116 0.813632 0.033800
0.999990 0.802077 0.039352
-0.005967 0.886550 0.059011
0.032003 0.886620 0.032003
0.120783 0.886620 0.032038
0.195604 0.886618 0.032103
0.267401 0.886616 0.032205
0.337927 0.886613 0.032350
0.407716 0.886609 0.032545
0.476998 0.886605 0.032790
0.545897 0.886600 0.033082
0.614488 0.886595 0.033429
0.682819 0.886589 0.033832
0.750927 0.886583 0.034283
0.818838 0.886578 0.034791
0.886573 0.886573 0.035351
0.948093 0.880935 0.035675
0.999990 0.868439 0.039321
-0.006367 0.948071 0.058572
0.033964 0.948113 0.033964
0.120416 0.948113 0.033993
0.194527 0.948112 0.034051
0.265780 0.948111 0.034145
0.335814 0.948109 0.034283
0.405134 0.948106 0.034462
0.473962 0.948104 0.034687
0.542415 0.948100 0.034960
0.610566 0.948097 0.035281
0.678462 0.948093 0.035653
0.746139 0.948090 0.036072
0.813621 0.948086 0.036547
0.880930 0.948083 0.037068
0.948081 0.948081 0.037641
0.999990 0.934649 0.039298
-0.006736 0.999990 0.057611
0.039322 0.999990 0.039322
0.120011 0.999990 0.039322
0.192363 0.999990 0.039321
0.262329 0.999990 0.039321
0.331229 0.999990 0.039319
0.399486 0.999990 0.039317
0.467288 0.999990 0.039314
0.534741 0.999990 0.039311
0.601907 0.999990 0.039307
0.668832 0.999990 0.039304
0.735547 0.999990 0.039299
0.802076 0.999990 0.039293
0.868438 0.999990 0.039286
0.934649 0.999990 0.039279
0.999990 0.999990 0.039271
-0.000300 -0.000300 0.108025
0.049265 -0.000361 0.108025
0.108025 -0.000532 0.108025
0.176648 -0.000777 0.113406
0.246993 -0.001043 0.117364
0.318663 -0.001320 0.120516
0.391416 -0.001602 0.123145
0.465083 -0.001900 0.125407
0.539276 -0.002197 0.127325
0.612317 -0.002481 0.128614
0.683825 -0.002774 0.129376
0.753609 -0.003060 0.129709
0.821362 -0.003331 0.129662
0.886552 -0.003607 0.129232
0.948073 -0.003856 0.128328
0.999990 -0.004070 0.126306
-0.000467 0.049265 0.108025
0.044507 0.044507 0.110321
0.110568 0.042299 0.110568
0.182237 0.034505 0.112889
0.252482 0.027775 0.113120
0.323188 0.023774 0.113839
0.395046 0.021708 0.115029
0.468000 0.020618 0.116384
0.541638 0.020157 0.117716
0.614252 0.020132 0.118653
0.685426 0.020396 0.119223
0.754944 0.020854 0.119476
0.822480 0.021450 0.119435
0.887491 0.022132 0.119086
0.948865 0.022855 0.118335
0.999990 0.039454 0.120049
-0.000811 0.108025 0.108025
0.035054 0.109063 0.109063
0.108025 0.108025 0.108025
0.179518 0.106355 0.106355
0.252793 0.101722 0.101722
0.329484 0.091241 0.091241
0.404199 0.080820 0.080820
0.477798 0.071926 0.071926
0.551031 0.064838 0.064838
0.622856 0.059401 0.059401
0.693160 0.055254 0.055254
0.761842 0.052071 0.052071
0.828621 0.049621 0.049621
0.892964 0.047736 0.047736
0.953763 0.046297 0.046297
0.999990 0.094438 0.094438
-0.001242 0.176648 0.113405
0.025848 0.177885 0.108835
0.100057 0.178888 0.100057
0.178075 0.178075 0.096725
0.252891 0.177957 0.090612
0.327624 0.176673 0.081624
0.401618 0.175359 0.074023
0.475438 0.174358 0.067406
0.549153 0.173711 0.061890
0.621436 0.173017 0.057487
0.692102 0.172235 0.054013
0.761055 0.171349 0.051272
0.828030 0.170312 0.049115
0.892517 0.169045 0.047425
0.953419 0.167392 0.046117
0.999990 0.180048 0.094437
-0.001694 0.246992 0.117363
0.021741 0.248012 0.110101
0.080732 0.251083 0.080732
0.173374 0.250309 0.078641
0.249163 0.249163 0.075719
0.323977 0.250638 0.071781
0.398319 0.252045 0.066974
0.472645 0.253399 0.062433
0.546905 0.254644 0.058466
0.619679 0.255210 0.055168
0.690746 0.255193 0.052457
0.760012 0.254698 0.050248
0.827226 0.253749 0.048459
0.891893 0.252294 0.047021
0.952931 0.250141 0.045891
0.999990 0.254620 0.094436
-0.002164 0.318663 0.120513
0.020431 0.319439 0.111950
0.066925 0.322619 0.066925
0.169624 0.322164 0.065924
0.248079 0.321500 0.064479
0.320673 0.320673 0.062699
0.395303 0.323628 0.060554
0.470034 0.326558 0.057980
0.544721 0.329136 0.055240
0.617892 0.330611 0.052880
0.689306 0.331148 0.050871
0.758860 0.330923 0.049182
0.826308 0.330002 0.047769
0.891160 0.328344 0.046607
0.952343 0.325720 0.045669
0.999990 0.325875 0.094434
-0.002640 0.391415 0.123142
0.020580 0.391990 0.113913
0.058809 0.394684 0.058809
0.168131 0.394425 0.058319
0.248255 0.394041 0.057595
0.322019 0.393548 0.056673
0.392977 0.392977 0.055612
0.467907 0.397107 0.054052
0.542849 0.400811 0.052581
0.616288 0.403070 0.050935
0.687953 0.404092 0.049496
0.757732 0.404106 0.048245
0.825375 0.403207 0.047170
0.890391 0.401359 0.046264
0.951709 0.398291 0.045513
0.999990 0.395561 0.094432
-0.003130 0.465082 0.125402
0.021432 0.465516 0.115830
0.053594 0.467736 0.053594
0.167953 0.467584 0.053356
0.249390 0.467355 0.052994
0.324140 0.467054 0.052524
0.396023 0.466695 0.051974
0.466295 0.466295 0.051376
0.541359 0.470966 0.050299
0.614948 0.473929 0.049436
0.686776 0.475391 0.048457
0.756712 0.475623 0.047554
0.824501 0.474741 0.046756
0.889647 0.472710 0.046064
0.951078 0.469217 0.045478
0.999990 0.464327 0.094428
-0.003623 0.539276 0.127318
0.022738 0.539605 0.117603
0.050328 0.541425 0.050328
0.168432 0.541333 0.050215
0.250918 0.541191 0.050042
0.326490 0.541002 0.049817
0.399152 0.540771 0.049555
0.470205 0.540506 0.049264
0.540219 0.540219 0.048968
0.613881 0.543811 0.048269
0.685799 0.545672 0.047745
0.755837 0.546102 0.047157
0.823726 0.545229 0.046578
0.888967 0.543015 0.046060
0.950485 0.539104 0.045606
0.999990 0.532475 0.094425
-0.004111 0.612316 0.128605
0.024339 0.612568 0.118921
0.048411 0.614067 0.048411
0.168832 0.614008 0.048365
0.251962 0.613917 0.048293
0.328048 0.613793 0.048205
0.401197 0.613640 0.048099
0.472740 0.613462 0.047988
0.543258 0.613263 0.047885
0.613051 0.613051 0.047799
0.685014 0.615274 0.047356
0.755109 0.615876 0.047011
0.823063 0.615003 0.046658
0.888370 0.612602 0.046271
0.949950 0.608276 0.045920
0.999990 0.600173 0.094420
-0.004589 0.683824 0.129364
0.026125 0.684016 0.119842
0.047402 0.685256 0.047402
0.169024 0.685217 0.047392
0.252476 0.685157 0.047378
0.328820 0.685074 0.047365
0.402216 0.684970 0.047349
0.474011 0.684846 0.047350
0.544792 0.684707 0.047358
0.614861 0.684555 0.047389
0.684395 0.684395 0.047451
0.754518 0.685150 0.047160
0.822508 0.684259 0.046929
0.887859 0.681667 0.046692
0.949483 0.676926 0.046422
0.999990 0.667520 0.094415
-0.005066 0.753608 0.129694
0.028038 0.753751 0.120445
0.047017 0.754782 0.047017
0.168984 0.754756 0.047027
0.252501 0.754714 0.047045
0.328897 0.754657 0.047070
0.402347 0.754584 0.047116
0.474204 0.754497 0.047175
0.545057 0.754398 0.047252
0.615209 0.754287 0.047360
0.684835 0.754169 0.047489
0.754046 0.754046 0.047662
0.822055 0.753127 0.047462
0.887429 0.750334 0.047284
0.949082 0.745174 0.047098
0.999990 0.734581 0.094408
-0.005524 0.821360 0.129643
0.030014 0.821464 0.120759
0.047072 0.822323 0.047072
0.168681 0.822304 0.047096
0.252039 0.822275 0.047133
0.328300 0.822234 0.047188
0.401630 0.822182 0.047260
0.473379 0.822120 0.047353
0.544134 0.822047 0.047476
0.614197 0.821966 0.047625
0.683743 0.821878 0.047798
0.752882 0.821785 0.048011
0.821688 0.821688 0.048265
0.887075 0.818688 0.048101
0.948742 0.813104 0.047939
0.999990 0.801401 0.094337
-0.005967 0.886550 0.129209
0.032018 0.886620 0.120779
0.047444 0.887335 0.047444
0.168060 0.887322 0.047475
0.251028 0.887301 0.047522
0.326963 0.887272 0.047590
0.399994 0.887234 0.047680
0.471459 0.887188 0.047794
0.541942 0.887135 0.047930
0.611743 0.887074 0.048104
0.681035 0.887008 0.048311
0.749928 0.886937 0.048551
0.818495 0.886863 0.048821
0.886786 0.886786 0.049133
0.948461 0.880776 0.048970
0.999990 0.868015 0.094228
-0.006367 0.948071 0.128301
0.033974 0.948113 0.120411
0.048022 0.948709 0.048022
0.166977 0.948699 0.048054
0.249274 0.948684 0.048106
0.324642 0.948662 0.048180
0.397146 0.948635 0.048277
0.468106 0.948600 0.048399
0.538098 0.948560 0.048556
0.607419 0.948515 0.048741
0.676241 0.948464 0.048956
0.744671 0.948409 0.049208
0.812781 0.948352 0.049493
0.880621 0.948291 0.049809
0.948229 0.948229 0.050177
0.999990 0.934448 0.094185
-0.006736 0.999990 0.126274
0.039322 0.999990 0.120011
0.094194 0.999990 0.094194
0.179942 0.999990 0.094194
0.254555 0.999990 0.094193
0.325830 0.999990 0.094192
0.395529 0.999990 0.094192
0.464302 0.999990 0.094191
0.532457 0.999990 0.094190
0.600159 0.999990 0.094189
0.667509 0.999990 0.094187
0.734573 0.999990 0.094185
0.801397 0.999990 0.094183
0.868014 0.999990 0.094181
0.934448 0.999990 0.094178
0.999990 0.999990 0.094175
-0.000471 -0.000471 0.176648
0.051730 -0.000509 0.176648
0.113406 -0.000643 0.176648
0.176648 -0.000831 0.176648
0.246993 -0.001083 0.182511
0.318663 -0.001349 0.187180
0.391416 -0.001627 0.191076
0.465083 -0.001919 0.194428
0.539276 -0.002213 0.197269
0.612317 -0.002509 0.199181
0.683825 -0.002786 0.200311
0.753609 -0.003070 0.200806
0.821362 -0.003349 0.200738
0.886552 -0.003607 0.200100
0.948073 -0.003856 0.198763
0.999990 -0.004070 0.195769
-0.000589 0.051730 0.176648
0.042293 0.042293 0.181647
0.114167 0.038374 0.183142
0.181605 0.032812 0.181605
0.251999 0.027039 0.183907
0.322912 0.023466 0.186075
0.394890 0.021583 0.188416
0.467908 0.020572 0.190776
0.541582 0.020152 0.192969
0.614216 0.020145 0.194465
0.685402 0.020420 0.195331
0.754928 0.020881 0.195667
0.822469 0.021481 0.195516
0.887483 0.022163 0.194857
0.948859 0.022884 0.193551
0.999990 0.039454 0.192383
-0.000899 0.113406 0.176648
0.032166 0.111915 0.181308
0.105581 0.105581 0.180383
0.179778 0.104361 0.179778
0.253334 0.099832 0.180765
0.329477 0.089701 0.180119
0.403941 0.079851 0.178104
0.477531 0.071330 0.176234
0.550817 0.064468 0.174925
0.622696 0.059171 0.173792
0.693042 0.055107 0.172732
0.761756 0.051977 0.171670
0.828557 0.049563 0.170520
0.892916 0.047700 0.169182
0.953726 0.046275 0.167481
0.999990 0.094436 0.180048
-0.001273 0.176648 0.176648
0.025473 0.177668 0.177668
0.098936 0.178658 0.178658
0.176647 0.176647 0.176647
0.250866 0.174885 0.174885
0.325318 0.170888 0.170888
0.400807 0.165373 0.165373
0.479597 0.155093 0.155093
0.557209 0.143191 0.143191
0.631592 0.131769 0.131769
0.703072 0.121512 0.121512
0.772067 0.112544 0.112544
0.838660 0.104806 0.104806
0.902554 0.098222 0.098222
0.962788 0.092711 0.092711
0.999990 0.156546 0.156546
-0.001717 0.246992 0.182510
0.021653 0.247933 0.180626
0.079995 0.250816 0.174012
0.167384 0.250731 0.167384
0.250059 0.250059 0.165013
0.324967 0.248323 0.163593
0.401917 0.246078 0.154476
0.478922 0.242955 0.144395
0.555189 0.239480 0.134230
0.629125 0.235732 0.124735
0.700673 0.231985 0.116142
0.769946 0.228370 0.108492
0.836870 0.224887 0.101774
0.901075 0.221448 0.095964
0.961578 0.217861 0.091022
0.999990 0.241000 0.156546
-0.002181 0.318663 0.187179
0.020422 0.319405 0.183812
0.066577 0.322461 0.169938
0.148718 0.324941 0.148718
0.242111 0.324071 0.145605
0.322754 0.322754 0.141501
0.399166 0.321830 0.139653
0.475762 0.321652 0.132609
0.551870 0.321121 0.124535
0.625920 0.319793 0.117011
0.697766 0.317883 0.110101
0.767416 0.315568 0.103826
0.834722 0.312903 0.098215
0.899280 0.309834 0.093261
0.960088 0.306141 0.088966
0.999990 0.316663 0.156545
-0.002652 0.391415 0.191074
0.020598 0.391973 0.186907
0.058639 0.394595 0.168279
0.130820 0.398054 0.130820
0.234192 0.397323 0.128764
0.317852 0.396328 0.126059
0.395095 0.395095 0.122822
0.471854 0.395998 0.119540
0.548136 0.397199 0.115335
0.622513 0.397214 0.109500
