assets/luts/LUTs/TG_D-LOG-M_3_HEAVY_VIBRANT.CUBE
LUT_3D_SIZE 16
0.000000 0.000000 0.000000
0.009516 -0.000227 -0.000227
0.038376 -0.000484 -0.000484
0.086586 -0.000750 -0.000750
0.150072 -0.001026 -0.001026
0.220104 -0.001308 -0.001308
0.303443 -0.001596 -0.001596
0.400713 -0.001890 -0.001890
0.499155 -0.002181 -0.002181
0.589477 -0.002468 -0.002468
0.672215 -0.002762 -0.002762
0.748577 -0.003039 -0.003039
0.819571 -0.003312 -0.003312
0.885916 -0.003590 -0.003590
0.947747 -0.003841 -0.003841
0.999990 -0.004057 -0.004057
-0.000378 0.009516 -0.000378
0.009516 0.009516 -0.000421
0.038376 0.010617 -0.000595
0.086586 0.011294 -0.000823
0.150072 0.011813 -0.001077
0.220104 0.012609 -0.001345
0.303443 0.014077 -0.001627
0.400713 0.016067 -0.001910
0.499155 0.017739 -0.002197
0.589477 0.018696 -0.002495
0.672215 0.019133 -0.002774
0.748577 0.019225 -0.003049
0.819571 0.019098 -0.003331
0.885916 0.018824 -0.003590
0.947747 0.018443 -0.003841
0.999990 0.017841 -0.004070
-0.000803 0.038376 -0.000803
0.010617 0.038376 -0.000819
0.038376 0.038376 -0.000892
0.086586 0.040828 -0.001055
0.150072 0.042704 -0.001260
0.220104 0.045582 -0.001496
0.303443 0.050898 -0.001746
0.400713 0.058088 -0.002015
0.499155 0.064145 -0.002284
0.589476 0.067608 -0.002562
0.672215 0.069192 -0.002832
0.748577 0.069534 -0.003110
0.819571 0.069075 -0.003385
0.885916 0.068091 -0.003639
0.947747 0.066713 -0.003885
0.999990 0.064548 -0.004111
-0.001247 0.086585 -0.001247
0.011294 0.086585 -0.001256
0.040828 0.086585 -0.001304
0.086585 0.086585 -0.001385
0.150072 0.090567 -0.001550
0.220104 0.096672 -0.001740
0.303442 0.107944 -0.001958
0.400713 0.122607 -0.002197
0.499155 0.134285 -0.002454
0.589476 0.140721 -0.002702
0.672215 0.143612 -0.002965
0.748577 0.144234 -0.003218
0.819571 0.143401 -0.003472
0.885916 0.141608 -0.003734
0.947747 0.139081 -0.003972
0.999990 0.135049 -0.004179
-0.001700 0.150072 -0.001700
0.011812 0.150072 -0.001711
0.042704 0.150072 -0.001740
0.090567 0.150071 -0.001806
0.150071 0.150071 -0.001900
0.220104 0.158620 -0.002060
0.303442 0.173754 -0.002245
0.400713 0.193049 -0.002454
0.499155 0.208427 -0.002677
0.589476 0.216904 -0.002911
0.672215 0.220710 -0.003150
0.748577 0.221531 -0.003385
0.819571 0.220434 -0.003623
0.885916 0.218073 -0.003871
0.947747 0.214745 -0.004098
0.999990 0.209436 -0.004296
-0.002172 0.220104 -0.002172
0.012607 0.220104 -0.002172
0.045580 0.220104 -0.002197
0.096671 0.220104 -0.002245
0.158620 0.220104 -0.002323
0.220103 0.220103 -0.002418
0.303442 0.238850 -0.002575
0.400713 0.262756 -0.002762
0.499155 0.281814 -0.002965
0.589476 0.292321 -0.003170
0.672215 0.297039 -0.003385
0.748577 0.298057 -0.003607
0.819571 0.296697 -0.003826
0.885916 0.293771 -0.004043
0.947747 0.289647 -0.004257
0.999990 0.283067 -0.004446
-0.002640 0.303442 -0.002640
0.014073 0.303442 -0.002652
0.050896 0.303442 -0.002665
0.107942 0.303442 -0.002702
0.173753 0.303442 -0.002762
0.238850 0.303441 -0.002843
0.303441 0.303441 -0.002943
0.400712 0.331938 -0.003110
0.499154 0.354658 -0.003294
0.589476 0.367186 -0.003472
0.672214 0.372811 -0.003671
0.748577 0.374025 -0.003871
0.819570 0.372404 -0.004070
0.885916 0.368916 -0.004270
0.947747 0.363998 -0.004470
0.999990 0.356154 -0.004635
-0.003130 0.400712 -0.003130
0.016062 0.400712 -0.003130
0.058084 0.400712 -0.003150
0.122604 0.400712 -0.003180
0.193047 0.400712 -0.003228
0.262755 0.400712 -0.003294
0.331937 0.400712 -0.003385
0.400712 0.400712 -0.003490
0.499154 0.427079 -0.003655
0.589476 0.441618 -0.003811
0.672214 0.448147 -0.003986
0.748577 0.449557 -0.004165
0.819570 0.447676 -0.004347
0.885916 0.443626 -0.004542
0.947747 0.437920 -0.004703
0.999990 0.428816 -0.004857
-0.003607 0.499154 -0.003607
0.017730 0.499154 -0.003623
0.064139 0.499154 -0.003623
0.134281 0.499154 -0.003655
0.208424 0.499154 -0.003703
0.281812 0.499154 -0.003750
0.354657 0.499154 -0.003826
0.427079 0.499153 -0.003915
0.499153 0.499153 -0.004029
0.589475 0.515697 -0.004179
0.672214 0.523126 -0.004334
0.748577 0.524730 -0.004494
0.819570 0.522589 -0.004658
0.885915 0.517982 -0.004836
0.947747 0.511489 -0.004984
0.999990 0.501130 -0.005127
-0.004098 0.589475 -0.004098
0.018684 0.589475 -0.004098
0.067600 0.589475 -0.004111
0.140716 0.589475 -0.004139
0.216901 0.589475 -0.004165
0.292319 0.589475 -0.004218
0.367184 0.589475 -0.004283
0.441618 0.589475 -0.004372
0.515697 0.589475 -0.004446
0.589475 0.589475 -0.004565
0.672213 0.597801 -0.004703
0.748576 0.599599 -0.004857
0.819570 0.597199 -0.005005
0.885915 0.592036 -0.005147
0.947747 0.584759 -0.005302
0.999990 0.573150 -0.005415
-0.004565 0.672214 -0.004565
0.019117 0.672214 -0.004565
0.069182 0.672214 -0.004589
0.143605 0.672214 -0.004612
0.220706 0.672214 -0.004635
0.297036 0.672214 -0.004681
0.372809 0.672213 -0.004726
0.448146 0.672213 -0.004814
0.523125 0.672213 -0.004879
0.597801 0.672213 -0.004984
0.672213 0.672213 -0.005087
0.748576 0.674204 -0.005225
0.819569 0.671547 -0.005359
0.885915 0.665829 -0.005488
0.947746 0.657769 -0.005631
0.999990 0.644913 -0.005717
-0.005046 0.748576 -0.005046
0.019205 0.748576 -0.005046
0.069520 0.748576 -0.005046
0.144225 0.748576 -0.005066
0.221525 0.748576 -0.005087
0.298053 0.748576 -0.005127
0.374023 0.748576 -0.005186
0.449555 0.748576 -0.005245
0.524729 0.748576 -0.005321
0.599598 0.748576 -0.005396
0.674203 0.748575 -0.005506
0.748575 0.748575 -0.005613
0.819569 0.745662 -0.005734
0.885915 0.739390 -0.005869
0.947746 0.730552 -0.005967
0.999990 0.716452 -0.006063
-0.005488 0.819569 -0.005488
0.019074 0.819569 -0.005488
0.069059 0.819569 -0.005506
0.143390 0.819569 -0.005524
0.220427 0.819569 -0.005542
0.296692 0.819569 -0.005578
0.372401 0.819569 -0.005631
0.447673 0.819569 -0.005683
0.522587 0.819569 -0.005751
0.597198 0.819569 -0.005836
0.671546 0.819569 -0.005902
0.745661 0.819569 -0.005999
0.819569 0.819569 -0.006125
0.885914 0.812746 -0.006218
0.947746 0.803129 -0.006338
0.999990 0.787789 -0.006397
-0.005934 0.885915 -0.005934
0.018794 0.885915 -0.005934
0.068071 0.885915 -0.005934
0.141594 0.885915 -0.005967
0.218064 0.885915 -0.005967
0.293765 0.885914 -0.005999
0.368911 0.885914 -0.006063
0.443623 0.885914 -0.006094
0.517980 0.885914 -0.006156
0.592034 0.885914 -0.006218
0.665828 0.885914 -0.006308
0.739390 0.885914 -0.006397
0.812745 0.885914 -0.006513
0.885914 0.885914 -0.006625
0.947745 0.875521 -0.006708
0.999990 0.858944 -0.006763
-0.006367 0.947746 -0.006367
0.018408 0.947746 -0.006367
0.066689 0.947746 -0.006367
0.139065 0.947746 -0.006367
0.214735 0.947746 -0.006397
0.289640 0.947746 -0.006426
0.363993 0.947746 -0.006455
0.437916 0.947746 -0.006513
0.511486 0.947745 -0.006569
0.584757 0.947745 -0.006625
0.657768 0.947745 -0.006708
0.730550 0.947745 -0.006790
0.803128 0.947745 -0.006870
0.875521 0.947745 -0.006975
0.947745 0.947745 -0.007103
0.999990 0.929933 -0.007128
-0.006736 0.999990 -0.006736
0.017801 0.999990 -0.006736
0.064521 0.999990 -0.006736
0.135031 0.999990 -0.006763
0.209424 0.999990 -0.006763
0.283059 0.999990 -0.006790
0.356148 0.999990 -0.006817
0.428812 0.999990 -0.006870
0.501127 0.999990 -0.006923
0.573148 0.999990 -0.006975
0.644912 0.999990 -0.007052
0.716451 0.999990 -0.007128
0.787788 0.999990 -0.007203
0.858944 0.999990 -0.007302
0.929933 0.999990 -0.007398
0.999990 0.999990 -0.007516
-0.000145 -0.000145 0.009516
0.009516 -0.000257 0.009516
0.038376 -0.000497 0.010617
0.086586 -0.000759 0.011294
0.150072 -0.001032 0.011813
0.220104 -0.001312 0.012609
0.303443 -0.001596 0.014077
0.400713 -0.001890 0.016067
0.499155 -0.002181 0.017739
0.589477 -0.002468 0.018696
0.672215 -0.002762 0.019133
0.748577 -0.003039 0.019225
0.819571 -0.003312 0.019098
0.885916 -0.003590 0.018824
0.947747 -0.003841 0.018443
0.999990 -0.004070 0.017841
-0.000393 0.009516 0.009516
0.009516 0.009516 0.009516
0.039605 0.008939 0.008939
0.091769 0.006299 0.006299
0.155736 0.004185 0.004185
0.225271 0.003146 0.003146
0.308371 0.002682 0.002682
0.404929 0.002442 0.002442
0.502344 0.002332 0.002332
0.591868 0.002307 0.002307
0.674037 0.002335 0.002335
0.749982 0.002403 0.002403
0.820665 0.002502 0.002502
0.886774 0.002620 0.002620
0.948423 0.002751 0.002751
0.999990 0.006232 0.006232
-0.000807 0.038376 0.010617
0.006513 0.039242 0.006513
0.038716 0.038716 0.005883
0.089460 0.039271 0.004643
0.153849 0.039577 0.003526
0.224016 0.041261 0.002885
0.307486 0.045393 0.002574
0.404359 0.051179 0.002405
0.502011 0.056020 0.002330
0.591670 0.058746 0.002321
0.673913 0.059954 0.002357
0.749903 0.060169 0.002433
0.820612 0.059740 0.002531
0.886738 0.058899 0.002651
0.948397 0.057750 0.002781
0.999990 0.057454 0.006231
-0.001247 0.086585 0.011294
0.003772 0.087925 0.003772
0.038159 0.087648 0.003638
0.087192 0.087192 0.003425
0.151968 0.089694 0.002946
0.222562 0.094683 0.002615
0.306312 0.104952 0.002462
0.403522 0.118624 0.002371
0.501485 0.129417 0.002342
0.591339 0.135269 0.002357
0.673700 0.137810 0.002410
0.749762 0.138240 0.002491
0.820516 0.137320 0.002592
0.886671 0.135515 0.002713
0.948349 0.133031 0.002846
0.999990 0.130088 0.006231
-0.001706 0.150072 0.011812
0.002725 0.151305 0.002725
0.038477 0.151196 0.002699
0.088977 0.150999 0.002653
0.150740 0.150740 0.002596
0.221441 0.158309 0.002456
0.305267 0.172747 0.002404
0.402685 0.191304 0.002379
0.500907 0.205957 0.002390
0.590950 0.213912 0.002432
0.673435 0.217374 0.002498
0.749578 0.217976 0.002584
0.820387 0.216751 0.002693
0.886578 0.214326 0.002814
0.948282 0.210983 0.002945
0.999990 0.206257 0.006230
-0.002172 0.220104 0.012607
0.002420 0.221161 0.002420
0.040376 0.221110 0.002417
0.093758 0.221013 0.002414
0.157853 0.220877 0.002413
0.220714 0.220714 0.002419
0.304497 0.238816 0.002429
0.401999 0.262126 0.002453
0.500391 0.280580 0.002492
0.590576 0.290622 0.002550
0.673165 0.295011 0.002630
0.749382 0.295802 0.002725
0.820243 0.294294 0.002834
0.886472 0.291276 0.002957
0.948201 0.287103 0.003088
0.999990 0.280840 0.006228
-0.002652 0.303442 0.014073
0.002439 0.304380 0.002439
0.044681 0.304350 0.002444
0.103948 0.304291 0.002455
0.172045 0.304206 0.002472
0.238487 0.304099 0.002498
0.303979 0.303979 0.002535
0.401493 0.331948 0.002583
0.499980 0.354149 0.002650
0.590258 0.366257 0.002723
0.672921 0.371571 0.002810
0.749196 0.372561 0.002911
0.820101 0.370782 0.003023
0.886363 0.367186 0.003145
0.948117 0.362202 0.003274
0.999990 0.354515 0.006226
-0.003130 0.400712 0.016062
0.002591 0.401471 0.002591
0.050696 0.401454 0.002599
0.117783 0.401420 0.002615
0.190584 0.401369 0.002640
0.261644 0.401303 0.002676
0.331723 0.401227 0.002723
0.401143 0.401143 0.002784
0.499675 0.427043 0.002861
0.590007 0.441195 0.002949
0.672719 0.447427 0.003042
0.749035 0.448615 0.003148
0.819973 0.446572 0.003259
0.886261 0.442407 0.003380
0.948036 0.436621 0.003505
0.999990 0.427577 0.006224
-0.003623 0.499154 0.017730
0.002841 0.499697 0.002841
0.055813 0.499688 0.002849
0.128867 0.499670 0.002866
0.205393 0.499642 0.002894
0.280125 0.499606 0.002934
0.353851 0.499562 0.002984
0.426904 0.499512 0.003052
0.499460 0.499460 0.003134
0.589820 0.515633 0.003225
0.672561 0.522773 0.003328
0.748904 0.524156 0.003431
0.819865 0.521851 0.003547
0.886172 0.517122 0.003662
0.947962 0.510541 0.003782
0.999990 0.500181 0.006221
-0.004098 0.589475 0.018684
0.003159 0.589857 0.003159
0.058789 0.589852 0.003167
0.134983 0.589842 0.003184
0.213529 0.589826 0.003213
0.290259 0.589806 0.003256
0.365974 0.589780 0.003311
0.441012 0.589752 0.003377
0.515548 0.589720 0.003459
0.589688 0.589688 0.003559
0.672444 0.597726 0.003658
0.748802 0.599300 0.003770
0.819778 0.596733 0.003879
0.886098 0.591442 0.003994
0.947900 0.584071 0.004107
0.999990 0.572423 0.006217
-0.004565 0.672214 0.019117
0.003535 0.672481 0.003535
0.060223 0.672479 0.003543
0.137744 0.672473 0.003561
0.217157 0.672464 0.003589
0.294757 0.672452 0.003629
0.371342 0.672437 0.003684
0.447250 0.672420 0.003753
0.522659 0.672401 0.003834
0.597673 0.672381 0.003932
0.672361 0.672361 0.004046
0.748727 0.674123 0.004150
0.819712 0.671292 0.004263
0.886040 0.665441 0.004371
0.947849 0.657281 0.004481
0.999990 0.644363 0.006212
-0.005046 0.748576 0.019205
0.003955 0.748761 0.003955
0.060648 0.748759 0.003963
0.138372 0.748756 0.003982
0.217913 0.748751 0.004009
0.295660 0.748744 0.004050
0.372402 0.748735 0.004101
0.448473 0.748724 0.004167
0.524048 0.748713 0.004249
0.599231 0.748701 0.004344
0.674091 0.748688 0.004456
0.748676 0.748676 0.004584
0.819664 0.745579 0.004691
0.885997 0.739168 0.004799
0.947811 0.730223 0.004895
0.999990 0.716047 0.006208
-0.005488 0.819569 0.019074
0.004411 0.819692 0.004411
0.060434 0.819691 0.004420
0.137637 0.819689 0.004437
0.216830 0.819686 0.004466
0.294261 0.819682 0.004506
0.370701 0.819676 0.004558
0.446479 0.819670 0.004620
0.521768 0.819663 0.004701
0.596669 0.819656 0.004795
0.671251 0.819648 0.004901
0.745561 0.819640 0.005029
0.819633 0.819633 0.005166
0.885967 0.812662 0.005269
0.947783 0.802932 0.005359
0.999990 0.787507 0.006200
-0.005934 0.885915 0.018794
0.004898 0.885989 0.004898
0.059806 0.885988 0.004906
0.136014 0.885987 0.004924
0.214541 0.885985 0.004952
0.291348 0.885983 0.004991
0.367185 0.885980 0.005041
0.442372 0.885976 0.005102
0.517076 0.885972 0.005177
0.591399 0.885967 0.005270
0.665407 0.885963 0.005375
0.739147 0.885958 0.005495
0.812653 0.885954 0.005632
0.885950 0.885950 0.005782
0.947767 0.875437 0.005866
0.999990 0.858767 0.006189
-0.006367 0.947746 0.018408
0.005403 0.947782 0.005403
0.058874 0.947781 0.005410
0.133710 0.947781 0.005425
0.211330 0.947779 0.005450
0.287279 0.947778 0.005488
0.362281 0.947776 0.005537
0.436647 0.947774 0.005597
0.510540 0.947772 0.005671
0.584058 0.947769 0.005756
0.657266 0.947767 0.005860
0.730211 0.947764 0.005974
0.802925 0.947762 0.006106
0.875434 0.947760 0.006252
0.947759 0.947759 0.006414
0.999990 0.929849 0.006181
-0.006736 0.999990 0.017801
0.006189 0.999990 0.006189
0.057431 0.999990 0.006189
0.130073 0.999990 0.006188
0.206248 0.999990 0.006188
0.280834 0.999990 0.006188
0.354510 0.999990 0.006187
0.427574 0.999990 0.006186
0.500179 0.999990 0.006185
0.572421 0.999990 0.006184
0.644362 0.999990 0.006183
0.716047 0.999990 0.006182
0.787506 0.999990 0.006180
0.858767 0.999990 0.006178
0.929849 0.999990 0.006176
0.999990 0.999990 0.006173
-0.000309 -0.000309 0.038376
0.010617 -0.000370 0.038376
0.038376 -0.000546 0.038376
0.086586 -0.000790 0.040828
0.150072 -0.001055 0.042704
0.220104 -0.001329 0.045582
0.303443 -0.001609 0.050899
0.400713 -0.001900 0.058088
0.499155 -0.002189 0.064145
0.589477 -0.002481 0.067608
0.672215 -0.002762 0.069193
0.748577 -0.003049 0.069534
0.819571 -0.003312 0.069076
0.885916 -0.003590 0.068091
0.947747 -0.003841 0.066713
0.999990 -0.004070 0.064548
-0.000480 0.010617 0.038376
0.009159 0.009159 0.039704
0.039858 0.008487 0.039858
0.091527 0.006011 0.040644
0.155487 0.004084 0.040290
0.225114 0.003110 0.041619
0.308267 0.002669 0.045595
0.404864 0.002437 0.051288
0.502307 0.002331 0.056073
0.591847 0.002308 0.058769
0.674024 0.002337 0.059962
0.749974 0.002406 0.060169
0.820659 0.002505 0.059736
0.886770 0.002623 0.058892
0.948420 0.002754 0.057741
0.999990 0.006232 0.057454
-0.000835 0.038376 0.038376
0.006277 0.039055 0.039055
0.038376 0.038376 0.038376
0.089485 0.037141 0.037141
0.156442 0.033687 0.033687
0.232760 0.027493 0.027493
0.320794 0.022311 0.022311
0.418736 0.018266 0.018266
0.514589 0.015257 0.015257
0.602139 0.013061 0.013061
0.682550 0.011440 0.011440
0.757036 0.010221 0.010221
0.826542 0.009286 0.009286
0.891713 0.008563 0.008563
0.952619 0.008001 0.008001
0.999990 0.025444 0.025444
-0.001265 0.086585 0.040828
0.003725 0.087827 0.038262
0.032915 0.089166 0.032915
0.088473 0.088473 0.031086
0.156644 0.087233 0.027806
0.230713 0.087752 0.022855
0.317433 0.092947 0.019308
0.415533 0.100813 0.016424
0.512224 0.106810 0.014143
0.600493 0.109473 0.012386
0.681413 0.109945 0.011034
0.756246 0.109066 0.009977
0.825984 0.107351 0.009149
0.891311 0.105110 0.008489
0.952324 0.102482 0.007966
0.999990 0.108358 0.025444
-0.001717 0.150072 0.042704
0.002716 0.151267 0.038505
0.022106 0.155010 0.022106
0.083065 0.154284 0.021163
0.153214 0.153214 0.019880
0.226800 0.157342 0.018433
0.313202 0.168920 0.016389
0.411761 0.184091 0.014491
0.509397 0.195367 0.012897
0.598457 0.200826 0.011592
0.679957 0.202549 0.010535
0.755200 0.201958 0.009671
0.825225 0.199931 0.008970
0.890753 0.196985 0.008397
0.951906 0.193333 0.007926
0.999990 0.192992 0.025443
-0.002181 0.220104 0.045580
0.002419 0.221143 0.040384
0.015997 0.225378 0.015997
0.081468 0.224904 0.015609
0.154703 0.224217 0.015057
0.223364 0.223364 0.014389
0.309375 0.239007 0.013782
0.408247 0.259869 0.012852
0.506654 0.275647 0.011767
0.596392 0.283559 0.010835
0.678414 0.286377 0.010039
0.754047 0.286031 0.009365
0.824359 0.283708 0.008792
0.890096 0.280119 0.008307
0.951402 0.275562 0.007898
0.999990 0.271714 0.025442
-0.002652 0.303442 0.050896
0.002441 0.304370 0.044683
0.013007 0.308598 0.013007
0.086065 0.308277 0.012832
0.164547 0.307800 0.012578
0.237064 0.307190 0.012256
0.306485 0.306485 0.011891
0.405388 0.332371 0.011375
0.504304 0.352383 0.010872
0.594537 0.362632 0.010213
0.676965 0.366512 0.009624
0.752920 0.366418 0.009105
0.823482 0.363832 0.008646
0.889410 0.359641 0.008242
0.950861 0.354230 0.007895
0.999990 0.347858 0.025441
-0.003130 0.400712 0.058084
0.002594 0.401465 0.050696
0.011174 0.405159 0.011174
0.094453 0.404958 0.011096
0.179341 0.404654 0.010977
0.256805 0.404255 0.010822
0.330961 0.403780 0.010645
0.403251 0.403251 0.010451
0.502430 0.427236 0.010053
0.592989 0.439737 0.009738
0.675706 0.444648 0.009322
0.751903 0.444805 0.008923
0.822662 0.441971 0.008559
0.888748 0.437205 0.008227
0.950323 0.430971 0.007931
0.999990 0.422567 0.025439
-0.003623 0.499154 0.064139
0.002843 0.499694 0.055812
0.010049 0.502512 0.010049
0.101691 0.502397 0.010013
0.191225 0.502221 0.009962
0.272517 0.501985 0.009895
0.350358 0.501698 0.009814
0.426297 0.501368 0.009725
0.501012 0.501012 0.009637
0.591757 0.515654 0.009341
0.674661 0.521554 0.009117
0.751031 0.521954 0.008839
0.821936 0.518875 0.008546
0.888144 0.513545 0.008272
0.949819 0.506505 0.008023
0.999990 0.496357 0.025437
-0.004098 0.589475 0.067600
0.003162 0.589855 0.058787
0.009380 0.591970 0.009380
0.105591 0.591903 0.009366
0.197455 0.591798 0.009346
0.280751 0.591657 0.009321
0.360525 0.591482 0.009293
0.438383 0.591277 0.009265
0.515023 0.591050 0.009240
0.590807 0.590807 0.009220
0.673825 0.597647 0.008997
0.750305 0.598264 0.008815
0.821317 0.594939 0.008610
0.887615 0.589050 0.008383
0.949366 0.581211 0.008165
0.999990 0.569498 0.025435
-0.004565 0.672214 0.069182
0.003538 0.672481 0.060221
0.009000 0.674082 0.009000
0.107104 0.674040 0.008998
0.199891 0.673976 0.008997
0.283994 0.673888 0.008997
0.364549 0.673778 0.008997
0.443188 0.673647 0.009003
0.520620 0.673499 0.009012
0.597210 0.673339 0.009031
0.673169 0.673169 0.009059
0.749720 0.673982 0.008879
0.820798 0.670395 0.008722
0.887163 0.663946 0.008553
0.948971 0.655314 0.008369
0.999990 0.642152 0.025432
-0.005046 0.748576 0.069520
0.003958 0.748760 0.060646
0.008818 0.749980 0.008818
0.107061 0.749954 0.008823
0.199918 0.749913 0.008831
0.284077 0.749856 0.008843
0.364691 0.749785 0.008862
0.443401 0.749699 0.008885
0.520916 0.749601 0.008915
0.597602 0.749492 0.008956
0.673671 0.749376 0.009008
0.749254 0.749254 0.009071
0.820377 0.745396 0.008915
0.886783 0.738378 0.008771
0.948633 0.728952 0.008620
0.999990 0.714421 0.025429
-0.005506 0.819569 0.069059
0.004414 0.819692 0.060432
0.008772 0.820624 0.008772
0.106031 0.820607 0.008781
0.198413 0.820580 0.008795
0.282150 0.820542 0.008815
0.362367 0.820494 0.008842
0.440698 0.820436 0.008876
0.517849 0.820369 0.008919
0.594185 0.820294 0.008975
0.669914 0.820213 0.009040
0.745169 0.820127 0.009116
0.820038 0.820038 0.009208
0.886473 0.812448 0.009063
0.948347 0.802224 0.008919
0.999990 0.786372 0.025371
-0.005934 0.885915 0.068071
0.004901 0.885989 0.059803
0.008825 0.886700 0.008825
0.104366 0.886688 0.008836
0.195908 0.886670 0.008853
0.278911 0.886644 0.008877
0.358434 0.886611 0.008909
0.436095 0.886571 0.008950
0.512592 0.886524 0.009002
0.588286 0.886472 0.009064
0.663386 0.886414 0.009138
0.738021 0.886352 0.009224
0.812279 0.886287 0.009320
0.886221 0.886221 0.009432
0.948113 0.875199 0.009288
0.999990 0.858057 0.025283
-0.006367 0.947746 0.066689
0.005405 0.947781 0.058871
0.008946 0.948319 0.008946
0.102229 0.948311 0.008959
0.192633 0.948298 0.008977
0.274661 0.948280 0.009005
0.353262 0.948257 0.009040
0.430028 0.948229 0.009084
0.505651 0.948195 0.009140
0.580484 0.948157 0.009207
0.654734 0.948115 0.009283
0.728529 0.948070 0.009374
0.801955 0.948022 0.009478
0.875071 0.947973 0.009591
0.947922 0.947922 0.009720
0.999990 0.929514 0.025250
-0.006736 0.999990 0.064521
0.006189 0.999990 0.057431
0.025255 0.999990 0.025255
0.108237 0.999990 0.025255
0.192922 0.999990 0.025255
0.271667 0.999990 0.025254
0.347824 0.999990 0.025254
0.422541 0.999990 0.025254
0.496337 0.999990 0.025253
0.569484 0.999990 0.025252
0.642141 0.999990 0.025251
0.714413 0.999990 0.025250
0.786368 0.999990 0.025249
0.858056 0.999990 0.025248
0.929513 0.999990 0.025247
0.999990 0.999990 0.025245
-0.000480 -0.000480 0.086586
0.011294 -0.000518 0.086586
0.040828 -0.000655 0.086586
0.086586 -0.000847 0.086586
0.150072 -0.001094 0.090567
0.220104 -0.001361 0.096672
0.303443 -0.001640 0.107944
0.400713 -0.001919 0.122607
0.499155 -0.002205 0.134286
0.589477 -0.002495 0.140722
0.672215 -0.002774 0.143612
0.748577 -0.003060 0.144234
0.819571 -0.003331 0.143402
0.885916 -0.003590 0.141608
0.947747 -0.003856 0.139082
0.999990 -0.004070 0.135050
-0.000598 0.011294 0.086586
0.008304 0.008304 0.090778
0.041364 0.007108 0.092226
0.090999 0.005510 0.090999
0.155025 0.003897 0.091993
0.224817 0.003040 0.096070
0.308066 0.002642 0.105874
0.404738 0.002428 0.119161
0.502235 0.002330 0.129697
0.591804 0.002311 0.135414
0.673997 0.002341 0.137883
0.749957 0.002412 0.138274
0.820648 0.002511 0.137332
0.886762 0.002630 0.135514
0.948415 0.002760 0.133022
0.999990 0.006232 0.130089
-0.000917 0.040828 0.086586
0.005334 0.040062 0.090746
0.036010 0.036010 0.090320
0.089828 0.035361 0.089828
0.157086 0.032307 0.089499
0.232769 0.026585 0.090692
0.320450 0.021820 0.095504
0.418366 0.017998 0.102644
0.514315 0.015107 0.107965
0.601951 0.012975 0.110173
0.682422 0.011389 0.110374
0.756949 0.010191 0.109331
0.826481 0.009269 0.107515
0.891670 0.008554 0.105211
0.952588 0.007996 0.102543
0.999990 0.025442 0.108357
-0.001295 0.086585 0.086585
0.003635 0.087641 0.087641
0.032293 0.088971 0.088971
0.086585 0.086585 0.086585
0.155148 0.084312 0.084312
0.229147 0.079401 0.079401
0.317794 0.073845 0.073845
0.422726 0.065104 0.065104
0.523597 0.055971 0.055971
0.613194 0.047851 0.047851
0.693903 0.041023 0.041023
0.767830 0.035386 0.035386
0.836432 0.030751 0.030751
0.900617 0.026943 0.026943
0.960583 0.023828 0.023828
0.999990 0.058725 0.058725
-0.001740 0.150072 0.090567
0.002698 0.151193 0.089117
0.021770 0.154760 0.083585
0.074655 0.155467 0.074655
0.154812 0.154812 0.072302
0.229049 0.154692 0.073388
0.319350 0.160049 0.065402
0.421702 0.167421 0.057467
0.520935 0.171438 0.050084
0.610240 0.171392 0.043607
0.691250 0.169038 0.038047
0.765642 0.165454 0.033325
0.834689 0.161254 0.029334
0.899248 0.156767 0.025975
0.959508 0.152094 0.023168
0.999990 0.164353 0.058725
-0.002197 0.220104 0.096671
0.002417 0.221108 0.093812
0.015859 0.225213 0.081726
0.058097 0.229348 0.058097
0.147683 0.228356 0.055911
0.226897 0.226897 0.053122
0.315761 0.237861 0.054321
0.417319 0.253888 0.049667
0.516684 0.264491 0.044118
0.606465 0.268267 0.039189
0.688075 0.267934 0.034843
0.763055 0.265209 0.031033
0.832617 0.261103 0.027716
0.897597 0.256198 0.024840
0.958192 0.250710 0.022376
0.999990 0.253021 0.058724
-0.002665 0.303442 0.107942
0.002444 0.304349 0.103974
0.012946 0.308487 0.086201
0.046693 0.314406 0.046693
0.147944 0.313465 0.045443
0.233359 0.312196 0.043834
0.310642 0.310642 0.041952
0.412012 0.332336 0.040869
0.511957 0.348199 0.038825
0.602492 0.354880 0.035136
