assets/luts/LUTs/TG_D-LOG-M_2_MIDI_VIBRANT.CUBE
LUT_3D_SIZE 6
0.000000 0.000000 0.000000
0.130631 -0.000684 -0.000684
0.370206 -0.001557 -0.001557
0.608535 -0.002509 -0.002509
0.829209 -0.003385 -0.003385
0.999990 -0.004057 -0.004057
-0.001131 0.130631 -0.001131
0.130630 0.130630 -0.001260
0.370206 0.180254 -0.001910
0.608534 0.197879 -0.002738
0.829209 0.202779 -0.003540
0.999990 0.195767 -0.004179
-0.002588 0.370206 -0.002588
0.180253 0.370206 -0.002640
0.370205 0.370205 -0.002877
0.608534 0.404752 -0.003524
0.829209 0.414358 -0.004152
0.999990 0.400620 -0.004635
-0.004152 0.608534 -0.004152
0.197874 0.608533 -0.004192
0.404751 0.608533 -0.004347
0.608533 0.608533 -0.004635
0.829208 0.622778 -0.005107
0.999990 0.602409 -0.005415
-0.005613 0.829208 -0.005613
0.202769 0.829208 -0.005631
0.414355 0.829207 -0.005734
0.622777 0.829207 -0.005934
0.829207 0.829207 -0.006248
0.999990 0.802267 -0.006397
-0.006736 0.999990 -0.006736
0.195750 0.999990 -0.006763
0.400615 0.999990 -0.006817
0.602407 0.999990 -0.006975
0.802267 0.999990 -0.007203
0.999990 0.999990 -0.007516
-0.000436 -0.000436 0.130631
0.130631 -0.000773 0.130631
0.370206 -0.001602 0.180254
0.608535 -0.002536 0.197880
0.829209 -0.003402 0.202779
0.999990 -0.004070 0.195768
-0.001181 0.130630 0.130630
0.130630 0.130630 0.130630
0.392153 0.104918 0.104918
0.629532 0.073257 0.073257
0.843997 0.055969 0.055969
0.999990 0.099927 0.099927
-0.002601 0.370206 0.180253
0.074423 0.378893 0.074423
0.375494 0.375494 0.069600
0.618183 0.390140 0.061005
0.838210 0.390947 0.051733
0.999990 0.377223 0.099924
-0.004165 0.608534 0.197875
0.054415 0.613054 0.054415
0.385938 0.612242 0.053629
0.610937 0.610937 0.052424
0.833199 0.616495 0.048612
0.999990 0.592294 0.099917
-0.005613 0.829208 0.202769
0.047425 0.831530 0.047425
0.387393 0.831268 0.047371
0.614687 0.830803 0.047320
0.830200 0.830200 0.047356
0.999990 0.798358 0.099615
-0.006736 0.999990 0.195750
0.098938 0.999990 0.098938
0.377072 0.999990 0.098937
0.592231 0.999990 0.098935
0.798341 0.999990 0.098931
0.999990 0.999990 0.098927
-0.000995 -0.000995 0.370207
0.180255 -0.001196 0.370207
0.370206 -0.001762 0.370206
0.608535 -0.002640 0.404753
0.829209 -0.003472 0.414359
0.999990 -0.004125 0.400621
-0.001543 0.180255 0.370206
0.111015 0.111015 0.395159
0.390514 0.093235 0.390514
0.627639 0.070660 0.396779
0.843156 0.055233 0.393518
0.999990 0.099840 0.377210
-0.002690 0.370206 0.370206
0.072592 0.377610 0.377610
0.370205 0.370205 0.370205
0.636665 0.343509 0.343509
0.870130 0.293261 0.293261
0.999990 0.313254 0.313254
-0.004218 0.608533 0.404751
0.054133 0.612762 0.386296
0.273767 0.625799 0.273767
0.619308 0.619308 0.258183
0.853489 0.593673 0.245673
0.999990 0.567881 0.313251
-0.005648 0.829207 0.414355
0.047406 0.831438 0.387476
0.201603 0.842306 0.201603
0.576493 0.839257 0.195523
0.835115 0.835115 0.187352
0.999990 0.788988 0.311365
-0.006763 0.999990 0.400615
0.098938 0.999990 0.377072
0.298130 0.999990 0.298130
0.562833 0.999990 0.298129
0.787384 0.999990 0.298128
0.999990 0.999990 0.298126
-0.001596 -0.001596 0.608535
0.197881 -0.001729 0.608535
0.404753 -0.002181 0.608535
0.608534 -0.002832 0.608534
0.829209 -0.003607 0.622780
0.999990 -0.004231 0.602410
-0.001996 0.197881 0.608535
0.092480 0.092480 0.645006
0.402708 0.079058 0.636010
0.624431 0.066172 0.624431
0.841649 0.053901 0.622889
0.999990 0.099662 0.592278
-0.003060 0.404752 0.608534
0.064895 0.393584 0.623221
0.329479 0.329479 0.644169
0.638204 0.312676 0.638204
0.869060 0.279511 0.610172
0.999990 0.310364 0.566895
-0.004321 0.608533 0.608533
0.053608 0.612220 0.612220
0.268155 0.623527 0.623527
0.608533 0.608533 0.608533
0.856037 0.588685 0.588685
0.999990 0.577461 0.577461
-0.005717 0.829207 0.622777
0.047370 0.831261 0.615029
0.199442 0.841226 0.578329
0.532786 0.845298 0.532786
0.838571 0.838571 0.518957
0.999990 0.792763 0.577459
-0.006817 0.999990 0.602407
0.098937 0.999990 0.592232
0.298130 0.999990 0.562833
0.547354 0.999990 0.547354
0.781850 0.999990 0.547353
0.999990 0.999990 0.547353
-0.002156 -0.002156 0.829209
0.202782 -0.002245 0.829209
0.414360 -0.002588 0.829209
0.622780 -0.003150 0.829209
0.829209 -0.003826 0.829209
0.999990 -0.004372 0.802268
-0.002454 0.202782 0.829209
0.071592 0.071592 0.864995
0.400581 0.064854 0.856600
0.626893 0.057470 0.846927
0.839687 0.052140 0.839687
0.999990 0.099373 0.798352
-0.003349 0.414359 0.829209
0.056680 0.394901 0.845872
0.302957 0.302957 0.877812
0.614440 0.285014 0.873964
0.866518 0.256069 0.866518
0.999990 0.305520 0.788269
-0.004542 0.622779 0.829208
0.049332 0.618244 0.835531
0.244642 0.599127 0.862183
0.568629 0.568629 0.865452
0.858415 0.557391 0.858415
0.999990 0.566664 0.788779
-0.005836 0.829207 0.829207
0.047333 0.830999 0.830999
0.196194 0.839595 0.839595
0.528116 0.843069 0.843069
0.829207 0.829207 0.829207
0.999990 0.822716 0.822716
-0.006896 0.999990 0.802267
0.098936 0.999990 0.798341
0.298129 0.999990 0.787385
0.547354 0.999990 0.781850
0.807714 0.999990 0.807714
0.999990 0.999990 0.807713
-0.002588 -0.002588 0.999990
0.195772 -0.002652 0.999990
0.400623 -0.002911 0.999990
0.602410 -0.003367 0.999990
0.802268 -0.003929 0.999990
0.999990 -0.004589 0.999990
-0.002797 0.195772 0.999990
0.098972 0.098972 0.999990
0.377077 0.098971 0.999990
0.592234 0.098969 0.999990
0.798342 0.098966 0.999990
0.999990 0.098961 0.999990
-0.003524 0.400622 0.999990
0.098969 0.377077 0.999990
0.298142 0.298142 0.999990
0.562837 0.298142 0.999990
0.787386 0.298140 0.999990
0.999990 0.298138 0.999990
-0.004565 0.602409 0.999990
0.098962 0.592233 0.999990
0.298140 0.562836 0.999990
0.547358 0.547358 0.999990
0.781851 0.547357 0.999990
0.999990 0.547357 0.999990
-0.005751 0.802268 0.999990
0.098950 0.798342 0.999990
0.298135 0.787385 0.999990
0.547356 0.781851 0.999990
0.807715 0.807715 0.999990
0.999990 0.807715 0.999990
-0.007001 0.999990 0.999990
0.098934 0.999990 0.999990
0.298129 0.999990 0.999990
0.547353 0.999990 0.999990
0.807714 0.999990 0.999990
0.999990 0.999990 0.999990
