assets/luts/LUTs/TG_D-LOG-M_3_HEAVY_VIBRANT.CUBE
LUT_3D_SIZE 6
0.000000 0.000000 0.000000
0.086586 -0.000750 -0.000750
0.303443 -0.001596 -0.001596
0.589477 -0.002468 -0.002468
0.819571 -0.003312 -0.003312
0.999990 -0.004057 -0.004057
-0.001247 0.086585 -0.001247
0.086585 0.086585 -0.001385
0.303442 0.107944 -0.001958
0.589476 0.140721 -0.002702
0.819571 0.143401 -0.003472
0.999990 0.135049 -0.004179
-0.002640 0.303442 -0.002640
0.107942 0.303442 -0.002702
0.303441 0.303441 -0.002943
0.589476 0.367186 -0.003472
0.819570 0.372404 -0.004070
0.999990 0.356154 -0.004635
-0.004098 0.589475 -0.004098
0.140716 0.589475 -0.004139
0.367184 0.589475 -0.004283
0.589475 0.589475 -0.004565
0.819570 0.597199 -0.005005
0.999990 0.573150 -0.005415
-0.005488 0.819569 -0.005488
0.143390 0.819569 -0.005524
0.372401 0.819569 -0.005631
0.597198 0.819569 -0.005836
0.819569 0.819569 -0.006125
0.999990 0.787789 -0.006397
-0.006736 0.999990 -0.006736
0.135031 0.999990 -0.006763
0.356148 0.999990 -0.006817
0.573148 0.999990 -0.006975
0.787788 0.999990 -0.007203
0.999990 0.999990 -0.007516
-0.000480 -0.000480 0.086586
0.086586 -0.000847 0.086586
0.303443 -0.001640 0.107944
0.589477 -0.002495 0.140722
0.819571 -0.003331 0.143402
0.999990 -0.004070 0.135050
-0.001295 0.086585 0.086585
0.086585 0.086585 0.086585
0.317794 0.073845 0.073845
0.613194 0.047851 0.047851
0.836432 0.030751 0.030751
0.999990 0.058725 0.058725
-0.002665 0.303442 0.107942
0.046693 0.314406 0.046693
0.310642 0.310642 0.041952
0.602492 0.354880 0.035136
0.830426 0.349449 0.026075
0.999990 0.334531 0.058723
-0.004111 0.589475 0.140716
0.027792 0.596018 0.027792
0.348904 0.594907 0.026893
0.593078 0.593078 0.025462
0.824631 0.591422 0.022131
0.999990 0.563781 0.058718
-0.005506 0.819569 0.143390
0.020407 0.822580 0.020407
0.344616 0.822254 0.020243
0.589107 0.821670 0.019976
0.820907 0.820907 0.019668
0.999990 0.784161 0.058394
-0.006736 0.999990 0.135031
0.057668 0.999990 0.057668
0.334269 0.999990 0.057667
0.563671 0.999990 0.057666
0.784132 0.999990 0.057664
0.999990 0.999990 0.057660
-0.001017 -0.001017 0.303443
0.107945 -0.001224 0.303443
0.303442 -0.001801 0.303442
0.589477 -0.002601 0.367187
0.819571 -0.003402 0.372405
0.999990 -0.004125 0.356155
-0.001583 0.107944 0.303443
0.071865 0.071865 0.318224
0.321198 0.063537 0.321198
0.611863 0.045097 0.362287
0.835601 0.029946 0.352562
0.999990 0.058631 0.334508
-0.002750 0.303442 0.303442
0.044903 0.313045 0.313045
0.303441 0.303441 0.303441
0.605388 0.285552 0.285552
0.838039 0.251953 0.251953
0.999990 0.241817 0.241817
-0.004165 0.589475 0.367184
0.027469 0.595622 0.349437
0.235430 0.605656 0.235430
0.601792 0.601792 0.221958
0.838248 0.565205 0.212309
0.999990 0.529370 0.241815
-0.005542 0.819569 0.372401
0.020350 0.822466 0.344733
0.167539 0.831874 0.167539
0.550428 0.829418 0.161297
0.825850 0.825850 0.152709
0.999990 0.771134 0.239863
-0.006763 0.999990 0.356149
0.057668 0.999990 0.334269
0.226395 0.999990 0.226395
0.524594 0.999990 0.226394
0.769639 0.999990 0.226393
0.999990 0.999990 0.226391
-0.001576 -0.001576 0.589477
0.140724 -0.001706 0.589477
0.367187 -0.002156 0.589477
0.589476 -0.002786 0.589476
0.819571 -0.003540 0.597201
0.999990 -0.004231 0.573151
-0.001968 0.140723 0.589477
0.063535 0.063535 0.612683
0.366377 0.052760 0.616463
0.609164 0.040262 0.609164
0.834071 0.028486 0.598789
0.999990 0.058438 0.563752
-0.003018 0.367186 0.589476
0.038954 0.358920 0.607999
0.262817 0.262817 0.610484
0.608165 0.257818 0.608165
0.840219 0.239979 0.572274
0.999990 0.238829 0.528423
-0.004257 0.589475 0.589475
0.026868 0.594877 0.594877
0.230717 0.604504 0.604504
0.589474 0.589474 0.589474
0.831493 0.574393 0.574393
0.999990 0.550309 0.550309
-0.005613 0.819569 0.597198
0.020239 0.822245 0.589548
0.165333 0.831022 0.552115
0.531383 0.829894 0.531383
0.827877 0.827877 0.521780
0.999990 0.779068 0.550307
-0.006817 0.999990 0.573148
0.057667 0.999990 0.563671
0.226395 0.999990 0.524594
0.512638 0.999990 0.512638
0.765397 0.999990 0.512638
0.999990 0.999990 0.512637
-0.002113 -0.002113 0.819571
0.143405 -0.002205 0.819571
0.372406 -0.002549 0.819571
0.597201 -0.003080 0.819571
0.819571 -0.003750 0.819571
0.999990 -0.004372 0.787790
-0.002397 0.143404 0.819571
0.046169 0.046169 0.850461
0.359493 0.039704 0.846566
0.602766 0.032226 0.839135
0.831998 0.026536 0.831998
0.999990 0.058126 0.784150
-0.003275 0.372405 0.819571
0.031402 0.354030 0.838171
0.241944 0.241944 0.842188
0.570949 0.236762 0.839250
0.842862 0.218164 0.842862
0.999990 0.233866 0.770458
-0.004446 0.597200 0.819570
0.023285 0.593525 0.827375
0.208461 0.567276 0.842645
0.545345 0.545345 0.836270
0.834153 0.540889 0.834153
0.999990 0.536896 0.774098
-0.005717 0.819569 0.819569
0.020086 0.821917 0.821917
0.161992 0.829698 0.829698
0.528679 0.829289 0.829289
0.819568 0.819568 0.819568
0.999990 0.811772 0.811772
-0.006896 0.999990 0.787789
0.057666 0.999990 0.784132
0.226394 0.999990 0.769639
0.512638 0.999990 0.765397
0.794498 0.999990 0.794498
0.999990 0.999990 0.794498
-0.002588 -0.002588 0.999990
0.135055 -0.002652 0.999990
0.356156 -0.002911 0.999990
0.573151 -0.003367 0.999990
0.787790 -0.003929 0.999990
0.999990 -0.004589 0.999990
-0.002797 0.135054 0.999990
0.057691 0.057691 0.999990
0.334275 0.057691 0.999990
0.563674 0.057689 0.999990
0.784133 0.057687 0.999990
0.999990 0.057684 0.999990
-0.003524 0.356156 0.999990
0.057689 0.334275 0.999990
0.226406 0.226406 0.999990
0.524598 0.226405 0.999990
0.769640 0.226404 0.999990
0.999990 0.226402 0.999990
-0.004565 0.573150 0.999990
0.057684 0.563673 0.999990
0.226403 0.524597 0.999990
0.512644 0.512644 0.999990
0.765399 0.512643 0.999990
0.999990 0.512642 0.999990
-0.005751 0.787789 0.999990
0.057676 0.784132 0.999990
0.226399 0.769639 0.999990
0.512641 0.765398 0.999990
0.794500 0.794500 0.999990
0.999990 0.794499 0.999990
-0.007001 0.999990 0.999990
0.057665 0.999990 0.999990
0.226394 0.999990 0.999990
0.512638 0.999990 0.999990
0.794498 0.999990 0.999990
0.999990 0.999990 0.999990
