assets/luts/LUTs/TG_D-LOG-M_3_HEAVY.CUBE
LUT_3D_SIZE 16
0.000000 0.000000 0.000000
0.009516 0.000000 0.000000
0.038376 0.000000 0.000000
0.086585 0.000000 0.000000
0.150071 0.000000 0.000000
0.220103 0.000000 0.000000
0.303441 0.000000 0.000000
0.400711 0.000000 0.000000
0.499153 0.000000 0.000000
0.589474 0.000000 0.000000
0.672213 0.000000 0.000000
0.748575 0.000000 0.000000
0.819568 0.000000 0.000000
0.885914 0.000000 0.000000
0.947745 0.000000 0.000000
0.999990 0.000000 0.000000
0.000000 0.009516 0.000000
0.009516 0.009516 0.000000
0.038376 0.010617 0.000000
0.086585 0.011294 0.000000
0.150071 0.011814 0.000000
0.220103 0.012610 0.000000
0.303441 0.014078 0.000000
0.400711 0.016070 0.000000
0.499153 0.017742 0.000000
0.589474 0.018701 0.000000
0.672213 0.019140 0.000000
0.748575 0.019234 0.000000
0.819568 0.019108 0.000000
0.885914 0.018837 0.000000
0.947745 0.018457 0.000000
0.999990 0.017858 0.000000
0.000000 0.038376 0.000000
0.010617 0.038376 0.000000
0.038376 0.038376 0.000000
0.086585 0.040828 0.000000
0.150071 0.042704 0.000000
0.220103 0.045582 0.000000
0.303441 0.050899 0.000000
0.400711 0.058089 0.000000
0.499153 0.064148 0.000000
0.589474 0.067611 0.000000
0.672213 0.069197 0.000000
0.748575 0.069540 0.000000
0.819568 0.069082 0.000000
0.885914 0.068099 0.000000
0.947745 0.066722 0.000000
0.999990 0.064560 0.000000
0.000000 0.086585 0.000000
0.011294 0.086585 0.000000
0.040828 0.086585 0.000000
0.086585 0.086585 0.000000
0.150071 0.090567 0.000000
0.220103 0.096672 0.000000
0.303441 0.107944 0.000000
0.400711 0.122608 0.000000
0.499153 0.134286 0.000000
0.589474 0.140724 0.000000
0.672213 0.143614 0.000000
0.748575 0.144237 0.000000
0.819568 0.143406 0.000000
0.885914 0.141614 0.000000
0.947745 0.139088 0.000000
0.999990 0.135058 0.000000
0.000000 0.150071 0.000000
0.011814 0.150071 0.000000
0.042704 0.150071 0.000000
0.090567 0.150071 0.000000
0.150071 0.150071 0.000000
0.220103 0.158620 0.000000
0.303441 0.173754 0.000000
0.400711 0.193049 0.000000
0.499153 0.208427 0.000000
0.589474 0.216905 0.000000
0.672213 0.220712 0.000000
0.748575 0.221534 0.000000
0.819568 0.220437 0.000000
0.885914 0.218076 0.000000
0.947745 0.214750 0.000000
0.999990 0.209442 0.000000
0.000000 0.220103 0.000000
0.012610 0.220103 0.000000
0.045582 0.220103 0.000000
0.096672 0.220103 0.000000
0.158620 0.220103 0.000000
0.220103 0.220103 0.000000
0.303441 0.238850 0.000000
0.400711 0.262756 0.000000
0.499153 0.281814 0.000000
0.589474 0.292322 0.000000
0.672213 0.297040 0.000000
0.748575 0.298059 0.000000
0.819568 0.296699 0.000000
0.885914 0.293774 0.000000
0.947745 0.289650 0.000000
0.999990 0.283072 0.000000
0.000000 0.303441 0.000000
0.014078 0.303441 0.000000
0.050899 0.303441 0.000000
0.107944 0.303441 0.000000
0.173754 0.303441 0.000000
0.238850 0.303441 0.000000
0.303441 0.303441 0.000000
0.400711 0.331938 0.000000
0.499153 0.354658 0.000000
0.589474 0.367186 0.000000
0.672213 0.372812 0.000000
0.748575 0.374026 0.000000
0.819568 0.372406 0.000000
0.885914 0.368917 0.000000
0.947745 0.364000 0.000000
0.999990 0.356158 0.000000
0.000000 0.400711 0.000000
0.016070 0.400711 0.000000
0.058089 0.400711 0.000000
0.122608 0.400711 0.000000
0.193049 0.400711 0.000000
0.262756 0.400711 0.000000
0.331938 0.400711 0.000000
0.400711 0.400711 0.000000
0.499153 0.427079 0.000000
0.589474 0.441619 0.000000
0.672213 0.448148 0.000000
0.748575 0.449557 0.000000
0.819568 0.447677 0.000000
0.885914 0.443628 0.000000
0.947745 0.437921 0.000000
0.999990 0.428819 0.000000
0.000000 0.499153 0.000000
0.017742 0.499153 0.000000
0.064148 0.499153 0.000000
0.134286 0.499153 0.000000
0.208427 0.499153 0.000000
0.281814 0.499153 0.000000
0.354658 0.499153 0.000000
0.427079 0.499153 0.000000
0.499153 0.499153 0.000000
0.589474 0.515697 0.000000
0.672213 0.523126 0.000000
0.748575 0.524730 0.000000
0.819568 0.522590 0.000000
0.885914 0.517983 0.000000
0.947745 0.511490 0.000000
0.999990 0.501132 0.000000
0.000000 0.589474 0.000000
0.018701 0.589474 0.000000
0.067611 0.589474 0.000000
0.140724 0.589474 0.000000
0.216905 0.589474 0.000000
0.292322 0.589474 0.000000
0.367186 0.589474 0.000000
0.441619 0.589474 0.000000
0.515697 0.589474 0.000000
0.589474 0.589474 0.000000
0.672213 0.597801 0.000000
0.748575 0.599599 0.000000
0.819568 0.597200 0.000000
0.885914 0.592037 0.000000
0.947745 0.584760 0.000000
0.999990 0.573152 0.000000
0.000000 0.672213 0.000000
0.019140 0.672213 0.000000
0.069197 0.672213 0.000000
0.143614 0.672213 0.000000
0.220712 0.672213 0.000000
0.297040 0.672213 0.000000
0.372812 0.672213 0.000000
0.448148 0.672213 0.000000
0.523126 0.672213 0.000000
0.597801 0.672213 0.000000
0.672213 0.672213 0.000000
0.748575 0.674203 0.000000
0.819568 0.671547 0.000000
0.885914 0.665829 0.000000
0.947745 0.657770 0.000000
0.999990 0.644916 0.000000
0.000000 0.748575 0.000000
0.019234 0.748575 0.000000
0.069540 0.748575 0.000000
0.144237 0.748575 0.000000
0.221534 0.748575 0.000000
0.298059 0.748575 0.000000
0.374026 0.748575 0.000000
0.449557 0.748575 0.000000
0.524730 0.748575 0.000000
0.599599 0.748575 0.000000
0.674203 0.748575 0.000000
0.748575 0.748575 0.000000
0.819568 0.745662 0.000000
0.885914 0.739391 0.000000
0.947745 0.730552 0.000000
0.999990 0.716454 0.000000
0.000000 0.819568 0.000000
0.019108 0.819568 0.000000
0.069082 0.819568 0.000000
0.143406 0.819568 0.000000
0.220437 0.819568 0.000000
0.296699 0.819568 0.000000
0.372406 0.819568 0.000000
0.447677 0.819568 0.000000
0.522590 0.819568 0.000000
0.597200 0.819568 0.000000
0.671547 0.819568 0.000000
0.745662 0.819568 0.000000
0.819568 0.819568 0.000000
0.885914 0.812745 0.000000
0.947745 0.803129 0.000000
0.999990 0.787790 0.000000
0.000000 0.885914 0.000000
0.018837 0.885914 0.000000
0.068099 0.885914 0.000000
0.141614 0.885914 0.000000
0.218076 0.885914 0.000000
0.293774 0.885914 0.000000
0.368917 0.885914 0.000000
0.443628 0.885914 0.000000
0.517983 0.885914 0.000000
0.592037 0.885914 0.000000
0.665829 0.885914 0.000000
0.739391 0.885914 0.000000
0.812745 0.885914 0.000000
0.885914 0.885914 0.000000
0.947745 0.875521 0.000000
0.999990 0.858945 0.000000
0.000000 0.947745 0.000000
0.018457 0.947745 0.000000
0.066722 0.947745 0.000000
0.139088 0.947745 0.000000
0.214750 0.947745 0.000000
0.289650 0.947745 0.000000
0.364000 0.947745 0.000000
0.437921 0.947745 0.000000
0.511490 0.947745 0.000000
0.584760 0.947745 0.000000
0.657770 0.947745 0.000000
0.730552 0.947745 0.000000
0.803129 0.947745 0.000000
0.875521 0.947745 0.000000
0.947745 0.947745 0.000000
0.999990 0.929933 0.000000
0.000000 0.999990 0.000000
0.017858 0.999990 0.000000
0.064560 0.999990 0.000000
0.135058 0.999990 0.000000
0.209442 0.999990 0.000000
0.283072 0.999990 0.000000
0.356158 0.999990 0.000000
0.428819 0.999990 0.000000
0.501132 0.999990 0.000000
0.573152 0.999990 0.000000
0.644916 0.999990 0.000000
0.716454 0.999990 0.000000
0.787790 0.999990 0.000000
0.858945 0.999990 0.000000
0.929933 0.999990 0.000000
0.999990 0.999990 0.000000
0.000000 0.000000 0.009516
0.009516 0.000000 0.009516
0.038376 0.000000 0.010617
0.086585 0.000000 0.011294
0.150071 0.000000 0.011814
0.220103 0.000000 0.012610
0.303441 0.000000 0.014078
0.400711 0.000000 0.016070
0.499153 0.000000 0.017742
0.589474 0.000000 0.018701
0.672213 0.000000 0.019140
0.748575 0.000000 0.019234
0.819568 0.000000 0.019108
0.885914 0.000000 0.018837
0.947745 0.000000 0.018457
0.999990 0.000000 0.017858
0.000000 0.009516 0.009516
0.009516 0.009516 0.009516
0.038434 0.009468 0.009468
0.086750 0.009304 0.009304
0.150291 0.009088 0.009088
0.220315 0.008951 0.008951
0.303630 0.008907 0.008907
0.400864 0.008859 0.008859
0.499262 0.008801 0.008801
0.589551 0.008734 0.008734
0.672266 0.008656 0.008656
0.748611 0.008568 0.008568
0.819592 0.008472 0.008472
0.885928 0.008367 0.008367
0.947751 0.008251 0.008251
0.999990 0.008148 0.008148
0.000000 0.038376 0.010617
0.009422 0.038452 0.009422
0.038452 0.038452 0.009422
0.086750 0.040005 0.009304
0.150291 0.041245 0.009088
0.220315 0.043446 0.008951
0.303630 0.047773 0.008907
0.400864 0.053685 0.008859
0.499262 0.058659 0.008801
0.589551 0.061472 0.008734
0.672266 0.062722 0.008656
0.748611 0.062936 0.008568
0.819592 0.062477 0.008472
0.885928 0.061582 0.008367
0.947751 0.060361 0.008251
0.999990 0.058484 0.008148
0.000000 0.086585 0.011294
0.009252 0.086765 0.009252
0.039989 0.086765 0.009252
0.086765 0.086765 0.009252
0.150291 0.089970 0.009088
0.220315 0.095406 0.008951
0.303630 0.105842 0.008907
0.400864 0.119648 0.008859
0.499262 0.130653 0.008801
0.589551 0.136683 0.008734
0.672266 0.139346 0.008656
0.748611 0.139855 0.008568
0.819592 0.138983 0.008472
0.885928 0.137200 0.008367
0.947751 0.134719 0.008251
0.999990 0.130807 0.008148
0.000000 0.150071 0.011814
0.009041 0.150300 0.009041
0.041222 0.150300 0.009041
0.089964 0.150300 0.009041
0.150300 0.150300 0.009041
0.220317 0.158227 0.008941
0.303630 0.172774 0.008907
0.400864 0.191450 0.008859
0.499262 0.206324 0.008801
0.589551 0.214478 0.008734
0.672266 0.218088 0.008656
0.748611 0.218800 0.008568
0.819592 0.217650 0.008472
0.885928 0.215274 0.008367
0.947751 0.211959 0.008251
0.999990 0.206716 0.008148
0.000000 0.220103 0.012610
0.008918 0.220320 0.008918
0.043428 0.220320 0.008918
0.095397 0.220320 0.008918
0.158227 0.220320 0.008918
0.220320 0.220320 0.008918
0.303632 0.238551 0.008896
0.400864 0.261951 0.008859
0.499262 0.280579 0.008801
0.589551 0.290794 0.008734
0.672266 0.295323 0.008656
0.748611 0.296224 0.008568
0.819592 0.294797 0.008472
0.885928 0.291839 0.008367
0.947751 0.287707 0.008251
0.999990 0.281161 0.008148
0.000000 0.303441 0.014078
0.008886 0.303633 0.008886
0.047761 0.303633 0.008886
0.105835 0.303633 0.008886
0.172771 0.303633 0.008886
0.238551 0.303633 0.008886
0.303633 0.303633 0.008886
0.400865 0.331677 0.008848
0.499262 0.354002 0.008801
0.589551 0.366243 0.008734
0.672266 0.371675 0.008656
0.748611 0.372762 0.008568
0.819592 0.371060 0.008472
0.885928 0.367524 0.008367
0.947751 0.362584 0.008251
0.999990 0.354751 0.008148
0.000000 0.400711 0.016070
0.008844 0.400866 0.008844
0.053676 0.400866 0.008844
0.119643 0.400866 0.008844
0.191448 0.400866 0.008844
0.261950 0.400866 0.008844
0.331677 0.400866 0.008844
0.400866 0.400866 0.008844
0.499263 0.426849 0.008791
0.589551 0.441099 0.008733
0.672266 0.447423 0.008656
0.748611 0.448692 0.008568
0.819592 0.446717 0.008472
0.885928 0.442607 0.008367
0.947751 0.436864 0.008251
0.999990 0.427755 0.008148
0.000000 0.499153 0.017742
0.008790 0.499263 0.008790
0.058654 0.499263 0.008790
0.130649 0.499263 0.008790
0.206322 0.499263 0.008790
0.280578 0.499263 0.008790
0.354002 0.499263 0.008790
0.426850 0.499263 0.008790
0.499263 0.499263 0.008790
0.589551 0.515505 0.008726
0.672266 0.522716 0.008654
0.748611 0.524165 0.008568
0.819592 0.521917 0.008472
0.885928 0.517237 0.008367
0.947751 0.510695 0.008251
0.999990 0.500318 0.008148
0.000000 0.589474 0.018701
0.008726 0.589551 0.008726
0.061467 0.589551 0.008726
0.136680 0.589551 0.008726
0.214476 0.589551 0.008726
0.290793 0.589551 0.008726
0.366243 0.589551 0.008726
0.441099 0.589551 0.008726
0.515505 0.589551 0.008726
0.589551 0.589551 0.008726
0.672266 0.597643 0.008649
0.748612 0.599271 0.008564
0.819592 0.596752 0.008472
0.885928 0.591503 0.008367
0.947751 0.584167 0.008251
0.999990 0.572528 0.008148
0.000000 0.672213 0.019140
0.008649 0.672266 0.008649
0.062718 0.672266 0.008649
0.139343 0.672266 0.008649
0.218086 0.672266 0.008649
0.295322 0.672266 0.008649
0.371674 0.672266 0.008649
0.447423 0.672266 0.008649
0.522715 0.672266 0.008649
0.597643 0.672266 0.008649
0.672266 0.672266 0.008649
0.748612 0.674072 0.008562
0.819592 0.671282 0.008470
0.885928 0.665467 0.008367
0.947751 0.657340 0.008251
0.999990 0.644443 0.008148
0.000000 0.748575 0.019234
0.008562 0.748612 0.008562
0.062932 0.748612 0.008562
0.139853 0.748612 0.008562
0.218799 0.748612 0.008562
0.296224 0.748612 0.008562
0.372761 0.748612 0.008562
0.448692 0.748612 0.008562
0.524165 0.748612 0.008562
0.599271 0.748612 0.008562
0.674072 0.748612 0.008562
0.748612 0.748612 0.008562
0.819592 0.745551 0.008467
0.885927 0.739173 0.008364
0.947751 0.730256 0.008250
0.999990 0.716106 0.008148
0.000000 0.819568 0.019108
0.008467 0.819592 0.008467
0.062474 0.819592 0.008467
0.138982 0.819592 0.008467
0.217648 0.819592 0.008467
0.294797 0.819592 0.008467
0.371060 0.819592 0.008467
0.446717 0.819592 0.008467
0.521917 0.819592 0.008467
0.596751 0.819592 0.008467
0.671282 0.819592 0.008467
0.745551 0.819592 0.008467
0.819592 0.819592 0.008467
0.885928 0.812651 0.008363
0.947751 0.802948 0.008249
0.999990 0.787548 0.008147
0.000000 0.885914 0.018837
0.008363 0.885928 0.008363
0.061579 0.885928 0.008363
0.137198 0.885928 0.008363
0.215272 0.885928 0.008363
0.291838 0.885928 0.008363
0.367523 0.885928 0.008363
0.442607 0.885928 0.008363
0.517236 0.885928 0.008363
0.591503 0.885928 0.008363
0.665467 0.885928 0.008363
0.739173 0.885928 0.008363
0.812651 0.885928 0.008363
0.885928 0.885928 0.008363
0.947751 0.875439 0.008247
0.999990 0.858793 0.008145
0.000000 0.947745 0.018457
0.008247 0.947751 0.008247
0.060358 0.947751 0.008247
0.134718 0.947751 0.008247
0.211958 0.947751 0.008247
0.287706 0.947751 0.008247
0.362583 0.947751 0.008247
0.436864 0.947751 0.008247
0.510695 0.947751 0.008247
0.584167 0.947751 0.008247
0.657340 0.947751 0.008247
0.730256 0.947751 0.008247
0.802948 0.947751 0.008247
0.875439 0.947751 0.008247
0.947751 0.947751 0.008247
0.999990 0.929861 0.008144
0.000000 0.999990 0.017858
0.008144 0.999990 0.008144
0.058482 0.999990 0.008144
0.130806 0.999990 0.008144
0.206715 0.999990 0.008144
0.281160 0.999990 0.008144
0.354750 0.999990 0.008144
0.427755 0.999990 0.008144
0.500318 0.999990 0.008144
0.572527 0.999990 0.008144
0.644443 0.999990 0.008144
0.716106 0.999990 0.008144
0.787548 0.999990 0.008144
0.858793 0.999990 0.008144
0.929861 0.999990 0.008144
0.999990 0.999990 0.008144
0.000000 0.000000 0.038376
0.010617 0.000000 0.038376
0.038376 0.000000 0.038376
0.086585 0.000000 0.040828
0.150071 0.000000 0.042704
0.220103 0.000000 0.045582
0.303441 0.000000 0.050899
0.400711 0.000000 0.058089
0.499153 0.000000 0.064148
0.589474 0.000000 0.067611
0.672213 0.000000 0.069197
0.748575 0.000000 0.069540
0.819568 0.000000 0.069082
0.885914 0.000000 0.068099
0.947745 0.000000 0.066722
0.999990 0.000000 0.064560
0.000000 0.010617 0.038376
0.009422 0.009422 0.038452
0.038452 0.009422 0.038452
0.086755 0.009287 0.040000
0.150293 0.009081 0.041241
0.220316 0.008948 0.043445
0.303630 0.008906 0.047772
0.400864 0.008858 0.053684
0.499262 0.008801 0.058659
0.589551 0.008734 0.061472
0.672266 0.008655 0.062722
0.748611 0.008567 0.062935
0.819592 0.008472 0.062477
0.885928 0.008367 0.061582
0.947751 0.008251 0.060361
0.999990 0.008148 0.058484
0.000000 0.038376 0.038376
0.009422 0.038452 0.038452
0.038376 0.038376 0.038376
0.086968 0.038187 0.038187
0.150939 0.037440 0.037440
0.221123 0.036734 0.036734
0.304433 0.036369 0.036369
0.401553 0.036060 0.036060
0.499772 0.035758 0.035758
0.589915 0.035442 0.035442
0.672524 0.035101 0.035101
0.748790 0.034730 0.034730
0.819710 0.034324 0.034324
0.885997 0.033889 0.033889
0.947781 0.033429 0.033429
0.999990 0.032987 0.032987
0.000000 0.086585 0.040828
0.009252 0.086765 0.039989
0.037523 0.087277 0.037523
0.087277 0.087277 0.037523
0.150939 0.088482 0.037440
0.221123 0.091583 0.036734
0.304433 0.098463 0.036369
0.401553 0.108026 0.036060
0.499772 0.115787 0.035758
0.589915 0.119893 0.035442
0.672524 0.121509 0.035101
0.748790 0.121524 0.034730
0.819710 0.120505 0.034324
0.885997 0.118799 0.033889
0.947781 0.116573 0.033429
0.999990 0.113285 0.032987
0.000000 0.150071 0.042704
0.009041 0.150300 0.041222
0.036555 0.151205 0.036555
0.088207 0.151205 0.036555
0.151205 0.151205 0.036555
0.221145 0.157143 0.036647
0.304433 0.169407 0.036369
0.401553 0.185401 0.036060
0.499772 0.198048 0.035758
0.589915 0.204787 0.035442
0.672524 0.207562 0.035101
0.748790 0.207819 0.034730
0.819710 0.206463 0.034324
0.885997 0.204047 0.033889
0.947781 0.200820 0.033429
0.999990 0.195903 0.032987
0.000000 0.220103 0.045582
0.008918 0.220320 0.043428
0.036027 0.221284 0.036027
0.091223 0.221284 0.036027
0.157096 0.221284 0.036027
0.221284 0.221284 0.036027
0.304477 0.237634 0.036149
0.401553 0.258991 0.036060
0.499772 0.275820 0.035758
0.589915 0.284801 0.035442
0.672524 0.288547 0.035101
0.748790 0.288976 0.034730
0.819710 0.287287 0.034324
0.885997 0.284209 0.033889
0.947781 0.280068 0.033429
0.999990 0.273693 0.032987
0.000000 0.303441 0.050899
0.008886 0.303633 0.047761
0.035891 0.304526 0.035891
0.098183 0.304526 0.035891
0.169308 0.304526 0.035891
0.237640 0.304526 0.035891
0.304526 0.304526 0.035891
0.401589 0.330807 0.035825
0.499772 0.351526 0.035758
0.589915 0.362597 0.035442
0.672524 0.367238 0.035101
0.748790 0.367812 0.034730
0.819710 0.365793 0.034324
0.885997 0.362075 0.033889
0.947781 0.357056 0.033429
0.999990 0.349293 0.032987
0.000000 0.400711 0.058089
0.008844 0.400866 0.053676
0.035718 0.401605 0.035718
0.107817 0.401605 0.035718
0.185311 0.401605 0.035718
0.258964 0.401605 0.035718
0.330812 0.401605 0.035718
0.401605 0.401605 0.035718
0.499795 0.426050 0.035537
0.589917 0.439123 0.035415
0.672524 0.444622 0.035101
0.748790 0.445329 0.034730
0.819710 0.442981 0.034324
0.885997 0.438634 0.033889
0.947781 0.432757 0.033429
0.999990 0.423644 0.032987
0.000000 0.499153 0.064148
0.008790 0.499263 0.058654
0.035502 0.499798 0.035502
0.115632 0.499798 0.035502
0.197970 0.499798 0.035502
0.275783 0.499798 0.035502
0.351516 0.499798 0.035502
0.426051 0.499798 0.035502
0.499798 0.499798 0.035502
0.589929 0.514823 0.035246
0.672526 0.521151 0.035052
0.748790 0.521984 0.034730
0.819710 0.519310 0.034324
0.885997 0.514343 0.033889
0.947781 0.507618 0.033429
0.999990 0.497178 0.032987
0.000000 0.589474 0.067611
0.008726 0.589551 0.061467
0.035244 0.589929 0.035244
0.119772 0.589929 0.035244
0.204722 0.589929 0.035244
0.284765 0.589929 0.035244
0.362579 0.589929 0.035244
0.439118 0.589929 0.035244
0.514823 0.589929 0.035244
0.589929 0.589929 0.035244
0.672532 0.597073 0.034938
0.748792 0.598022 0.034670
0.819710 0.595025 0.034324
0.885997 0.589442 0.033889
0.947781 0.581879 0.033429
0.999990 0.570125 0.032987
0.000000 0.672213 0.069197
0.008649 0.672266 0.062718
0.034938 0.672532 0.034938
0.121410 0.672532 0.034938
0.207507 0.672532 0.034938
0.288514 0.672532 0.034938
0.367218 0.672532 0.034938
0.444612 0.672532 0.034938
0.521149 0.672532 0.034938
0.597073 0.672532 0.034938
0.672532 0.672532 0.034938
0.748794 0.673595 0.034595
0.819711 0.670271 0.034257
0.885997 0.664077 0.033877
0.947781 0.655682 0.033429
0.999990 0.642626 0.032987
0.000000 0.748575 0.069540
0.008562 0.748612 0.062932
0.034595 0.748794 0.034595
0.121439 0.748794 0.034595
0.207771 0.748794 0.034595
0.288945 0.748794 0.034595
0.367792 0.748794 0.034595
0.445316 0.748794 0.034595
0.521977 0.748794 0.034595
0.598021 0.748794 0.034595
0.673595 0.748794 0.034595
0.748794 0.748794 0.034595
0.819712 0.745145 0.034207
0.885998 0.738340 0.033821
0.947781 0.729118 0.033408
0.999990 0.714769 0.032987
0.000000 0.819568 0.069082
0.008467 0.819592 0.062474
0.034207 0.819712 0.034207
0.120431 0.819712 0.034207
0.206421 0.819712 0.034207
0.287259 0.819712 0.034207
0.365774 0.819712 0.034207
0.442968 0.819712 0.034207
0.519302 0.819712 0.034207
0.595020 0.819712 0.034207
0.670270 0.819712 0.034207
0.745145 0.819712 0.034207
0.819712 0.819712 0.034207
0.885998 0.812299 0.033785
0.947781 0.802251 0.033359
0.999990 0.786616 0.032959
0.000000 0.885914 0.068099
0.008363 0.885928 0.061579
0.033785 0.885998 0.033785
0.118734 0.885998 0.033785
0.204008 0.885998 0.033785
0.284183 0.885998 0.033785
0.362056 0.885998 0.033785
0.438621 0.885998 0.033785
0.514334 0.885998 0.033785
0.589436 0.885998 0.033785
0.664073 0.885998 0.033785
0.738340 0.885998 0.033785
0.812299 0.885998 0.033785
0.885998 0.885998 0.033785
0.947782 0.875128 0.033337
0.999990 0.858210 0.032917
0.000000 0.947745 0.066722
0.008247 0.947751 0.060358
0.033337 0.947782 0.033337
0.116513 0.947782 0.033337
0.200784 0.947782 0.033337
0.280044 0.947782 0.033337
0.357039 0.947782 0.033337
0.432744 0.947782 0.033337
0.507609 0.947782 0.033337
0.581872 0.947782 0.033337
0.655677 0.947782 0.033337
0.729115 0.947782 0.033337
0.802251 0.947782 0.033337
0.875128 0.947782 0.033337
0.947782 0.947782 0.033337
0.999990 0.929586 0.032902
0.000000 0.999990 0.064560
0.008144 0.999990 0.058482
0.032902 0.999990 0.032902
0.113228 0.999990 0.032902
0.195869 0.999990 0.032902
0.273670 0.999990 0.032902
0.349276 0.999990 0.032902
0.423631 0.999990 0.032902
0.497168 0.999990 0.032902
0.570118 0.999990 0.032902
0.642621 0.999990 0.032902
0.714765 0.999990 0.032902
0.786614 0.999990 0.032902
0.858210 0.999990 0.032902
0.929586 0.999990 0.032902
0.999990 0.999990 0.032902
0.000000 0.000000 0.086585
0.011294 0.000000 0.086585
0.040828 0.000000 0.086585
0.086585 0.000000 0.086585
0.150071 0.000000 0.090567
0.220103 0.000000 0.096672
0.303441 0.000000 0.107944
0.400711 0.000000 0.122608
0.499153 0.000000 0.134286
0.589474 0.000000 0.140724
0.672213 0.000000 0.143614
0.748575 0.000000 0.144237
0.819568 0.000000 0.143406
0.885914 0.000000 0.141614
0.947745 0.000000 0.139088
0.999990 0.000000 0.135058
0.000000 0.011294 0.086585
0.009252 0.009252 0.086765
0.039989 0.009252 0.086765
0.086765 0.009252 0.086765
0.150296 0.009066 0.089967
0.220317 0.008941 0.095403
0.303631 0.008904 0.105841
0.400864 0.008857 0.119647
0.499262 0.008800 0.130652
0.589551 0.008733 0.136683
0.672266 0.008656 0.139346
0.748611 0.008567 0.139855
0.819592 0.008472 0.138983
0.885928 0.008367 0.137200
0.947751 0.008251 0.134719
0.999990 0.008148 0.130807
0.000000 0.040828 0.086585
0.009252 0.039989 0.086765
0.037523 0.037523 0.087277
0.087277 0.037523 0.087277
0.151041 0.037135 0.088393
0.221156 0.036600 0.091516
0.304444 0.036310 0.098429
0.401557 0.036032 0.108009
0.499773 0.035742 0.115778
0.589916 0.035433 0.119888
0.672524 0.035095 0.121506
0.748790 0.034726 0.121521
0.819710 0.034321 0.120503
0.885997 0.033887 0.118798
0.947781 0.033427 0.116572
0.999990 0.032986 0.113284
0.000000 0.086585 0.086585
0.009252 0.086765 0.086765
0.037523 0.087277 0.087277
0.086585 0.086585 0.086585
0.150918 0.086247 0.086247
0.221771 0.084991 0.084991
0.305468 0.083803 0.083803
0.402644 0.082775 0.082775
0.500672 0.081851 0.081851
0.590604 0.080970 0.080970
0.673033 0.080083 0.080083
0.749151 0.079159 0.079159
0.819952 0.078183 0.078183
0.886142 0.077155 0.077155
0.947846 0.076085 0.076085
0.999990 0.075068 0.075068
0.000000 0.150071 0.090567
0.009041 0.150300 0.089964
0.036555 0.151205 0.088207
0.083625 0.152004 0.083625
0.152004 0.152004 0.083625
0.221771 0.154881 0.084991
0.305468 0.162536 0.083803
0.402644 0.172620 0.082775
0.500672 0.180378 0.081851
0.590604 0.184122 0.080970
0.673033 0.185215 0.080083
0.749151 0.184631 0.079159
0.819952 0.182978 0.078183
0.886142 0.180620 0.077155
0.947846 0.177720 0.076085
0.999990 0.173694 0.075068
0.000000 0.220103 0.096672
0.008918 0.220320 0.095397
0.036027 0.221284 0.091223
0.081838 0.222696 0.081838
0.154173 0.222696 0.081838
0.222696 0.222696 0.081838
0.305624 0.235480 0.083259
0.402644 0.252805 0.082775
0.500672 0.265985 0.081851
0.590604 0.272515 0.080970
0.673033 0.274746 0.080083
0.749151 0.274301 0.079159
0.819952 0.272168 0.078183
0.886142 0.268939 0.077155
0.947846 0.264867 0.076085
0.999990 0.258958 0.075068
0.000000 0.303441 0.107944
0.008886 0.303633 0.105835
0.035891 0.304526 0.098183
0.081320 0.306088 0.081320
0.161581 0.306088 0.081320
0.235450 0.306088 0.081320
0.306088 0.306088 0.081320
0.402858 0.328862 0.081725
0.500672 0.346446 0.081851
0.590604 0.355242 0.080970
0.673033 0.358367 0.080083
0.749151 0.357981 0.079159
0.819952 0.355391 0.078183
0.886142 0.351373 0.077155
0.947846 0.346258 0.076085
0.999990 0.338717 0.075068
0.000000 0.400711 0.122608
0.008844 0.400866 0.119643
0.035718 0.401605 0.107817
0.080870 0.403016 0.080870
0.171774 0.403016 0.080870
0.252533 0.403016 0.080870
0.328897 0.403016 0.080870
0.403016 0.403016 0.080870
