assets/luts/LUTs/TG_D-LOG-M_1_LIGHT_VIBRANT.CUBE
LUT_3D_SIZE 16
0.000000 0.000000 0.000000
0.045314 -0.000219 -0.000219
0.108025 -0.000471 -0.000471
0.176648 -0.000739 -0.000739
0.246993 -0.001014 -0.001014
0.318663 -0.001299 -0.001299
0.391416 -0.001589 -0.001589
0.465083 -0.001879 -0.001879
0.539276 -0.002181 -0.002181
0.612317 -0.002481 -0.002481
0.683825 -0.002762 -0.002762
0.753609 -0.003049 -0.003049
0.821362 -0.003331 -0.003331
0.886552 -0.003590 -0.003590
0.948073 -0.003841 -0.003841
0.999990 -0.004057 -0.004057
-0.000363 0.045314 -0.000363
0.045314 0.045314 -0.000404
0.108025 0.049265 -0.000579
0.176648 0.051730 -0.000807
0.246993 0.053556 -0.001066
0.318663 0.055018 -0.001337
0.391416 0.056239 -0.001621
0.465083 0.057292 -0.001910
0.539276 0.058187 -0.002205
0.612317 0.058790 -0.002495
0.683825 0.059144 -0.002786
0.753609 0.059297 -0.003070
0.821362 0.059272 -0.003349
0.886552 0.059068 -0.003607
0.948073 0.058639 -0.003856
0.999990 0.057689 -0.004070
-0.000782 0.108025 -0.000782
0.049264 0.108025 -0.000799
0.108025 0.108025 -0.000870
0.176648 0.113406 -0.001037
0.246993 0.117364 -0.001247
0.318663 0.120515 -0.001481
0.391415 0.123145 -0.001740
0.465083 0.125407 -0.002006
0.539276 0.127325 -0.002292
0.612317 0.128614 -0.002575
0.683825 0.129376 -0.002843
0.753609 0.129709 -0.003120
0.821362 0.129662 -0.003385
0.886552 0.129231 -0.003655
0.948073 0.128328 -0.003900
0.999990 0.126306 -0.004111
-0.001224 0.176648 -0.001224
0.051728 0.176648 -0.001233
0.113405 0.176648 -0.001278
0.176648 0.176648 -0.001361
0.246993 0.182511 -0.001530
0.318663 0.187180 -0.001729
0.391415 0.191075 -0.001949
0.465083 0.194427 -0.002197
0.539276 0.197269 -0.002454
0.612317 0.199181 -0.002714
0.683825 0.200310 -0.002976
0.753609 0.200806 -0.003237
0.821362 0.200737 -0.003490
0.886552 0.200100 -0.003734
0.948073 0.198763 -0.003972
0.999990 0.195769 -0.004179
-0.001682 0.246992 -0.001682
0.053553 0.246992 -0.001688
0.117363 0.246992 -0.001717
0.182510 0.246992 -0.001779
0.246992 0.246992 -0.001869
0.318663 0.253166 -0.002042
0.391415 0.258316 -0.002237
0.465083 0.262746 -0.002454
0.539276 0.266504 -0.002677
0.612317 0.269032 -0.002922
0.683825 0.270525 -0.003160
0.753609 0.271181 -0.003402
0.821362 0.271092 -0.003639
0.886551 0.270250 -0.003871
0.948073 0.268482 -0.004098
0.999990 0.264524 -0.004296
-0.002156 0.318663 -0.002156
0.055012 0.318663 -0.002156
0.120513 0.318663 -0.002181
0.187179 0.318663 -0.002229
0.253165 0.318663 -0.002300
0.318663 0.318663 -0.002397
0.391415 0.325059 -0.002575
0.465083 0.330561 -0.002762
0.539276 0.335229 -0.002965
0.612317 0.338368 -0.003180
0.683825 0.340224 -0.003402
0.753609 0.341038 -0.003623
0.821362 0.340927 -0.003841
0.886551 0.339882 -0.004057
0.948073 0.337687 -0.004270
0.999990 0.332772 -0.004446
-0.002627 0.391415 -0.002627
0.056231 0.391415 -0.002640
0.123142 0.391415 -0.002652
0.191074 0.391415 -0.002690
0.258315 0.391415 -0.002750
0.325059 0.391415 -0.002832
0.391415 0.391415 -0.002933
0.465082 0.397983 -0.003110
0.539276 0.403554 -0.003294
0.612316 0.407302 -0.003490
0.683825 0.409517 -0.003687
0.753609 0.410490 -0.003885
0.821361 0.410357 -0.004084
0.886551 0.409110 -0.004283
0.948073 0.406490 -0.004470
0.999990 0.400623 -0.004635
-0.003120 0.465082 -0.003120
0.057279 0.465082 -0.003130
0.125402 0.465082 -0.003140
0.194425 0.465082 -0.003170
0.262745 0.465082 -0.003218
0.330561 0.465082 -0.003294
0.397983 0.465082 -0.003367
0.465082 0.465082 -0.003472
0.539275 0.471553 -0.003655
0.612316 0.475907 -0.003826
0.683824 0.478480 -0.004001
0.753608 0.479609 -0.004192
0.821361 0.479455 -0.004372
0.886551 0.478007 -0.004542
0.948072 0.474964 -0.004726
0.999990 0.468149 -0.004857
-0.003623 0.539276 -0.003623
0.058170 0.539276 -0.003623
0.127318 0.539276 -0.003639
0.197265 0.539275 -0.003655
0.266502 0.539275 -0.003703
0.335227 0.539275 -0.003765
0.403554 0.539275 -0.003841
0.471553 0.539275 -0.003929
0.539275 0.539275 -0.004029
0.612316 0.544232 -0.004192
0.683824 0.547161 -0.004347
0.753608 0.548447 -0.004518
0.821361 0.548272 -0.004681
0.886551 0.546623 -0.004857
0.948072 0.543158 -0.005005
0.999990 0.535400 -0.005127
-0.004111 0.612316 -0.004111
0.058766 0.612316 -0.004111
0.128605 0.612316 -0.004125
0.199176 0.612316 -0.004139
0.269029 0.612316 -0.004179
0.338366 0.612316 -0.004231
0.407301 0.612316 -0.004296
0.475906 0.612316 -0.004372
0.544232 0.612316 -0.004470
0.612315 0.612315 -0.004589
0.683824 0.615600 -0.004726
0.753608 0.617042 -0.004879
0.821361 0.616845 -0.005026
0.886551 0.614996 -0.005167
0.948072 0.611111 -0.005302
0.999990 0.602413 -0.005415
-0.004589 0.683824 -0.004589
0.059114 0.683824 -0.004589
0.129364 0.683824 -0.004612
0.200304 0.683824 -0.004612
0.270521 0.683824 -0.004658
0.340221 0.683824 -0.004703
0.409516 0.683824 -0.004748
0.478478 0.683824 -0.004814
0.547161 0.683824 -0.004900
0.615599 0.683823 -0.005005
0.683823 0.683823 -0.005107
0.753607 0.685421 -0.005245
0.821361 0.685203 -0.005378
0.886550 0.683155 -0.005506
0.948072 0.678851 -0.005631
0.999990 0.669215 -0.005717
-0.005066 0.753608 -0.005066
0.059259 0.753608 -0.005066
0.129694 0.753608 -0.005066
0.200797 0.753608 -0.005087
0.271176 0.753608 -0.005107
0.341035 0.753607 -0.005147
0.410487 0.753607 -0.005206
0.479607 0.753607 -0.005264
0.548446 0.753607 -0.005340
0.617041 0.753607 -0.005433
0.685420 0.753607 -0.005524
0.753607 0.753607 -0.005631
0.821360 0.753368 -0.005768
0.886550 0.751122 -0.005869
0.948072 0.746401 -0.005967
0.999990 0.735829 -0.006063
-0.005524 0.821360 -0.005524
0.059226 0.821360 -0.005524
0.129643 0.821360 -0.005524
0.200727 0.821360 -0.005542
0.271085 0.821360 -0.005560
0.340922 0.821360 -0.005596
0.410354 0.821360 -0.005648
0.479453 0.821360 -0.005700
0.548270 0.821360 -0.005768
0.616844 0.821360 -0.005836
0.685202 0.821360 -0.005934
0.753368 0.821360 -0.006031
0.821360 0.821360 -0.006156
0.886550 0.818915 -0.006248
0.948071 0.813777 -0.006338
0.999990 0.802272 -0.006397
-0.005967 0.886550 -0.005967
0.059011 0.886550 -0.005967
0.129209 0.886550 -0.005967
0.200087 0.886550 -0.005967
0.270242 0.886550 -0.005999
0.339876 0.886550 -0.006031
0.409106 0.886550 -0.006063
0.478004 0.886550 -0.006125
0.546621 0.886550 -0.006187
0.614995 0.886550 -0.006248
0.683154 0.886550 -0.006338
0.751121 0.886550 -0.006426
0.818914 0.886550 -0.006541
0.886549 0.886549 -0.006653
0.948071 0.880996 -0.006708
0.999990 0.868561 -0.006763
-0.006367 0.948071 -0.006367
0.058572 0.948071 -0.006367
0.128301 0.948071 -0.006397
0.198748 0.948071 -0.006397
0.268472 0.948071 -0.006426
0.337680 0.948071 -0.006455
0.406485 0.948071 -0.006484
0.474960 0.948071 -0.006513
0.543156 0.948071 -0.006569
0.611109 0.948071 -0.006653
0.678850 0.948071 -0.006708
0.746399 0.948071 -0.006790
0.813776 0.948071 -0.006896
0.880996 0.948071 -0.007001
0.948071 0.948071 -0.007103
0.999990 0.934707 -0.007128
-0.006736 0.999990 -0.006736
0.057611 0.999990 -0.006736
0.126274 0.999990 -0.006736
0.195751 0.999990 -0.006763
0.264513 0.999990 -0.006763
0.332764 0.999990 -0.006790
0.400618 0.999990 -0.006817
0.468145 0.999990 -0.006870
0.535397 0.999990 -0.006923
0.602410 0.999990 -0.006975
0.669213 0.999990 -0.007052
0.735827 0.999990 -0.007128
0.802271 0.999990 -0.007203
0.868560 0.999990 -0.007302
0.934706 0.999990 -0.007398
0.999990 0.999990 -0.007516
-0.000140 -0.000140 0.045314
0.045314 -0.000248 0.045314
0.108025 -0.000484 0.049265
0.176648 -0.000746 0.051730
0.246993 -0.001020 0.053556
0.318663 -0.001304 0.055018
0.391416 -0.001589 0.056239
0.465083 -0.001890 0.057292
0.539276 -0.002181 0.058187
0.612317 -0.002481 0.058790
0.683825 -0.002774 0.059144
0.753609 -0.003049 0.059297
0.821362 -0.003331 0.059272
0.886552 -0.003590 0.059068
0.948073 -0.003841 0.058639
0.999990 -0.004070 0.057689
-0.000378 0.045314 0.045314
0.045314 0.045314 0.045314
0.113355 0.040975 0.040975
0.184117 0.031807 0.031807
0.253223 0.024887 0.024887
0.323403 0.021253 0.021253
0.395064 0.019683 0.019683
0.467930 0.018947 0.018947
0.541525 0.018732 0.018732
0.614115 0.018863 0.018863
0.685274 0.019217 0.019217
0.754780 0.019736 0.019736
0.822306 0.020353 0.020353
0.887309 0.021041 0.021041
0.948675 0.021771 0.021771
0.999990 0.034960 0.034960
-0.000786 0.108025 0.049264
0.032574 0.109811 0.032574
0.108637 0.108637 0.030596
0.180221 0.110391 0.026542
0.250980 0.111621 0.022687
0.322203 0.112982 0.020387
0.394391 0.114505 0.019365
0.467537 0.116035 0.018891
0.541286 0.117459 0.018801
0.613963 0.118446 0.018991
0.685174 0.119042 0.019370
0.754713 0.119308 0.019899
0.822260 0.119272 0.020525
0.887276 0.118921 0.021212
0.948652 0.118166 0.021928
0.999990 0.118858 0.034958
-0.001228 0.176648 0.051728
0.023679 0.178219 0.023679
0.108502 0.177879 0.023247
0.177326 0.177326 0.022540
0.248927 0.181327 0.020768
0.320856 0.184626 0.019544
0.393511 0.187580 0.019087
0.466964 0.190271 0.018917
0.540909 0.192645 0.018996
0.613711 0.194240 0.019266
0.685002 0.195162 0.019696
0.754593 0.195531 0.020235
0.822175 0.195399 0.020865
0.887216 0.194749 0.021549
0.948608 0.193447 0.022253
0.999990 0.191755 0.034956
-0.001682 0.246992 0.053553
0.020039 0.248232 0.020039
0.109919 0.248119 0.019959
0.180538 0.247916 0.019825
0.247652 0.247652 0.019675
0.319844 0.252616 0.019161
0.392738 0.256915 0.019097
0.466396 0.260742 0.019167
0.540499 0.264058 0.019391
0.613416 0.266269 0.019755
0.684789 0.267538 0.020216
0.754438 0.268039 0.020777
0.822062 0.267849 0.021402
0.887132 0.266953 0.022071
0.948546 0.265170 0.022752
0.999990 0.261940 0.034952
-0.002156 0.318663 0.055012
0.019109 0.319593 0.019109
0.111821 0.319547 0.019117
0.183776 0.319461 0.019142
0.252215 0.319341 0.019195
0.319198 0.319198 0.019295
0.392175 0.324757 0.019467
0.465935 0.329687 0.019720
0.540135 0.333935 0.020052
0.613133 0.336766 0.020474
0.684572 0.338393 0.020967
0.754273 0.339042 0.021535
0.821936 0.338812 0.022150
0.887036 0.337689 0.022793
0.948472 0.335451 0.023455
0.999990 0.330957 0.034946
-0.002640 0.391415 0.056231
0.019568 0.392091 0.019568
0.113807 0.392069 0.019604
0.186877 0.392027 0.019678
0.256419 0.391965 0.019797
0.324522 0.391888 0.019972
0.391801 0.391801 0.020206
0.465599 0.397796 0.020555
0.539848 0.402957 0.020973
0.612895 0.406403 0.021435
0.684378 0.408391 0.021945
0.754117 0.409193 0.022508
0.821812 0.408933 0.023106
0.886939 0.407596 0.023726
0.948396 0.404916 0.024350
0.999990 0.399285 0.034938
-0.003120 0.465082 0.057279
0.020603 0.465584 0.020603
0.115735 0.465573 0.020646
0.189782 0.465550 0.020734
0.260298 0.465517 0.020871
0.329382 0.465473 0.021068
0.397651 0.465422 0.021341
0.465367 0.465367 0.021674
0.539636 0.471423 0.022132
0.612708 0.475474 0.022623
0.684218 0.477820 0.023145
0.753982 0.478776 0.023686
0.821701 0.478491 0.024265
0.886847 0.476944 0.024856
0.948322 0.473832 0.025429
0.999990 0.467137 0.034929
-0.003623 0.539276 0.058170
0.022019 0.539651 0.022019
0.117512 0.539645 0.022063
0.192379 0.539632 0.022156
0.263727 0.539613 0.022302
0.333650 0.539588 0.022505
0.402764 0.539558 0.022767
0.471331 0.539524 0.023109
0.539488 0.539488 0.023513
0.612570 0.544134 0.024013
0.684094 0.546832 0.024525
0.753873 0.547942 0.025065
0.821607 0.547631 0.025609
0.886768 0.545879 0.026157
0.948255 0.542338 0.026692
0.999990 0.534625 0.034917
-0.004111 0.612316 0.058766
0.023682 0.612597 0.023682
0.118828 0.612594 0.023726
0.194189 0.612586 0.023816
0.266074 0.612575 0.023958
0.336548 0.612560 0.024155
0.406220 0.612541 0.024409
0.475351 0.612520 0.024735
0.544075 0.612497 0.025127
0.612474 0.612474 0.025588
0.684003 0.615519 0.026091
0.753790 0.616779 0.026605
0.821533 0.616443 0.027116
0.886703 0.614487 0.027634
0.948199 0.610521 0.028116
0.999990 0.601818 0.034903
-0.004589 0.683824 0.059114
0.025507 0.684032 0.025507
0.119744 0.684030 0.025550
0.195320 0.684025 0.025635
0.267488 0.684018 0.025766
0.338267 0.684009 0.025954
0.408254 0.683998 0.026196
0.477705 0.683985 0.026507
0.546754 0.683970 0.026876
0.615481 0.683955 0.027309
0.683940 0.683940 0.027806
0.753730 0.685348 0.028296
0.821477 0.684986 0.028780
0.886653 0.682826 0.029255
0.948155 0.678437 0.029685
0.999990 0.668764 0.034887
-0.005066 0.753608 0.059259
0.027433 0.753757 0.027433
0.120339 0.753756 0.027471
0.195895 0.753753 0.027549
0.268138 0.753749 0.027672
0.339019 0.753743 0.027846
0.409122 0.753736 0.028076
0.478696 0.753728 0.028368
0.547873 0.753718 0.028712
0.616732 0.753709 0.029123
0.685325 0.753699 0.029590
0.753689 0.753689 0.030124
0.821438 0.753300 0.030571
0.886616 0.750936 0.031004
0.948121 0.746124 0.031384
0.999990 0.735497 0.034869
-0.005524 0.821360 0.059226
0.029422 0.821461 0.029422
0.120645 0.821460 0.029455
0.195971 0.821458 0.029529
0.268100 0.821456 0.029641
0.338902 0.821452 0.029805
0.408942 0.821448 0.030019
0.478463 0.821443 0.030288
0.547592 0.821437 0.030607
0.616408 0.821431 0.030993
0.684961 0.821425 0.031430
0.753287 0.821419 0.031928
0.821414 0.821414 0.032478
0.886592 0.818846 0.032869
0.948098 0.813613 0.033195
0.999990 0.802041 0.034839
-0.005967 0.886550 0.059011
0.031414 0.886610 0.031414
0.120654 0.886609 0.031447
0.195535 0.886608 0.031512
0.267356 0.886607 0.031622
0.337895 0.886605 0.031772
0.407692 0.886602 0.031972
0.476980 0.886599 0.032218
0.545884 0.886596 0.032518
0.614478 0.886592 0.032873
0.682814 0.886589 0.033277
0.750926 0.886586 0.033743
0.818841 0.886582 0.034257
0.886580 0.886580 0.034833
0.948085 0.880926 0.035109
0.999990 0.868416 0.034803
-0.006367 0.948071 0.058572
0.033364 0.948097 0.033364
0.120274 0.948096 0.033396
0.194451 0.948096 0.033457
0.265729 0.948095 0.033557
0.335776 0.948094 0.033694
0.405104 0.948092 0.033877
0.473938 0.948091 0.034103
0.542395 0.948089 0.034384
0.610550 0.948087 0.034714
0.678449 0.948085 0.035087
0.746129 0.948084 0.035521
0.813614 0.948083 0.035671
0.880926 0.948083 0.035664
0.948083 0.948083 0.035656
0.999990 0.934638 0.034772
-0.006736 0.999990 0.057611
0.034801 0.999990 0.034801
0.118818 0.999990 0.034801
0.191734 0.999990 0.034799
0.261926 0.999990 0.034799
0.330947 0.999990 0.034797
0.399278 0.999990 0.034795
0.467131 0.999990 0.034791
0.534621 0.999990 0.034788
0.601815 0.999990 0.034784
0.668762 0.999990 0.034780
0.735496 0.999990 0.034774
0.802040 0.999990 0.034767
0.868416 0.999990 0.034759
0.934638 0.999990 0.034752
0.999990 0.999990 0.034742
-0.000300 -0.000300 0.108025
0.049265 -0.000361 0.108025
0.108025 -0.000532 0.108025
0.176648 -0.000777 0.113406
0.246993 -0.001043 0.117364
0.318663 -0.001320 0.120516
0.391416 -0.001602 0.123145
0.465083 -0.001900 0.125407
0.539276 -0.002197 0.127325
0.612317 -0.002481 0.128614
0.683825 -0.002774 0.129376
0.753609 -0.003060 0.129709
0.821362 -0.003331 0.129662
0.886552 -0.003607 0.129232
0.948073 -0.003856 0.128328
0.999990 -0.004070 0.126306
-0.000467 0.049265 0.108025
0.043430 0.043430 0.114111
0.113010 0.039129 0.113010
0.183551 0.030906 0.113107
0.252912 0.024548 0.112796
0.323251 0.021128 0.113474
0.394984 0.019639 0.114726
0.467885 0.018937 0.116135
0.541499 0.018737 0.117501
0.614098 0.018875 0.118460
0.685263 0.019232 0.119041
0.754773 0.019752 0.119299
0.822301 0.020371 0.119258
0.887306 0.021060 0.118904
0.948673 0.021786 0.118147
0.999990 0.034959 0.118858
-0.000811 0.108025 0.108025
0.031839 0.109377 0.109377
0.108025 0.108025 0.108025
0.184077 0.103610 0.103610
0.260297 0.093127 0.093127
0.334913 0.079911 0.079911
0.407226 0.069778 0.069778
0.479284 0.061806 0.061806
0.551594 0.055704 0.055704
0.622863 0.051128 0.051128
0.692814 0.047660 0.047660
0.761258 0.044994 0.044994
0.827866 0.042915 0.042915
0.892080 0.041275 0.041275
0.952777 0.039980 0.039980
0.999990 0.083927 0.083927
-0.001242 0.176648 0.113405
0.023523 0.178097 0.108673
0.091181 0.180859 0.091181
0.179043 0.179043 0.087279
0.255768 0.177275 0.080555
0.330157 0.174855 0.070931
0.403284 0.173187 0.063974
0.476350 0.172195 0.058178
0.549502 0.171697 0.053469
0.621389 0.171172 0.049760
0.691771 0.170539 0.046838
0.760514 0.169771 0.044518
0.827329 0.168822 0.042660
0.891687 0.167615 0.041165
0.952486 0.165996 0.039963
0.999990 0.175692 0.083926
-0.001694 0.246992 0.117363
0.020010 0.248192 0.109960
0.069927 0.252633 0.069927
0.171954 0.251650 0.068106
0.250290 0.250290 0.065620
0.325256 0.250778 0.062418
0.399271 0.251611 0.058259
0.473212 0.252683 0.054332
0.547126 0.253803 0.050953
0.619617 0.254320 0.048155
0.690457 0.254290 0.045846
0.759539 0.253797 0.043938
0.826603 0.252853 0.042355
0.891143 0.251401 0.041049
0.952075 0.249245 0.039969
0.999990 0.251984 0.083924
-0.002164 0.318663 0.120513
0.019111 0.319577 0.111831
0.057585 0.323681 0.057585
0.167991 0.323195 0.056808
0.248141 0.322500 0.055694
0.321656 0.321656 0.054343
0.396015 0.323891 0.053029
0.470488 0.326449 0.051033
0.544920 0.328803 0.048682
0.617868 0.330146 0.046649
0.689089 0.330600 0.044896
0.758477 0.330322 0.043385
0.825781 0.329365 0.042091
0.890508 0.327680 0.040982
0.951582 0.325033 0.040041
0.999990 0.324067 0.083922
-0.002640 0.391415 0.123142
0.019580 0.392083 0.113809
0.051414 0.395377 0.051414
0.166747 0.395119 0.051060
0.247973 0.394739 0.050541
0.322329 0.394256 0.049885
0.393703 0.393703 0.049149
0.468369 0.397355 0.048012
0.543096 0.400785 0.046920
0.616337 0.402864 0.045460
0.687827 0.403764 0.044152
0.757452 0.403692 0.042985
0.824956 0.402731 0.041944
0.889848 0.400835 0.041021
0.951055 0.397729 0.040212
0.999990 0.394243 0.083919
-0.003130 0.465082 0.125402
0.020618 0.465580 0.115733
0.047589 0.468202 0.047589
0.166817 0.468057 0.047432
0.249021 0.467838 0.047196
0.324172 0.467551 0.046896
0.396337 0.467212 0.046554
0.466836 0.466836 0.046188
0.541676 0.471165 0.045312
0.615082 0.473915 0.044633
0.686747 0.475228 0.043709
0.756536 0.475350 0.042809
0.824190 0.474387 0.041976
0.889214 0.472291 0.041212
0.950533 0.468747 0.040518
0.999990 0.463336 0.083915
-0.003623 0.539276 0.127318
0.022034 0.539649 0.117509
0.045285 0.541737 0.045285
0.167476 0.541651 0.045224
0.250533 0.541519 0.045134
0.326395 0.541343 0.045020
0.399256 0.541129 0.044891
0.470468 0.540886 0.044760
0.540622 0.540622 0.044641
0.614099 0.543958 0.043988
0.685860 0.545646 0.043507
0.755758 0.545949 0.042888
0.823517 0.544978 0.042219
0.888639 0.542687 0.041581
0.950046 0.538714 0.040989
0.999990 0.531719 0.083911
-0.004111 0.612316 0.128605
0.023697 0.612596 0.118824
0.044018 0.614268 0.044018
0.167989 0.614214 0.044004
0.251576 0.614131 0.043990
0.327885 0.614019 0.043970
0.401183 0.613880 0.043960
0.472843 0.613719 0.043960
0.543462 0.613540 0.043978
0.613349 0.613349 0.044024
0.685157 0.615372 0.043534
0.755116 0.615830 0.043139
0.822947 0.614846 0.042684
0.888138 0.612357 0.042147
0.949610 0.607960 0.041623
0.999990 0.599595 0.083906
-0.004589 0.683824 0.129364
0.025522 0.684031 0.119740
0.043430 0.685372 0.043430
0.168247 0.685337 0.043442
0.252088 0.685284 0.043468
0.328614 0.685210 0.043506
0.402128 0.685118 0.043556
0.474013 0.685009 0.043633
0.544870 0.684885 0.043730
0.615010 0.684751 0.043862
0.684610 0.684610 0.044025
0.754601 0.685203 0.043630
0.822472 0.684189 0.043272
0.887712 0.681500 0.042886
0.949232 0.676679 0.042426
0.999990 0.667082 0.083900
-0.005066 0.753608 0.129694
0.027445 0.753756 0.120335
0.043313 0.754830 0.043313
0.168241 0.754807 0.043340
0.252106 0.754771 0.043386
0.328660 0.754721 0.043452
0.402209 0.754658 0.043539
0.474138 0.754583 0.043658
0.545051 0.754497 0.043803
0.615256 0.754402 0.043979
0.684933 0.754300 0.044194
0.754194 0.754194 0.044445
0.822088 0.753140 0.044095
0.887356 0.750240 0.043755
0.948909 0.744994 0.043377
0.999990 0.734259 0.083893
-0.005524 0.821360 0.129643
0.029433 0.821461 0.120641
0.043524 0.822313 0.043524
0.167947 0.822297 0.043558
0.251631 0.822273 0.043615
0.328037 0.822238 0.043699
0.401454 0.822195 0.043808
0.473264 0.822142 0.043947
0.544067 0.822081 0.044114
0.614172 0.822013 0.044316
0.683758 0.821939 0.044565
0.752936 0.821862 0.044847
0.821781 0.821781 0.045164
0.887066 0.818665 0.044826
0.948637 0.812988 0.044455
0.999990 0.801176 0.083782
-0.005967 0.886550 0.129209
0.031426 0.886610 0.120649
0.043970 0.887278 0.043970
0.167316 0.887267 0.044008
0.250603 0.887250 0.044070
0.326675 0.887226 0.044155
0.399786 0.887195 0.044270
0.471305 0.887157 0.044424
0.541830 0.887114 0.044610
0.611666 0.887065 0.044829
0.680990 0.887011 0.045082
0.749913 0.886953 0.045376
0.818509 0.886893 0.045713
0.886831 0.886831 0.046088
0.948415 0.880722 0.045717
0.999990 0.867874 0.083616
-0.006367 0.948071 0.128301
0.033374 0.948097 0.120269
0.044562 0.948611 0.044562
0.166211 0.948603 0.044605
0.248827 0.948591 0.044668
0.324331 0.948574 0.044760
0.396911 0.948552 0.044883
0.467922 0.948525 0.045034
0.537951 0.948493 0.045220
0.607301 0.948457 0.045443
0.676149 0.948418 0.045703
0.744604 0.948375 0.045997
0.812737 0.948330 0.046332
0.880602 0.948283 0.046716
0.948235 0.948235 0.047131
0.999990 0.934382 0.083552
-0.006736 0.999990 0.126274
0.034801 0.999990 0.118818
0.083562 0.999990 0.083562
0.175549 0.999990 0.083562
0.251898 0.999990 0.083562
0.324008 0.999990 0.083561
0.394201 0.999990 0.083560
0.463303 0.999990 0.083560
0.531695 0.999990 0.083558
0.599576 0.999990 0.083557
0.667068 0.999990 0.083555
0.734249 0.999990 0.083552
0.801171 0.999990 0.083550
0.867873 0.999990 0.083547
0.934382 0.999990 0.083545
0.999990 0.999990 0.083541
-0.000471 -0.000471 0.176648
0.051730 -0.000509 0.176648
0.113406 -0.000643 0.176648
0.176648 -0.000831 0.176648
0.246993 -0.001083 0.182511
0.318663 -0.001349 0.187180
0.391416 -0.001627 0.191076
0.465083 -0.001919 0.194428
0.539276 -0.002213 0.197269
0.612317 -0.002509 0.199181
0.683825 -0.002786 0.200311
0.753609 -0.003070 0.200806
0.821362 -0.003349 0.200738
0.886552 -0.003607 0.200100
0.948073 -0.003856 0.198763
0.999990 -0.004070 0.195769
-0.000589 0.051730 0.176648
0.038802 0.038802 0.187560
0.115203 0.034452 0.185992
0.182539 0.029327 0.182539
0.252350 0.023938 0.184009
0.322966 0.020899 0.185953
0.394831 0.019555 0.188262
0.467798 0.018918 0.190627
0.541446 0.018749 0.192831
0.614066 0.018901 0.194336
0.685242 0.019262 0.195207
0.754759 0.019786 0.195547
0.822292 0.020408 0.195396
0.887299 0.021095 0.194735
0.948668 0.021819 0.193427
0.999990 0.034959 0.191755
-0.000899 0.113406 0.176648
0.028762 0.111892 0.182119
0.103213 0.103213 0.185850
0.184188 0.099599 0.184188
0.260165 0.090181 0.182374
0.334384 0.078179 0.178910
0.406738 0.068841 0.175901
0.478925 0.061277 0.173883
0.551345 0.055401 0.172722
0.622692 0.050948 0.171794
0.692696 0.047556 0.170920
0.761176 0.044933 0.170005
0.827807 0.042882 0.168965
0.892038 0.041259 0.167700
0.952745 0.039974 0.166045
0.999990 0.083922 0.175691
-0.001273 0.176648 0.176648
0.023235 0.177870 0.177870
0.089802 0.180242 0.180242
0.176647 0.176647 0.176647
0.256964 0.171777 0.171777
0.335162 0.162081 0.162081
0.412614 0.150306 0.150306
0.489138 0.136838 0.136838
0.563747 0.123816 0.123816
0.635652 0.112245 0.112245
0.705279 0.102246 0.102246
0.772907 0.093749 0.093749
0.838482 0.086538 0.086538
0.901604 0.080408 0.080408
0.961244 0.075225 0.075225
0.999990 0.140583 0.140583
-0.001717 0.246992 0.182510
0.019956 0.248115 0.180691
0.069284 0.252287 0.172601
0.153224 0.254472 0.153224
0.252335 0.252335 0.148587
0.330973 0.247214 0.148416
0.408391 0.242445 0.137048
0.484382 0.237865 0.125955
0.559194 0.233724 0.115521
0.631739 0.229776 0.106143
0.702101 0.226077 0.097874
0.770400 0.222623 0.090654
0.836533 0.219335 0.084360
0.900098 0.216086 0.078884
0.960080 0.212654 0.074168
0.999990 0.232655 0.140582
-0.002181 0.318663 0.187179
0.019117 0.319546 0.183825
0.057313 0.323511 0.168260
0.127589 0.328580 0.127589
0.238288 0.327108 0.124474
0.325189 0.325189 0.120525
0.402348 0.321954 0.121760
0.478774 0.320471 0.115090
0.554235 0.319084 0.107047
0.627521 0.317243 0.099730
0.698619 0.315036 0.093130
0.767584 0.312557 0.087191
0.834286 0.309807 0.081860
0.898316 0.306695 0.077102
0.958671 0.302976 0.072912
0.999990 0.311187 0.140581
-0.002652 0.391415 0.191074
0.019605 0.392068 0.186894
0.051292 0.395288 0.166867
0.111225 0.400557 0.111225
0.229208 0.399637 0.109432
0.317326 0.398440 0.107107
0.397029 0.397029 0.104372
0.473680 0.396427 0.102594
0.549661 0.396778 0.099410
0.623558 0.396174 0.093778
