assets/luts/LUTs/TG_D-LOG-M_2_MIDI.CUBE
LUT_3D_SIZE 6
0.000000 0.000000 0.000000
0.130631 -0.000684 -0.000684
0.370206 -0.001557 -0.001557
0.608535 -0.002509 -0.002509
0.829209 -0.003385 -0.003385
0.999990 -0.004057 -0.004057
-0.001131 0.130631 -0.001131
0.130630 0.130630 -0.001260
0.370206 0.180254 -0.001910
0.608534 0.197879 -0.002738
0.829209 0.202779 -0.003540
0.999990 0.195767 -0.004179
-0.002588 0.370206 -0.002588
0.180253 0.370206 -0.002640
0.370205 0.370205 -0.002877
0.608534 0.404752 -0.003524
0.829209 0.414358 -0.004152
0.999990 0.400620 -0.004635
-0.004152 0.608534 -0.004152
0.197874 0.608533 -0.004192
0.404751 0.608533 -0.004347
0.608533 0.608533 -0.004635
0.829208 0.622778 -0.005107
0.999990 0.602409 -0.005415
-0.005613 0.829208 -0.005613
0.202769 0.829208 -0.005631
0.414355 0.829207 -0.005734
0.622777 0.829207 -0.005934
0.829207 0.829207 -0.006248
0.999990 0.802267 -0.006397
-0.006736 0.999990 -0.006736
0.195750 0.999990 -0.006763
0.400615 0.999990 -0.006817
0.602407 0.999990 -0.006975
0.802267 0.999990 -0.007203
0.999990 0.999990 -0.007516
-0.000436 -0.000436 0.130631
0.130631 -0.000773 0.130631
0.370206 -0.001602 0.180254
0.608535 -0.002536 0.197880
0.829209 -0.003402 0.202779
0.999990 -0.004070 0.195768
-0.001181 0.130630 0.130630
0.130630 0.130630 0.130630
0.381100 0.118547 0.118547
0.626916 0.087460 0.087460
0.844682 0.068110 0.068110
0.999990 0.113258 0.113258
-0.002601 0.370206 0.180253
0.088628 0.376687 0.088628
0.373701 0.373701 0.082560
0.617536 0.390448 0.071494
0.838846 0.391954 0.061598
0.999990 0.379424 0.113255
-0.004165 0.608534 0.197875
0.062999 0.612479 0.062999
0.386032 0.611624 0.061795
0.610231 0.610231 0.059873
0.833407 0.616807 0.056059
0.999990 0.593220 0.113249
-0.005613 0.829208 0.202769
0.054067 0.831534 0.054067
0.387791 0.831233 0.053848
0.614731 0.830693 0.053497
0.829989 0.829989 0.053129
0.999990 0.798714 0.113050
-0.006736 0.999990 0.195750
0.112611 0.999990 0.112611
0.379310 0.999990 0.112610
0.593172 0.999990 0.112608
0.798701 0.999990 0.112605
0.999990 0.999990 0.112601
-0.000995 -0.000995 0.370207
0.180255 -0.001196 0.370207
0.370206 -0.001762 0.370206
0.608535 -0.002640 0.404753
0.829209 -0.003472 0.414359
0.999990 -0.004125 0.400621
-0.001543 0.180255 0.370206
0.120925 0.120925 0.380334
0.382753 0.109762 0.382753
0.625625 0.084519 0.396612
0.843881 0.067110 0.394778
0.999990 0.113202 0.379415
-0.002690 0.370206 0.370206
0.086351 0.375601 0.375601
0.370205 0.370205 0.370205
0.619542 0.359611 0.359611
0.847493 0.336171 0.336171
0.999990 0.339836 0.339836
-0.004218 0.608533 0.404751
0.062567 0.612174 0.386430
0.322533 0.618501 0.322533
0.615120 0.615120 0.308403
0.846754 0.599025 0.293654
0.999990 0.577433 0.339833
-0.005648 0.829207 0.414355
0.053990 0.831429 0.387894
0.252539 0.839733 0.252539
0.582975 0.837168 0.244918
0.833436 0.833436 0.234360
0.999990 0.792592 0.338676
-0.006763 0.999990 0.400615
0.112611 0.999990 0.379310
0.330587 0.999990 0.330587
0.574013 0.999990 0.330586
0.791483 0.999990 0.330585
0.999990 0.999990 0.330584
-0.001596 -0.001596 0.608535
0.197881 -0.001729 0.608535
0.404753 -0.002181 0.608535
0.608534 -0.002832 0.608534
0.829209 -0.003607 0.622780
0.999990 -0.004231 0.602410
-0.001996 0.197881 0.608535
0.109808 0.109808 0.629826
0.400788 0.095457 0.630638
0.623213 0.079407 0.623213
0.842421 0.065296 0.623736
0.999990 0.113086 0.593208
-0.003060 0.404752 0.608534
0.077715 0.393876 0.622196
0.349799 0.349799 0.623202
0.621061 0.344741 0.621061
0.849224 0.327349 0.608674
0.999990 0.338063 0.576770
-0.004321 0.608533 0.608533
0.061763 0.611601 0.611601
0.317658 0.617485 0.617485
0.608533 0.608533 0.608533
0.839168 0.600837 0.600837
0.999990 0.593280 0.593280
-0.005717 0.829207 0.622777
0.053842 0.831224 0.615134
0.249853 0.838843 0.584965
0.576743 0.836454 0.576743
0.834283 0.834283 0.570885
0.999990 0.798742 0.593279
-0.006817 0.999990 0.602407
0.112610 0.999990 0.593172
0.330587 0.999990 0.574013
0.574316 0.999990 0.574316
0.791595 0.999990 0.574316
0.999990 0.999990 0.574315
-0.002156 -0.002156 0.829209
0.202782 -0.002245 0.829209
0.414360 -0.002588 0.829209
0.622780 -0.003150 0.829209
0.829209 -0.003826 0.829209
0.999990 -0.004372 0.802268
-0.002454 0.202782 0.829209
0.089916 0.089916 0.860386
0.401563 0.081208 0.855487
0.627708 0.070931 0.847554
0.840465 0.062874 0.840465
0.999990 0.112899 0.798710
-0.003349 0.414359 0.829209
0.069779 0.396279 0.846575
0.335139 0.335139 0.853151
0.609467 0.328934 0.849846
0.851143 0.311101 0.851143
0.999990 0.335098 0.792097
-0.004542 0.622779 0.829208
0.058175 0.618808 0.836032
0.300470 0.603205 0.850918
0.587787 0.587787 0.843385
0.841028 0.584175 0.841028
0.999990 0.586493 0.796157
-0.005836 0.829207 0.829207
0.053639 0.830921 0.830921
0.245768 0.837461 0.837461
0.575254 0.835721 0.835721
0.829207 0.829207 0.829207
0.999990 0.826587 0.826587
-0.006896 0.999990 0.802267
0.112609 0.999990 0.798701
0.330586 0.999990 0.791483
0.574316 0.999990 0.791595
0.816946 0.999990 0.816946
0.999990 0.999990 0.816946
-0.002588 -0.002588 0.999990
0.195772 -0.002652 0.999990
0.400623 -0.002911 0.999990
0.602410 -0.003367 0.999990
0.802268 -0.003929 0.999990
0.999990 -0.004589 0.999990
-0.002797 0.195772 0.999990
0.112642 0.112642 0.999990
0.379316 0.112641 0.999990
0.593174 0.112639 0.999990
0.798702 0.112636 0.999990
0.999990 0.112632 0.999990
-0.003524 0.400622 0.999990
0.112639 0.379315 0.999990
0.330598 0.330598 0.999990
0.574017 0.330597 0.999990
0.791484 0.330596 0.999990
0.999990 0.330594 0.999990
-0.004565 0.602409 0.999990
0.112632 0.593174 0.999990
0.330595 0.574017 0.999990
0.574320 0.574320 0.999990
0.791596 0.574319 0.999990
0.999990 0.574319 0.999990
-0.005751 0.802268 0.999990
0.112622 0.798702 0.999990
0.330591 0.791484 0.999990
0.574318 0.791596 0.999990
0.816947 0.816947 0.999990
0.999990 0.816947 0.999990
-0.007001 0.999990 0.999990
0.112608 0.999990 0.999990
0.330586 0.999990 0.999990
0.574316 0.999990 0.999990
0.816946 0.999990 0.999990
0.999990 0.999990 0.999990
