assets/luts/LUTs/TG_D-LOG-M_2_MIDI.CUBE
LUT_3D_SIZE 16
0.000000 0.000000 0.000000
0.027604 -0.000184 -0.000184
0.072110 -0.000421 -0.000421
0.130631 -0.000684 -0.000684
0.202730 -0.000964 -0.000964
0.285712 -0.001256 -0.001256
0.370206 -0.001557 -0.001557
0.450651 -0.001869 -0.001869
0.530204 -0.002197 -0.002197
0.608535 -0.002509 -0.002509
0.684880 -0.002809 -0.002809
0.758680 -0.003100 -0.003100
0.829209 -0.003385 -0.003385
0.895403 -0.003639 -0.003639
0.955322 -0.003885 -0.003885
0.999990 -0.004057 -0.004057
-0.000307 0.027604 -0.000307
0.027604 0.027604 -0.000341
0.072110 0.032888 -0.000518
0.130631 0.037740 -0.000748
0.202730 0.043256 -0.001008
0.285712 0.048779 -0.001291
0.370206 0.052850 -0.001589
0.450651 0.055299 -0.001900
0.530204 0.057083 -0.002213
0.608535 0.058376 -0.002522
0.684880 0.059247 -0.002832
0.758680 0.059753 -0.003120
0.829209 0.059920 -0.003402
0.895403 0.059743 -0.003655
0.955322 0.059154 -0.003885
0.999990 0.057689 -0.004070
-0.000700 0.072110 -0.000700
0.032888 0.072110 -0.000715
0.072110 0.072110 -0.000777
0.130631 0.082759 -0.000960
0.202730 0.094855 -0.001181
0.285712 0.106967 -0.001431
0.370206 0.115840 -0.001706
0.450651 0.121128 -0.001996
0.530204 0.124961 -0.002300
0.608535 0.127735 -0.002601
0.684880 0.129597 -0.002889
0.758680 0.130678 -0.003180
0.829209 0.131039 -0.003438
0.895403 0.130669 -0.003703
0.955322 0.129423 -0.003929
0.999990 0.126304 -0.004111
-0.001131 0.130631 -0.001131
0.037739 0.130630 -0.001141
0.082759 0.130630 -0.001186
0.130630 0.130630 -0.001260
0.202730 0.149026 -0.001453
0.285712 0.167109 -0.001670
0.370206 0.180254 -0.001910
0.450651 0.188087 -0.002181
0.530203 0.193768 -0.002468
0.608534 0.197879 -0.002738
0.684880 0.200638 -0.003018
0.758680 0.202241 -0.003294
0.829209 0.202779 -0.003540
0.895403 0.202230 -0.003796
0.955322 0.200386 -0.004015
0.999990 0.195767 -0.004179
-0.001596 0.202729 -0.001596
0.043253 0.202729 -0.001602
0.094854 0.202729 -0.001634
0.149026 0.202729 -0.001688
0.202729 0.202729 -0.001779
0.285711 0.226632 -0.001977
0.370206 0.244009 -0.002197
0.450651 0.254365 -0.002432
0.530203 0.261876 -0.002690
0.608534 0.267312 -0.002954
0.684880 0.270959 -0.003209
0.758680 0.273079 -0.003455
0.829209 0.273790 -0.003703
0.895403 0.273066 -0.003929
0.955322 0.270628 -0.004139
0.999990 0.264522 -0.004296
-0.002078 0.285711 -0.002078
0.048774 0.285711 -0.002087
0.106965 0.285711 -0.002104
0.167108 0.285711 -0.002156
0.226632 0.285711 -0.002221
0.285711 0.285711 -0.002315
0.370206 0.307292 -0.002522
0.450651 0.320154 -0.002738
0.530203 0.329481 -0.002986
0.608534 0.336232 -0.003218
0.684880 0.340762 -0.003455
0.758680 0.343395 -0.003687
0.829209 0.344278 -0.003900
0.895403 0.343380 -0.004111
0.955322 0.340352 -0.004309
0.999990 0.332770 -0.004446
-0.002588 0.370206 -0.002588
0.052842 0.370206 -0.002588
0.115837 0.370206 -0.002601
0.180253 0.370206 -0.002640
0.244009 0.370206 -0.002702
0.307292 0.370205 -0.002786
0.370205 0.370205 -0.002877
0.450650 0.385559 -0.003090
0.530203 0.396694 -0.003312
0.608534 0.404752 -0.003524
0.684880 0.410159 -0.003750
0.758679 0.413303 -0.003958
0.829209 0.414358 -0.004152
0.895403 0.413285 -0.004347
0.955322 0.409672 -0.004518
0.999990 0.400620 -0.004635
-0.003100 0.450650 -0.003100
0.055287 0.450650 -0.003110
0.121123 0.450650 -0.003120
0.188085 0.450650 -0.003150
0.254364 0.450650 -0.003199
0.320153 0.450650 -0.003275
0.385558 0.450650 -0.003349
0.450650 0.450650 -0.003455
0.530203 0.463584 -0.003671
0.608534 0.472944 -0.003871
0.684879 0.479225 -0.004070
0.758679 0.482877 -0.004257
0.829208 0.484102 -0.004446
0.895403 0.482857 -0.004612
0.955322 0.478660 -0.004770
0.999990 0.468146 -0.004857
-0.003639 0.530203 -0.003639
0.057066 0.530203 -0.003639
0.124955 0.530203 -0.003655
0.193765 0.530203 -0.003671
0.261874 0.530203 -0.003718
0.329480 0.530202 -0.003780
0.396693 0.530202 -0.003856
0.463584 0.530202 -0.003944
0.530202 0.530202 -0.004057
0.608533 0.540859 -0.004244
0.684879 0.548011 -0.004421
0.758679 0.552168 -0.004589
0.829208 0.553564 -0.004770
0.895403 0.552145 -0.004921
0.955321 0.547366 -0.005046
0.999990 0.535396 -0.005127
-0.004152 0.608534 -0.004152
0.058353 0.608534 -0.004165
0.127726 0.608534 -0.004165
0.197874 0.608533 -0.004192
0.267309 0.608533 -0.004231
0.336230 0.608533 -0.004283
0.404751 0.608533 -0.004347
0.472943 0.608533 -0.004421
0.540859 0.608533 -0.004518
0.608533 0.608533 -0.004635
0.684879 0.616552 -0.004792
0.758679 0.621214 -0.004963
0.829208 0.622778 -0.005107
0.895402 0.621188 -0.005245
0.955321 0.615830 -0.005359
0.999990 0.602409 -0.005415
-0.004658 0.684879 -0.004658
0.059217 0.684879 -0.004658
0.129585 0.684879 -0.004681
0.200632 0.684879 -0.004703
0.270955 0.684879 -0.004726
0.340759 0.684879 -0.004770
0.410158 0.684879 -0.004836
0.479224 0.684879 -0.004900
0.548010 0.684878 -0.004984
0.616552 0.684878 -0.005087
0.684878 0.684878 -0.005186
0.758678 0.690043 -0.005340
0.829208 0.691776 -0.005470
0.895402 0.690014 -0.005596
0.955321 0.684079 -0.005683
0.999990 0.669211 -0.005717
-0.005147 0.758678 -0.005147
0.059715 0.758678 -0.005147
0.130663 0.758678 -0.005147
0.202233 0.758678 -0.005167
0.273074 0.758678 -0.005206
0.343391 0.758678 -0.005245
0.413301 0.758678 -0.005283
0.482876 0.758678 -0.005359
0.552167 0.758678 -0.005433
0.621213 0.758678 -0.005524
0.690042 0.758678 -0.005613
0.758678 0.758678 -0.005734
0.829207 0.760579 -0.005869
0.895402 0.758647 -0.005967
0.955321 0.752135 -0.006031
0.999990 0.735824 -0.006063
-0.005613 0.829208 -0.005613
0.059874 0.829208 -0.005613
0.131020 0.829208 -0.005613
0.202769 0.829208 -0.005631
0.273784 0.829207 -0.005666
0.344274 0.829207 -0.005700
0.414355 0.829207 -0.005734
0.484100 0.829207 -0.005802
0.553562 0.829207 -0.005869
0.622777 0.829207 -0.005934
0.691775 0.829207 -0.006031
0.760579 0.829207 -0.006125
0.829207 0.829207 -0.006248
0.895401 0.827104 -0.006338
0.955320 0.820017 -0.006397
0.999990 0.802267 -0.006397
-0.006031 0.895402 -0.006031
0.059685 0.895402 -0.006031
0.130646 0.895402 -0.006063
0.202218 0.895402 -0.006063
0.273058 0.895402 -0.006094
0.343374 0.895402 -0.006125
0.413281 0.895402 -0.006156
0.482854 0.895401 -0.006218
0.552143 0.895401 -0.006278
0.621186 0.895401 -0.006338
0.690013 0.895401 -0.006426
0.758646 0.895401 -0.006513
0.827103 0.895401 -0.006625
0.895401 0.895401 -0.006736
0.955320 0.887741 -0.006790
0.999990 0.868556 -0.006763
-0.006426 0.955320 -0.006426
0.059086 0.955320 -0.006426
0.129396 0.955320 -0.006426
0.200371 0.955320 -0.006455
0.270618 0.955320 -0.006484
0.340346 0.955320 -0.006513
0.409667 0.955320 -0.006541
0.478656 0.955320 -0.006569
0.547364 0.955320 -0.006625
0.615828 0.955320 -0.006708
0.684077 0.955320 -0.006763
0.752134 0.955320 -0.006870
0.820017 0.955320 -0.006949
0.887741 0.955320 -0.007052
0.955320 0.955320 -0.007178
0.999990 0.934701 -0.007128
-0.006736 0.999990 -0.006736
0.057610 0.999990 -0.006736
0.126273 0.999990 -0.006736
0.195750 0.999990 -0.006763
0.264511 0.999990 -0.006763
0.332762 0.999990 -0.006790
0.400615 0.999990 -0.006817
0.468142 0.999990 -0.006870
0.535394 0.999990 -0.006923
0.602407 0.999990 -0.006975
0.669209 0.999990 -0.007052
0.735823 0.999990 -0.007128
0.802267 0.999990 -0.007203
0.868556 0.999990 -0.007302
0.934701 0.999990 -0.007398
0.999990 0.999990 -0.007516
-0.000118 -0.000118 0.027604
0.027604 -0.000209 0.027604
0.072110 -0.000434 0.032888
0.130631 -0.000689 0.037740
0.202730 -0.000967 0.043256
0.285712 -0.001260 0.048779
0.370206 -0.001563 0.052850
0.450651 -0.001879 0.055299
0.530204 -0.002197 0.057083
0.608535 -0.002509 0.058376
0.684880 -0.002809 0.059247
0.758680 -0.003100 0.059754
0.829209 -0.003385 0.059921
0.895403 -0.003639 0.059743
0.955322 -0.003885 0.059154
0.999990 -0.004070 0.057689
-0.000318 0.027604 0.027604
0.027604 0.027604 0.027604
0.073866 0.026240 0.026240
0.135468 0.020453 0.020453
0.207639 0.015994 0.015994
0.289616 0.013624 0.013624
0.372979 0.012641 0.012641
0.452669 0.012296 0.012296
0.531782 0.012354 0.012354
0.609803 0.012668 0.012668
0.685911 0.013147 0.013147
0.759523 0.013717 0.013717
0.829901 0.014340 0.014340
0.895973 0.014995 0.014995
0.955793 0.015626 0.015626
0.999990 0.023983 0.023983
-0.000705 0.072110 0.032888
0.021025 0.073021 0.021025
0.072385 0.072385 0.019703
0.132988 0.080008 0.016905
0.205823 0.089587 0.014530
0.288587 0.099510 0.013078
0.372445 0.106852 0.012473
0.452377 0.111246 0.012301
0.531605 0.114508 0.012441
0.609690 0.116905 0.012789
0.685836 0.118527 0.013286
0.759471 0.119479 0.013862
0.829864 0.119803 0.014483
0.895946 0.119478 0.015123
0.955773 0.118369 0.015750
0.999990 0.116573 0.023982
-0.001136 0.130630 0.037739
0.015086 0.131594 0.015086
0.078786 0.131353 0.014795
0.130957 0.130957 0.014317
0.204132 0.147753 0.013270
0.287429 0.164433 0.012566
0.371747 0.176450 0.012354
0.451952 0.183544 0.012395
0.531326 0.188738 0.012647
0.609502 0.192514 0.013054
0.685705 0.195044 0.013554
0.759379 0.196502 0.014141
0.829797 0.196959 0.014763
0.895897 0.196390 0.015388
0.955736 0.194582 0.015990
0.999990 0.190564 0.023980
-0.001596 0.202729 0.043253
0.012858 0.203557 0.012858
0.088325 0.203463 0.012806
0.147111 0.203294 0.012723
0.203074 0.203074 0.012639
0.286559 0.225884 0.012399
0.371135 0.242331 0.012464
0.451531 0.252034 0.012671
0.531025 0.259097 0.013026
0.609282 0.264214 0.013480
0.685544 0.267633 0.014015
0.759260 0.269595 0.014590
0.829709 0.270204 0.015189
0.895829 0.269425 0.015808
0.955684 0.266980 0.016391
0.999990 0.261179 0.023977
-0.002078 0.285711 0.048774
0.012418 0.286345 0.012418
0.098597 0.286305 0.012431
0.163715 0.286231 0.012460
0.225540 0.286127 0.012517
0.286005 0.286005 0.012610
0.370692 0.306753 0.012842
0.451192 0.319009 0.013183
0.530758 0.327911 0.013602
0.609073 0.334352 0.014102
0.685381 0.338655 0.014639
0.759133 0.341124 0.015204
0.829610 0.341891 0.015796
0.895752 0.340919 0.016383
0.955622 0.337858 0.016923
0.999990 0.330423 0.023971
-0.002588 0.370206 0.052842
0.012943 0.370625 0.012943
0.106314 0.370608 0.012974
0.175894 0.370574 0.013040
0.241939 0.370526 0.013143
0.306568 0.370466 0.013293
0.370398 0.370398 0.013484
0.450947 0.385159 0.013905
0.530549 0.395874 0.014384
0.608898 0.403625 0.014905
0.685236 0.408804 0.015440
0.759015 0.411778 0.015991
0.829513 0.412709 0.016561
0.895673 0.411551 0.017111
0.955558 0.407887 0.017610
0.999990 0.398892 0.023965
-0.003110 0.450650 0.055287
0.013947 0.450936 0.013947
0.111000 0.450928 0.013982
0.183169 0.450912 0.014055
0.251699 0.450888 0.014167
0.318783 0.450856 0.014329
0.385054 0.450820 0.014550
0.450781 0.450781 0.014818
0.530399 0.463284 0.015344
0.608763 0.472330 0.015875
0.685119 0.478378 0.016416
0.758914 0.481855 0.016946
0.829427 0.482949 0.017475
0.895601 0.481609 0.017985
0.955496 0.477349 0.018445
0.999990 0.466838 0.023957
-0.003639 0.530203 0.057066
0.015254 0.530409 0.015254
0.114481 0.530405 0.015291
0.188511 0.530396 0.015365
0.258839 0.530383 0.015483
0.327697 0.530365 0.015651
0.395733 0.530344 0.015863
0.463219 0.530321 0.016130
0.530296 0.530296 0.016463
0.608666 0.540625 0.017002
0.685030 0.547534 0.017526
0.758834 0.551508 0.018037
0.829356 0.552765 0.018530
0.895539 0.551244 0.019008
0.955442 0.546395 0.019412
0.999990 0.534395 0.023947
-0.004152 0.608534 0.058353
0.016734 0.608685 0.016734
0.117071 0.608682 0.016768
0.192420 0.608677 0.016838
0.264040 0.608669 0.016956
0.334178 0.608659 0.017117
0.403486 0.608646 0.017321
0.472241 0.608632 0.017578
0.540584 0.608617 0.017889
0.608602 0.608602 0.018253
0.684967 0.616363 0.018768
0.758774 0.620831 0.019255
0.829302 0.622249 0.019725
0.895489 0.620548 0.020145
0.955397 0.615111 0.020507
0.999990 0.601641 0.023936
-0.004658 0.684879 0.059217
0.018305 0.684987 0.018305
0.118878 0.684986 0.018337
0.195075 0.684982 0.018402
0.267547 0.684978 0.018503
0.338534 0.684972 0.018654
0.408690 0.684964 0.018854
0.478290 0.684955 0.019097
0.547478 0.684946 0.019384
0.616338 0.684936 0.019734
0.684927 0.684927 0.020121
0.758734 0.689885 0.020590
0.829263 0.691461 0.021018
0.895452 0.689580 0.021402
0.955362 0.683557 0.021703
0.999990 0.668629 0.023922
-0.005147 0.758678 0.059715
0.019914 0.758752 0.019914
0.120014 0.758751 0.019945
0.196654 0.758749 0.020005
0.269598 0.758746 0.020102
0.341064 0.758743 0.020237
0.411701 0.758738 0.020423
0.481784 0.758733 0.020647
0.551455 0.758727 0.020918
0.620798 0.758721 0.021236
0.689870 0.758716 0.021605
0.758711 0.758711 0.022012
0.829238 0.760443 0.022411
0.895427 0.758382 0.022746
0.955338 0.751774 0.022997
0.999990 0.735396 0.023907
-0.005613 0.829208 0.059874
0.021518 0.829252 0.021518
0.120526 0.829252 0.021546
0.197230 0.829251 0.021601
0.270295 0.829249 0.021689
0.341897 0.829247 0.021813
0.412677 0.829244 0.021980
0.482906 0.829241 0.022192
0.552726 0.829238 0.022440
0.622220 0.829234 0.022731
0.691444 0.829231 0.023077
0.760436 0.829228 0.023457
0.829226 0.829226 0.023886
0.895413 0.826984 0.024184
0.955325 0.819792 0.024129
0.999990 0.801969 0.023886
-0.006031 0.895402 0.059685
0.023067 0.895423 0.023067
0.120394 0.895422 0.023093
0.196778 0.895422 0.023143
0.269602 0.895421 0.023224
0.340990 0.895420 0.023341
0.411567 0.895418 0.023491
0.481600 0.895416 0.023682
0.551227 0.895415 0.023912
0.620532 0.895413 0.024187
0.689569 0.895412 0.024412
0.758376 0.895412 0.024407
0.826983 0.895412 0.024402
0.895411 0.895411 0.024396
0.955324 0.887638 0.024107
0.999990 0.868369 0.023862
-0.006426 0.955320 0.059086
0.024127 0.955325 0.024127
0.119417 0.955325 0.024127
0.195049 0.955325 0.024126
0.267214 0.955325 0.024124
0.337972 0.955325 0.024124
0.407934 0.955325 0.024121
0.477361 0.955325 0.024120
0.546390 0.955325 0.024117
0.615101 0.955324 0.024112
0.683548 0.955324 0.024109
0.751769 0.955324 0.024103
0.819792 0.955324 0.024098
0.887638 0.955324 0.024092
0.955324 0.955324 0.024085
0.999990 0.934613 0.023841
-0.006736 0.999990 0.057610
0.023864 0.999990 0.023864
0.116554 0.999990 0.023864
0.190554 0.999990 0.023862
0.261173 0.999990 0.023862
0.330419 0.999990 0.023861
0.398889 0.999990 0.023859
0.466836 0.999990 0.023856
0.534393 0.999990 0.023853
0.601640 0.999990 0.023850
0.668628 0.999990 0.023847
0.735396 0.999990 0.023842
0.801969 0.999990 0.023836
0.868369 0.999990 0.023830
0.934613 0.999990 0.023824
0.999990 0.999990 0.023816
-0.000269 -0.000269 0.072110
0.032888 -0.000323 0.072110
0.072110 -0.000475 0.072110
0.130631 -0.000720 0.082759
0.202730 -0.000986 0.094855
0.285712 -0.001273 0.106967
0.370206 -0.001576 0.115840
0.450651 -0.001890 0.121128
0.530204 -0.002205 0.124962
0.608535 -0.002522 0.127735
0.684880 -0.002821 0.129597
0.758680 -0.003110 0.130678
0.829209 -0.003385 0.131040
0.895403 -0.003655 0.130669
0.955322 -0.003885 0.129424
0.999990 -0.004070 0.126305
-0.000417 0.032888 0.072110
0.027100 0.027100 0.073736
0.074105 0.025275 0.074105
0.135146 0.019885 0.081692
0.207394 0.015790 0.090454
0.289487 0.013546 0.099892
0.372916 0.012618 0.107014
0.452636 0.012294 0.111316
0.531762 0.012361 0.114539
0.609791 0.012679 0.116918
0.685903 0.013161 0.118530
0.759518 0.013732 0.119476
0.829898 0.014354 0.119797
0.895970 0.015008 0.119470
0.955791 0.015638 0.118360
0.999990 0.023983 0.116573
-0.000727 0.072110 0.072110
0.020535 0.072792 0.072792
0.072110 0.072110 0.072110
0.133126 0.070841 0.070841
0.209349 0.066710 0.066710
0.297809 0.057860 0.057860
0.382498 0.050128 0.050128
0.461599 0.044021 0.044021
0.539931 0.039459 0.039459
0.617079 0.036204 0.036204
0.692344 0.033889 0.033889
0.765203 0.032224 0.032224
0.834930 0.031033 0.031033
0.900448 0.030184 0.030184
0.959813 0.029593 0.029593
0.999990 0.062571 0.062571
-0.001151 0.130630 0.082759
0.014983 0.131508 0.078899
0.065832 0.132538 0.065832
0.131735 0.131735 0.063250
0.208764 0.142239 0.057946
0.294973 0.152547 0.051045
0.379613 0.159161 0.045669
0.459352 0.162498 0.041244
0.538255 0.165043 0.037759
0.615858 0.166902 0.035171
0.691458 0.168060 0.033261
0.764554 0.168557 0.031858
0.834448 0.168388 0.030827
0.900086 0.167480 0.030082
0.959534 0.165628 0.029559
0.999990 0.168260 0.062571
-0.001609 0.202729 0.094854
0.012840 0.203524 0.088356
0.051423 0.206609 0.051423
0.138733 0.205814 0.050004
0.204666 0.204666 0.048054
0.290935 0.223118 0.044626
0.376367 0.235553 0.041278
0.456861 0.242285 0.038312
0.536322 0.247229 0.035859
0.614382 0.250761 0.033963
0.690337 0.252993 0.032512
0.763703 0.254077 0.031409
0.833797 0.254060 0.030579
0.899582 0.252874 0.029971
0.959140 0.250234 0.029534
0.999990 0.247598 0.062569
-0.002087 0.285711 0.106965
0.012422 0.286331 0.098605
0.041726 0.289524 0.041726
0.147570 0.289071 0.041108
0.220901 0.288416 0.040222
0.287610 0.287610 0.039140
0.373597 0.304964 0.037519
0.454644 0.314632 0.035804
0.534508 0.321656 0.034146
0.612915 0.326672 0.032837
0.689166 0.329879 0.031803
0.762772 0.331508 0.030994
0.833058 0.331648 0.030368
0.898994 0.330229 0.029895
0.958666 0.326897 0.029551
0.999990 0.321084 0.062568
-0.002588 0.370206 0.115837
0.012954 0.370619 0.106315
0.036561 0.373040 0.036561
0.154593 0.372811 0.036281
0.232676 0.372472 0.035873
0.303624 0.372040 0.035357
0.371544 0.371544 0.034774
0.452898 0.383904 0.033743
0.532996 0.392868 0.032840
0.611623 0.399287 0.031962
0.688081 0.403432 0.031256
0.761872 0.405600 0.030689
0.832314 0.405910 0.030250
0.898380 0.404288 0.029902
0.958158 0.400311 0.029642
0.999990 0.392078 0.062565
-0.003110 0.450650 0.121123
0.013959 0.450934 0.111000
0.033515 0.452758 0.033515
0.158770 0.452636 0.033391
0.239506 0.452451 0.033213
0.312819 0.452210 0.032984
0.383057 0.451923 0.032716
0.451605 0.451605 0.032436
0.531816 0.462394 0.031834
0.610564 0.470154 0.031389
0.687151 0.475205 0.030948
0.761066 0.477899 0.030570
0.831623 0.478381 0.030272
0.897790 0.476571 0.030031
0.957655 0.471975 0.029838
0.999990 0.461710 0.062562
-0.003639 0.530203 0.124955
0.015267 0.530408 0.114479
0.031842 0.531868 0.031842
0.162081 0.531795 0.031797
0.244721 0.531684 0.031730
0.319731 0.531535 0.031644
0.391617 0.531355 0.031547
0.461809 0.531150 0.031454
0.530928 0.530928 0.031372
0.609732 0.539968 0.031070
0.686388 0.545890 0.030868
0.760381 0.549094 0.030654
0.831015 0.549743 0.030462
0.897255 0.547750 0.030303
0.957185 0.542550 0.030162
0.999990 0.530478 0.062559
-0.004165 0.608534 0.127726
0.016746 0.608684 0.117069
0.031086 0.609876 0.031086
0.164606 0.609830 0.031080
0.248602 0.609759 0.031071
0.324827 0.609664 0.031061
0.397890 0.609546 0.031061
0.469252 0.609408 0.031067
0.539545 0.609255 0.031092
0.609093 0.609093 0.031141
0.685782 0.615855 0.031005
0.759817 0.619548 0.030922
0.830500 0.620357 0.030830
0.896788 0.618179 0.030722
0.956764 0.612379 0.030614
0.999990 0.598646 0.062555
-0.004658 0.684879 0.129585
0.018315 0.684986 0.118875
0.030915 0.685969 0.030915
0.166329 0.685939 0.030928
0.251196 0.685892 0.030950
0.328208 0.685828 0.030982
0.402037 0.685748 0.031027
0.474162 0.685653 0.031093
0.545220 0.685546 0.031174
0.615540 0.685430 0.031286
0.685309 0.685309 0.031421
0.759364 0.689475 0.031374
0.830072 0.690431 0.031344
0.896392 0.688065 0.031294
0.956397 0.681668 0.031213
0.999990 0.666364 0.062550
-0.005147 0.758678 0.130663
0.019923 0.758752 0.120011
0.031120 0.759566 0.031120
0.167300 0.759545 0.031145
0.252618 0.759513 0.031181
0.330050 0.759470 0.031236
0.404290 0.759414 0.031306
0.476826 0.759348 0.031398
0.548299 0.759272 0.031516
0.619039 0.759188 0.031665
0.689235 0.759098 0.031840
0.759005 0.759005 0.032045
0.829726 0.760100 0.032026
0.896061 0.757538 0.031995
0.956086 0.750543 0.031932
0.999990 0.733730 0.062544
-0.005613 0.829208 0.131021
0.021528 0.829252 0.120523
0.031572 0.829930 0.031572
0.167531 0.829916 0.031600
0.252908 0.829893 0.031646
0.330409 0.829862 0.031714
0.404725 0.829823 0.031799
0.477343 0.829775 0.031909
0.548906 0.829720 0.032041
0.619741 0.829658 0.032200
0.690037 0.829592 0.032394
0.759914 0.829521 0.032621
0.829449 0.829449 0.032876
0.895791 0.826688 0.032841
0.955824 0.819092 0.032764
0.999990 0.800807 0.062502
-0.006031 0.895402 0.130646
0.023077 0.895423 0.120392
0.032181 0.895989 0.032181
0.166969 0.895979 0.032211
0.251993 0.895963 0.032260
0.329200 0.895941 0.032327
0.403245 0.895912 0.032417
0.475605 0.895877 0.032532
0.546920 0.895836 0.032671
0.617515 0.895790 0.032843
0.687579 0.895740 0.033044
0.757228 0.895687 0.033270
0.826541 0.895630 0.033532
0.895573 0.895573 0.033826
0.955609 0.887375 0.033723
0.999990 0.867643 0.062441
-0.006426 0.955320 0.129396
0.024127 0.955325 0.119417
0.032853 0.955799 0.032853
0.165413 0.955791 0.032885
0.249589 0.955779 0.032933
0.326058 0.955763 0.033002
0.399408 0.955741 0.033093
0.471098 0.955715 0.033206
0.541756 0.955684 0.033344
0.611706 0.955650 0.033513
0.681133 0.955611 0.033710
0.750153 0.955570 0.033939
0.818843 0.955526 0.034192
0.887257 0.955481 0.034484
0.955434 0.955434 0.034799
0.999990 0.934270 0.062415
-0.006736 0.999990 0.126273
0.023864 0.999990 0.116554
0.062423 0.999990 0.062423
0.168216 0.999990 0.062423
0.247573 0.999990 0.062423
0.321067 0.999990 0.062422
0.392066 0.999990 0.062422
0.461701 0.999990 0.062421
0.530472 0.999990 0.062420
0.598641 0.999990 0.062419
0.666361 0.999990 0.062417
0.733727 0.999990 0.062415
0.800806 0.999990 0.062414
0.867643 0.999990 0.062411
0.934270 0.999990 0.062409
0.999990 0.999990 0.062406
-0.000436 -0.000436 0.130631
0.037741 -0.000471 0.130631
0.082759 -0.000595 0.130631
0.130631 -0.000773 0.130631
0.202730 -0.001026 0.149027
0.285712 -0.001304 0.167109
0.370206 -0.001602 0.180254
0.450651 -0.001910 0.188088
0.530204 -0.002221 0.193769
0.608535 -0.002536 0.197880
0.684880 -0.002832 0.200639
0.758680 -0.003120 0.202241
0.829209 -0.003402 0.202779
0.895403 -0.003655 0.202231
0.955322 -0.003900 0.200387
0.999990 -0.004070 0.195768
-0.000544 0.037741 0.130631
0.025212 0.025212 0.135755
0.082777 0.022371 0.136345
0.134534 0.018903 0.134534
0.206947 0.015403 0.149922
0.289245 0.013415 0.165546
0.372795 0.012575 0.176979
0.452572 0.012292 0.183804
0.531724 0.012378 0.188875
0.609767 0.012704 0.192588
0.685887 0.013189 0.195083
0.759507 0.013763 0.196520
0.829890 0.014384 0.196965
0.895965 0.015035 0.196388
0.955787 0.015664 0.194576
0.999990 0.023983 0.190564
-0.000831 0.082759 0.130631
0.018514 0.080977 0.134265
0.070551 0.070551 0.133803
0.133256 0.069595 0.133256
0.209852 0.065256 0.144595
0.297630 0.056781 0.155199
0.382175 0.049501 0.161030
0.461336 0.043659 0.163663
0.539737 0.039248 0.165761
0.616941 0.036079 0.167348
0.692245 0.033815 0.168340
0.765133 0.032181 0.168736
0.834877 0.031009 0.168503
0.900409 0.030172 0.167556
0.959783 0.029589 0.165677
0.999990 0.062570 0.168260
-0.001181 0.130630 0.130630
0.014787 0.131346 0.131346
0.064947 0.132303 0.132303
0.130630 0.130630 0.130630
0.206786 0.128949 0.128949
0.293121 0.124976 0.124976
0.381100 0.118547 0.118547
0.465912 0.107951 0.107951
0.547993 0.096967 0.096967
0.626916 0.087460 0.087460
0.702711 0.079631 0.079631
0.775429 0.073267 0.073267
0.844682 0.068110 0.068110
0.909593 0.063955 0.063955
0.968335 0.060668 0.060668
0.999990 0.113258 0.113258
-0.001627 0.202729 0.149026
0.012804 0.203460 0.147237
0.050920 0.206333 0.139243
0.122364 0.206448 0.122364
0.205703 0.205703 0.119828
0.293158 0.214693 0.116786
0.381494 0.219613 0.107762
0.464226 0.220425 0.098439
0.545286 0.220500 0.089684
0.624106 0.220109 0.082156
0.700198 0.219271 0.075825
0.773321 0.218019 0.070543
0.842964 0.216298 0.066151
0.908208 0.213978 0.062536
0.967218 0.210775 0.059627
0.999990 0.220282 0.113258
-0.002104 0.285711 0.167108
0.012432 0.286304 0.163758
0.041508 0.289366 0.147794
0.103970 0.292555 0.103970
0.209856 0.291518 0.101285
0.290010 0.290010 0.097840
0.377994 0.300289 0.095194
0.460621 0.305044 0.088925
0.541708 0.308315 0.082329
0.620808 0.310359 0.076617
0.697321 0.311203 0.071706
0.770891 0.310976 0.067494
0.840948 0.309693 0.063897
0.906550 0.307249 0.060864
0.965856 0.303287 0.058375
0.999990 0.303315 0.113257
-0.002601 0.370206 0.180253
0.012975 0.370607 0.175907
0.036465 0.372961 0.154686
0.088628 0.376687 0.088628
0.211093 0.375935 0.087041
0.296970 0.374928 0.084982
0.373701 0.373701 0.082560
0.456737 0.381156 0.079398
0.538076 0.386691 0.075767
0.617536 0.390448 0.071494
