assets/luts/LUTs/TG_D-LOG-M_1_LIGHT_VIBRANT.CUBE
LUT_3D_SIZE 6
0.000000 0.000000 0.000000
0.176648 -0.000739 -0.000739
0.391416 -0.001589 -0.001589
0.612317 -0.002481 -0.002481
0.821362 -0.003331 -0.003331
0.999990 -0.004057 -0.004057
-0.001224 0.176648 -0.001224
0.176648 0.176648 -0.001361
0.391415 0.191075 -0.001949
0.612317 0.199181 -0.002714
0.821362 0.200737 -0.003490
0.999990 0.195769 -0.004179
-0.002627 0.391415 -0.002627
0.191074 0.391415 -0.002690
0.391415 0.391415 -0.002933
0.612316 0.407302 -0.003490
0.821361 0.410357 -0.004084
0.999990 0.400623 -0.004635
-0.004111 0.612316 -0.004111
0.199176 0.612316 -0.004139
0.407301 0.612316 -0.004296
0.612315 0.612315 -0.004589
0.821361 0.616845 -0.005026
0.999990 0.602413 -0.005415
-0.005524 0.821360 -0.005524
0.200727 0.821360 -0.005542
0.410354 0.821360 -0.005648
0.616844 0.821360 -0.005836
0.821360 0.821360 -0.006156
0.999990 0.802272 -0.006397
-0.006736 0.999990 -0.006736
0.195751 0.999990 -0.006763
0.400618 0.999990 -0.006817
0.602410 0.999990 -0.006975
0.802271 0.999990 -0.007203
0.999990 0.999990 -0.007516
-0.000471 -0.000471 0.176648
0.176648 -0.000831 0.176648
0.391416 -0.001627 0.191076
0.612317 -0.002509 0.199181
0.821362 -0.003349 0.200738
0.999990 -0.004070 0.195769
-0.001273 0.176648 0.176648
0.176647 0.176647 0.176647
0.412614 0.150306 0.150306
0.635652 0.112245 0.112245
0.838482 0.086538 0.086538
0.999990 0.140583 0.140583
-0.002652 0.391415 0.191074
0.111225 0.400557 0.111225
0.397029 0.397029 0.104372
0.623558 0.396174 0.093778
0.831980 0.390351 0.079325
0.999990 0.384979 0.140579
-0.004125 0.612316 0.199176
0.082636 0.617681 0.082636
0.390722 0.616731 0.081271
0.615194 0.615194 0.079104
0.826161 0.611888 0.073320
0.999990 0.595582 0.140572
-0.005524 0.821360 0.200727
0.070644 0.824180 0.070644
0.385664 0.823870 0.070438
0.609676 0.823315 0.070114
0.822593 0.822593 0.069815
0.999990 0.799613 0.140129
-0.006736 0.999990 0.195752
0.139132 0.999990 0.139132
0.384649 0.999990 0.139131
0.595441 0.999990 0.139129
0.799575 0.999990 0.139126
0.999990 0.999990 0.139121
-0.001014 -0.001014 0.391416
0.191076 -0.001219 0.391416
0.391415 -0.001795 0.391415
0.612317 -0.002601 0.407303
0.821362 -0.003420 0.410358
0.999990 -0.004125 0.400624
-0.001570 0.191076 0.391416
0.154609 0.154609 0.415755
0.411711 0.135562 0.411711
0.633731 0.108325 0.404090
0.837545 0.085293 0.393604
0.999990 0.140454 0.384951
-0.002738 0.391415 0.391415
0.108652 0.399235 0.399235
0.391414 0.391414 0.391414
0.639114 0.369027 0.369027
0.860044 0.327176 0.327176
0.999990 0.339538 0.339538
-0.004179 0.612316 0.407302
0.082146 0.617341 0.391182
0.309404 0.629415 0.309404
0.623201 0.623201 0.295920
0.845423 0.596530 0.286199
0.999990 0.577325 0.339535
-0.005560 0.821360 0.410354
0.070570 0.824072 0.385771
0.244385 0.834794 0.244385
0.578326 0.831767 0.238504
0.827614 0.827614 0.230459
0.999990 0.792473 0.337786
-0.006763 0.999990 0.400618
0.139132 0.999990 0.384649
0.325503 0.999990 0.325503
0.572180 0.999990 0.325502
0.790808 0.999990 0.325501
0.999990 0.999990 0.325500
-0.001583 -0.001583 0.612317
0.199182 -0.001711 0.612317
0.407304 -0.002156 0.612317
0.612317 -0.002797 0.612317
0.821362 -0.003557 0.616846
0.999990 -0.004231 0.602414
-0.001977 0.199182 0.612317
0.136070 0.136070 0.648766
0.410481 0.119541 0.641827
0.630365 0.101326 0.630365
0.835853 0.083013 0.619406
0.999990 0.140189 0.595545
-0.003018 0.407303 0.612317
0.099399 0.400206 0.629074
0.354916 0.354916 0.646661
0.640955 0.341274 0.640955
0.859402 0.315068 0.611972
0.999990 0.336856 0.576324
-0.004270 0.612316 0.612316
0.081235 0.616706 0.616706
0.304586 0.627263 0.627263
0.612315 0.612315 0.612315
0.846936 0.593592 0.593592
0.999990 0.580646 0.580646
-0.005631 0.821360 0.616844
0.070433 0.823861 0.610091
0.242305 0.833725 0.580274
0.539273 0.837048 0.539273
0.830710 0.830710 0.525896
0.999990 0.793958 0.580644
-0.006817 0.999990 0.602411
0.139131 0.999990 0.595441
0.325503 0.999990 0.572180
0.550900 0.999990 0.550900
0.783107 0.999990 0.550900
0.999990 0.999990 0.550899
-0.002122 -0.002122 0.821362
0.200741 -0.002213 0.821362
0.410359 -0.002549 0.821362
0.616847 -0.003100 0.821362
0.821362 -0.003765 0.821362
0.999990 -0.004372 0.802274
-0.002411 0.200740 0.821362
0.109873 0.109873 0.859701
0.402004 0.100141 0.851690
0.623900 0.088764 0.841627
0.833625 0.079932 0.833625
0.999990 0.139767 0.799601
-0.003294 0.410358 0.821362
0.087494 0.395227 0.840483
0.332291 0.332291 0.867514
0.615412 0.318033 0.863751
0.857557 0.293901 0.857557
0.999990 0.332361 0.791729
-0.004470 0.616845 0.821361
0.074872 0.613949 0.828871
0.283932 0.601309 0.853715
0.573786 0.573786 0.855787
0.849431 0.562936 0.849431
0.999990 0.569957 0.789991
-0.005751 0.821360 0.821360
0.070243 0.823549 0.823549
0.239158 0.832104 0.832104
0.534769 0.834947 0.834947
0.821360 0.821360 0.821360
0.999990 0.814056 0.814056
-0.006896 0.999990 0.802272
0.139130 0.999990 0.799576
0.325502 0.999990 0.790809
0.550900 0.999990 0.783107
0.797832 0.999990 0.797832
0.999990 0.999990 0.797832
-0.002588 -0.002588 0.999990
0.195774 -0.002652 0.999990
0.400626 -0.002911 0.999990
0.602415 -0.003367 0.999990
0.802275 -0.003929 0.999990
0.999990 -0.004589 0.999990
-0.002797 0.195774 0.999990
0.139168 0.139168 0.999990
0.384658 0.139167 0.999990
0.595446 0.139164 0.999990
0.799578 0.139161 0.999990
0.999990 0.139156 0.999990
-0.003524 0.400625 0.999990
0.139164 0.384657 0.999990
0.325514 0.325514 0.999990
0.572184 0.325513 0.999990
0.790811 0.325512 0.999990
0.999990 0.325510 0.999990
-0.004565 0.602414 0.999990
0.139157 0.595445 0.999990
0.325511 0.572184 0.999990
0.550904 0.550904 0.999990
0.783109 0.550904 0.999990
0.999990 0.550903 0.999990
-0.005751 0.802273 0.999990
0.139145 0.799577 0.999990
0.325507 0.790810 0.999990
0.550902 0.783108 0.999990
0.797834 0.797834 0.999990
0.999990 0.797833 0.999990
-0.007001 0.999990 0.999990
0.139128 0.999990 0.999990
0.325502 0.999990 0.999990
0.550900 0.999990 0.999990
0.797832 0.999990 0.999990
0.999990 0.999990 0.999990
