assets/luts/LUTs/TG_D-LOG-M_2_MIDI_VIBRANT.CUBE
LUT_3D_SIZE 16
0.000000 0.000000 0.000000
0.027604 -0.000184 -0.000184
0.072110 -0.000421 -0.000421
0.130631 -0.000684 -0.000684
0.202730 -0.000964 -0.000964
0.285712 -0.001256 -0.001256
0.370206 -0.001557 -0.001557
0.450651 -0.001869 -0.001869
0.530204 -0.002197 -0.002197
0.608535 -0.002509 -0.002509
0.684880 -0.002809 -0.002809
0.758680 -0.003100 -0.003100
0.829209 -0.003385 -0.003385
0.895403 -0.003639 -0.003639
0.955322 -0.003885 -0.003885
0.999990 -0.004057 -0.004057
-0.000307 0.027604 -0.000307
0.027604 0.027604 -0.000341
0.072110 0.032888 -0.000518
0.130631 0.037740 -0.000748
0.202730 0.043256 -0.001008
0.285712 0.048779 -0.001291
0.370206 0.052850 -0.001589
0.450651 0.055299 -0.001900
0.530204 0.057083 -0.002213
0.608535 0.058376 -0.002522
0.684880 0.059247 -0.002832
0.758680 0.059753 -0.003120
0.829209 0.059920 -0.003402
0.895403 0.059743 -0.003655
0.955322 0.059154 -0.003885
0.999990 0.057689 -0.004070
-0.000700 0.072110 -0.000700
0.032888 0.072110 -0.000715
0.072110 0.072110 -0.000777
0.130631 0.082759 -0.000960
0.202730 0.094855 -0.001181
0.285712 0.106967 -0.001431
0.370206 0.115840 -0.001706
0.450651 0.121128 -0.001996
0.530204 0.124961 -0.002300
0.608535 0.127735 -0.002601
0.684880 0.129597 -0.002889
0.758680 0.130678 -0.003180
0.829209 0.131039 -0.003438
0.895403 0.130669 -0.003703
0.955322 0.129423 -0.003929
0.999990 0.126304 -0.004111
-0.001131 0.130631 -0.001131
0.037739 0.130630 -0.001141
0.082759 0.130630 -0.001186
0.130630 0.130630 -0.001260
0.202730 0.149026 -0.001453
0.285712 0.167109 -0.001670
0.370206 0.180254 -0.001910
0.450651 0.188087 -0.002181
0.530203 0.193768 -0.002468
0.608534 0.197879 -0.002738
0.684880 0.200638 -0.003018
0.758680 0.202241 -0.003294
0.829209 0.202779 -0.003540
0.895403 0.202230 -0.003796
0.955322 0.200386 -0.004015
0.999990 0.195767 -0.004179
-0.001596 0.202729 -0.001596
0.043253 0.202729 -0.001602
0.094854 0.202729 -0.001634
0.149026 0.202729 -0.001688
0.202729 0.202729 -0.001779
0.285711 0.226632 -0.001977
0.370206 0.244009 -0.002197
0.450651 0.254365 -0.002432
0.530203 0.261876 -0.002690
0.608534 0.267312 -0.002954
0.684880 0.270959 -0.003209
0.758680 0.273079 -0.003455
0.829209 0.273790 -0.003703
0.895403 0.273066 -0.003929
0.955322 0.270628 -0.004139
0.999990 0.264522 -0.004296
-0.002078 0.285711 -0.002078
0.048774 0.285711 -0.002087
0.106965 0.285711 -0.002104
0.167108 0.285711 -0.002156
0.226632 0.285711 -0.002221
0.285711 0.285711 -0.002315
0.370206 0.307292 -0.002522
0.450651 0.320154 -0.002738
0.530203 0.329481 -0.002986
0.608534 0.336232 -0.003218
0.684880 0.340762 -0.003455
0.758680 0.343395 -0.003687
0.829209 0.344278 -0.003900
0.895403 0.343380 -0.004111
0.955322 0.340352 -0.004309
0.999990 0.332770 -0.004446
-0.002588 0.370206 -0.002588
0.052842 0.370206 -0.002588
0.115837 0.370206 -0.002601
0.180253 0.370206 -0.002640
0.244009 0.370206 -0.002702
0.307292 0.370205 -0.002786
0.370205 0.370205 -0.002877
0.450650 0.385559 -0.003090
0.530203 0.396694 -0.003312
0.608534 0.404752 -0.003524
0.684880 0.410159 -0.003750
0.758679 0.413303 -0.003958
0.829209 0.414358 -0.004152
0.895403 0.413285 -0.004347
0.955322 0.409672 -0.004518
0.999990 0.400620 -0.004635
-0.003100 0.450650 -0.003100
0.055287 0.450650 -0.003110
0.121123 0.450650 -0.003120
0.188085 0.450650 -0.003150
0.254364 0.450650 -0.003199
0.320153 0.450650 -0.003275
0.385558 0.450650 -0.003349
0.450650 0.450650 -0.003455
0.530203 0.463584 -0.003671
0.608534 0.472944 -0.003871
0.684879 0.479225 -0.004070
0.758679 0.482877 -0.004257
0.829208 0.484102 -0.004446
0.895403 0.482857 -0.004612
0.955322 0.478660 -0.004770
0.999990 0.468146 -0.004857
-0.003639 0.530203 -0.003639
0.057066 0.530203 -0.003639
0.124955 0.530203 -0.003655
0.193765 0.530203 -0.003671
0.261874 0.530203 -0.003718
0.329480 0.530202 -0.003780
0.396693 0.530202 -0.003856
0.463584 0.530202 -0.003944
0.530202 0.530202 -0.004057
0.608533 0.540859 -0.004244
0.684879 0.548011 -0.004421
0.758679 0.552168 -0.004589
0.829208 0.553564 -0.004770
0.895403 0.552145 -0.004921
0.955321 0.547366 -0.005046
0.999990 0.535396 -0.005127
-0.004152 0.608534 -0.004152
0.058353 0.608534 -0.004165
0.127726 0.608534 -0.004165
0.197874 0.608533 -0.004192
0.267309 0.608533 -0.004231
0.336230 0.608533 -0.004283
0.404751 0.608533 -0.004347
0.472943 0.608533 -0.004421
0.540859 0.608533 -0.004518
0.608533 0.608533 -0.004635
0.684879 0.616552 -0.004792
0.758679 0.621214 -0.004963
0.829208 0.622778 -0.005107
0.895402 0.621188 -0.005245
0.955321 0.615830 -0.005359
0.999990 0.602409 -0.005415
-0.004658 0.684879 -0.004658
0.059217 0.684879 -0.004658
0.129585 0.684879 -0.004681
0.200632 0.684879 -0.004703
0.270955 0.684879 -0.004726
0.340759 0.684879 -0.004770
0.410158 0.684879 -0.004836
0.479224 0.684879 -0.004900
0.548010 0.684878 -0.004984
0.616552 0.684878 -0.005087
0.684878 0.684878 -0.005186
0.758678 0.690043 -0.005340
0.829208 0.691776 -0.005470
0.895402 0.690014 -0.005596
0.955321 0.684079 -0.005683
0.999990 0.669211 -0.005717
-0.005147 0.758678 -0.005147
0.059715 0.758678 -0.005147
0.130663 0.758678 -0.005147
0.202233 0.758678 -0.005167
0.273074 0.758678 -0.005206
0.343391 0.758678 -0.005245
0.413301 0.758678 -0.005283
0.482876 0.758678 -0.005359
0.552167 0.758678 -0.005433
0.621213 0.758678 -0.005524
0.690042 0.758678 -0.005613
0.758678 0.758678 -0.005734
0.829207 0.760579 -0.005869
0.895402 0.758647 -0.005967
0.955321 0.752135 -0.006031
0.999990 0.735824 -0.006063
-0.005613 0.829208 -0.005613
0.059874 0.829208 -0.005613
0.131020 0.829208 -0.005613
0.202769 0.829208 -0.005631
0.273784 0.829207 -0.005666
0.344274 0.829207 -0.005700
0.414355 0.829207 -0.005734
0.484100 0.829207 -0.005802
0.553562 0.829207 -0.005869
0.622777 0.829207 -0.005934
0.691775 0.829207 -0.006031
0.760579 0.829207 -0.006125
0.829207 0.829207 -0.006248
0.895401 0.827104 -0.006338
0.955320 0.820017 -0.006397
0.999990 0.802267 -0.006397
-0.006031 0.895402 -0.006031
0.059685 0.895402 -0.006031
0.130646 0.895402 -0.006063
0.202218 0.895402 -0.006063
0.273058 0.895402 -0.006094
0.343374 0.895402 -0.006125
0.413281 0.895402 -0.006156
0.482854 0.895401 -0.006218
0.552143 0.895401 -0.006278
0.621186 0.895401 -0.006338
0.690013 0.895401 -0.006426
0.758646 0.895401 -0.006513
0.827103 0.895401 -0.006625
0.895401 0.895401 -0.006736
0.955320 0.887741 -0.006790
0.999990 0.868556 -0.006763
-0.006426 0.955320 -0.006426
0.059086 0.955320 -0.006426
0.129396 0.955320 -0.006426
0.200371 0.955320 -0.006455
0.270618 0.955320 -0.006484
0.340346 0.955320 -0.006513
0.409667 0.955320 -0.006541
0.478656 0.955320 -0.006569
0.547364 0.955320 -0.006625
0.615828 0.955320 -0.006708
0.684077 0.955320 -0.006763
0.752134 0.955320 -0.006870
0.820017 0.955320 -0.006949
0.887741 0.955320 -0.007052
0.955320 0.955320 -0.007178
0.999990 0.934701 -0.007128
-0.006736 0.999990 -0.006736
0.057610 0.999990 -0.006736
0.126273 0.999990 -0.006736
0.195750 0.999990 -0.006763
0.264511 0.999990 -0.006763
0.332762 0.999990 -0.006790
0.400615 0.999990 -0.006817
0.468142 0.999990 -0.006870
0.535394 0.999990 -0.006923
0.602407 0.999990 -0.006975
0.669209 0.999990 -0.007052
0.735823 0.999990 -0.007128
0.802267 0.999990 -0.007203
0.868556 0.999990 -0.007302
0.934701 0.999990 -0.007398
0.999990 0.999990 -0.007516
-0.000118 -0.000118 0.027604
0.027604 -0.000209 0.027604
0.072110 -0.000434 0.032888
0.130631 -0.000689 0.037740
0.202730 -0.000967 0.043256
0.285712 -0.001260 0.048779
0.370206 -0.001563 0.052850
0.450651 -0.001879 0.055299
0.530204 -0.002197 0.057083
0.608535 -0.002509 0.058376
0.684880 -0.002809 0.059247
0.758680 -0.003100 0.059754
0.829209 -0.003385 0.059921
0.895403 -0.003639 0.059743
0.955322 -0.003885 0.059154
0.999990 -0.004070 0.057689
-0.000318 0.027604 0.027604
0.027604 0.027604 0.027604
0.075972 0.024477 0.024477
0.136448 0.018389 0.018389
0.207910 0.014278 0.014278
0.289604 0.012270 0.012270
0.372899 0.011620 0.011620
0.452571 0.011487 0.011487
0.531675 0.011673 0.011673
0.609690 0.012063 0.012063
0.685793 0.012582 0.012582
0.759400 0.013179 0.013179
0.829774 0.013815 0.013815
0.895841 0.014460 0.014460
0.955657 0.015083 0.015083
0.999990 0.021217 0.021217
-0.000705 0.072110 0.032888
0.019131 0.073258 0.019131
0.072469 0.072469 0.017947
0.133241 0.079988 0.015364
0.205960 0.089508 0.013166
0.288590 0.099407 0.011910
0.372390 0.106760 0.011559
0.452300 0.111167 0.011552
0.531513 0.114436 0.011793
0.609589 0.116837 0.012213
0.685727 0.118462 0.012729
0.759356 0.119414 0.013330
0.829743 0.119736 0.013963
0.895819 0.119410 0.014603
0.955642 0.118297 0.015211
0.999990 0.116141 0.021216
-0.001136 0.130630 0.037739
0.013872 0.131724 0.013872
0.078746 0.131473 0.013637
0.131069 0.131069 0.013288
0.204250 0.147809 0.012283
0.287474 0.164427 0.011655
0.371732 0.176414 0.011593
0.451906 0.183499 0.011736
0.531260 0.188690 0.012062
0.609421 0.192465 0.012513
0.685613 0.194994 0.013045
0.759277 0.196452 0.013629
0.829688 0.196908 0.014250
0.895780 0.196338 0.014881
0.955612 0.194528 0.015474
0.999990 0.190340 0.021213
-0.001596 0.202729 0.043253
0.012005 0.203686 0.012005
0.088308 0.203595 0.011979
0.147189 0.203431 0.011943
0.203220 0.203220 0.011920
0.286653 0.225950 0.011696
0.371162 0.242338 0.011841
0.451520 0.252015 0.012117
0.530988 0.259067 0.012514
0.609226 0.264176 0.012990
0.685472 0.267591 0.013524
0.759176 0.269550 0.014113
0.829614 0.270157 0.014717
0.895725 0.269377 0.015315
0.955572 0.266930 0.015884
0.999990 0.261036 0.021209
-0.002078 0.285711 0.048774
0.011763 0.286453 0.011763
0.098582 0.286416 0.011787
0.163763 0.286348 0.011837
0.225632 0.286252 0.011921
0.286139 0.286139 0.012058
0.370754 0.306801 0.012342
0.451211 0.319016 0.012708
0.530748 0.327898 0.013164
0.609040 0.334327 0.013659
0.685331 0.338622 0.014199
0.759069 0.341085 0.014768
0.829532 0.341849 0.015344
0.895663 0.340874 0.015912
0.955524 0.337810 0.016452
0.999990 0.330324 0.021203
-0.002588 0.370206 0.052842
0.012461 0.370693 0.012461
0.106293 0.370677 0.012496
0.175911 0.370647 0.012569
0.241981 0.370603 0.012683
0.306633 0.370548 0.012848
0.370486 0.370486 0.013075
0.450989 0.385193 0.013499
0.530561 0.395879 0.014004
0.608887 0.403613 0.014516
0.685206 0.408781 0.015047
0.758969 0.411747 0.015595
0.829453 0.412672 0.016136
0.895601 0.411509 0.016671
0.955475 0.407842 0.017166
0.999990 0.398819 0.021196
-0.003110 0.450650 0.055287
0.013542 0.450980 0.013542
0.110976 0.450972 0.013579
0.183171 0.450958 0.013662
0.251718 0.450936 0.013792
0.318815 0.450908 0.013968
0.385099 0.450876 0.014191
0.450841 0.450841 0.014480
0.530428 0.463308 0.015005
0.608770 0.472333 0.015536
0.685106 0.478366 0.016050
0.758885 0.481832 0.016578
0.829384 0.482918 0.017092
0.895544 0.481572 0.017580
0.955428 0.477308 0.018025
0.999990 0.466783 0.021188
-0.003639 0.530203 0.057066
0.014914 0.530438 0.014914
0.114454 0.530434 0.014952
0.188505 0.530426 0.015027
0.258845 0.530414 0.015146
0.327713 0.530399 0.015320
0.395757 0.530380 0.015548
0.463252 0.530360 0.015828
0.530340 0.530340 0.016160
0.608687 0.540642 0.016691
0.685032 0.547533 0.017207
0.758819 0.551495 0.017700
0.829327 0.552742 0.018183
0.895496 0.551214 0.018625
0.955388 0.546359 0.019021
0.999990 0.534352 0.021176
-0.004152 0.608534 0.058353
0.016426 0.608702 0.016426
0.117041 0.608700 0.016462
0.192409 0.608696 0.016533
0.264039 0.608689 0.016646
0.334184 0.608680 0.016805
0.403498 0.608670 0.017022
0.472259 0.608658 0.017287
0.540609 0.608645 0.017603
0.608633 0.608633 0.017978
0.684980 0.616374 0.018475
0.758772 0.620827 0.018956
0.829285 0.622234 0.019390
0.895459 0.620525 0.019798
0.955356 0.615081 0.020130
0.999990 0.601609 0.021164
-0.004658 0.684879 0.059217
0.018005 0.684996 0.018005
0.118844 0.684995 0.018040
0.195060 0.684993 0.018107
0.267541 0.684989 0.018217
0.338533 0.684984 0.018366
0.408694 0.684978 0.018561
0.478298 0.684971 0.018815
0.547490 0.684963 0.019112
0.616355 0.684956 0.019459
0.684949 0.684949 0.019859
0.758741 0.689890 0.020307
0.829256 0.691454 0.020717
0.895432 0.689564 0.021069
0.955332 0.683533 0.021356
0.999990 0.668605 0.021148
-0.005147 0.758678 0.059715
0.019621 0.758754 0.019621
0.119977 0.758754 0.019652
0.196636 0.758752 0.019716
0.269587 0.758750 0.019813
0.341059 0.758748 0.019950
0.411699 0.758744 0.020132
0.481785 0.758740 0.020363
0.551459 0.758736 0.020641
0.620805 0.758732 0.020962
0.689882 0.758729 0.021336
0.758726 0.758726 0.021754
0.829240 0.760444 0.022131
0.895419 0.758373 0.022131
0.955328 0.751759 0.021597
0.999990 0.735378 0.021132
-0.005613 0.829208 0.059874
0.021218 0.829249 0.021218
0.120484 0.829249 0.021247
0.197208 0.829248 0.021306
0.270281 0.829247 0.021399
0.341887 0.829245 0.021526
0.412670 0.829244 0.021693
0.482902 0.829242 0.021897
0.552724 0.829240 0.022160
0.622221 0.829238 0.022458
0.691447 0.829237 0.022652
0.760442 0.829237 0.022647
0.829237 0.829237 0.022641
0.895419 0.826985 0.022107
0.955328 0.819786 0.021572
0.999990 0.801957 0.021107
-0.006031 0.895402 0.059685
0.022124 0.895419 0.022124
0.120249 0.895419 0.022124
0.196699 0.895419 0.022123
0.269548 0.895419 0.022121
0.340949 0.895419 0.022119
0.411534 0.895419 0.022118
0.481573 0.895419 0.022114
0.551206 0.895419 0.022111
0.620517 0.895419 0.022107
0.689559 0.895419 0.022102
0.758372 0.895419 0.022097
0.826985 0.895418 0.022090
0.895418 0.895418 0.022084
0.955327 0.887637 0.021544
0.999990 0.868361 0.021080
-0.006426 0.955320 0.059086
0.021567 0.955328 0.021567
0.119024 0.955328 0.021567
0.194848 0.955328 0.021565
0.267087 0.955328 0.021563
0.337883 0.955328 0.021563
0.407870 0.955328 0.021560
0.477314 0.955328 0.021558
0.546355 0.955328 0.021555
0.615076 0.955327 0.021550
0.683531 0.955327 0.021546
0.751758 0.955327 0.021539
0.819786 0.955327 0.021534
0.887636 0.955327 0.021527
0.955327 0.955327 0.021519
0.999990 0.934609 0.021052
-0.006736 0.999990 0.057610
0.021078 0.999990 0.021078
0.116122 0.999990 0.021078
0.190330 0.999990 0.021077
0.261030 0.999990 0.021077
0.330320 0.999990 0.021075
0.398816 0.999990 0.021073
0.466781 0.999990 0.021069
0.534351 0.999990 0.021066
0.601608 0.999990 0.021062
0.668604 0.999990 0.021059
0.735378 0.999990 0.021053
0.801956 0.999990 0.021046
0.868361 0.999990 0.021039
0.934609 0.999990 0.021032
0.999990 0.999990 0.021024
-0.000269 -0.000269 0.072110
0.032888 -0.000323 0.072110
0.072110 -0.000475 0.072110
0.130631 -0.000720 0.082759
0.202730 -0.000986 0.094855
0.285712 -0.001273 0.106967
0.370206 -0.001576 0.115840
0.450651 -0.001890 0.121128
0.530204 -0.002205 0.124962
0.608535 -0.002522 0.127735
0.684880 -0.002821 0.129597
0.758680 -0.003110 0.130678
0.829209 -0.003385 0.131040
0.895403 -0.003655 0.130669
0.955322 -0.003885 0.129424
0.999990 -0.004070 0.126305
-0.000417 0.032888 0.072110
0.026388 0.026388 0.076473
0.075638 0.023288 0.075638
0.135953 0.017875 0.081917
0.207636 0.014112 0.090376
0.289476 0.012218 0.099766
0.372839 0.011610 0.106906
0.452540 0.011493 0.111228
0.531657 0.011684 0.114462
0.609679 0.012078 0.116847
0.685786 0.012597 0.118462
0.759396 0.013194 0.119410
0.829771 0.013831 0.119729
0.895839 0.014475 0.119401
0.955655 0.015096 0.118288
0.999990 0.021216 0.116141
-0.000727 0.072110 0.072110
0.018685 0.072963 0.072963
0.072110 0.072110 0.072110
0.137157 0.068754 0.068754
0.216490 0.060424 0.060424
0.302394 0.050161 0.050161
0.384565 0.043072 0.043072
0.462395 0.037840 0.037840
0.540083 0.034068 0.034068
0.616867 0.031425 0.031425
0.691907 0.029554 0.029554
0.764615 0.028202 0.028202
0.834232 0.027207 0.027207
0.899668 0.026484 0.026484
0.958968 0.025957 0.025957
0.999990 0.055294 0.055294
-0.001151 0.130630 0.082759
0.013789 0.131635 0.078857
0.059735 0.134086 0.059735
0.132452 0.132452 0.056910
0.211218 0.142488 0.051267
0.297034 0.152186 0.044131
0.380732 0.158468 0.039429
0.459828 0.161731 0.035712
0.538324 0.164303 0.032849
0.615656 0.166208 0.030739
0.691065 0.167407 0.029185
0.764021 0.167936 0.028021
0.833806 0.167788 0.027150
0.899357 0.166893 0.026499
0.958737 0.165044 0.026014
0.999990 0.166199 0.055293
-0.001609 0.202729 0.094854
0.011996 0.203654 0.088337
0.044656 0.207922 0.044656
0.138335 0.206953 0.043454
0.205633 0.205633 0.041836
0.292030 0.223602 0.038798
0.377042 0.235582 0.036004
0.457177 0.242086 0.033540
0.536370 0.246922 0.031525
0.614222 0.250399 0.029971
0.690013 0.252602 0.028769
0.763247 0.253670 0.027836
0.833233 0.253643 0.027109
0.898929 0.252448 0.026550
0.958412 0.249801 0.026122
0.999990 0.246409 0.055292
-0.002087 0.285711 0.106965
0.011771 0.286440 0.098590
0.036047 0.290470 0.036047
0.147125 0.290000 0.035584
0.221313 0.289332 0.034921
0.288527 0.288527 0.034123
0.374162 0.305307 0.033077
0.454943 0.314689 0.031776
0.534596 0.321552 0.030411
0.612826 0.326470 0.029314
0.688929 0.329614 0.028432
0.762410 0.331201 0.027717
0.832587 0.331311 0.027134
0.898429 0.329871 0.026676
0.958023 0.326521 0.026305
0.999990 0.320282 0.055290
-0.002588 0.370206 0.115837
0.012473 0.370687 0.106295
0.032231 0.373604 0.032231
0.154193 0.373380 0.032040
0.232771 0.373051 0.031761
0.304011 0.372634 0.031411
0.372160 0.372160 0.031031
0.453243 0.384146 0.030298
0.533154 0.392913 0.029636
0.611621 0.399204 0.028880
0.687940 0.403262 0.028254
0.761608 0.405368 0.027723
0.831942 0.405632 0.027272
0.897913 0.403977 0.026898
0.957607 0.399974 0.026584
0.999990 0.391498 0.055287
-0.003110 0.450650 0.121123
0.013554 0.450977 0.110975
0.030099 0.453109 0.030099
0.158425 0.452994 0.030026
0.239480 0.452819 0.029920
0.312975 0.452593 0.029788
0.383354 0.452325 0.029647
0.452029 0.452029 0.029508
0.532049 0.462571 0.029038
0.610647 0.470177 0.028698
0.687101 0.475121 0.028282
0.760897 0.477736 0.027888
0.831348 0.478160 0.027551
0.897419 0.476305 0.027243
0.957198 0.471676 0.026973
0.999990 0.461275 0.055284
-0.003639 0.530203 0.124955
0.014927 0.530436 0.114452
0.029018 0.532096 0.029018
0.161781 0.532029 0.029003
0.244648 0.531927 0.028983
0.319781 0.531791 0.028961
0.391762 0.531626 0.028944
0.462037 0.531438 0.028939
0.531236 0.531236 0.028957
0.609890 0.540093 0.028678
0.686419 0.545889 0.028488
0.760298 0.549001 0.028242
0.830829 0.549580 0.027970
0.896974 0.547532 0.027727
0.956818 0.542289 0.027490
0.999990 0.530147 0.055280
-0.004165 0.608534 0.127726
0.016438 0.608702 0.117039
0.028633 0.610020 0.028633
0.164331 0.609978 0.028645
0.248501 0.609915 0.028667
0.324817 0.609829 0.028698
0.397946 0.609723 0.028747
0.469367 0.609600 0.028814
0.539715 0.609463 0.028910
0.609319 0.609319 0.029033
0.685883 0.615935 0.028859
0.759808 0.619522 0.028726
0.830392 0.620251 0.028559
0.896589 0.618010 0.028351
0.956479 0.612160 0.028127
0.999990 0.598393 0.055276
-0.004658 0.684879 0.129585
0.018017 0.684996 0.118841
0.028687 0.686047 0.028687
0.166061 0.686020 0.028712
0.251075 0.685979 0.028752
0.328159 0.685923 0.028813
0.402038 0.685853 0.028896
0.474205 0.685770 0.029002
0.545302 0.685677 0.029139
0.615660 0.685576 0.029302
0.685469 0.685469 0.029501
0.759418 0.689516 0.029374
0.830031 0.690383 0.029252
0.896263 0.687946 0.029101
0.956188 0.681492 0.028890
0.999990 0.666173 0.055270
-0.005147 0.758678 0.130663
0.019633 0.758754 0.119975
0.029024 0.759591 0.029024
0.167032 0.759574 0.029057
0.252481 0.759546 0.029109
0.329973 0.759509 0.029182
0.404252 0.759461 0.029279
0.476819 0.759404 0.029406
0.548321 0.759340 0.029561
0.619089 0.759269 0.029744
0.689313 0.759193 0.029961
0.759113 0.759113 0.030222
0.829743 0.760109 0.030096
0.895993 0.757469 0.029954
0.955940 0.750412 0.029763
0.999990 0.733590 0.055264
-0.005613 0.829208 0.131021
0.021228 0.829249 0.120481
0.029544 0.829912 0.029544
0.167256 0.829900 0.029578
0.252755 0.829881 0.029633
0.330309 0.829856 0.029711
0.404658 0.829823 0.029819
0.477300 0.829783 0.029950
0.548885 0.829737 0.030116
0.619740 0.829687 0.030312
0.690058 0.829632 0.030537
0.759956 0.829574 0.030800
0.829514 0.829514 0.031098
0.895776 0.826668 0.030944
0.955734 0.819004 0.030737
0.999990 0.800710 0.055203
-0.006031 0.895402 0.130646
0.022124 0.895419 0.120249
0.030174 0.895935 0.030174
0.166680 0.895927 0.030210
0.251825 0.895914 0.030267
0.329082 0.895896 0.030345
0.403156 0.895872 0.030450
0.475537 0.895844 0.030580
0.546868 0.895812 0.030746
0.617478 0.895775 0.030946
0.687557 0.895735 0.031175
0.757222 0.895692 0.031433
0.826552 0.895648 0.031730
0.895602 0.895602 0.032057
0.955568 0.887332 0.031827
0.999990 0.867581 0.055113
-0.006426 0.955320 0.129396
0.021567 0.955328 0.119024
0.030839 0.955714 0.030839
0.165109 0.955708 0.030876
0.249406 0.955699 0.030932
0.325925 0.955686 0.031010
0.399302 0.955670 0.031114
0.471009 0.955649 0.031244
0.541680 0.955626 0.031402
0.611642 0.955599 0.031590
0.681081 0.955569 0.031813
0.750112 0.955538 0.032066
0.818815 0.955504 0.032351
0.887242 0.955469 0.032672
0.955434 0.955434 0.033027
0.999990 0.934241 0.055075
-0.006736 0.999990 0.126273
0.021078 0.999990 0.116122
0.055084 0.999990 0.055084
0.166144 0.999990 0.055084
0.246377 0.999990 0.055083
0.320261 0.999990 0.055082
0.391483 0.999990 0.055082
0.461264 0.999990 0.055081
0.530139 0.999990 0.055080
0.598386 0.999990 0.055078
0.666169 0.999990 0.055077
0.733586 0.999990 0.055075
0.800708 0.999990 0.055072
0.867581 0.999990 0.055070
0.934241 0.999990 0.055067
0.999990 0.999990 0.055064
-0.000436 -0.000436 0.130631
0.037741 -0.000471 0.130631
0.082759 -0.000595 0.130631
0.130631 -0.000773 0.130631
0.202730 -0.001026 0.149027
0.285712 -0.001304 0.167109
0.370206 -0.001602 0.180254
0.450651 -0.001910 0.188088
0.530204 -0.002221 0.193769
0.608535 -0.002536 0.197880
0.684880 -0.002832 0.200639
0.758680 -0.003120 0.202241
0.829209 -0.003402 0.202779
0.895403 -0.003655 0.202231
0.955322 -0.003900 0.200387
0.999990 -0.004070 0.195768
-0.000544 0.037741 0.130631
0.022995 0.022995 0.140162
0.083571 0.020087 0.138211
0.135099 0.016991 0.135099
0.207144 0.013804 0.150011
0.289234 0.012120 0.165490
0.372723 0.011589 0.176906
0.452480 0.011503 0.183736
0.531622 0.011708 0.188812
0.609657 0.012108 0.192528
0.685772 0.012628 0.195025
0.759387 0.013225 0.196464
0.829764 0.013861 0.196910
0.895834 0.014504 0.196332
0.955652 0.015122 0.194520
0.999990 0.021216 0.190340
-0.000831 0.082759 0.130631
0.016665 0.081048 0.134753
0.069008 0.069008 0.138615
0.137103 0.066202 0.137103
0.216177 0.058432 0.147112
0.301737 0.049039 0.155534
0.384076 0.042497 0.160423
0.462078 0.037540 0.162838
0.539873 0.033907 0.164948
0.616727 0.031337 0.166590
0.691812 0.029506 0.167637
0.764549 0.028178 0.168078
0.834186 0.027198 0.167875
0.899635 0.026483 0.166946
0.958943 0.025960 0.165076
0.999990 0.055292 0.166199
-0.001181 0.130630 0.130630
0.013631 0.131467 0.131467
0.058728 0.133525 0.133525
0.130630 0.130630 0.130630
0.213204 0.126059 0.126059
0.304074 0.116496 0.116496
0.392153 0.104918 0.104918
0.473527 0.092797 0.092797
0.552726 0.082026 0.082026
0.629532 0.073257 0.073257
0.703840 0.066224 0.066224
0.775506 0.060562 0.060562
0.843997 0.055969 0.055969
0.908344 0.052230 0.052230
0.966667 0.049224 0.049224
0.999990 0.099927 0.099927
-0.001627 0.202729 0.149026
0.011979 0.203592 0.147310
0.044227 0.207579 0.138872
0.110253 0.210200 0.110253
0.207900 0.207900 0.106134
0.299217 0.215353 0.103494
0.387097 0.218447 0.093367
0.468384 0.218248 0.084097
0.548077 0.217950 0.075900
0.625710 0.217453 0.069054
0.700843 0.216630 0.063367
0.773203 0.215438 0.058624
0.842241 0.213788 0.054654
0.907004 0.211529 0.051346
0.965636 0.208364 0.048628
0.999990 0.215181 0.099927
-0.002104 0.285711 0.167108
0.011788 0.286415 0.163801
0.035886 0.290305 0.147329
0.087295 0.296163 0.087295
0.208438 0.294558 0.084860
0.292501 0.292501 0.081836
0.380749 0.301226 0.081572
0.462905 0.305015 0.076049
0.543338 0.307699 0.069989
0.621762 0.309375 0.064806
0.697647 0.309985 0.060352
0.770661 0.309608 0.056507
0.840238 0.308229 0.053186
0.905431 0.305717 0.050334
0.964395 0.301705 0.047935
0.999990 0.300161 0.099925
-0.002601 0.370206 0.180253
0.012497 0.370677 0.175923
0.032165 0.373526 0.154272
0.074423 0.378893 0.074423
0.208998 0.377999 0.073144
0.297407 0.376844 0.071505
0.375494 0.375494 0.069600
0.458194 0.381875 0.067670
0.539174 0.386819 0.064920
0.618183 0.390140 0.061005
