assets/luts/LUTs/TG_D-LOG-M_1_LIGHT.CUBE
LUT_3D_SIZE 6
0.000000 0.000000 0.000000
0.176648 -0.000739 -0.000739
0.391416 -0.001589 -0.001589
0.612317 -0.002481 -0.002481
0.821362 -0.003331 -0.003331
0.999990 -0.004057 -0.004057
-0.001224 0.176648 -0.001224
0.176648 0.176648 -0.001361
0.391415 0.191075 -0.001949
0.612317 0.199181 -0.002714
0.821362 0.200737 -0.003490
0.999990 0.195769 -0.004179
-0.002627 0.391415 -0.002627
0.191074 0.391415 -0.002690
0.391415 0.391415 -0.002933
0.612316 0.407302 -0.003490
0.821361 0.410357 -0.004084
0.999990 0.400623 -0.004635
-0.004111 0.612316 -0.004111
0.199176 0.612316 -0.004139
0.407301 0.612316 -0.004296
0.612315 0.612315 -0.004589
0.821361 0.616845 -0.005026
0.999990 0.602413 -0.005415
-0.005524 0.821360 -0.005524
0.200727 0.821360 -0.005542
0.410354 0.821360 -0.005648
0.616844 0.821360 -0.005836
0.821360 0.821360 -0.006156
0.999990 0.802272 -0.006397
-0.006736 0.999990 -0.006736
0.195751 0.999990 -0.006763
0.400618 0.999990 -0.006817
0.602410 0.999990 -0.006975
0.802271 0.999990 -0.007203
0.999990 0.999990 -0.007516
-0.000471 -0.000471 0.176648
0.176648 -0.000831 0.176648
0.391416 -0.001627 0.191076
0.612317 -0.002509 0.199181
0.821362 -0.003349 0.200738
0.999990 -0.004070 0.195769
-0.001273 0.176648 0.176648
0.176647 0.176647 0.176647
0.400807 0.165373 0.165373
0.631592 0.131769 0.131769
0.838660 0.104806 0.104806
0.999990 0.156546 0.156546
-0.002652 0.391415 0.191074
0.130820 0.398054 0.130820
0.395095 0.395095 0.122822
0.622513 0.397214 0.109500
0.832434 0.392319 0.094500
0.999990 0.388893 0.156543
-0.004125 0.612316 0.199176
0.096006 0.616930 0.096006
0.391422 0.615952 0.094041
0.614338 0.614338 0.090837
0.826310 0.612394 0.084964
0.999990 0.597265 0.156537
-0.005524 0.821360 0.200727
0.081114 0.824135 0.081114
0.386653 0.823782 0.080656
0.609866 0.823148 0.079867
0.822318 0.822318 0.078925
0.999990 0.800266 0.156259
-0.006736 0.999990 0.195752
0.155638 0.999990 0.155638
0.388657 0.999990 0.155638
0.597163 0.999990 0.155636
0.800239 0.999990 0.155633
0.999990 0.999990 0.155628
-0.001014 -0.001014 0.391416
0.191076 -0.001219 0.391416
0.391415 -0.001795 0.391415
0.612317 -0.002601 0.407303
0.821362 -0.003420 0.410358
0.999990 -0.004125 0.400624
-0.001570 0.191076 0.391416
0.165752 0.165752 0.401312
0.402888 0.155632 0.402888
0.630512 0.127774 0.404539
0.837827 0.103237 0.395982
0.999990 0.156466 0.388873
-0.002738 0.391415 0.391415
0.127859 0.396995 0.396995
0.391414 0.391414 0.391414
0.622808 0.382530 0.382530
0.837386 0.363453 0.363453
0.999990 0.363378 0.363378
-0.004179 0.612316 0.407302
0.095306 0.616582 0.391946
0.352085 0.621831 0.352085
0.618888 0.618888 0.340372
0.837938 0.601945 0.328365
0.999990 0.586604 0.363376
-0.005560 0.821360 0.410354
0.080952 0.824012 0.386793
0.291321 0.831828 0.291321
0.585974 0.829382 0.284442
0.825758 0.825758 0.274793
0.999990 0.796035 0.362276
-0.006763 0.999990 0.400618
0.155638 0.999990 0.388657
0.354597 0.999990 0.354597
0.583108 0.999990 0.354596
0.794883 0.999990 0.354595
0.999990 0.999990 0.354594
-0.001583 -0.001583 0.612317
0.199182 -0.001711 0.612317
0.407304 -0.002156 0.612317
0.612317 -0.002797 0.612317
0.821362 -0.003557 0.616846
0.999990 -0.004231 0.602414
-0.001977 0.199182 0.612317
0.156472 0.156472 0.630426
0.408772 0.141158 0.634157
0.628311 0.120551 0.628311
0.836286 0.100357 0.620410
0.999990 0.156302 0.597239
-0.003018 0.407303 0.612317
0.118192 0.401279 0.627324
0.372940 0.372940 0.626563
0.624542 0.368695 0.624542
0.839031 0.355998 0.610184
0.999990 0.361694 0.585928
-0.004270 0.612316 0.612316
0.093988 0.615925 0.615925
0.348090 0.620976 0.620976
0.612315 0.612315 0.612315
0.830891 0.605087 0.605087
0.999990 0.596693 0.596693
-0.005631 0.821360 0.616844
0.080644 0.823772 0.610356
0.288904 0.830984 0.587987
0.581728 0.828514 0.581728
0.826451 0.826451 0.576377
0.999990 0.800057 0.596692
-0.006817 0.999990 0.602411
0.155637 0.999990 0.597164
0.354597 0.999990 0.583109
0.577999 0.999990 0.577999
0.792968 0.999990 0.577999
0.999990 0.999990 0.577998
-0.002122 -0.002122 0.821362
0.200741 -0.002213 0.821362
0.410359 -0.002549 0.821362
0.616847 -0.003100 0.821362
0.821362 -0.003765 0.821362
0.999990 -0.004372 0.802274
-0.002411 0.200740 0.821362
0.134605 0.134605 0.852023
0.404110 0.123395 0.848778
0.624692 0.108865 0.841546
0.834184 0.096433 0.834184
0.999990 0.156038 0.800258
-0.003294 0.410358 0.821362
0.107140 0.397801 0.840569
0.360493 0.360493 0.842292
0.610388 0.355889 0.839419
0.841232 0.341834 0.841232
0.999990 0.358877 0.795522
-0.004470 0.616845 0.821361
0.088667 0.614745 0.829291
0.333018 0.605337 0.841451
0.592342 0.592342 0.834954
0.832832 0.588863 0.832832
0.999990 0.589983 0.797487
-0.005751 0.821360 0.821360
0.080195 0.823416 0.823416
0.285214 0.829663 0.829663
0.580389 0.827807 0.827807
0.821360 0.821360 0.821360
0.999990 0.818363 0.818363
-0.006896 0.999990 0.802272
0.155636 0.999990 0.800239
0.354596 0.999990 0.794883
0.577999 0.999990 0.792968
0.807961 0.999990 0.807961
0.999990 0.999990 0.807960
-0.002588 -0.002588 0.999990
0.195774 -0.002652 0.999990
0.400626 -0.002911 0.999990
0.602415 -0.003367 0.999990
0.802275 -0.003929 0.999990
0.999990 -0.004589 0.999990
-0.002797 0.195774 0.999990
0.155669 0.155669 0.999990
0.388665 0.155668 0.999990
0.597168 0.155666 0.999990
0.800242 0.155663 0.999990
0.999990 0.155659 0.999990
-0.003524 0.400625 0.999990
0.155666 0.388665 0.999990
0.354606 0.354606 0.999990
0.583113 0.354605 0.999990
0.794885 0.354604 0.999990
0.999990 0.354603 0.999990
-0.004565 0.602414 0.999990
0.155659 0.597167 0.999990
0.354604 0.583112 0.999990
0.578003 0.578003 0.999990
0.792970 0.578002 0.999990
0.999990 0.578002 0.999990
-0.005751 0.802273 0.999990
0.155649 0.800240 0.999990
0.354600 0.794884 0.999990
0.578001 0.792969 0.999990
0.807962 0.807962 0.999990
0.999990 0.807962 0.999990
-0.007001 0.999990 0.999990
0.155635 0.999990 0.999990
0.354596 0.999990 0.999990
0.577999 0.999990 0.999990
0.807961 0.999990 0.999990
0.999990 0.999990 0.999990
