assets/luts/LUTs/TG_Enhancer_Softer_Blacks.CUBE
LUT_3D_SIZE 6
0.100005 0.100005 0.100005
0.213048 0.100005 0.100005
0.407733 0.100005 0.100005
0.610260 0.100005 0.100005
0.805139 0.100005 0.100005
0.999990 0.100005 0.100005
0.100005 0.213048 0.100005
0.213048 0.213048 0.100005
0.407733 0.215831 0.100005
0.610260 0.217087 0.100005
0.805139 0.215648 0.100005
0.999990 0.214694 0.100005
0.100005 0.407733 0.100005
0.215831 0.407733 0.100005
0.407733 0.407733 0.100005
0.610260 0.410452 0.100005
0.805139 0.407336 0.100005
0.999990 0.405267 0.100005
0.100005 0.610260 0.100005
0.217087 0.610260 0.100005
0.410452 0.610260 0.100005
0.610260 0.610260 0.100005
0.805139 0.605527 0.100005
0.999990 0.602384 0.100005
0.100005 0.805139 0.100005
0.215648 0.805139 0.100005
0.407336 0.805139 0.100005
0.605527 0.805139 0.100005
0.805139 0.805139 0.100005
0.999990 0.800932 0.100005
0.100005 0.999990 0.100005
0.214694 0.999990 0.100005
0.405267 0.999990 0.100005
0.602384 0.999990 0.100005
0.800932 0.999990 0.100005
0.999990 0.999990 0.100005
0.100005 0.100005 0.213048
0.213048 0.100005 0.213048
0.407733 0.100005 0.215831
0.610260 0.100005 0.217087
0.805139 0.100005 0.215648
0.999990 0.100005 0.214694
0.100005 0.213048 0.213048
0.213048 0.213048 0.213048
0.407733 0.213048 0.213048
0.610260 0.213048 0.213048
0.805139 0.213048 0.213048
0.999990 0.213048 0.213048
0.100005 0.407733 0.215831
0.213048 0.407733 0.213048
0.407733 0.407733 0.213048
0.610260 0.409355 0.213048
0.805139 0.406445 0.213048
0.999990 0.404656 0.213048
0.100005 0.610260 0.217087
0.213048 0.610260 0.213048
0.409355 0.610260 0.213048
0.610260 0.610260 0.213048
0.805139 0.605213 0.213048
0.999990 0.602105 0.213048
0.100005 0.805139 0.215648
0.213048 0.805139 0.213048
0.406445 0.805139 0.213048
0.605213 0.805139 0.213048
0.805139 0.805139 0.213048
0.999990 0.800822 0.213048
0.100005 0.999990 0.214694
0.213048 0.999990 0.213048
0.404656 0.999990 0.213048
0.602105 0.999990 0.213048
0.800822 0.999990 0.213048
0.999990 0.999990 0.213048
0.100005 0.100005 0.407733
0.215831 0.100005 0.407733
0.407733 0.100005 0.407733
0.610260 0.100005 0.410452
0.805139 0.100005 0.407336
0.999990 0.100005 0.405267
0.100005 0.215831 0.407733
0.213048 0.213048 0.407733
0.407733 0.213048 0.407733
0.610260 0.213048 0.409355
0.805139 0.213048 0.406445
0.999990 0.213048 0.404656
0.100005 0.407733 0.407733
0.213048 0.407733 0.407733
0.407733 0.407733 0.407733
0.610260 0.407733 0.407733
0.805139 0.407733 0.407733
0.999990 0.407733 0.407733
0.100005 0.610260 0.410452
0.213048 0.610260 0.409355
0.407733 0.610260 0.407733
0.610260 0.610260 0.407733
0.805139 0.605667 0.407733
0.999990 0.603512 0.407733
0.100005 0.805139 0.407336
0.213048 0.805139 0.406445
0.407733 0.805139 0.407733
0.605667 0.805139 0.407733
0.805139 0.805139 0.407733
0.999990 0.801376 0.407733
0.100005 0.999990 0.405267
0.213048 0.999990 0.404656
0.407733 0.999990 0.407733
0.603512 0.999990 0.407733
0.801376 0.999990 0.407733
0.999990 0.999990 0.407733
0.100005 0.100005 0.610260
0.217087 0.100005 0.610260
0.410452 0.100005 0.610260
0.610260 0.100005 0.610260
0.805139 0.100005 0.605527
0.999990 0.100005 0.602384
0.100005 0.217087 0.610260
0.213048 0.213048 0.610260
0.409355 0.213048 0.610260
0.610260 0.213048 0.610260
0.805139 0.213048 0.605213
0.999990 0.213048 0.602105
0.100005 0.410452 0.610260
0.213048 0.409355 0.610260
0.407733 0.407733 0.610260
0.610260 0.407733 0.610260
0.805139 0.407733 0.605667
0.999990 0.407733 0.603512
0.100005 0.610260 0.610260
0.213048 0.610260 0.610260
0.407733 0.610260 0.610260
0.610260 0.610260 0.610260
0.805139 0.610260 0.610260
0.999990 0.610260 0.610260
0.100005 0.805139 0.605527
0.213048 0.805139 0.605213
0.407733 0.805139 0.605667
0.610260 0.805139 0.610260
0.805139 0.805139 0.610260
0.999990 0.804054 0.610260
0.100005 0.999990 0.602384
0.213048 0.999990 0.602105
0.407733 0.999990 0.603512
0.610260 0.999990 0.610260
0.804054 0.999990 0.610260
0.999990 0.999990 0.610260
0.100005 0.100005 0.805139
0.215648 0.100005 0.805139
0.407336 0.100005 0.805139
0.605527 0.100005 0.805139
0.805139 0.100005 0.805139
0.999990 0.100005 0.800932
0.100005 0.215648 0.805139
0.213048 0.213048 0.805139
0.406445 0.213048 0.805139
0.605213 0.213048 0.805139
0.805139 0.213048 0.805139
0.999990 0.213048 0.800822
0.100005 0.407336 0.805139
0.213048 0.406445 0.805139
0.407733 0.407733 0.805139
0.605667 0.407733 0.805139
0.805139 0.407733 0.805139
0.999990 0.407733 0.801376
0.100005 0.605527 0.805139
0.213048 0.605213 0.805139
0.407733 0.605667 0.805139
0.610260 0.610260 0.805139
0.805139 0.610260 0.805139
0.999990 0.610260 0.804054
0.100005 0.805139 0.805139
0.213048 0.805139 0.805139
0.407733 0.805139 0.805139
0.610260 0.805139 0.805139
0.805139 0.805139 0.805139
0.999990 0.805139 0.805139
0.100005 0.999990 0.800932
0.213048 0.999990 0.800822
0.407733 0.999990 0.801376
0.610260 0.999990 0.804054
0.805139 0.999990 0.805139
0.999990 0.999990 0.805139
0.100005 0.100005 0.999990
0.214694 0.100005 0.999990
0.405267 0.100005 0.999990
0.602384 0.100005 0.999990
0.800932 0.100005 0.999990
0.999990 0.100005 0.999990
0.100005 0.214694 0.999990
0.213048 0.213048 0.999990
0.404656 0.213048 0.999990
0.602105 0.213048 0.999990
0.800822 0.213048 0.999990
0.999990 0.213048 0.999990
0.100005 0.405267 0.999990
0.213048 0.404656 0.999990
0.407733 0.407733 0.999990
0.603512 0.407733 0.999990
0.801376 0.407733 0.999990
0.999990 0.407733 0.999990
0.100005 0.602384 0.999990
0.213048 0.602105 0.999990
0.407733 0.603512 0.999990
0.610260 0.610260 0.999990
0.804054 0.610260 0.999990
0.999990 0.610260 0.999990
0.100005 0.800932 0.999990
0.213048 0.800822 0.999990
0.407733 0.801376 0.999990
0.610260 0.804054 0.999990
0.805139 0.805139 0.999990
0.999990 0.805139 0.999990
0.100005 0.999990 0.999990
0.213048 0.999990 0.999990
0.407733 0.999990 0.999990
0.610260 0.999990 0.999990
0.805139 0.999990 0.999990
0.999990 0.999990 0.999990
