assets/luts/LUTs/TG_Enhancer_Bluer_Skies.CUBE
LUT_3D_SIZE 16
0.000000 0.000000 0.000000
0.069018 0.000005 0.000005
0.136681 0.000010 0.000010
0.200683 0.000014 0.000014
0.265092 0.000019 0.000019
0.331366 0.000024 0.000024
0.397638 0.000028 0.000028
0.463911 0.000033 0.000033
0.530184 0.000038 0.000038
0.596456 0.000042 0.000042
0.662729 0.000047 0.000047
0.729002 0.000052 0.000052
0.795274 0.000056 0.000057
0.861547 0.000061 0.000061
0.927820 0.000066 0.000066
0.993354 0.000070 0.000071
0.000000 0.067778 0.000000
0.066481 0.067064 0.000002
0.136453 0.064199 0.000007
0.202816 0.061654 0.000012
0.265091 0.066802 0.000016
0.331363 0.066809 0.000021
0.397636 0.066814 0.000026
0.463908 0.066819 0.000030
0.530181 0.066823 0.000035
0.596454 0.066828 0.000040
0.662727 0.066833 0.000044
0.728999 0.066837 0.000049
0.795272 0.066842 0.000054
0.861544 0.066847 0.000059
0.927817 0.066851 0.000063
0.993352 0.066807 0.000068
0.000000 0.134667 0.000000
0.058044 0.134784 0.000000
0.132818 0.133941 0.000004
0.201182 0.132744 0.000009
0.265191 0.133523 0.000014
0.331360 0.133594 0.000018
0.397633 0.133599 0.000023
0.463906 0.133603 0.000028
0.530178 0.133608 0.000032
0.596451 0.133613 0.000037
0.662724 0.133617 0.000042
0.728997 0.133622 0.000047
0.795269 0.133627 0.000051
0.861542 0.133631 0.000056
0.927814 0.133636 0.000061
0.993349 0.133542 0.000065
0.000000 0.200356 0.000000
0.065304 0.200443 0.000000
0.131727 0.200585 0.000001
0.198831 0.200394 0.000006
0.265084 0.200374 0.000011
0.331358 0.200379 0.000016
0.397630 0.200383 0.000020
0.463903 0.200388 0.000025
0.530176 0.200393 0.000030
0.596448 0.200397 0.000034
0.662721 0.200402 0.000039
0.728994 0.200407 0.000044
0.795266 0.200411 0.000049
0.861539 0.200416 0.000053
0.927812 0.200421 0.000058
0.993346 0.200277 0.000063
0.000000 0.267140 0.000000
0.066263 0.267145 0.000000
0.132536 0.267149 0.000000
0.198809 0.267154 0.000003
0.265082 0.267159 0.000008
0.331355 0.267164 0.000013
0.397628 0.267169 0.000018
0.463900 0.267173 0.000022
0.530173 0.267178 0.000027
0.596446 0.267182 0.000032
0.662719 0.267187 0.000036
0.728991 0.267192 0.000041
0.795264 0.267196 0.000046
0.861536 0.267201 0.000051
0.927809 0.267206 0.000055
0.993344 0.267012 0.000060
0.000000 0.333925 0.000000
0.066260 0.333930 0.000000
0.132533 0.333935 0.000000
0.198806 0.333939 0.000001
0.265079 0.333944 0.000005
0.331352 0.333949 0.000010
0.397625 0.333953 0.000015
0.463898 0.333958 0.000020
0.530170 0.333962 0.000024
0.596443 0.333967 0.000029
0.662716 0.333972 0.000034
0.728988 0.333977 0.000038
0.795261 0.333981 0.000043
0.861534 0.333986 0.000048
0.927806 0.333991 0.000053
0.993341 0.333747 0.000057
0.000000 0.400710 0.000000
0.066258 0.400715 0.000000
0.132531 0.400719 0.000000
0.198803 0.400724 0.000000
0.265077 0.400729 0.000003
0.331350 0.400733 0.000008
0.397622 0.400738 0.000012
0.463895 0.400743 0.000017
0.530168 0.400747 0.000022
0.596440 0.400752 0.000026
0.662713 0.400757 0.000031
0.728986 0.400761 0.000036
0.795258 0.400766 0.000041
0.861531 0.400771 0.000045
0.927804 0.400775 0.000050
0.993338 0.400482 0.000055
0.000000 0.467494 0.000000
0.066255 0.467499 0.000000
0.132528 0.467504 0.000000
0.198801 0.467509 0.000000
0.265074 0.467513 0.000000
0.331347 0.467518 0.000005
0.397620 0.467523 0.000010
0.463892 0.467527 0.000014
0.530165 0.467532 0.000019
0.596438 0.467537 0.000024
0.662711 0.467541 0.000028
0.728983 0.467546 0.000033
0.795256 0.467550 0.000038
0.861529 0.467555 0.000043
0.927801 0.467560 0.000047
0.993335 0.467218 0.000052
0.000000 0.534279 0.000000
0.066252 0.534284 0.000000
0.132525 0.534288 0.000000
0.198798 0.534293 0.000000
0.265071 0.534298 0.000000
0.331344 0.534302 0.000002
0.397617 0.534307 0.000007
0.463889 0.534312 0.000012
0.530162 0.534317 0.000016
0.596435 0.534321 0.000021
0.662708 0.534326 0.000026
0.728981 0.534331 0.000030
0.795253 0.534335 0.000035
0.861526 0.534340 0.000040
0.927798 0.534345 0.000045
0.993333 0.533953 0.000049
0.000000 0.601064 0.000000
0.066250 0.601068 0.000000
0.132522 0.601073 0.000000
0.198795 0.601078 0.000000
0.265068 0.601083 0.000000
0.331341 0.601087 0.000000
0.397614 0.601092 0.000004
0.463887 0.601097 0.000009
0.530160 0.601101 0.000014
0.596432 0.601106 0.000018
0.662705 0.601111 0.000023
0.728978 0.601115 0.000028
0.795250 0.601120 0.000032
0.861523 0.601125 0.000037
0.927796 0.601129 0.000042
0.993330 0.600688 0.000047
0.000000 0.667848 0.000000
0.066247 0.667853 0.000000
0.132520 0.667858 0.000000
0.198793 0.667863 0.000000
0.265066 0.667867 0.000000
0.331339 0.667872 0.000000
0.397611 0.667877 0.000001
0.463884 0.667881 0.000006
0.530157 0.667886 0.000011
0.596430 0.667891 0.000016
0.662702 0.667895 0.000020
0.728975 0.667900 0.000025
0.795248 0.667905 0.000030
0.861520 0.667909 0.000035
0.927793 0.667914 0.000039
0.993327 0.667423 0.000044
0.000000 0.734633 0.000000
0.066244 0.734638 0.000000
0.132517 0.734642 0.000000
0.198790 0.734647 0.000000
0.265063 0.734652 0.000000
0.331336 0.734656 0.000000
0.397609 0.734661 0.000000
0.463881 0.734666 0.000003
0.530154 0.734671 0.000008
0.596427 0.734675 0.000013
0.662700 0.734680 0.000018
0.728972 0.734685 0.000022
0.795245 0.734689 0.000027
0.861518 0.734694 0.000032
0.927790 0.734699 0.000036
0.993325 0.734158 0.000041
0.000000 0.801417 0.000000
0.066242 0.801422 0.000000
0.132514 0.801427 0.000000
0.198787 0.801431 0.000000
0.265060 0.801436 0.000000
0.331333 0.801441 0.000000
0.397606 0.801445 0.000000
0.463879 0.801450 0.000001
0.530152 0.801455 0.000006
0.596424 0.801460 0.000010
0.662697 0.801464 0.000015
0.728970 0.801469 0.000020
0.795242 0.801474 0.000024
0.861515 0.801479 0.000029
0.927788 0.801483 0.000034
0.993322 0.800893 0.000039
0.000000 0.868202 0.000000
0.066238 0.868207 0.000000
0.132512 0.868211 0.000000
0.198785 0.868216 0.000000
0.265058 0.868221 0.000000
0.331331 0.868226 0.000000
0.397603 0.868230 0.000000
0.463876 0.868235 0.000000
0.530149 0.868240 0.000003
0.596422 0.868244 0.000008
0.662694 0.868249 0.000012
0.728967 0.868254 0.000017
0.795240 0.868259 0.000022
0.861512 0.868263 0.000027
0.927785 0.868268 0.000031
0.993320 0.867628 0.000036
0.000000 0.934987 0.000000
0.066236 0.934991 0.000000
0.132509 0.934996 0.000000
0.198782 0.935001 0.000000
0.265055 0.935005 0.000000
0.331328 0.935010 0.000000
0.397601 0.935015 0.000000
0.463873 0.935020 0.000000
0.530146 0.935024 0.000000
0.596419 0.935029 0.000005
0.662692 0.935034 0.000010
0.728964 0.935038 0.000014
0.795237 0.935043 0.000019
0.861510 0.935048 0.000024
0.927782 0.935052 0.000028
0.993317 0.934363 0.000033
0.000000 1.001027 0.000000
0.066184 1.001032 0.000000
0.132408 1.001037 0.000000
0.198632 1.001041 0.000000
0.264855 1.001046 0.000000
0.331079 1.001051 0.000000
0.397303 1.001055 0.000000
0.463526 1.001060 0.000000
0.529750 1.001065 0.000000
0.595973 1.001070 0.000002
0.662197 1.001074 0.000007
0.728420 1.001079 0.000012
0.794644 1.001084 0.000016
0.860867 1.001088 0.000021
0.927091 1.001093 0.000026
0.993314 1.001098 0.000031
0.000000 0.000000 0.070538
0.068694 0.000003 0.069810
0.136658 0.000008 0.066896
0.201464 0.000012 0.065036
0.265090 0.000017 0.067328
0.331364 0.000021 0.067333
0.397636 0.000026 0.067338
0.463909 0.000031 0.067343
0.530182 0.000036 0.067347
0.596454 0.000040 0.067352
0.662727 0.000045 0.067357
0.729000 0.000050 0.067362
0.795272 0.000054 0.067366
0.861545 0.000059 0.067371
0.927818 0.000064 0.067376
0.993352 0.000068 0.067330
0.000000 0.068495 0.071031
0.066046 0.066764 0.067760
0.136993 0.063463 0.064098
0.204602 0.058794 0.059479
0.267562 0.061925 0.062524
0.331361 0.066809 0.067332
0.397634 0.066814 0.067337
0.463906 0.066818 0.067342
0.530179 0.066823 0.067347
0.596452 0.066828 0.067351
0.662725 0.066833 0.067356
0.728997 0.066837 0.067361
0.795270 0.066842 0.067365
0.861542 0.066846 0.067370
0.927815 0.066851 0.067375
0.993350 0.066856 0.067380
0.000000 0.135035 0.058964
0.053724 0.135186 0.055284
0.132857 0.134025 0.050546
0.203431 0.131818 0.044480
0.269841 0.130421 0.047291
0.331367 0.133585 0.067299
0.397631 0.133597 0.067334
0.463904 0.133602 0.067339
0.530176 0.133607 0.067344
0.596449 0.133611 0.067349
0.662722 0.133616 0.067353
0.728994 0.133621 0.067358
0.795267 0.133625 0.067363
0.861540 0.133630 0.067367
0.927812 0.133635 0.067372
0.993347 0.133559 0.067377
0.000000 0.200700 0.063448
0.042325 0.201887 0.044367
0.126653 0.201854 0.026818
0.199190 0.200876 0.000000
0.267723 0.199717 0.031664
0.331502 0.200310 0.066348
0.397628 0.200382 0.067332
0.463901 0.200386 0.067337
0.530174 0.200391 0.067341
0.596446 0.200396 0.067346
0.662719 0.200400 0.067351
0.728992 0.200405 0.067355
0.795264 0.200410 0.067360
0.861537 0.200414 0.067365
0.927810 0.200419 0.067369
0.993344 0.200286 0.067374
0.000000 0.267138 0.067299
0.066263 0.267143 0.067306
0.131874 0.267252 0.065118
0.198058 0.267418 0.058410
0.265107 0.267193 0.064238
0.331353 0.267162 0.067324
0.397626 0.267167 0.067329
0.463898 0.267171 0.067334
0.530171 0.267176 0.067338
0.596444 0.267181 0.067343
0.662717 0.267185 0.067348
0.728989 0.267190 0.067353
0.795262 0.267195 0.067357
0.861534 0.267199 0.067362
0.927807 0.267204 0.067367
0.993342 0.267017 0.067371
0.000000 0.333923 0.067296
0.066260 0.333928 0.067303
0.132532 0.333933 0.067308
0.198804 0.333937 0.067312
0.265077 0.333942 0.067317
0.331350 0.333947 0.067322
0.397623 0.333951 0.067326
0.463896 0.333956 0.067331
0.530168 0.333960 0.067336
0.596441 0.333965 0.067341
0.662714 0.333970 0.067345
0.728986 0.333975 0.067350
0.795259 0.333979 0.067355
0.861532 0.333984 0.067359
0.927804 0.333989 0.067364
0.993339 0.333750 0.067369
0.000000 0.400708 0.067293
0.066257 0.400712 0.067300
0.132529 0.400717 0.067305
0.198802 0.400722 0.067310
0.265075 0.400727 0.067314
0.331348 0.400731 0.067319
0.397620 0.400736 0.067324
0.463893 0.400741 0.067328
0.530165 0.400745 0.067333
0.596438 0.400750 0.067338
0.662711 0.400755 0.067343
0.728984 0.400759 0.067347
0.795256 0.400764 0.067352
0.861529 0.400769 0.067357
0.927802 0.400773 0.067361
0.993336 0.400484 0.067366
0.000000 0.467492 0.067291
0.066255 0.467497 0.067297
0.132526 0.467502 0.067302
0.198799 0.467506 0.067307
0.265072 0.467511 0.067312
0.331345 0.467516 0.067316
0.397617 0.467521 0.067321
0.463890 0.467525 0.067326
0.530163 0.467530 0.067330
0.596436 0.467535 0.067335
0.662708 0.467539 0.067340
0.728981 0.467544 0.067345
0.795254 0.467549 0.067349
0.861526 0.467553 0.067354
0.927799 0.467558 0.067359
0.993333 0.467218 0.067363
0.000000 0.534277 0.067288
0.066252 0.534282 0.067295
0.132524 0.534286 0.067299
0.198796 0.534291 0.067304
0.265069 0.534296 0.067309
0.331342 0.534300 0.067314
0.397615 0.534305 0.067318
0.463887 0.534310 0.067323
0.530160 0.534315 0.067328
0.596433 0.534319 0.067333
0.662706 0.534324 0.067337
0.728978 0.534329 0.067342
0.795251 0.534333 0.067347
0.861524 0.534338 0.067351
0.927796 0.534343 0.067356
0.993331 0.533953 0.067361
0.000000 0.601062 0.067285
0.066249 0.601066 0.067292
0.132521 0.601071 0.067297
0.198794 0.601076 0.067301
0.265066 0.601080 0.067306
0.331339 0.601085 0.067311
0.397612 0.601090 0.067316
0.463885 0.601094 0.067320
0.530158 0.601099 0.067325
0.596430 0.601104 0.067330
0.662703 0.601109 0.067334
0.728976 0.601113 0.067339
0.795248 0.601118 0.067344
0.861521 0.601123 0.067349
0.927794 0.601127 0.067353
0.993328 0.600687 0.067358
0.000000 0.667846 0.067283
0.066247 0.667851 0.067289
0.132518 0.667856 0.067294
0.198791 0.667861 0.067299
0.265064 0.667865 0.067303
0.331337 0.667870 0.067308
0.397609 0.667875 0.067313
0.463882 0.667879 0.067318
0.530155 0.667884 0.067322
0.596428 0.667889 0.067327
0.662700 0.667893 0.067332
0.728973 0.667898 0.067337
0.795246 0.667903 0.067341
0.861518 0.667907 0.067346
0.927791 0.667912 0.067351
0.993325 0.667422 0.067355
0.000000 0.734631 0.067280
0.066244 0.734636 0.067287
0.132516 0.734640 0.067291
0.198788 0.734645 0.067296
0.265061 0.734650 0.067301
0.331334 0.734654 0.067306
0.397607 0.734659 0.067310
0.463879 0.734664 0.067315
0.530152 0.734668 0.067320
0.596425 0.734673 0.067324
0.662698 0.734678 0.067329
0.728970 0.734683 0.067334
0.795243 0.734687 0.067339
0.861516 0.734692 0.067343
0.927788 0.734697 0.067348
0.993323 0.734157 0.067353
0.000000 0.801415 0.067277
0.066241 0.801420 0.067284
0.132513 0.801425 0.067289
0.198785 0.801429 0.067294
0.265058 0.801434 0.067298
0.331331 0.801439 0.067303
0.397604 0.801443 0.067308
0.463877 0.801448 0.067312
0.530150 0.801453 0.067317
0.596422 0.801458 0.067322
0.662695 0.801462 0.067326
0.728967 0.801467 0.067331
0.795240 0.801472 0.067336
0.861513 0.801477 0.067341
0.927786 0.801481 0.067345
0.993320 0.800891 0.067350
0.000000 0.868200 0.067274
0.066239 0.868205 0.067281
0.132510 0.868209 0.067286
0.198783 0.868214 0.067291
0.265056 0.868219 0.067295
0.331329 0.868223 0.067300
0.397601 0.868228 0.067305
0.463874 0.868233 0.067310
0.530147 0.868238 0.067314
0.596420 0.868242 0.067319
0.662692 0.868247 0.067324
0.728965 0.868252 0.067328
0.795238 0.868257 0.067333
0.861510 0.868261 0.067338
0.927783 0.868266 0.067343
0.993317 0.867626 0.067347
0.000000 0.934985 0.067272
0.066236 0.934989 0.067279
0.132508 0.934994 0.067283
0.198780 0.934999 0.067288
0.265053 0.935003 0.067293
0.331326 0.935008 0.067297
0.397599 0.935013 0.067302
0.463871 0.935017 0.067307
0.530144 0.935022 0.067312
0.596417 0.935027 0.067316
0.662690 0.935032 0.067321
0.728962 0.935036 0.067326
0.795235 0.935041 0.067330
0.861508 0.935046 0.067335
0.927780 0.935050 0.067340
0.993315 0.934361 0.067345
0.000000 1.001025 0.067219
0.066233 1.001030 0.067276
0.132425 1.001035 0.067281
0.198640 1.001040 0.067285
0.264860 1.001044 0.067290
0.331082 1.001049 0.067295
0.397304 1.001054 0.067300
0.463527 1.001058 0.067304
0.529750 1.001063 0.067309
0.595973 1.001068 0.067314
0.662196 1.001072 0.067318
0.728419 1.001077 0.067323
0.794642 1.001082 0.067328
0.860866 1.001086 0.067333
0.927089 1.001091 0.067337
0.993312 1.001096 0.067342
0.000000 0.000000 0.138848
0.067216 0.000000 0.138933
0.135235 0.000005 0.137402
0.199778 0.000010 0.134965
0.265088 0.000015 0.134637
0.331362 0.000019 0.134642
0.397634 0.000024 0.134647
0.463907 0.000029 0.134651
0.530180 0.000033 0.134656
0.596452 0.000038 0.134661
0.662725 0.000043 0.134665
0.728998 0.000048 0.134670
0.795270 0.000052 0.134675
0.861543 0.000057 0.134680
0.927816 0.000062 0.134684
0.993350 0.000066 0.134589
0.001279 0.062770 0.151014
0.064883 0.065484 0.139747
0.136461 0.062359 0.138715
0.204476 0.057657 0.136020
0.268508 0.059338 0.133962
0.331359 0.066807 0.134640
0.397632 0.066812 0.134645
0.463904 0.066816 0.134649
0.530177 0.066821 0.134654
0.596450 0.066826 0.134659
0.662722 0.066830 0.134663
0.728995 0.066835 0.134668
0.795268 0.066840 0.134673
0.861540 0.066844 0.134678
0.927813 0.066849 0.134682
0.993347 0.066854 0.134606
0.000000 0.133989 0.139010
0.000000 0.133338 0.138509
0.132022 0.133458 0.135451
0.203924 0.131085 0.132298
0.271850 0.128593 0.129804
0.334296 0.130695 0.131807
0.397629 0.133596 0.134642
0.463902 0.133600 0.134647
0.530174 0.133605 0.134652
0.596447 0.133610 0.134657
0.662720 0.133614 0.134661
0.728992 0.133619 0.134666
0.795265 0.133624 0.134671
0.861538 0.133628 0.134675
0.927810 0.133633 0.134680
0.993345 0.133638 0.134685
0.000000 0.201193 0.132537
0.017962 0.202314 0.129149
0.123641 0.202227 0.126221
0.199132 0.200886 0.123318
0.270077 0.198870 0.121007
0.336618 0.197767 0.123360
0.397647 0.200366 0.134597
0.463899 0.200385 0.134644
0.530172 0.200389 0.134649
0.596444 0.200394 0.134654
0.662717 0.200399 0.134659
0.728990 0.200403 0.134663
0.795262 0.200408 0.134668
0.861535 0.200413 0.134673
0.927808 0.200417 0.134677
0.993342 0.200329 0.134682
0.000000 0.267136 0.134607
0.057361 0.267570 0.132262
0.119599 0.268931 0.122164
0.193545 0.268804 0.116178
0.265501 0.267752 0.113737
0.334179 0.266603 0.118076
0.397817 0.267092 0.133904
0.463896 0.267169 0.134642
0.530169 0.267174 0.134646
0.596442 0.267179 0.134651
0.662714 0.267183 0.134656
0.728987 0.267188 0.134661
0.795260 0.267193 0.134665
0.861532 0.267197 0.134670
0.927805 0.267202 0.134675
0.993339 0.267045 0.134679
0.000000 0.333921 0.134605
0.066258 0.333926 0.134610
0.132530 0.333930 0.134615
0.198217 0.334058 0.133246
0.264342 0.334242 0.129373
0.331382 0.333991 0.132617
0.397621 0.333949 0.134634
0.463893 0.333954 0.134639
0.530166 0.333959 0.134644
0.596439 0.333963 0.134648
0.662712 0.333968 0.134653
0.728984 0.333973 0.134658
0.795257 0.333977 0.134663
0.861530 0.333982 0.134667
0.927802 0.333987 0.134672
0.993337 0.333769 0.134677
0.000000 0.400706 0.134602
0.066255 0.400710 0.134608
0.132527 0.400715 0.134613
0.198800 0.400720 0.134617
0.265073 0.400725 0.134622
0.331345 0.400729 0.134627
0.397618 0.400734 0.134632
0.463891 0.400739 0.134636
0.530163 0.400743 0.134641
0.596436 0.400748 0.134646
0.662709 0.400753 0.134650
0.728982 0.400757 0.134655
0.795254 0.400762 0.134660
0.861527 0.400767 0.134665
0.927800 0.400771 0.134669
0.993334 0.400498 0.134674
0.000000 0.467490 0.134599
0.066253 0.467495 0.134605
0.132525 0.467500 0.134610
0.198797 0.467504 0.134615
0.265070 0.467509 0.134620
0.331343 0.467514 0.134624
0.397615 0.467519 0.134629
0.463888 0.467523 0.134634
0.530161 0.467528 0.134638
0.596434 0.467533 0.134643
0.662706 0.467537 0.134648
0.728979 0.467542 0.134653
0.795251 0.467547 0.134657
0.861524 0.467551 0.134662
0.927797 0.467556 0.134667
0.993331 0.467228 0.134671
0.000000 0.534275 0.134597
0.066250 0.534280 0.134602
0.132522 0.534284 0.134607
0.198794 0.534289 0.134612
0.265067 0.534294 0.134617
0.331340 0.534298 0.134622
0.397613 0.534303 0.134626
0.463885 0.534308 0.134631
0.530158 0.534312 0.134636
0.596431 0.534317 0.134640
0.662704 0.534322 0.134645
0.728976 0.534327 0.134650
0.795249 0.534331 0.134655
0.861522 0.534336 0.134659
0.927794 0.534341 0.134664
0.993329 0.533960 0.134669
0.000000 0.601060 0.134594
0.066247 0.601064 0.134599
0.132519 0.601069 0.134605
0.198792 0.601074 0.134609
0.265064 0.601078 0.134614
0.331337 0.601083 0.134619
0.397610 0.601088 0.134624
0.463883 0.601092 0.134628
0.530156 0.601097 0.134633
0.596428 0.601102 0.134638
0.662701 0.601107 0.134642
0.728974 0.601111 0.134647
0.795246 0.601116 0.134652
0.861519 0.601121 0.134656
0.927791 0.601125 0.134661
0.993326 0.600692 0.134666
0.000000 0.667844 0.134591
0.066245 0.667849 0.134597
0.132517 0.667854 0.134602
0.198789 0.667858 0.134607
0.265062 0.667863 0.134611
0.331335 0.667868 0.134616
0.397607 0.667873 0.134621
0.463880 0.667877 0.134626
0.530153 0.667882 0.134630
0.596426 0.667887 0.134635
0.662698 0.667891 0.134640
0.728971 0.667896 0.134644
0.795244 0.667900 0.134649
0.861516 0.667905 0.134654
0.927789 0.667910 0.134659
0.993323 0.667425 0.134663
0.000000 0.734629 0.134589
0.066242 0.734634 0.134594
0.132514 0.734638 0.134599
0.198786 0.734643 0.134604
0.265059 0.734648 0.134609
0.331332 0.734652 0.134613
0.397605 0.734657 0.134618
0.463877 0.734662 0.134623
0.530150 0.734666 0.134628
0.596423 0.734671 0.134632
0.662696 0.734676 0.134637
0.728968 0.734681 0.134642
0.795241 0.734685 0.134647
0.861514 0.734690 0.134651
0.927786 0.734695 0.134656
0.993321 0.734159 0.134660
0.000000 0.801413 0.134586
0.066239 0.801418 0.134591
0.132511 0.801422 0.134597
0.198784 0.801427 0.134601
0.265056 0.801432 0.134606
0.331329 0.801437 0.134611
0.397602 0.801441 0.134615
0.463875 0.801446 0.134620
0.530148 0.801451 0.134625
0.596420 0.801455 0.134630
0.662693 0.801460 0.134634
0.728965 0.801465 0.134639
0.795238 0.801470 0.134644
0.861511 0.801474 0.134648
0.927783 0.801479 0.134653
0.993318 0.800892 0.134658
0.000000 0.868198 0.134583
0.066237 0.868203 0.134589
0.132509 0.868207 0.134594
0.198781 0.868212 0.134599
0.265054 0.868217 0.134603
0.331327 0.868221 0.134608
0.397599 0.868226 0.134613
0.463872 0.868231 0.134618
0.530145 0.868235 0.134622
0.596418 0.868240 0.134627
0.662690 0.868245 0.134632
0.728963 0.868250 0.134636
0.795236 0.868254 0.134641
0.861508 0.868259 0.134646
0.927781 0.868264 0.134651
0.993315 0.867626 0.134655
0.000000 0.934982 0.134581
0.066234 0.934987 0.134586
0.132506 0.934992 0.134591
0.198778 0.934997 0.134596
0.265051 0.935001 0.134601
0.331324 0.935006 0.134605
0.397597 0.935011 0.134610
0.463869 0.935015 0.134615
0.530142 0.935020 0.134619
0.596415 0.935025 0.134624
0.662687 0.935029 0.134629
0.728960 0.935034 0.134634
0.795233 0.935039 0.134638
0.861506 0.935044 0.134643
0.927778 0.935048 0.134648
0.993313 0.934360 0.134652
0.000000 1.001023 0.134478
0.066231 1.001028 0.134502
0.132503 1.001033 0.134589
0.198683 1.001037 0.134593
0.264888 1.001042 0.134598
0.331101 1.001047 0.134603
0.397318 1.001052 0.134608
0.463537 1.001056 0.134612
0.529757 1.001061 0.134617
0.595978 1.001066 0.134622
0.662199 1.001070 0.134626
0.728421 1.001075 0.134631
0.794643 1.001080 0.134636
0.860865 1.001084 0.134641
0.927088 1.001089 0.134645
0.993310 1.001094 0.134650
0.000000 0.000000 0.202037
0.066188 0.000000 0.202778
0.132640 0.000003 0.202156
0.198814 0.000008 0.201942
0.265086 0.000013 0.201946
0.331359 0.000017 0.201951
0.397632 0.000022 0.201955
0.463905 0.000027 0.201960
0.530177 0.000031 0.201965
0.596450 0.000036 0.201969
0.662723 0.000041 0.201974
0.728996 0.000045 0.201979
0.795268 0.000050 0.201984
0.861541 0.000055 0.201988
0.927814 0.000060 0.201993
0.993348 0.000064 0.201848
0.000000 0.063543 0.207933
0.063605 0.064196 0.207521
0.134705 0.062042 0.207741
0.202552 0.059141 0.205809
0.266320 0.063881 0.202555
0.331357 0.066805 0.201948
0.397629 0.066810 0.201953
0.463902 0.066814 0.201958
0.530175 0.066819 0.201962
0.596448 0.066824 0.201967
0.662720 0.066828 0.201972
0.728993 0.066833 0.201977
0.795266 0.066838 0.201981
0.861538 0.066842 0.201986
0.927811 0.066847 0.201991
0.993345 0.066852 0.201856
0.003955 0.123802 0.232156
0.002534 0.123470 0.231318
0.131138 0.132321 0.207711
0.203303 0.130280 0.206715
0.271645 0.127852 0.204039
0.335334 0.129258 0.201820
0.397627 0.133594 0.201951
0.463899 0.133598 0.201955
0.530172 0.133603 0.201960
0.596445 0.133608 0.201965
0.662718 0.133612 0.201969
0.728990 0.133617 0.201974
0.795263 0.133622 0.201979
0.861536 0.133626 0.201984
0.927808 0.133631 0.201988
0.993343 0.133636 0.201899
0.000000 0.196454 0.203822
0.000000 0.197378 0.204956
0.062223 0.197920 0.204053
0.197933 0.200086 0.203076
0.270518 0.198128 0.199929
0.338753 0.196194 0.197970
0.400936 0.198007 0.199653
0.463897 0.200382 0.201952
0.530169 0.200387 0.201957
0.596442 0.200392 0.201962
0.662715 0.200396 0.201967
0.728988 0.200401 0.201971
0.795260 0.200406 0.201976
0.861533 0.200411 0.201981
0.927806 0.200415 0.201986
0.993340 0.200420 0.201990
0.000000 0.267134 0.201916
0.034171 0.268169 0.200324
0.113022 0.269390 0.197343
0.190826 0.269152 0.194547
0.265376 0.267717 0.192027
0.336575 0.265789 0.190362
0.403255 0.264813 0.192634
0.463934 0.267146 0.201890
0.530167 0.267172 0.201955
0.596439 0.267177 0.201959
0.662712 0.267181 0.201964
0.728985 0.267186 0.201969
0.795258 0.267191 0.201973
0.861530 0.267195 0.201978
0.927803 0.267200 0.201983
0.993337 0.267104 0.201988
0.000000 0.333919 0.201914
0.066256 0.333924 0.201919
0.127603 0.334413 0.200027
0.188172 0.335885 0.191777
0.260081 0.335700 0.186970
0.331786 0.334602 0.185174
0.400587 0.333451 0.188595
0.464137 0.333872 0.201231
0.530164 0.333956 0.201952
0.596437 0.333961 0.201957
0.662710 0.333966 0.201961
0.728982 0.333971 0.201966
0.795255 0.333975 0.201971
0.861528 0.333980 0.201975
0.927800 0.333985 0.201980
0.993335 0.333811 0.201985
0.000000 0.400704 0.201911
0.066253 0.400708 0.201916
0.132525 0.400713 0.201921
0.198798 0.400718 0.201926
0.264509 0.400861 0.200771
0.330607 0.401060 0.197581
0.397656 0.400789 0.200159
0.463889 0.400736 0.201944
0.530161 0.400741 0.201949
0.596434 0.400746 0.201954
0.662707 0.400751 0.201959
0.728980 0.400755 0.201963
0.795252 0.400760 0.201968
0.861525 0.400765 0.201973
0.927798 0.400769 0.201977
0.993332 0.400528 0.201982
0.000000 0.467488 0.201908
0.066251 0.467493 0.201913
0.132523 0.467498 0.201918
0.198795 0.467502 0.201923
0.265068 0.467507 0.201928
0.331341 0.467512 0.201932
0.397613 0.467516 0.201937
0.463886 0.467521 0.201942
