assets/luts/LUTs/TG_Enhancer_Foliage_Pop.CUBE
LUT_3D_SIZE 6
0.000000 0.000000 0.000000
0.202257 0.000014 0.005958
0.404512 0.000028 0.011917
0.606768 0.000042 0.017875
0.809023 0.000057 0.023834
1.011278 0.000071 0.029792
0.004287 0.211121 0.035090
0.188958 0.204741 0.000661
0.407698 0.196945 0.007893
0.609942 0.195696 0.013845
0.812193 0.194446 0.019799
1.014445 0.193195 0.025754
0.008573 0.422241 0.070180
0.082559 0.427247 0.052177
0.377915 0.409481 0.001322
0.613155 0.395136 0.009826
0.815394 0.393889 0.015786
1.017636 0.392641 0.021739
0.012860 0.633361 0.105270
0.013508 0.634321 0.127241
0.251625 0.633482 0.026694
0.566871 0.614221 0.001983
0.818609 0.593329 0.011752
1.020850 0.592080 0.017721
0.017147 0.844480 0.140359
0.017876 0.845883 0.159797
0.165118 0.854492 0.104353
0.405948 0.839414 0.006944
0.755828 0.818960 0.002645
1.024061 0.791522 0.013675
0.021433 1.055599 0.175449
0.022045 1.056862 0.190885
0.021355 1.055331 0.211768
0.345899 1.063313 0.077938
0.569139 1.055223 0.000000
0.944784 1.023699 0.003306
0.000000 0.001382 0.198543
0.197026 0.000510 0.203822
0.399101 0.000022 0.209959
0.601350 0.000036 0.215942
0.803604 0.000050 0.221910
1.005859 0.000064 0.227873
0.000000 0.200531 0.197460
0.200001 0.200001 0.200001
0.402257 0.198749 0.205959
0.604512 0.197497 0.211918
0.806767 0.196245 0.217876
1.009022 0.194992 0.223835
0.004169 0.407660 0.186611
0.120683 0.419901 0.185362
0.389137 0.405769 0.187000
0.607709 0.396941 0.207905
0.809956 0.395691 0.213866
1.012204 0.394441 0.219820
0.010775 0.627034 0.065291
0.012839 0.632342 0.105100
0.254367 0.637008 0.030645
0.576650 0.611013 0.159002
0.813161 0.595134 0.209832
1.015408 0.593883 0.215803
0.015932 0.840895 0.114857
0.017133 0.843799 0.140246
0.166522 0.856618 0.106918
0.405837 0.839805 0.007551
0.762238 0.816854 0.098438
1.018612 0.793327 0.211755
0.020606 1.053189 0.157404
0.021423 1.055101 0.175366
0.022090 1.055937 0.212479
0.347453 1.065277 0.080144
0.567401 1.054044 0.000000
0.944765 1.023679 0.003305
0.000000 0.002765 0.397085
0.193014 0.001901 0.401772
0.394051 0.001020 0.407644
0.595988 0.000029 0.413888
0.798201 0.000044 0.419918
1.000445 0.000058 0.425907
0.000000 0.202197 0.394341
0.195818 0.201383 0.398543
0.397026 0.200511 0.403822
0.599107 0.199298 0.409908
0.801347 0.198046 0.415903
1.003599 0.196793 0.421880
0.000000 0.401062 0.394920
0.199013 0.400531 0.397460
0.400001 0.400001 0.400001
0.602257 0.398749 0.405960
0.804512 0.397497 0.411918
1.006767 0.396245 0.417876
0.000231 0.600428 0.398714
0.196296 0.601724 0.399588
0.351302 0.626779 0.410849
0.590043 0.606470 0.390395
0.807711 0.596939 0.407909
1.009961 0.595688 0.413874
0.008338 0.815318 0.373222
0.010054 0.817974 0.374971
0.241366 0.839800 0.370723
0.463375 0.828928 0.270471
0.778272 0.811535 0.373999
1.013163 0.795132 0.409834
0.015710 1.032290 0.293971
0.016916 1.035558 0.277687
0.021380 1.052968 0.175012
0.354915 1.074206 0.090080
0.561549 1.050366 0.000000
0.966066 1.016698 0.350688
0.000000 0.004147 0.595626
0.188967 0.003251 0.600225
0.390000 0.002450 0.605315
0.591076 0.001529 0.611465
0.792913 0.000366 0.617778
0.995076 0.000051 0.623859
0.000000 0.203644 0.592666
0.191635 0.202765 0.597084
0.392767 0.201969 0.601830
0.594051 0.201021 0.607644
0.796010 0.199835 0.613816
0.998207 0.198592 0.619856
0.000000 0.402856 0.590825
0.194759 0.402069 0.594669
0.395818 0.401383 0.598542
0.597026 0.400511 0.603822
0.799109 0.399300 0.609884
1.001344 0.398050 0.615880
0.000000 0.601592 0.592379
0.198026 0.601061 0.594920
0.399014 0.600531 0.597460
0.600001 0.600001 0.600001
0.802256 0.598749 0.605959
1.004511 0.597497 0.611918
0.000000 0.800514 0.596258
0.199727 0.800289 0.597445
0.400340 0.800337 0.599265
0.562640 0.833129 0.621108
0.790818 0.807184 0.591905
1.007712 0.796938 0.607910
0.003724 1.005961 0.595270
0.078450 1.007620 0.593680
0.329133 1.017283 0.583149
0.483708 1.046873 0.605441
0.670079 1.021309 0.510341
0.979244 1.012226 0.578388
0.000000 0.005529 0.794168
0.184856 0.004614 0.798748
0.386028 0.003801 0.803542
0.586983 0.002986 0.809000
0.788101 0.002039 0.815286
0.989865 0.000892 0.821647
0.000000 0.205055 0.791134
0.187452 0.204147 0.795625
0.388687 0.203335 0.800226
0.589778 0.202506 0.805428
0.791076 0.201530 0.811464
0.992946 0.200365 0.817700
0.000000 0.404392 0.788681
0.190421 0.403529 0.792897
0.391635 0.402765 0.797083
0.592677 0.401994 0.801851
0.794051 0.401021 0.807643
0.996021 0.399835 0.813776
0.000000 0.603460 0.787671
0.193692 0.602706 0.791302
0.394891 0.602016 0.794804
0.595818 0.601383 0.798542
0.797026 0.600511 0.803822
0.999110 0.599300 0.809870
0.000000 0.802122 0.789838
0.197038 0.801591 0.792378
0.398026 0.801061 0.794919
0.599013 0.800531 0.797460
0.800000 0.800000 0.800000
1.002256 0.798748 0.805959
0.000000 1.000935 0.793915
0.199148 1.000655 0.795321
0.399684 1.000349 0.796976
0.600082 1.000078 0.798819
0.770888 1.039241 0.828895
0.991559 1.007896 0.792996
0.000000 0.006912 0.992709
0.180716 0.005983 0.997286
0.382003 0.005149 1.001960
0.583020 0.004354 1.007031
0.783975 0.003513 1.012744
0.985125 0.002549 1.019107
0.000000 0.206453 0.989641
0.183269 0.205529 0.994166
0.384599 0.204694 0.998723
0.585708 0.203890 1.003617
0.786798 0.203030 1.009122
0.988100 0.202040 1.015285
0.000000 0.405855 0.986937
0.186128 0.404957 0.991304
0.387453 0.404147 0.995624
0.588546 0.403377 1.000227
0.789677 0.402531 1.005478
0.991075 0.401530 1.011464
0.000000 0.605072 0.985042
0.189278 0.604233 0.989088
0.390590 0.603466 0.993023
0.591635 0.602765 0.997083
0.792632 0.602006 1.001861
0.994050 0.601021 1.007643
0.000000 0.804038 0.984712
0.192642 0.803312 0.988191
0.393865 0.802630 0.991544
0.594960 0.801988 0.994876
0.795818 0.801382 0.998541
0.997025 0.800510 1.003821
0.000000 1.002651 0.987297
0.196051 1.002121 0.989837
0.397038 1.001591 0.992378
0.598026 1.001060 0.994919
0.799013 1.000530 0.997459
1.000000 1.000000 1.000000
