assets/luts/LUTs/TG_Enhancer_Bluer_Skies.CUBE
LUT_3D_SIZE 6
0.000000 0.000000 0.000000
0.200683 0.000014 0.000014
0.397638 0.000028 0.000028
0.596456 0.000042 0.000042
0.795274 0.000056 0.000057
0.993354 0.000070 0.000071
0.000000 0.200356 0.000000
0.198831 0.200394 0.000006
0.397630 0.200383 0.000020
0.596448 0.200397 0.000034
0.795266 0.200411 0.000049
0.993346 0.200277 0.000063
0.000000 0.400710 0.000000
0.198803 0.400724 0.000000
0.397622 0.400738 0.000012
0.596440 0.400752 0.000026
0.795258 0.400766 0.000041
0.993338 0.400482 0.000055
0.000000 0.601064 0.000000
0.198795 0.601078 0.000000
0.397614 0.601092 0.000004
0.596432 0.601106 0.000018
0.795250 0.601120 0.000032
0.993330 0.600688 0.000047
0.000000 0.801417 0.000000
0.198787 0.801431 0.000000
0.397606 0.801445 0.000000
0.596424 0.801460 0.000010
0.795242 0.801474 0.000024
0.993322 0.800893 0.000039
0.000000 1.001027 0.000000
0.198632 1.001041 0.000000
0.397303 1.001055 0.000000
0.595973 1.001070 0.000002
0.794644 1.001084 0.000016
0.993314 1.001098 0.000031
0.000000 0.000000 0.202037
0.198814 0.000008 0.201942
0.397632 0.000022 0.201955
0.596450 0.000036 0.201969
0.795268 0.000050 0.201984
0.993348 0.000064 0.201848
0.000000 0.196454 0.203822
0.197933 0.200086 0.203076
0.400936 0.198007 0.199653
0.596442 0.200392 0.201962
0.795260 0.200406 0.201976
0.993340 0.200420 0.201990
0.000000 0.400704 0.201911
0.198798 0.400718 0.201926
0.397656 0.400789 0.200159
0.596434 0.400746 0.201954
0.795252 0.400760 0.201968
0.993332 0.400528 0.201982
0.000000 0.601058 0.201903
0.198790 0.601072 0.201918
0.397608 0.601086 0.201932
0.596426 0.601100 0.201946
0.795244 0.601114 0.201960
0.993324 0.600705 0.201974
0.000000 0.801411 0.201895
0.198782 0.801425 0.201910
0.397600 0.801439 0.201924
0.596418 0.801453 0.201938
0.795236 0.801467 0.201952
0.993316 0.800896 0.201966
0.000000 1.001021 0.201737
0.198774 1.001035 0.201901
0.397347 1.001049 0.201916
0.595990 1.001063 0.201930
0.794647 1.001077 0.201944
0.993308 1.001092 0.201958
0.000000 0.000000 0.403680
0.198807 0.000002 0.403868
0.397626 0.000016 0.403882
0.596444 0.000030 0.403896
0.795262 0.000044 0.403910
0.993342 0.000058 0.403624
0.000175 0.186438 0.433643
0.197341 0.198902 0.402624
0.397618 0.200371 0.403874
0.596436 0.200385 0.403888
0.795254 0.200400 0.403902
0.993334 0.200414 0.403668
0.000000 0.391758 0.406373
0.000000 0.390099 0.405121
0.395269 0.399576 0.405556
0.600562 0.398766 0.402037
0.795246 0.400754 0.403894
0.993326 0.400768 0.403908
0.000000 0.601051 0.403829
0.198783 0.601065 0.403843
0.397602 0.601079 0.403858
0.596475 0.601182 0.402067
0.795238 0.601108 0.403886
0.993318 0.600810 0.403900
0.000000 0.801405 0.403821
0.198775 0.801419 0.403835
0.397594 0.801433 0.403850
0.596412 0.801447 0.403864
0.795230 0.801461 0.403878
0.993310 0.800933 0.403892
0.000000 1.001015 0.403513
0.198767 1.001029 0.403579
0.397586 1.001043 0.403842
0.596094 1.001057 0.403856
0.794684 1.001071 0.403870
0.993302 1.001085 0.403884
0.000000 0.000000 0.605519
0.198799 0.000000 0.605791
0.397619 0.000009 0.605808
0.596438 0.000024 0.605822
0.795256 0.000038 0.605836
0.993336 0.000052 0.605400
0.000000 0.193692 0.611551
0.197381 0.198939 0.604373
0.397611 0.200365 0.605800
0.596430 0.200379 0.605814
0.795248 0.200393 0.605828
0.993328 0.200407 0.605416
0.009646 0.369076 0.681941
0.005079 0.368394 0.671176
0.394402 0.397520 0.602699
0.596422 0.400733 0.605806
0.795240 0.400748 0.605820
0.993319 0.400762 0.605519
0.000000 0.587636 0.609558
0.000000 0.586235 0.608304
0.243653 0.578382 0.594176
0.592010 0.598471 0.607441
0.799985 0.599174 0.604082
0.993311 0.601115 0.605826
0.000000 0.801399 0.605747
0.198769 0.801413 0.605761
0.397588 0.801427 0.605775
0.596406 0.801441 0.605789
0.795288 0.801576 0.603736
0.993303 0.801049 0.605818
0.000000 1.001009 0.605289
0.198761 1.001023 0.605327
0.397580 1.001037 0.605453
0.596398 1.001051 0.605781
0.794799 1.001065 0.605796
0.993295 1.001079 0.605810
0.000000 0.000000 0.807358
0.198617 0.000000 0.807542
0.397613 0.000003 0.807733
0.596431 0.000017 0.807747
0.795249 0.000031 0.807761
0.993329 0.000046 0.807176
0.000000 0.197148 0.806712
0.197312 0.198870 0.806236
0.397605 0.200359 0.807725
0.596424 0.200373 0.807739
0.795241 0.200387 0.807753
0.993321 0.200401 0.807177
0.000350 0.372876 0.867283
0.028829 0.376811 0.852312
0.394761 0.397877 0.804880
0.596415 0.400727 0.807731
0.795233 0.400741 0.807745
0.993313 0.400755 0.807213
0.010388 0.561615 0.916041
0.010646 0.559750 0.913913
0.260307 0.555186 0.870852
0.590951 0.595626 0.802300
0.795225 0.601095 0.807737
0.993305 0.601109 0.807328
0.000000 0.783514 0.812743
0.000000 0.782581 0.811904
0.000000 0.778514 0.808342
0.449860 0.766047 0.784028
0.788156 0.796770 0.808730
0.998694 0.799461 0.806022
0.000000 1.001962 0.806195
0.176476 1.001698 0.806439
0.397420 1.001044 0.807131
0.596391 1.001045 0.807284
0.795209 1.001059 0.807721
0.993364 1.001243 0.805162
0.000000 0.000000 1.008447
0.198274 0.000000 1.008528
0.397312 0.000000 1.008909
0.595982 0.000011 1.008923
0.794653 0.000025 1.008937
0.993323 0.000039 1.008951
0.000000 0.198092 1.006875
0.197228 0.198786 1.007334
0.397355 0.200353 1.008901
0.595997 0.200367 1.008915
0.794654 0.200381 1.008929
0.993315 0.200395 1.008943
0.000000 0.380056 1.040998
0.146114 0.383900 1.027197
0.394792 0.397908 1.006093
0.596099 0.400721 1.008907
0.794689 0.400735 1.008921
0.993307 0.400749 1.008935
0.009408 0.550900 1.116741
0.006961 0.551816 1.110700
0.291216 0.559469 1.068282
0.591893 0.596566 1.004391
0.794803 0.601089 1.008913
0.993299 0.601103 1.008927
0.003240 0.757187 1.135727
0.003818 0.755744 1.135176
0.006102 0.749644 1.132084
0.466479 0.741727 1.067508
0.786756 0.792981 1.000607
0.993291 0.801457 1.008919
0.000000 0.979902 1.012819
0.000000 0.979272 1.012184
0.000000 0.976569 1.009459
0.292498 0.967986 0.993414
0.655884 0.956499 0.973979
0.983699 0.995459 1.008034
