assets/luts/LUTs/TG_Enhancer_Foliage_Pop.CUBE
LUT_3D_SIZE 16
0.000000 0.000000 0.000000
0.067419 0.000005 0.001986
0.134838 0.000009 0.003972
0.202257 0.000014 0.005958
0.269675 0.000019 0.007945
0.337094 0.000024 0.009931
0.404512 0.000028 0.011917
0.471931 0.000033 0.013903
0.539349 0.000038 0.015889
0.606768 0.000042 0.017875
0.674186 0.000047 0.019861
0.741604 0.000052 0.021847
0.809023 0.000057 0.023834
0.876441 0.000061 0.025820
0.943859 0.000066 0.027806
1.011278 0.000071 0.029792
0.000546 0.069491 0.010814
0.062840 0.068102 0.000075
0.135900 0.065648 0.002631
0.203315 0.065232 0.004615
0.270732 0.064816 0.006600
0.338149 0.064399 0.008585
0.405568 0.063981 0.010570
0.472986 0.063564 0.012556
0.540404 0.063147 0.014541
0.607822 0.062730 0.016527
0.675241 0.062312 0.018513
0.742659 0.061895 0.020499
0.810077 0.061478 0.022485
0.877495 0.061060 0.024471
0.944914 0.060643 0.026457
1.012332 0.060225 0.028443
0.002190 0.140079 0.022725
0.026895 0.141792 0.016768
0.125827 0.136349 0.000296
0.204386 0.131713 0.003275
0.271799 0.131297 0.005262
0.339213 0.130881 0.007246
0.406629 0.130464 0.009230
0.474045 0.130048 0.011215
0.541462 0.129631 0.013199
0.608880 0.129214 0.015184
0.676298 0.128797 0.017169
0.743715 0.128380 0.019155
0.811133 0.127963 0.021140
0.878551 0.127545 0.023126
0.945969 0.127128 0.025111
1.013387 0.126711 0.027097
0.004287 0.211121 0.035090
0.004503 0.211441 0.042414
0.083875 0.211161 0.008898
0.188958 0.204741 0.000661
0.272871 0.197777 0.003917
0.340285 0.197361 0.005907
0.407698 0.196945 0.007893
0.475112 0.196529 0.009877
0.542527 0.196113 0.011861
0.609942 0.195696 0.013845
0.677359 0.195280 0.015830
0.744776 0.194863 0.017814
0.812193 0.194446 0.019799
0.879610 0.194029 0.021784
0.947027 0.193612 0.023769
1.014445 0.193195 0.025754
0.005716 0.281494 0.046787
0.005959 0.281962 0.053266
0.055039 0.284832 0.034784
0.135316 0.279806 0.002315
0.251943 0.272988 0.000882
0.341355 0.263842 0.004558
0.408770 0.263425 0.006551
0.476183 0.263009 0.008538
0.543596 0.262593 0.010524
0.611010 0.262177 0.012508
0.678425 0.261761 0.014492
0.745840 0.261345 0.016476
0.813256 0.260928 0.018460
0.880672 0.260512 0.020445
0.948089 0.260095 0.022429
1.015505 0.259678 0.024414
0.007144 0.351868 0.058483
0.007348 0.352289 0.063629
0.007118 0.351778 0.070590
0.115300 0.354439 0.025979
0.189714 0.351742 0.000000
0.314929 0.341234 0.001102
0.409838 0.329906 0.005199
0.477255 0.329489 0.007193
0.544669 0.329072 0.009183
0.612082 0.328657 0.011170
0.679495 0.328241 0.013155
0.746909 0.327825 0.015139
0.814323 0.327409 0.017123
0.881738 0.326993 0.019107
0.949153 0.326577 0.021091
1.016569 0.326160 0.023076
0.008573 0.422241 0.070180
0.008741 0.422598 0.074301
0.009006 0.422881 0.084828
0.082559 0.427247 0.052177
0.167750 0.422322 0.017796
0.246913 0.426494 0.000000
0.377915 0.409481 0.001322
0.478322 0.395971 0.005839
0.545740 0.395553 0.007835
0.613155 0.395136 0.009826
0.680568 0.394720 0.011814
0.747981 0.394304 0.013801
0.815394 0.393889 0.015786
0.882807 0.393473 0.017770
0.950221 0.393057 0.019755
1.017636 0.392641 0.021739
0.010002 0.492614 0.081876
0.010142 0.492915 0.085265
0.010503 0.493501 0.096165
0.009471 0.494002 0.089674
0.145183 0.497363 0.043191
0.218945 0.490422 0.010506
0.304645 0.502084 0.003772
0.440900 0.477728 0.001543
0.546805 0.462036 0.006480
0.614224 0.461617 0.008476
0.681640 0.461200 0.010468
0.749053 0.460784 0.012458
0.816466 0.460368 0.014446
0.883879 0.459952 0.016432
0.951292 0.459537 0.018417
1.018706 0.459121 0.020401
0.011431 0.562987 0.093573
0.011549 0.563245 0.096406
0.011917 0.563923 0.106531
0.011734 0.563345 0.113316
0.110079 0.569662 0.069569
0.199693 0.565695 0.034794
0.270632 0.559610 0.004629
0.362078 0.577673 0.008183
0.503886 0.545974 0.001763
0.615288 0.528101 0.007120
0.682708 0.527682 0.009117
0.750125 0.527265 0.011110
0.817539 0.526848 0.013101
0.884952 0.526432 0.015090
0.952365 0.526016 0.017077
1.019777 0.525600 0.019063
0.012860 0.633361 0.105270
0.012961 0.633582 0.107692
0.013308 0.634262 0.116835
0.013508 0.634321 0.127241
0.045370 0.638202 0.101343
0.174268 0.640091 0.060437
0.251625 0.633482 0.026694
0.323862 0.630470 0.000620
0.418942 0.652925 0.012240
0.566871 0.614221 0.001983
0.683775 0.594166 0.007760
0.751191 0.593747 0.009757
0.818609 0.593329 0.011752
0.886024 0.592912 0.013744
0.953437 0.592496 0.015734
1.020850 0.592080 0.017721
0.014289 0.703734 0.116966
0.014376 0.703927 0.119077
0.014697 0.704576 0.127257
0.015029 0.704985 0.138870
0.014237 0.703555 0.141179
0.137598 0.712077 0.086961
0.230599 0.708876 0.051959
0.302817 0.701445 0.019198
0.379427 0.703483 0.000000
0.476358 0.727387 0.015826
0.629857 0.682467 0.002204
0.752291 0.660233 0.008402
0.819675 0.659811 0.010398
0.887093 0.659393 0.012393
0.954509 0.658976 0.014386
1.021923 0.658559 0.016376
0.015718 0.774107 0.128663
0.015795 0.774277 0.130511
0.016088 0.774884 0.137848
0.016467 0.775482 0.149500
0.016285 0.774839 0.155977
0.079141 0.781190 0.117321
0.202903 0.782716 0.077711
0.283758 0.776877 0.043640
0.354115 0.770010 0.012564
0.436309 0.777852 0.000000
0.535340 0.800746 0.018923
0.692842 0.750714 0.002424
0.820831 0.726305 0.009043
0.888158 0.725876 0.011038
0.955577 0.725458 0.013034
1.022993 0.725040 0.015028
0.017147 0.844480 0.140359
0.017215 0.844632 0.141996
0.017483 0.845195 0.148601
0.017876 0.845883 0.159797
0.018011 0.845760 0.169655
0.016607 0.843618 0.168905
0.165118 0.854492 0.104353
0.260750 0.851868 0.069161
0.335500 0.844642 0.035592
0.405948 0.839414 0.006944
0.493824 0.852986 0.000000
0.595381 0.873181 0.021557
0.755828 0.818960 0.002645
0.889385 0.792380 0.009685
0.956641 0.791941 0.011679
1.024061 0.791522 0.013675
0.018575 0.914853 0.152056
0.018637 0.914990 0.153519
0.018882 0.915509 0.159504
0.019269 0.916230 0.170071
0.019549 0.916449 0.181455
0.018881 0.915153 0.183935
0.109856 0.923921 0.134020
0.231258 0.925282 0.095006
0.315144 0.920168 0.060762
0.386710 0.912546 0.028000
0.458723 0.909868 0.002501
0.551566 0.928507 0.003054
0.656086 0.944860 0.023766
0.818813 0.887206 0.002865
0.957923 0.858469 0.010317
1.025124 0.858006 0.012319
0.020004 0.985226 0.163753
0.020060 0.985351 0.165071
0.020283 0.985829 0.170531
0.020658 0.986553 0.180413
0.021005 0.987001 0.192329
0.020811 0.986306 0.198591
0.018943 0.988002 0.179348
0.192637 0.996907 0.121745
0.290365 0.994724 0.086383
0.367728 0.988042 0.052502
0.437889 0.980842 0.021013
0.513270 0.981914 0.000000
0.609288 1.004167 0.007543
0.717237 1.015885 0.025580
0.881798 0.955453 0.003085
1.026027 0.924711 0.010758
0.021433 1.055599 0.175449
0.021484 1.055713 0.176647
0.021689 1.056156 0.181625
0.022045 1.056862 0.190885
0.022430 1.057454 0.202769
0.022514 1.057199 0.212069
0.021355 1.055331 0.211768
0.139350 1.066543 0.150997
0.259429 1.067811 0.112318
0.345899 1.063313 0.077938
0.419374 1.055801 0.044490
0.489346 1.049698 0.014744
0.569139 1.055223 0.000000
0.666846 1.079813 0.012016
0.778652 1.086340 0.027023
0.944784 1.023699 0.003306
0.000000 0.000461 0.066181
0.065676 0.000170 0.067941
0.133034 0.000007 0.069987
0.200451 0.000012 0.071981
0.267869 0.000017 0.073970
0.335288 0.000021 0.075958
0.402706 0.000026 0.077945
0.470125 0.000031 0.079932
0.537543 0.000036 0.081919
0.604962 0.000040 0.083905
0.672380 0.000045 0.085891
0.739799 0.000050 0.087877
0.807217 0.000054 0.089863
0.874635 0.000059 0.091849
0.942053 0.000064 0.093835
1.009472 0.000069 0.095821
0.000000 0.066844 0.065820
0.066667 0.066667 0.066667
0.134086 0.066250 0.068653
0.201505 0.065832 0.070639
0.268923 0.065415 0.072626
0.336342 0.064998 0.074612
0.403760 0.064580 0.076598
0.471179 0.064163 0.078584
0.538598 0.063745 0.080570
0.606016 0.063328 0.082556
0.673434 0.062911 0.084543
0.740853 0.062493 0.086529
0.808271 0.062076 0.088515
0.875689 0.061659 0.090501
0.943108 0.061241 0.092487
1.010526 0.060824 0.094473
0.000934 0.135431 0.061748
0.038778 0.138518 0.060338
0.129422 0.134966 0.062043
0.202570 0.132314 0.069302
0.269986 0.131897 0.071289
0.337403 0.131481 0.073274
0.404820 0.131064 0.075258
0.472237 0.130647 0.077243
0.539655 0.130230 0.079228
0.607073 0.129813 0.081213
0.674491 0.129396 0.083199
0.741909 0.128978 0.085184
0.809327 0.128561 0.087169
0.876745 0.128144 0.089155
0.944163 0.127727 0.091141
1.011581 0.127309 0.093127
0.003592 0.209012 0.021764
0.004280 0.210781 0.035034
0.084789 0.212337 0.010215
0.192044 0.203498 0.052827
0.271055 0.198378 0.069944
0.338471 0.197962 0.071934
0.405886 0.197545 0.073921
0.473301 0.197129 0.075905
0.540717 0.196712 0.077890
0.608134 0.196296 0.079874
0.675551 0.195879 0.081859
0.742968 0.195462 0.083843
0.810385 0.195045 0.085828
0.877803 0.194628 0.087813
0.945221 0.194211 0.089798
1.012639 0.193794 0.091784
0.005311 0.280299 0.038286
0.005711 0.281267 0.046749
0.055507 0.285540 0.035640
0.135279 0.279936 0.002517
0.254080 0.272286 0.032813
0.339539 0.264443 0.070585
0.406955 0.264026 0.072578
0.474370 0.263609 0.074566
0.541785 0.263193 0.076552
0.609200 0.262777 0.078537
0.676615 0.262361 0.080521
0.744031 0.261944 0.082505
0.811447 0.261527 0.084490
0.878864 0.261111 0.086474
0.946281 0.260694 0.088459
1.013698 0.260277 0.090443
0.006869 0.351064 0.052468
0.007141 0.351702 0.058456
0.007363 0.351980 0.070827
0.115818 0.355093 0.026715
0.189134 0.351349 0.000000
0.314923 0.341228 0.001102
0.408022 0.330508 0.071226
0.475440 0.330090 0.073220
0.542855 0.329673 0.075210
0.610269 0.329257 0.077197
0.677683 0.328841 0.079183
0.745098 0.328425 0.081168
0.812513 0.328009 0.083152
0.879928 0.327592 0.085137
0.947344 0.327176 0.087120
1.014761 0.326759 0.089105
0.008368 0.421646 0.065619
0.008571 0.422112 0.070158
0.009020 0.422849 0.083694
0.082834 0.427663 0.052677
0.168040 0.422715 0.018243
0.246398 0.426108 0.000000
0.377910 0.409476 0.001322
0.476505 0.396573 0.071866
0.543924 0.396155 0.073862
0.611340 0.395738 0.075853
0.678754 0.395321 0.077842
0.746168 0.394905 0.079829
0.813582 0.394489 0.081814
0.880996 0.394073 0.083799
0.948411 0.393657 0.085783
1.015826 0.393241 0.087767
0.009841 0.492148 0.078243
0.010000 0.492511 0.081859
0.010456 0.493364 0.094286
0.009702 0.494145 0.090142
0.145501 0.497770 0.043653
0.219042 0.490600 0.010722
0.304283 0.501804 0.003479
0.440896 0.477723 0.001543
0.544989 0.462638 0.072507
0.612408 0.462219 0.074503
0.679825 0.461802 0.076496
0.747239 0.461385 0.078486
0.814653 0.460969 0.080474
0.882067 0.460553 0.082460
0.949480 0.460137 0.084445
1.016895 0.459721 0.086430
0.011299 0.562607 0.090586
0.011429 0.562901 0.093559
0.011853 0.563741 0.104541
0.011833 0.563422 0.113412
0.110264 0.569943 0.069906
0.199940 0.566013 0.035151
0.270600 0.559642 0.004688
0.361840 0.577486 0.007988
0.503883 0.545971 0.001763
0.613471 0.528703 0.073147
0.680892 0.528284 0.075144
0.748309 0.527866 0.077137
0.815724 0.527449 0.079129
0.883138 0.527033 0.081117
0.950552 0.526617 0.083105
1.017965 0.526201 0.085091
0.012750 0.633043 0.102746
0.012858 0.633288 0.105258
0.013240 0.634071 0.114922
0.013527 0.634315 0.126749
0.045343 0.638358 0.101585
0.174485 0.640373 0.060759
0.251784 0.633701 0.026943
0.323693 0.630374 0.000544
0.418791 0.652808 0.012117
0.566869 0.614218 0.001983
0.681966 0.594765 0.073500
0.749375 0.594348 0.075784
0.816793 0.593930 0.077779
0.884209 0.593513 0.079771
0.951623 0.593097 0.081761
1.019037 0.592680 0.083749
0.014194 0.703461 0.114798
0.014288 0.703671 0.116956
0.014631 0.704390 0.125479
0.015014 0.704935 0.137976
0.014344 0.703646 0.141283
0.137734 0.712283 0.087208
0.230791 0.709120 0.052234
0.302899 0.701577 0.019354
0.379204 0.703331 0.000000
0.476177 0.727343 0.015753
0.629854 0.682465 0.002204
0.750577 0.660801 0.070649
0.817859 0.660413 0.076425
0.885277 0.659995 0.078420
0.952693 0.659577 0.080413
1.020108 0.659161 0.082404
0.015634 0.773869 0.126774
0.015717 0.774052 0.128654
0.016025 0.774708 0.136222
0.016441 0.775404 0.148439
0.016335 0.774875 0.156017
0.079168 0.781324 0.117508
0.203061 0.782925 0.077951
0.283907 0.777071 0.043859
0.354138 0.770075 0.012648
0.436088 0.777692 0.000000
0.535147 0.800746 0.018881
0.692840 0.750711 0.002424
0.819369 0.726788 0.062111
0.886342 0.726478 0.077065
0.953761 0.726059 0.079062
1.021178 0.725642 0.081055
0.017073 0.844270 0.138697
0.017146 0.844431 0.140351
0.017424 0.845028 0.147127
0.017840 0.845784 0.158733
0.018025 0.845759 0.169372
0.016706 0.843706 0.169003
0.165224 0.854653 0.104545
0.260899 0.852059 0.069377
0.335604 0.844786 0.035757
0.405927 0.839430 0.006975
0.493631 0.852841 0.000000
0.595202 0.873209 0.021539
0.755826 0.818958 0.002645
0.888570 0.792649 0.039214
0.954825 0.792543 0.077706
1.022245 0.792124 0.079702
0.018510 0.914666 0.150579
0.018575 0.914810 0.152049
0.018826 0.915354 0.158159
0.019231 0.916125 0.169020
0.019542 0.916423 0.180949
0.018942 0.915203 0.183994
0.109894 0.924034 0.134171
0.231381 0.925446 0.095195
0.315272 0.920332 0.060947
0.386776 0.912648 0.028118
0.458653 0.909838 0.002483
0.551402 0.928381 0.002923
0.655914 0.944902 0.023760
0.818811 0.887205 0.002865
0.957925 0.858467 0.010319
1.023308 0.858607 0.078346
0.019945 0.985058 0.162425
0.020003 0.985187 0.163746
0.020233 0.985687 0.169275
0.020620 0.986447 0.179383
0.020993 0.986960 0.191671
0.020847 0.986332 0.198602
0.019035 0.988061 0.179529
0.192724 0.997037 0.121901
0.290485 0.994878 0.086558
0.367832 0.988177 0.052655
0.437925 0.980909 0.021094
0.513157 0.981843 0.000000
0.609152 1.004062 0.007433
0.717086 1.015935 0.025586
0.881797 0.955451 0.003085
1.026050 0.924702 0.010769
0.021379 1.055446 0.174244
0.021432 1.055563 0.175443
0.021644 1.056024 0.180485
0.022009 1.056761 0.189880
0.022410 1.057396 0.202078
0.022526 1.057200 0.211863
0.021416 1.055382 0.211827
0.139391 1.066640 0.151124
0.259527 1.067942 0.112471
0.346007 1.063451 0.078093
0.419451 1.055907 0.044610
0.489356 1.049735 0.014793
0.569014 1.055137 0.000000
0.666735 1.079726 0.011926
0.778525 1.086393 0.027036
0.944782 1.023698 0.003306
0.000000 0.000922 0.132362
0.064338 0.000634 0.133924
0.131351 0.000340 0.135882
0.198663 0.000010 0.137963
0.266068 0.000015 0.139973
0.333483 0.000019 0.141970
0.400900 0.000024 0.143961
0.468318 0.000029 0.145951
0.535737 0.000033 0.147940
0.603155 0.000038 0.149928
0.670574 0.000043 0.151916
0.737992 0.000048 0.153903
0.805411 0.000052 0.155890
0.872829 0.000057 0.157877
0.940248 0.000062 0.159864
1.007666 0.000066 0.161851
0.000000 0.067399 0.131448
0.065273 0.067128 0.132848
0.132342 0.066837 0.134608
0.199703 0.066433 0.136636
0.267116 0.066016 0.138635
0.334534 0.065598 0.140627
0.401953 0.065180 0.142617
0.469371 0.064762 0.144605
0.536790 0.064345 0.146593
0.604209 0.063927 0.148581
0.671627 0.063510 0.150568
0.739046 0.063092 0.152555
0.806464 0.062675 0.154542
0.873883 0.062257 0.156528
0.941302 0.061840 0.158515
1.008720 0.061422 0.160502
0.000000 0.133688 0.131640
0.066338 0.133511 0.132487
0.133334 0.133334 0.133334
0.200753 0.132917 0.135320
0.268172 0.132499 0.137306
0.335590 0.132082 0.139293
0.403009 0.131665 0.141279
0.470427 0.131247 0.143265
0.537846 0.130830 0.145251
0.605264 0.130412 0.147237
0.672682 0.129995 0.149223
0.740101 0.129578 0.151209
0.807519 0.129160 0.153196
0.874938 0.128743 0.155182
0.942356 0.128326 0.157168
1.009774 0.127908 0.159154
0.000075 0.200141 0.132903
0.065287 0.200431 0.133052
0.114521 0.206347 0.134370
0.196237 0.201713 0.129688
0.269238 0.198980 0.135970
0.336655 0.198563 0.137959
0.404072 0.198146 0.139944
0.471489 0.197730 0.141929
0.538906 0.197313 0.143914
0.606323 0.196896 0.145899
0.673741 0.196479 0.147884
0.741159 0.196062 0.149869
0.808577 0.195644 0.151854
0.875995 0.195227 0.153840
0.943413 0.194810 0.155825
1.010831 0.194393 0.157811
0.002779 0.271774 0.124408
0.003351 0.272659 0.124991
0.080456 0.279934 0.123575
0.154577 0.276428 0.090275
0.259169 0.270256 0.124410
0.337722 0.265045 0.136612
0.405140 0.264627 0.138604
0.472555 0.264211 0.140592
0.539971 0.263794 0.142577
0.607387 0.263378 0.144562
0.674804 0.262961 0.146547
0.742221 0.262544 0.148532
0.809638 0.262127 0.150516
0.877055 0.261710 0.152501
0.944472 0.261293 0.154486
1.011890 0.260876 0.156471
0.005237 0.344098 0.097991
0.005639 0.345187 0.092562
0.007127 0.350991 0.058337
0.118305 0.358070 0.030027
0.187184 0.350123 0.000000
0.322023 0.338901 0.116896
0.406206 0.331110 0.137253
0.473624 0.330692 0.139247
0.541040 0.330275 0.141236
0.608455 0.329858 0.143224
0.675870 0.329442 0.145209
0.743286 0.329025 0.147194
0.810702 0.328609 0.149179
0.878118 0.328192 0.151163
0.945535 0.327776 0.153148
1.012951 0.327359 0.155132
0.007184 0.418023 0.043527
0.007479 0.418847 0.048523
0.008560 0.421562 0.070067
0.083818 0.429184 0.054542
0.169578 0.424672 0.020430
0.244126 0.424408 0.000000
0.384434 0.407342 0.106002
0.474689 0.397175 0.137893
0.542108 0.396756 0.139888
0.609525 0.396339 0.141880
0.676940 0.395922 0.143869
0.744354 0.395506 0.145855
0.811769 0.395090 0.147841
0.879184 0.394673 0.149826
0.946600 0.394257 0.151811
1.014016 0.393840 0.153795
0.008968 0.489528 0.060904
0.009186 0.490107 0.064950
0.009991 0.492067 0.081786
0.010404 0.494454 0.091932
0.146917 0.499539 0.045649
0.219629 0.491527 0.011811
0.302647 0.500533 0.002151
0.446565 0.475871 0.090377
0.543172 0.463240 0.138533
0.610592 0.462821 0.140530
0.678009 0.462403 0.142522
0.745424 0.461986 0.144512
0.812839 0.461570 0.146500
0.880253 0.461154 0.148487
0.947668 0.460737 0.150472
1.015083 0.460321 0.152457
0.010621 0.560597 0.076572
0.010789 0.561027 0.079875
0.011422 0.562534 0.093498
0.012021 0.563497 0.111908
0.111015 0.571079 0.071279
0.201076 0.567440 0.036748
0.270558 0.559871 0.005035
0.360765 0.576640 0.007106
0.508160 0.544570 0.065626
0.611655 0.529305 0.139174
0.679076 0.528885 0.141170
0.746493 0.528468 0.143164
0.813909 0.528050 0.145155
0.881324 0.527634 0.147144
0.948738 0.527218 0.149132
1.016152 0.526801 0.151118
0.012201 0.631431 0.091120
0.012336 0.631766 0.093869
0.012852 0.632976 0.105206
0.013475 0.634103 0.122653
0.045164 0.638946 0.102532
0.175427 0.641581 0.062135
0.252532 0.634697 0.028069
0.323053 0.630037 0.000308
0.418108 0.652271 0.011558
0.566857 0.614205 0.001982
0.680140 0.595369 0.139777
0.747559 0.594950 0.141811
0.814977 0.594532 0.143806
0.882394 0.594114 0.145798
0.949808 0.593698 0.147788
1.017223 0.593281 0.149776
0.013738 0.702127 0.104936
0.013849 0.702397 0.107266
0.014282 0.703402 0.116911
0.014883 0.704557 0.132901
0.014727 0.703959 0.141653
0.138301 0.713141 0.088241
0.231636 0.710185 0.053429
0.303304 0.702194 0.020073
0.378268 0.702697 0.000000
0.475367 0.727131 0.015414
0.629844 0.682454 0.002203
0.748680 0.661426 0.139361
0.816042 0.661015 0.142452
0.883461 0.660596 0.144447
0.950878 0.660179 0.146440
1.018293 0.659762 0.148431
0.015247 0.772738 0.118252
0.015340 0.772961 0.120276
0.015712 0.773816 0.128614
0.016274 0.774936 0.143151
0.016494 0.774967 0.155574
0.079258 0.781861 0.118270
0.203745 0.783819 0.078975
0.284572 0.777927 0.044820
0.354275 0.770393 0.013047
0.435153 0.777014 0.000000
0.534334 0.800739 0.018699
0.692831 0.750702 0.002424
0.817294 0.727471 0.137220
0.884526 0.727080 0.143092
0.951945 0.726661 0.145088
1.019362 0.726243 0.147082
0.016736 0.843291 0.131238
0.016818 0.843483 0.132984
0.017141 0.844223 0.140317
0.017662 0.845285 0.153501
0.018040 0.845697 0.167388
0.017104 0.844050 0.169390
0.165667 0.855325 0.105354
0.261549 0.852884 0.070308
0.336079 0.845429 0.036486
0.405865 0.839522 0.007133
0.492795 0.852215 0.000000
0.594413 0.873320 0.021451
0.755818 0.818950 0.002644
0.885981 0.793502 0.132984
0.953008 0.793144 0.143732
1.020428 0.792726 0.145729
0.018215 0.913808 0.143946
0.018284 0.913972 0.145508
0.018571 0.914623 0.152018
0.019052 0.915622 0.163999
0.019493 0.916269 0.178180
0.019176 0.915388 0.184219
0.110051 0.924502 0.134801
0.231907 0.926143 0.095998
0.315831 0.921045 0.061747
0.387080 0.913100 0.028642
0.458363 0.909716 0.002415
0.550692 0.927838 0.002356
0.655209 0.945073 0.023738
0.818804 0.887197 0.002865
0.954747 0.859514 0.126154
1.021492 0.859209 0.144373
0.019681 0.984294 0.156485
0.019744 0.984439 0.157891
0.020000 0.985019 0.163718
0.020443 0.985950 0.174678
0.020912 0.986727 0.188572
0.020960 0.986398 0.198334
0.019403 0.988288 0.180284
0.193084 0.997583 0.122557
0.291001 0.995538 0.087306
0.368280 0.988763 0.053315
0.438084 0.981198 0.021444
0.512682 0.981548 0.000000
0.608564 1.003606 0.006957
0.716455 1.016145 0.025609
0.881791 0.955445 0.003085
1.023269 0.925617 0.115583
0.021142 1.054760 0.168895
0.021199 1.054890 0.170138
0.021429 1.055411 0.175418
0.021839 1.056282 0.185438
0.022312 1.057121 0.198832
0.022554 1.057176 0.210668
0.021667 1.055594 0.212071
0.139557 1.067043 0.151653
0.259946 1.068505 0.113122
0.346474 1.064046 0.078763
0.419791 1.056371 0.045138
0.489399 1.049894 0.015004
0.568471 1.054768 0.000000
0.666255 1.079351 0.011534
0.777978 1.086623 0.027092
0.944777 1.023692 0.003305
0.000000 0.001382 0.198543
0.062989 0.001084 0.200076
0.130000 0.000817 0.201772
0.197026 0.000510 0.203822
0.264305 0.000122 0.205927
0.331693 0.000017 0.207954
0.399101 0.000022 0.209959
0.466515 0.000027 0.211957
0.533932 0.000031 0.213951
0.601350 0.000036 0.215942
0.668768 0.000041 0.217932
0.736186 0.000045 0.219921
0.803604 0.000050 0.221910
0.871022 0.000055 0.223898
0.938441 0.000060 0.225886
1.005859 0.000064 0.227873
0.000000 0.067881 0.197556
0.063879 0.067589 0.199029
0.130923 0.067323 0.200611
0.198018 0.067007 0.202549
0.265338 0.066612 0.204606
0.332737 0.066197 0.206619
0.400149 0.065780 0.208619
0.467566 0.065363 0.210614
0.534984 0.064945 0.212606
0.602402 0.064527 0.214596
0.669820 0.064110 0.216585
0.737239 0.063692 0.218574
0.804657 0.063274 0.220562
0.872076 0.062857 0.222550
0.939494 0.062439 0.224537
1.006913 0.062021 0.226525
0.000000 0.134286 0.196942
0.064920 0.134024 0.198224
0.131940 0.133795 0.199515
0.199009 0.133504 0.201275
0.266371 0.133100 0.203295
0.333783 0.132684 0.205294
0.401200 0.132266 0.207287
0.468618 0.131848 0.209277
0.536037 0.131430 0.211266
0.603455 0.131013 0.213255
0.670874 0.130595 0.215243
0.738293 0.130177 0.217230
0.805711 0.129760 0.219218
0.873130 0.129342 0.221205
0.940549 0.128925 0.223192
1.007967 0.128507 0.225179
0.000000 0.200531 0.197460
0.066009 0.200354 0.198307
0.133005 0.200178 0.199154
0.200001 0.200001 0.200001
0.267420 0.199584 0.201987
0.334838 0.199166 0.203973
0.402257 0.198749 0.205959
0.469675 0.198331 0.207946
0.537094 0.197914 0.209932
0.604512 0.197497 0.211918
0.671931 0.197079 0.213904
0.739349 0.196662 0.215890
0.806767 0.196245 0.217876
0.874186 0.195827 0.219862
0.941604 0.195410 0.221849
1.009022 0.194992 0.223835
0.000000 0.266839 0.198753
0.066576 0.266764 0.199149
0.133415 0.266748 0.199724
0.183934 0.274097 0.203423
0.263009 0.268465 0.196705
0.335905 0.265647 0.202637
0.403323 0.265230 0.204627
0.470740 0.264813 0.206613
0.538157 0.264396 0.208599
0.605574 0.263979 0.210584
0.672991 0.263562 0.212569
0.740409 0.263145 0.214554
0.807827 0.262728 0.216539
0.875245 0.262311 0.218524
0.942662 0.261893 0.220509
1.010080 0.261476 0.222495
0.001241 0.335322 0.198424
0.026150 0.335874 0.197894
0.109711 0.339096 0.194384
0.161236 0.348959 0.201814
0.223854 0.340931 0.170608
0.326086 0.337080 0.192466
0.404389 0.331712 0.203279
0.471807 0.331294 0.205272
0.539224 0.330876 0.207261
0.606640 0.330460 0.209248
0.674056 0.330043 0.211233
0.741473 0.329626 0.213218
0.808890 0.329210 0.215203
0.876307 0.328793 0.217188
0.943724 0.328376 0.219172
1.011141 0.327959 0.221157
0.004169 0.407660 0.186611
0.004486 0.408170 0.186668
0.005930 0.410220 0.190543
0.120683 0.419901 0.185362
0.201168 0.421359 0.155357
0.267943 0.411986 0.130409
0.389137 0.405769 0.187000
0.472873 0.397776 0.203920
0.540292 0.397358 0.205914
0.607709 0.396941 0.207905
0.675124 0.396524 0.209894
0.742540 0.396107 0.211880
0.809956 0.395691 0.213866
0.877372 0.395274 0.215851
0.944788 0.394857 0.217836
1.012204 0.394441 0.219820
0.006739 0.479691 0.168951
0.006999 0.480200 0.168377
0.008109 0.482472 0.165159
0.031775 0.490772 0.130991
0.149705 0.502889 0.049438
0.221766 0.494307 0.014927
0.318290 0.491440 0.089359
0.451762 0.474149 0.179676
