assets/luts/LUTs/TG_Enhancer_Softer_Blacks.CUBE
LUT_3D_SIZE 16
0.100005 0.100005 0.100005
0.115911 0.100005 0.100005
0.159012 0.100005 0.100005
0.213048 0.100005 0.100005
0.273629 0.100005 0.100005
0.339298 0.100005 0.100005
0.407733 0.100005 0.100005
0.476680 0.100005 0.100005
0.544233 0.100005 0.100005
0.610260 0.100005 0.100005
0.675355 0.100005 0.100005
0.740137 0.100005 0.100005
0.805139 0.100005 0.100005
0.870417 0.100005 0.100005
0.935881 0.100005 0.100005
0.999990 0.100005 0.100005
0.100005 0.115911 0.100005
0.115911 0.115911 0.100005
0.159012 0.114615 0.100005
0.213048 0.113958 0.100005
0.273629 0.113886 0.100005
0.339298 0.114135 0.100005
0.407733 0.114439 0.100005
0.476680 0.114652 0.100005
0.544233 0.114708 0.100005
0.610260 0.114658 0.100005
0.675355 0.114568 0.100005
0.740137 0.114477 0.100005
0.805139 0.114407 0.100005
0.870417 0.114357 0.100005
0.935881 0.114318 0.100005
0.999990 0.114242 0.100005
0.100005 0.159012 0.100005
0.114615 0.159012 0.100005
0.159012 0.159012 0.100005
0.213048 0.156804 0.100005
0.273629 0.156560 0.100005
0.339298 0.157403 0.100005
0.407733 0.158422 0.100005
0.476680 0.159134 0.100005
0.544233 0.159319 0.100005
0.610260 0.159155 0.100005
0.675355 0.158854 0.100005
0.740137 0.158549 0.100005
0.805139 0.158316 0.100005
0.870417 0.158146 0.100005
0.935881 0.158017 0.100005
0.999990 0.157760 0.100005
0.100005 0.213048 0.100005
0.113958 0.213048 0.100005
0.156804 0.213048 0.100005
0.213048 0.213048 0.100005
0.273629 0.212628 0.100005
0.339298 0.214080 0.100005
0.407733 0.215831 0.100005
0.476680 0.217051 0.100005
0.544233 0.217369 0.100005
0.610260 0.217087 0.100005
0.675355 0.216571 0.100005
0.740137 0.216049 0.100005
0.805139 0.215648 0.100005
0.870417 0.215357 0.100005
0.935881 0.215136 0.100005
0.999990 0.214694 0.100005
0.100005 0.273629 0.100005
0.113886 0.273629 0.100005
0.156560 0.273629 0.100005
0.212628 0.273629 0.100005
0.273629 0.273629 0.100005
0.339298 0.275662 0.100005
0.407733 0.278112 0.100005
0.476680 0.279818 0.100005
0.544233 0.280262 0.100005
0.610260 0.279869 0.100005
0.675355 0.279147 0.100005
0.740137 0.278417 0.100005
0.805139 0.277857 0.100005
0.870417 0.277449 0.100005
0.935881 0.277140 0.100005
0.999990 0.276521 0.100005
0.100005 0.339298 0.100005
0.114135 0.339298 0.100005
0.157403 0.339298 0.100005
0.214080 0.339298 0.100005
0.275662 0.339298 0.100005
0.339298 0.339298 0.100005
0.407733 0.342428 0.100005
0.476680 0.344605 0.100005
0.544233 0.345171 0.100005
0.610260 0.344670 0.100005
0.675355 0.343749 0.100005
0.740137 0.342816 0.100005
0.805139 0.342101 0.100005
0.870417 0.341581 0.100005
0.935881 0.341186 0.100005
0.999990 0.340396 0.100005
0.100005 0.407733 0.100005
0.114439 0.407733 0.100005
0.158422 0.407733 0.100005
0.215831 0.407733 0.100005
0.278112 0.407733 0.100005
0.342428 0.407733 0.100005
0.407733 0.407733 0.100005
0.476680 0.410374 0.100005
0.544233 0.411061 0.100005
0.610260 0.410452 0.100005
0.675355 0.409335 0.100005
0.740137 0.408204 0.100005
0.805139 0.407336 0.100005
0.870417 0.406705 0.100005
0.935881 0.406226 0.100005
0.999990 0.405267 0.100005
0.100005 0.476680 0.100005
0.114652 0.476680 0.100005
0.159134 0.476680 0.100005
0.217051 0.476680 0.100005
0.279818 0.476680 0.100005
0.344605 0.476680 0.100005
0.410374 0.476680 0.100005
0.476680 0.476680 0.100005
0.544233 0.477487 0.100005
0.610260 0.476773 0.100005
0.675355 0.475461 0.100005
0.740137 0.474133 0.100005
0.805139 0.473115 0.100005
0.870417 0.472374 0.100005
0.935881 0.471812 0.100005
0.999990 0.470686 0.100005
0.100005 0.544233 0.100005
0.114708 0.544233 0.100005
0.159319 0.544233 0.100005
0.217369 0.544233 0.100005
0.280262 0.544233 0.100005
0.345171 0.544233 0.100005
0.411061 0.544233 0.100005
0.477487 0.544233 0.100005
0.544233 0.544233 0.100005
0.610260 0.543414 0.100005
0.675355 0.541910 0.100005
0.740137 0.540386 0.100005
0.805139 0.539217 0.100005
0.870417 0.538367 0.100005
0.935881 0.537722 0.100005
0.999990 0.536431 0.100005
0.100005 0.610260 0.100005
0.114658 0.610260 0.100005
0.159155 0.610260 0.100005
0.217087 0.610260 0.100005
0.279869 0.610260 0.100005
0.344670 0.610260 0.100005
0.410452 0.610260 0.100005
0.476773 0.610260 0.100005
0.543414 0.610260 0.100005
0.610260 0.610260 0.100005
0.675355 0.608563 0.100005
0.740137 0.606845 0.100005
0.805139 0.605527 0.100005
0.870417 0.604568 0.100005
0.935881 0.603841 0.100005
0.999990 0.602384 0.100005
0.100005 0.675355 0.100005
0.114568 0.675355 0.100005
0.158854 0.675355 0.100005
0.216571 0.675355 0.100005
0.279147 0.675355 0.100005
0.343749 0.675355 0.100005
0.409335 0.675355 0.100005
0.475461 0.675355 0.100005
0.541910 0.675355 0.100005
0.608563 0.675355 0.100005
0.675355 0.675355 0.100005
0.740137 0.673442 0.100005
0.805139 0.671976 0.100005
0.870417 0.670909 0.100005
0.935881 0.670099 0.100005
0.999990 0.668477 0.100005
0.100005 0.740137 0.100005
0.114477 0.740137 0.100005
0.158549 0.740137 0.100005
0.216049 0.740137 0.100005
0.278417 0.740137 0.100005
0.342816 0.740137 0.100005
0.408204 0.740137 0.100005
0.474133 0.740137 0.100005
0.540386 0.740137 0.100005
0.606845 0.740137 0.100005
0.673442 0.740137 0.100005
0.740137 0.740137 0.100005
0.805139 0.738522 0.100005
0.870417 0.737347 0.100005
0.935881 0.736455 0.100005
0.999990 0.734669 0.100005
0.100005 0.805139 0.100005
0.114407 0.805139 0.100005
0.158316 0.805139 0.100005
0.215648 0.805139 0.100005
0.277857 0.805139 0.100005
0.342101 0.805139 0.100005
0.407336 0.805139 0.100005
0.473115 0.805139 0.100005
0.539217 0.805139 0.100005
0.605527 0.805139 0.100005
0.671976 0.805139 0.100005
0.738522 0.805139 0.100005
0.805139 0.805139 0.100005
0.870417 0.803855 0.100005
0.935881 0.802882 0.100005
0.999990 0.800932 0.100005
0.100005 0.870417 0.100005
0.114357 0.870417 0.100005
0.158146 0.870417 0.100005
0.215357 0.870417 0.100005
0.277449 0.870417 0.100005
0.341581 0.870417 0.100005
0.406705 0.870417 0.100005
0.472374 0.870417 0.100005
0.538367 0.870417 0.100005
0.604568 0.870417 0.100005
0.670909 0.870417 0.100005
0.737347 0.870417 0.100005
0.803855 0.870417 0.100005
0.870417 0.870417 0.100005
0.935881 0.869362 0.100005
0.999990 0.867247 0.100005
0.100005 0.935881 0.100005
0.114318 0.935881 0.100005
0.158017 0.935881 0.100005
0.215136 0.935881 0.100005
0.277140 0.935881 0.100005
0.341186 0.935881 0.100005
0.406226 0.935881 0.100005
0.471812 0.935881 0.100005
0.537722 0.935881 0.100005
0.603841 0.935881 0.100005
0.670099 0.935881 0.100005
0.736455 0.935881 0.100005
0.802882 0.935881 0.100005
0.869362 0.935881 0.100005
0.935881 0.935881 0.100005
0.999990 0.933603 0.100005
0.100005 0.999990 0.100005
0.114242 0.999990 0.100005
0.157760 0.999990 0.100005
0.214694 0.999990 0.100005
0.276521 0.999990 0.100005
0.340396 0.999990 0.100005
0.405267 0.999990 0.100005
0.470686 0.999990 0.100005
0.536431 0.999990 0.100005
0.602384 0.999990 0.100005
0.668477 0.999990 0.100005
0.734669 0.999990 0.100005
0.800932 0.999990 0.100005
0.867247 0.999990 0.100005
0.933603 0.999990 0.100005
0.999990 0.999990 0.100005
0.100005 0.100005 0.115911
0.115911 0.100005 0.115911
0.159012 0.100005 0.114615
0.213048 0.100005 0.113958
0.273629 0.100005 0.113886
0.339298 0.100005 0.114135
0.407733 0.100005 0.114439
0.476680 0.100005 0.114652
0.544233 0.100005 0.114708
0.610260 0.100005 0.114658
0.675355 0.100005 0.114568
0.740137 0.100005 0.114477
0.805139 0.100005 0.114407
0.870417 0.100005 0.114357
0.935881 0.100005 0.114318
0.999990 0.100005 0.114242
0.100005 0.115911 0.115911
0.115911 0.115911 0.115911
0.159012 0.115911 0.115911
0.213048 0.115911 0.115911
0.273628 0.115911 0.115911
0.339298 0.115911 0.115911
0.407733 0.115911 0.115911
0.476680 0.115911 0.115911
0.544233 0.115911 0.115911
0.610260 0.115911 0.115911
0.675355 0.115911 0.115911
0.740137 0.115911 0.115911
0.805139 0.115911 0.115911
0.870417 0.115911 0.115911
0.935881 0.115911 0.115911
0.999990 0.115911 0.115911
0.100005 0.159012 0.114615
0.115911 0.159012 0.115911
0.159012 0.159012 0.115911
0.213048 0.157648 0.115911
0.273628 0.157659 0.115911
0.339298 0.158438 0.115911
0.407733 0.159305 0.115911
0.476680 0.159900 0.115911
0.544233 0.160060 0.115911
0.610260 0.159932 0.115911
0.675355 0.159693 0.115911
0.740137 0.159450 0.115911
0.805139 0.159264 0.115911
0.870417 0.159129 0.115911
0.935881 0.159027 0.115911
0.999990 0.158822 0.115911
0.100005 0.213048 0.113958
0.115911 0.213048 0.115911
0.157648 0.213048 0.115911
0.213048 0.213048 0.115911
0.273628 0.213070 0.115911
0.339298 0.214616 0.115911
0.407733 0.216332 0.115911
0.476680 0.217506 0.115911
0.544233 0.217819 0.115911
0.610260 0.217569 0.115911
0.675355 0.217097 0.115911
0.740137 0.216618 0.115911
0.805139 0.216251 0.115911
0.870417 0.215985 0.115911
0.935881 0.215783 0.115911
0.999990 0.215376 0.115911
0.100005 0.273629 0.113886
0.115911 0.273628 0.115911
0.157659 0.273628 0.115911
0.213070 0.273628 0.115911
0.273628 0.273628 0.115911
0.339298 0.275883 0.115911
0.407733 0.278382 0.115911
0.476680 0.280089 0.115911
0.544233 0.280545 0.115911
0.610260 0.280180 0.115911
0.675355 0.279494 0.115911
0.740137 0.278798 0.115911
0.805139 0.278264 0.115911
0.870417 0.277876 0.115911
0.935881 0.277583 0.115911
0.999990 0.276990 0.115911
0.100005 0.339298 0.114135
0.115911 0.339298 0.115911
0.158438 0.339298 0.115911
0.214616 0.339298 0.115911
0.275883 0.339298 0.115911
0.339298 0.339298 0.115911
0.407733 0.342543 0.115911
0.476680 0.344757 0.115911
0.544233 0.345348 0.115911
0.610260 0.344875 0.115911
0.675355 0.343985 0.115911
0.740137 0.343081 0.115911
0.805139 0.342389 0.115911
0.870417 0.341886 0.115911
0.935881 0.341505 0.115911
0.999990 0.340735 0.115911
0.100005 0.407733 0.114439
0.115911 0.407733 0.115911
0.159305 0.407733 0.115911
0.216332 0.407733 0.115911
0.278382 0.407733 0.115911
0.342543 0.407733 0.115911
0.407733 0.407733 0.115911
0.476680 0.410440 0.115911
0.544233 0.411163 0.115911
0.610260 0.410585 0.115911
0.675355 0.409497 0.115911
0.740137 0.408391 0.115911
0.805139 0.407545 0.115911
0.870417 0.406930 0.115911
0.935881 0.406464 0.115911
0.999990 0.405522 0.115911
0.100005 0.476680 0.114652
0.115911 0.476680 0.115911
0.159900 0.476680 0.115911
0.217506 0.476680 0.115911
0.280089 0.476680 0.115911
0.344757 0.476680 0.115911
0.410440 0.476680 0.115911
0.476680 0.476680 0.115911
0.544233 0.477532 0.115911
0.610260 0.476851 0.115911
0.675355 0.475568 0.115911
0.740137 0.474264 0.115911
0.805139 0.473266 0.115911
0.870417 0.472541 0.115911
0.935881 0.471991 0.115911
0.999990 0.470881 0.115911
0.100005 0.544233 0.114708
0.115911 0.544233 0.115911
0.160060 0.544233 0.115911
0.217819 0.544233 0.115911
0.280545 0.544233 0.115911
0.345348 0.544233 0.115911
0.411163 0.544233 0.115911
0.477532 0.544233 0.115911
0.544233 0.544233 0.115911
0.610260 0.543449 0.115911
0.675355 0.541974 0.115911
0.740137 0.540474 0.115911
0.805139 0.539325 0.115911
0.870417 0.538491 0.115911
0.935881 0.537859 0.115911
0.999990 0.536582 0.115911
0.100005 0.610260 0.114658
0.115911 0.610260 0.115911
0.159932 0.610260 0.115911
0.217569 0.610260 0.115911
0.280180 0.610260 0.115911
0.344875 0.610260 0.115911
0.410585 0.610260 0.115911
0.476851 0.610260 0.115911
0.543449 0.610260 0.115911
0.610260 0.610260 0.115911
0.675355 0.608593 0.115911
0.740137 0.606898 0.115911
0.805139 0.605601 0.115911
0.870417 0.604658 0.115911
0.935881 0.603944 0.115911
0.999990 0.602500 0.115911
0.100005 0.675355 0.114568
0.115911 0.675355 0.115911
0.159693 0.675355 0.115911
0.217097 0.675355 0.115911
0.279494 0.675355 0.115911
0.343985 0.675355 0.115911
0.409497 0.675355 0.115911
0.475568 0.675355 0.115911
0.541974 0.675355 0.115911
0.608593 0.675355 0.115911
0.675355 0.675355 0.115911
0.740137 0.673467 0.115911
0.805139 0.672021 0.115911
0.870417 0.670970 0.115911
0.935881 0.670174 0.115911
0.999990 0.668566 0.115911
0.100005 0.740137 0.114477
0.115911 0.740137 0.115911
0.159450 0.740137 0.115911
0.216618 0.740137 0.115911
0.278798 0.740137 0.115911
0.343081 0.740137 0.115911
0.408391 0.740137 0.115911
0.474264 0.740137 0.115911
0.540474 0.740137 0.115911
0.606898 0.740137 0.115911
0.673467 0.740137 0.115911
0.740137 0.740137 0.115911
0.805139 0.738543 0.115911
0.870417 0.737385 0.115911
0.935881 0.736507 0.115911
0.999990 0.734735 0.115911
0.100005 0.805139 0.114407
0.115911 0.805139 0.115911
0.159264 0.805139 0.115911
0.216251 0.805139 0.115911
0.278264 0.805139 0.115911
0.342389 0.805139 0.115911
0.407545 0.805139 0.115911
0.473266 0.805139 0.115911
0.539325 0.805139 0.115911
0.605601 0.805139 0.115911
0.672021 0.805139 0.115911
0.738543 0.805139 0.115911
0.805139 0.805139 0.115911
0.870417 0.803873 0.115911
0.935881 0.802915 0.115911
0.999990 0.800978 0.115911
0.100005 0.870417 0.114357
0.115911 0.870417 0.115911
0.159129 0.870417 0.115911
0.215985 0.870417 0.115911
0.277876 0.870417 0.115911
0.341886 0.870417 0.115911
0.406930 0.870417 0.115911
0.472541 0.870417 0.115911
0.538491 0.870417 0.115911
0.604658 0.870417 0.115911
0.670970 0.870417 0.115911
0.737385 0.870417 0.115911
0.803873 0.870417 0.115911
0.870417 0.870417 0.115911
0.935881 0.869377 0.115911
0.999990 0.867276 0.115911
0.100005 0.935881 0.114318
0.115911 0.935881 0.115911
0.159027 0.935881 0.115911
0.215783 0.935881 0.115911
0.277583 0.935881 0.115911
0.341505 0.935881 0.115911
0.406464 0.935881 0.115911
0.471991 0.935881 0.115911
0.537859 0.935881 0.115911
0.603944 0.935881 0.115911
0.670174 0.935881 0.115911
0.736507 0.935881 0.115911
0.802915 0.935881 0.115911
0.869377 0.935881 0.115911
0.935881 0.935881 0.115911
0.999990 0.933617 0.115911
0.100005 0.999990 0.114242
0.115911 0.999990 0.115911
0.158822 0.999990 0.115911
0.215376 0.999990 0.115911
0.276990 0.999990 0.115911
0.340735 0.999990 0.115911
0.405522 0.999990 0.115911
0.470881 0.999990 0.115911
0.536582 0.999990 0.115911
0.602500 0.999990 0.115911
0.668566 0.999990 0.115911
0.734735 0.999990 0.115911
0.800978 0.999990 0.115911
0.867276 0.999990 0.115911
0.933617 0.999990 0.115911
0.999990 0.999990 0.115911
0.100005 0.100005 0.159012
0.114615 0.100005 0.159012
0.159012 0.100005 0.159012
0.213048 0.100005 0.156804
0.273629 0.100005 0.156560
0.339298 0.100005 0.157403
0.407733 0.100005 0.158422
0.476680 0.100005 0.159134
0.544233 0.100005 0.159319
0.610260 0.100005 0.159155
0.675355 0.100005 0.158854
0.740137 0.100005 0.158549
0.805139 0.100005 0.158316
0.870417 0.100005 0.158146
0.935881 0.100005 0.158017
0.999990 0.100005 0.157760
0.100005 0.114615 0.159012
0.115911 0.115911 0.159012
0.159012 0.115911 0.159012
0.213048 0.115911 0.157648
0.273628 0.115911 0.157659
0.339298 0.115911 0.158438
0.407733 0.115911 0.159305
0.476680 0.115911 0.159900
0.544233 0.115911 0.160060
0.610260 0.115911 0.159932
0.675355 0.115911 0.159693
0.740137 0.115911 0.159450
0.805139 0.115911 0.159264
0.870417 0.115911 0.159129
0.935881 0.115911 0.159027
0.999990 0.115911 0.158822
0.100005 0.159012 0.159012
0.115911 0.159012 0.159012
0.159012 0.159012 0.159012
0.213048 0.159012 0.159012
0.273628 0.159012 0.159012
0.339298 0.159012 0.159012
0.407733 0.159012 0.159012
0.476680 0.159012 0.159012
0.544233 0.159012 0.159012
0.610260 0.159012 0.159012
0.675355 0.159012 0.159012
0.740137 0.159012 0.159012
0.805139 0.159012 0.159012
0.870417 0.159012 0.159012
0.935881 0.159012 0.159012
0.999990 0.159012 0.159012
0.100005 0.213048 0.156804
0.115911 0.213048 0.157648
0.159012 0.213048 0.159012
0.213048 0.213048 0.159012
0.273628 0.213618 0.159012
0.339298 0.214915 0.159012
0.407733 0.216165 0.159012
0.476680 0.216979 0.159012
0.544233 0.217182 0.159012
0.610260 0.216999 0.159012
0.675355 0.216670 0.159012
0.740137 0.216341 0.159012
0.805139 0.216090 0.159012
0.870417 0.215909 0.159012
0.935881 0.215773 0.159012
0.999990 0.215498 0.159012
0.100005 0.273629 0.156560
0.115911 0.273628 0.157659
0.159012 0.273628 0.159012
0.213618 0.273628 0.159012
0.273628 0.273628 0.159012
0.339298 0.276006 0.159012
0.407733 0.278292 0.159012
0.476680 0.279775 0.159012
0.544233 0.280145 0.159012
0.610260 0.279812 0.159012
0.675355 0.279213 0.159012
0.740137 0.278612 0.159012
0.805139 0.278155 0.159012
0.870417 0.277825 0.159012
0.935881 0.277576 0.159012
0.999990 0.277074 0.159012
0.100005 0.339298 0.157403
0.115911 0.339298 0.158438
0.159012 0.339298 0.159012
0.214915 0.339298 0.159012
0.276006 0.339298 0.159012
0.339298 0.339298 0.159012
0.407733 0.342504 0.159012
0.476680 0.344581 0.159012
0.544233 0.345098 0.159012
0.610260 0.344632 0.159012
0.675355 0.343793 0.159012
0.740137 0.342952 0.159012
0.805139 0.342312 0.159012
0.870417 0.341849 0.159012
0.935881 0.341500 0.159012
0.999990 0.340797 0.159012
0.100005 0.407733 0.158422
0.115911 0.407733 0.159305
0.159012 0.407733 0.159012
0.216165 0.407733 0.159012
0.278292 0.407733 0.159012
0.342504 0.407733 0.159012
0.407733 0.407733 0.159012
0.476680 0.410363 0.159012
0.544233 0.411019 0.159012
0.610260 0.410428 0.159012
0.675355 0.409366 0.159012
0.740137 0.408300 0.159012
0.805139 0.407489 0.159012
0.870417 0.406903 0.159012
0.935881 0.406460 0.159012
0.999990 0.405568 0.159012
0.100005 0.476680 0.159134
0.115911 0.476680 0.159900
0.159012 0.476680 0.159012
0.216979 0.476680 0.159012
0.279775 0.476680 0.159012
0.344581 0.476680 0.159012
0.410363 0.476680 0.159012
0.476680 0.476680 0.159012
0.544233 0.477468 0.159012
0.610260 0.476758 0.159012
0.675355 0.475481 0.159012
0.740137 0.474200 0.159012
0.805139 0.473226 0.159012
0.870417 0.472521 0.159012
0.935881 0.471988 0.159012
0.999990 0.470916 0.159012
0.100005 0.544233 0.159319
0.115911 0.544233 0.160060
0.159012 0.544233 0.159012
0.217182 0.544233 0.159012
0.280145 0.544233 0.159012
0.345098 0.544233 0.159012
0.411019 0.544233 0.159012
0.477468 0.544233 0.159012
0.544233 0.544233 0.159012
0.610260 0.543407 0.159012
0.675355 0.541922 0.159012
0.740137 0.540431 0.159012
0.805139 0.539297 0.159012
0.870417 0.538476 0.159012
0.935881 0.537857 0.159012
0.999990 0.536609 0.159012
0.100005 0.610260 0.159155
0.115911 0.610260 0.159932
0.159012 0.610260 0.159012
0.216999 0.610260 0.159012
0.279812 0.610260 0.159012
0.344632 0.610260 0.159012
0.410428 0.610260 0.159012
0.476758 0.610260 0.159012
0.543407 0.610260 0.159012
0.610260 0.610260 0.159012
0.675355 0.608569 0.159012
0.740137 0.606872 0.159012
0.805139 0.605581 0.159012
0.870417 0.604647 0.159012
0.935881 0.603942 0.159012
0.999990 0.602521 0.159012
0.100005 0.675355 0.158854
0.115911 0.675355 0.159693
0.159012 0.675355 0.159012
0.216670 0.675355 0.159012
0.279213 0.675355 0.159012
0.343793 0.675355 0.159012
0.409366 0.675355 0.159012
0.475481 0.675355 0.159012
0.541922 0.675355 0.159012
0.608569 0.675355 0.159012
0.675355 0.675355 0.159012
0.740137 0.673455 0.159012
0.805139 0.672009 0.159012
0.870417 0.670963 0.159012
0.935881 0.670173 0.159012
0.999990 0.668582 0.159012
0.100005 0.740137 0.158549
0.115911 0.740137 0.159450
0.159012 0.740137 0.159012
0.216341 0.740137 0.159012
0.278612 0.740137 0.159012
0.342952 0.740137 0.159012
0.408300 0.740137 0.159012
0.474200 0.740137 0.159012
0.540431 0.740137 0.159012
0.606872 0.740137 0.159012
0.673455 0.740137 0.159012
0.740137 0.740137 0.159012
0.805139 0.738537 0.159012
0.870417 0.737380 0.159012
0.935881 0.736506 0.159012
0.999990 0.734746 0.159012
0.100005 0.805139 0.158316
0.115911 0.805139 0.159264
0.159012 0.805139 0.159012
0.216090 0.805139 0.159012
0.278155 0.805139 0.159012
0.342312 0.805139 0.159012
0.407489 0.805139 0.159012
0.473226 0.805139 0.159012
0.539297 0.805139 0.159012
0.605581 0.805139 0.159012
0.672009 0.805139 0.159012
0.738537 0.805139 0.159012
0.805139 0.805139 0.159012
0.870417 0.803871 0.159012
0.935881 0.802914 0.159012
0.999990 0.800986 0.159012
0.100005 0.870417 0.158146
0.115911 0.870417 0.159129
0.159012 0.870417 0.159012
0.215909 0.870417 0.159012
0.277825 0.870417 0.159012
0.341849 0.870417 0.159012
0.406903 0.870417 0.159012
0.472521 0.870417 0.159012
0.538476 0.870417 0.159012
0.604647 0.870417 0.159012
0.670963 0.870417 0.159012
0.737380 0.870417 0.159012
0.803871 0.870417 0.159012
0.870417 0.870417 0.159012
0.935881 0.869377 0.159012
0.999990 0.867281 0.159012
0.100005 0.935881 0.158017
0.115911 0.935881 0.159027
0.159012 0.935881 0.159012
0.215773 0.935881 0.159012
0.277576 0.935881 0.159012
0.341500 0.935881 0.159012
0.406460 0.935881 0.159012
0.471988 0.935881 0.159012
0.537857 0.935881 0.159012
0.603942 0.935881 0.159012
0.670173 0.935881 0.159012
0.736506 0.935881 0.159012
0.802914 0.935881 0.159012
0.869377 0.935881 0.159012
0.935881 0.935881 0.159012
0.999990 0.933619 0.159012
0.100005 0.999990 0.157760
0.115911 0.999990 0.158822
0.159012 0.999990 0.159012
0.215498 0.999990 0.159012
0.277074 0.999990 0.159012
0.340797 0.999990 0.159012
0.405568 0.999990 0.159012
0.470916 0.999990 0.159012
0.536609 0.999990 0.159012
0.602521 0.999990 0.159012
0.668582 0.999990 0.159012
0.734746 0.999990 0.159012
0.800986 0.999990 0.159012
0.867281 0.999990 0.159012
0.933619 0.999990 0.159012
0.999990 0.999990 0.159012
0.100005 0.100005 0.213048
0.113958 0.100005 0.213048
0.156804 0.100005 0.213048
0.213048 0.100005 0.213048
0.273629 0.100005 0.212628
0.339298 0.100005 0.214080
0.407733 0.100005 0.215831
0.476680 0.100005 0.217051
0.544233 0.100005 0.217369
0.610260 0.100005 0.217087
0.675355 0.100005 0.216571
0.740137 0.100005 0.216049
0.805139 0.100005 0.215648
0.870417 0.100005 0.215357
0.935881 0.100005 0.215136
0.999990 0.100005 0.214694
0.100005 0.113958 0.213048
0.115911 0.115911 0.213048
0.157648 0.115911 0.213048
0.213048 0.115911 0.213048
0.273628 0.115911 0.213070
0.339298 0.115911 0.214616
0.407733 0.115911 0.216332
0.476680 0.115911 0.217506
0.544233 0.115911 0.217819
0.610260 0.115911 0.217569
0.675355 0.115911 0.217097
0.740137 0.115911 0.216618
0.805139 0.115911 0.216251
0.870417 0.115911 0.215985
0.935881 0.115911 0.215783
0.999990 0.115911 0.215376
0.100005 0.156804 0.213048
0.115911 0.157648 0.213048
0.159012 0.159012 0.213048
0.213048 0.159012 0.213048
0.273628 0.159012 0.213618
0.339298 0.159012 0.214915
0.407733 0.159012 0.216165
0.476680 0.159012 0.216979
0.544233 0.159012 0.217182
0.610260 0.159012 0.216999
0.675355 0.159012 0.216670
0.740137 0.159012 0.216341
0.805139 0.159012 0.216090
0.870417 0.159012 0.215909
0.935881 0.159012 0.215773
0.999990 0.159012 0.215498
0.100005 0.213048 0.213048
0.115911 0.213048 0.213048
0.159012 0.213048 0.213048
0.213048 0.213048 0.213048
0.273628 0.213048 0.213048
0.339298 0.213048 0.213048
0.407733 0.213048 0.213048
0.476680 0.213048 0.213048
0.544233 0.213048 0.213048
0.610260 0.213048 0.213048
0.675355 0.213048 0.213048
0.740137 0.213048 0.213048
0.805139 0.213048 0.213048
0.870417 0.213048 0.213048
0.935881 0.213048 0.213048
0.999990 0.213048 0.213048
0.100005 0.273629 0.212628
0.115911 0.273628 0.213070
0.159012 0.273628 0.213618
0.213048 0.273628 0.213048
0.273628 0.273628 0.213048
0.339298 0.275238 0.213048
0.407733 0.276623 0.213048
0.476680 0.277450 0.213048
0.544233 0.277571 0.213048
0.610260 0.277273 0.213048
0.675355 0.276836 0.213048
0.740137 0.276419 0.213048
0.805139 0.276108 0.213048
0.870417 0.275885 0.213048
0.935881 0.275717 0.213048
0.999990 0.275394 0.213048
0.100005 0.339298 0.214080
0.115911 0.339298 0.214616
0.159012 0.339298 0.214915
0.213048 0.339298 0.213048
0.275238 0.339298 0.213048
0.339298 0.339298 0.213048
0.407733 0.341795 0.213048
0.476680 0.343283 0.213048
0.544233 0.343499 0.213048
0.610260 0.342964 0.213048
0.675355 0.342178 0.213048
0.740137 0.341429 0.213048
0.805139 0.340868 0.213048
0.870417 0.340465 0.213048
0.935881 0.340163 0.213048
0.999990 0.339580 0.213048
0.100005 0.407733 0.215831
0.115911 0.407733 0.216332
0.159012 0.407733 0.216165
0.213048 0.407733 0.213048
0.276623 0.407733 0.213048
0.341795 0.407733 0.213048
0.407733 0.407733 0.213048
0.476680 0.409797 0.213048
0.544233 0.410097 0.213048
0.610260 0.409355 0.213048
0.675355 0.408265 0.213048
0.740137 0.407224 0.213048
0.805139 0.406445 0.213048
0.870417 0.405886 0.213048
0.935881 0.405466 0.213048
0.999990 0.404656 0.213048
0.100005 0.476680 0.217051
0.115911 0.476680 0.217506
0.159012 0.476680 0.216979
0.213048 0.476680 0.213048
0.277450 0.476680 0.213048
0.343283 0.476680 0.213048
0.409797 0.476680 0.213048
0.476680 0.476680 0.213048
