assets/luts/LUTs/VESPER.CUBE
LUT_3D_SIZE 16
0.032475 0.030995 0.025992
0.038769 0.031027 0.025827
0.057790 0.031230 0.025640
0.082917 0.031561 0.025483
0.117024 0.031780 0.027408
0.169256 0.035548 0.031703
0.266958 0.049781 0.040553
0.386276 0.069857 0.052284
0.489983 0.085985 0.063231
0.584977 0.098054 0.074086
0.678682 0.108756 0.085774
0.775725 0.119135 0.098136
0.833664 0.123680 0.106634
0.836675 0.120480 0.109503
0.842884 0.119019 0.111235
0.848890 0.118233 0.112193
0.031207 0.036208 0.025673
0.037213 0.035813 0.025567
0.055903 0.036400 0.025362
0.081335 0.038009 0.025564
0.116016 0.039697 0.027099
0.169560 0.043166 0.031520
0.267659 0.055962 0.040354
0.385822 0.071757 0.051927
0.489583 0.088332 0.062874
0.584762 0.100762 0.073722
0.678412 0.111547 0.085419
0.775585 0.121963 0.097818
0.833576 0.126576 0.106356
0.836548 0.123324 0.109214
0.842767 0.121881 0.110975
0.848797 0.121091 0.111943
0.028076 0.051899 0.024921
0.034633 0.051743 0.024884
0.051215 0.049646 0.024469
0.076391 0.052007 0.025175
0.112119 0.056960 0.026131
0.166418 0.062217 0.030556
0.265842 0.074312 0.039453
0.386838 0.087332 0.051311
0.489444 0.094078 0.062073
0.584065 0.105683 0.072843
0.677863 0.117103 0.084570
0.775161 0.127619 0.097084
0.833292 0.132294 0.105695
0.836499 0.129091 0.108592
0.842461 0.127605 0.110387
0.848551 0.126791 0.111384
0.028025 0.073350 0.023802
0.030976 0.073267 0.023842
0.048038 0.072820 0.023724
0.071437 0.069398 0.023821
0.105906 0.070266 0.024942
0.161324 0.083039 0.029105
0.261093 0.098746 0.037973
0.384074 0.112864 0.049969
0.491578 0.116991 0.061205
0.584456 0.113177 0.071693
0.676837 0.121019 0.083246
0.774195 0.133203 0.095916
0.833032 0.138387 0.104717
0.835964 0.135302 0.107591
0.842228 0.133794 0.109467
0.848356 0.132939 0.110443
0.029043 0.103102 0.022955
0.030262 0.102989 0.022957
0.039685 0.102675 0.022941
0.066623 0.102986 0.022854
0.100021 0.096071 0.023127
0.151500 0.096424 0.026611
0.253048 0.129054 0.035282
0.377105 0.150099 0.047066
0.483977 0.158204 0.058267
0.583692 0.157403 0.069411
0.681836 0.144851 0.081511
0.772969 0.132641 0.093647
0.832419 0.139413 0.102753
0.834863 0.137764 0.105615
0.840819 0.137463 0.107518
0.847158 0.137271 0.108610
0.032028 0.148775 0.025447
0.034059 0.148686 0.025435
0.037156 0.148456 0.025423
0.047065 0.148031 0.025355
0.091859 0.149200 0.025389
0.143117 0.135213 0.024756
0.242327 0.148698 0.033248
0.367734 0.195353 0.044139
0.472269 0.218857 0.053480
0.568947 0.227220 0.063034
0.667331 0.225336 0.074987
0.771051 0.215928 0.088583
0.838089 0.196831 0.099007
0.846495 0.176924 0.102996
0.852594 0.162589 0.105001
0.855926 0.152133 0.105841
0.039115 0.242387 0.033183
0.041396 0.242264 0.033175
0.045969 0.242095 0.033159
0.048606 0.241838 0.033133
0.058040 0.241329 0.033079
0.121322 0.242516 0.033043
0.228339 0.219529 0.032448
0.356034 0.221093 0.042656
0.463138 0.268194 0.051738
0.555911 0.299394 0.058569
0.645992 0.324612 0.065508
0.741783 0.338207 0.074908
0.808697 0.344801 0.083601
0.814058 0.339721 0.087691
0.822582 0.334450 0.090541
0.831168 0.327936 0.092418
0.048910 0.364737 0.043649
0.051286 0.364658 0.043646
0.056139 0.364536 0.043644
0.060979 0.364442 0.043628
0.062600 0.364113 0.043603
0.064637 0.363743 0.043545
0.191468 0.371320 0.044091
0.343308 0.326825 0.042729
0.447941 0.305564 0.050234
0.547844 0.335149 0.058263
0.639153 0.365495 0.064954
0.731344 0.392532 0.071494
0.800723 0.410972 0.076128
0.801466 0.408896 0.075391
0.806936 0.408157 0.075268
0.812667 0.407184 0.075284
0.057219 0.470057 0.052469
0.059665 0.470162 0.052470
0.064620 0.470082 0.052461
0.069776 0.469966 0.052454
0.074649 0.469802 0.052433
0.070655 0.469328 0.052392
0.079653 0.470063 0.052448
0.340959 0.488254 0.054074
0.437506 0.411315 0.049564
0.526439 0.391241 0.056216
0.627619 0.396776 0.064130
0.721778 0.425402 0.071032
0.799400 0.448274 0.076611
0.802530 0.447667 0.076404
0.807874 0.447134 0.076370
0.813648 0.446234 0.076363
0.064129 0.562608 0.059707
0.066647 0.562590 0.059705
0.071684 0.562551 0.059698
0.076922 0.562497 0.059692
0.082220 0.562362 0.059679
0.086277 0.562168 0.059669
0.053661 0.561103 0.059570
0.217944 0.571668 0.060653
0.462142 0.564404 0.059574
0.515867 0.483159 0.055225
0.601894 0.467332 0.061729
0.705522 0.466016 0.069727
0.788911 0.477823 0.075807
0.803678 0.482423 0.076494
0.808121 0.482018 0.076410
0.813856 0.481229 0.076409
0.070505 0.650410 0.066405
0.073072 0.650392 0.066404
0.078194 0.650383 0.066400
0.083503 0.650357 0.066395
0.088871 0.650256 0.066389
0.094182 0.650133 0.066373
0.091840 0.649513 0.066320
-0.063093 0.649368 0.066320
0.405097 0.678992 0.069406
0.549843 0.626587 0.063826
0.590879 0.556730 0.060812
0.677680 0.538785 0.067168
0.769147 0.535485 0.074133
0.801190 0.534175 0.076216
0.804790 0.533882 0.076049
0.810854 0.532021 0.076068
0.077104 0.738925 0.073038
0.079724 0.738902 0.073036
0.084897 0.738844 0.073033
0.090243 0.738764 0.073029
0.095673 0.738795 0.073027
0.101099 0.738622 0.073015
0.105985 0.738397 0.072977
0.064590 0.736917 0.072853
0.229833 0.743474 0.073594
0.566123 0.769456 0.076297
0.625708 0.699343 0.068855
0.666621 0.635634 0.066473
0.739604 0.615011 0.071483
0.794978 0.614110 0.075532
0.797819 0.614667 0.075315
0.803464 0.612672 0.075317
0.083310 0.815720 0.078742
0.085965 0.815707 0.078741
0.091156 0.815677 0.078740
0.096538 0.815660 0.078728
0.101992 0.815627 0.078724
0.107465 0.815438 0.078712
0.112917 0.815183 0.078701
0.110778 0.814548 0.078637
-0.116023 0.813126 0.078512
0.499843 0.828168 0.080108
0.673082 0.817727 0.078969
0.692483 0.757139 0.072665
0.733407 0.705133 0.071242
0.778869 0.685398 0.074120
0.793172 0.684491 0.074814
0.798519 0.683279 0.074782
0.084935 0.840601 0.080249
0.087601 0.840602 0.080249
0.092815 0.840604 0.080249
0.098233 0.840609 0.080249
0.103689 0.840617 0.080250
0.109175 0.840631 0.080251
0.114684 0.840612 0.080252
0.119362 0.840654 0.080252
-0.075267 0.839808 0.080165
0.411659 0.849402 0.081174
0.686808 0.857997 0.082074
0.708186 0.806347 0.076436
0.740240 0.758631 0.072952
0.773644 0.728284 0.073930
0.791100 0.715981 0.074611
0.796537 0.715993 0.074582
0.084792 0.844328 0.080119
0.087457 0.844328 0.080119
0.092687 0.844328 0.080119
0.098115 0.844328 0.080119
0.103570 0.844328 0.080119
0.109054 0.844328 0.080119
0.114568 0.844328 0.080119
0.119913 0.844332 0.080119
0.014941 0.843900 0.080065
0.334684 0.850496 0.080747
0.666561 0.862753 0.082036
0.707458 0.815861 0.076981
0.734928 0.767222 0.072959
0.768961 0.736454 0.073619
0.790259 0.720376 0.074573
0.796785 0.719533 0.074602
0.087306 0.877861 0.082451
0.089813 0.877861 0.082464
0.094506 0.877861 0.082471
0.098622 0.877862 0.082468
0.100853 0.877861 0.082424
0.096523 0.877853 0.082281
0.071644 0.877830 0.081992
-0.075441 0.877856 0.081511
-0.154954 0.877558 0.080851
0.237154 0.879929 0.080280
0.640481 0.894701 0.080925
0.702140 0.853579 0.075048
0.723940 0.802618 0.068907
0.759176 0.769870 0.068616
0.783241 0.751826 0.069525
0.792319 0.748803 0.069565
0.018620 -0.296088 0.020478
0.029093 -0.296082 0.019267
0.053371 -0.296088 0.018030
0.081938 -0.296113 0.016900
0.118769 -0.296158 0.020892
0.174679 -0.295991 0.028781
0.276625 -0.294954 0.041297
0.399315 -0.292728 0.055454
0.505255 -0.290389 0.068010
0.597277 -0.289359 0.079995
0.685626 -0.285596 0.092408
0.781728 -0.272139 0.105155
0.840593 -0.254819 0.114157
0.843046 -0.243328 0.117058
0.847904 -0.237006 0.118789
0.853667 -0.234915 0.119710
0.031071 0.035635 0.031634
0.036947 0.035570 0.031549
0.055797 0.035775 0.030989
0.081466 0.036107 0.030333
0.116118 0.036065 0.030967
0.169484 0.038748 0.035428
0.267313 0.052058 0.044300
0.386176 0.069447 0.055959
0.490191 0.086058 0.066973
0.585355 0.098363 0.077831
0.679065 0.109069 0.089367
0.776003 0.119645 0.101442
0.834163 0.124127 0.109878
0.837007 0.121008 0.112617
0.843304 0.119605 0.114293
0.849344 0.118839 0.115212
0.028055 0.051106 0.031309
0.033821 0.051078 0.030966
0.050824 0.049377 0.030697
0.076559 0.051485 0.030533
0.112562 0.055586 0.030062
0.167805 0.059242 0.034741
0.267765 0.071298 0.043716
0.387409 0.083852 0.055442
0.489691 0.091839 0.066203
0.584596 0.103913 0.077029
0.678413 0.115208 0.088649
0.775481 0.125890 0.100813
0.833889 0.130479 0.109321
0.837031 0.127364 0.112077
0.843000 0.125960 0.113791
0.849079 0.125167 0.114732
0.028167 0.072643 0.030596
0.030343 0.072647 0.029807
0.047135 0.072261 0.029799
0.071110 0.069316 0.029338
0.106260 0.070741 0.029290
0.162313 0.082966 0.033239
0.262880 0.096369 0.042213
0.386160 0.110109 0.054240
0.493128 0.113524 0.065447
0.584627 0.109785 0.075853
0.677391 0.119446 0.087378
0.774795 0.131634 0.099730
0.833638 0.136802 0.108325
0.836603 0.133680 0.111126
0.842819 0.132236 0.112918
0.848831 0.131413 0.113858
0.028960 0.102718 0.029182
0.029860 0.102707 0.028147
0.038789 0.102415 0.028287
0.065262 0.102539 0.027978
0.099769 0.095988 0.027699
0.151704 0.097144 0.030453
0.254558 0.128624 0.039462
0.378960 0.147977 0.051400
0.486299 0.155856 0.062589
0.586204 0.154439 0.073780
0.683217 0.141499 0.085788
0.773173 0.129386 0.097625
0.832704 0.137934 0.106402
0.835201 0.136332 0.109248
0.841480 0.136068 0.111102
0.847766 0.135897 0.112115
0.032023 0.148039 0.027363
0.033562 0.148121 0.026892
0.037067 0.147879 0.026926
0.046437 0.147452 0.026884
0.091111 0.148590 0.027020
0.142608 0.134489 0.026575
0.242469 0.148495 0.035501
0.368400 0.194823 0.047010
0.473685 0.217336 0.057092
0.571370 0.224915 0.067512
0.669977 0.222442 0.079496
0.773898 0.212359 0.093063
0.840162 0.192593 0.103161
0.848426 0.173185 0.106866
0.852309 0.158652 0.108558
0.855950 0.148467 0.109405
0.039116 0.241738 0.035494
0.040792 0.241872 0.034906
0.045741 0.241584 0.034934
0.048550 0.241325 0.034906
0.057448 0.240817 0.034850
0.120509 0.242039 0.034791
0.228014 0.218955 0.034176
0.355910 0.220727 0.044359
0.463049 0.267871 0.053381
0.555820 0.299027 0.060207
0.646881 0.324243 0.068482
0.743427 0.336730 0.078324
0.811202 0.343179 0.088265
0.816576 0.337419 0.092340
0.825560 0.331228 0.095181
0.833915 0.324624 0.096997
0.048940 0.364396 0.046067
0.050602 0.364490 0.045393
0.055901 0.364323 0.045431
0.060848 0.364217 0.045421
0.062598 0.363924 0.045393
0.063790 0.363496 0.045327
0.190637 0.371010 0.045864
0.343179 0.326544 0.044518
0.447977 0.305283 0.052039
0.547887 0.334868 0.060049
0.639114 0.365200 0.066668
0.731324 0.392168 0.073139
0.800537 0.410593 0.077708
0.801218 0.408518 0.076907
0.806983 0.408046 0.077346
0.813251 0.407241 0.078038
0.057253 0.469922 0.054963
0.058906 0.469996 0.054214
0.064361 0.469878 0.054260
0.069627 0.469839 0.054248
0.074570 0.469589 0.054242
0.070773 0.469134 0.054204
0.077305 0.469899 0.054228
0.340086 0.488098 0.055853
0.437428 0.411108 0.051371
0.526486 0.390891 0.058016
0.627677 0.396504 0.065935
0.721870 0.425304 0.072834
0.799473 0.448199 0.078427
0.802522 0.447363 0.078200
0.807847 0.446803 0.078134
0.813592 0.446000 0.078094
0.064180 0.562484 0.062272
0.065822 0.562514 0.061444
0.071404 0.562471 0.061497
0.076764 0.562418 0.061488
0.082123 0.562283 0.061472
0.086270 0.562089 0.061463
0.053957 0.561038 0.061367
0.216029 0.571393 0.062433
0.461813 0.564480 0.061395
0.515862 0.483205 0.057021
0.601924 0.466999 0.063544
0.705597 0.465765 0.071530
0.788959 0.477728 0.077616
0.803671 0.482254 0.078300
0.808121 0.481856 0.078213
0.813863 0.481021 0.078212
0.070561 0.650345 0.069034
0.072194 0.650337 0.068135
0.077893 0.650328 0.068197
0.083331 0.650254 0.068192
0.088753 0.650123 0.068185
0.094101 0.650037 0.068170
0.092007 0.649391 0.068118
-0.066415 0.649193 0.068106
0.403724 0.678931 0.071197
0.549764 0.626650 0.065644
0.590844 0.556613 0.062620
0.677696 0.538669 0.068976
0.769210 0.535252 0.075937
0.801249 0.533807 0.078027
0.804781 0.533454 0.077849
0.810752 0.531623 0.077872
0.077168 0.738843 0.075718
0.078793 0.738790 0.074770
0.084577 0.738822 0.074831
0.090067 0.738826 0.074827
0.095543 0.738766 0.074822
0.101001 0.738634 0.074809
0.105963 0.738299 0.074784
0.065533 0.736867 0.074654
0.227478 0.743414 0.075378
0.565414 0.769353 0.078096
0.625662 0.699347 0.070657
0.666573 0.635640 0.068271
0.739618 0.614900 0.073278
0.794998 0.613933 0.077340
0.797827 0.614401 0.077126
0.803506 0.612433 0.077129
0.083371 0.815653 0.081447
0.085010 0.815648 0.080472
0.090855 0.815643 0.080539
0.096354 0.815593 0.080535
0.101867 0.815563 0.080530
0.107365 0.815386 0.080516
0.112856 0.815124 0.080493
0.111005 0.814495 0.080444
-0.118488 0.812955 0.080300
0.498103 0.828019 0.081891
0.672900 0.817827 0.080791
0.692380 0.757120 0.074467
0.733519 0.705080 0.073041
0.778838 0.685349 0.075917
0.793189 0.684338 0.076620
0.798533 0.683109 0.076576
0.085006 0.840607 0.082976
0.086631 0.840607 0.081974
0.092499 0.840609 0.082045
0.098044 0.840613 0.082042
0.103560 0.840622 0.082043
0.109115 0.840591 0.082044
0.114613 0.840617 0.082046
0.119410 0.840660 0.082048
-0.074975 0.839842 0.081972
0.408997 0.849322 0.082958
0.686074 0.857770 0.083865
0.708274 0.806479 0.078242
0.740249 0.758650 0.074749
0.773632 0.728300 0.075726
0.791101 0.716043 0.076409
0.796539 0.715986 0.076390
0.084869 0.844328 0.082847
0.086486 0.844328 0.081841
0.092367 0.844328 0.081914
0.097905 0.844328 0.081914
0.103432 0.844328 0.081914
0.108995 0.844328 0.081914
0.114503 0.844328 0.081914
0.119855 0.844331 0.081914
0.025465 0.843907 0.081868
0.331814 0.850389 0.082531
0.665449 0.862769 0.083836
0.707507 0.816034 0.078794
0.734757 0.767264 0.074763
0.768900 0.736534 0.075414
0.790262 0.720369 0.076370
0.796785 0.719527 0.076405
0.087352 0.877863 0.084830
0.088867 0.877863 0.083873
0.094235 0.877863 0.083990
0.098504 0.877864 0.084018
0.100786 0.877864 0.083983
0.096515 0.877859 0.083808
0.071481 0.877839 0.083410
-0.076239 0.877802 0.082774
-0.155107 0.877582 0.081950
0.232869 0.879877 0.081224
0.639357 0.894644 0.081785
0.702020 0.853769 0.075716
0.723686 0.802788 0.069352
0.758990 0.770010 0.069045
0.783170 0.751882 0.069978
0.792258 0.748853 0.070022
0.018934 -0.296164 0.042526
0.030225 -0.296158 0.041657
0.051127 -0.296147 0.037753
0.079926 -0.296186 0.036920
0.118185 -0.296293 0.037436
0.173825 -0.296188 0.042533
0.276207 -0.295420 0.054102
0.400066 -0.293416 0.068230
0.506663 -0.291293 0.080665
0.598914 -0.290422 0.092256
0.687269 -0.286832 0.103957
0.783245 -0.273718 0.116287
0.842407 -0.256498 0.124825
0.844706 -0.245152 0.127441
0.849372 -0.238969 0.129029
0.855178 -0.236947 0.129848
0.030773 0.034548 0.047017
0.036920 0.034144 0.046935
0.053958 0.034505 0.044333
0.079830 0.033204 0.043415
0.115411 0.030254 0.043030
0.168340 0.031347 0.046579
0.266285 0.044354 0.056068
0.386957 0.064500 0.068550
0.491604 0.080848 0.079933
0.586980 0.093106 0.090730
0.680741 0.103875 0.101714
0.777853 0.114534 0.113411
0.835961 0.119345 0.121473
0.838820 0.116061 0.123896
0.844827 0.114337 0.125429
0.850809 0.113431 0.126222
0.028078 0.048996 0.045793
0.033565 0.049056 0.046105
0.050243 0.049160 0.046719
0.076677 0.049611 0.045037
0.113460 0.049597 0.042462
0.169842 0.049057 0.044672
0.269067 0.060586 0.053815
0.387067 0.072462 0.065347
0.490568 0.085764 0.076249
0.586045 0.098756 0.086933
0.679798 0.109947 0.097887
0.777027 0.120630 0.109547
0.835204 0.125304 0.117712
0.838213 0.122399 0.120153
0.844271 0.120858 0.121731
0.850315 0.119861 0.122602
0.028245 0.070714 0.045886
0.030118 0.070699 0.045723
0.044973 0.070697 0.045073
0.070083 0.068810 0.044389
0.106928 0.071257 0.042187
0.164943 0.078400 0.043331
0.268037 0.089009 0.052815
0.391263 0.101787 0.064906
0.494266 0.103161 0.075721
0.584676 0.101496 0.085911
0.678904 0.115169 0.097058
0.776039 0.127342 0.108738
0.835064 0.132346 0.117030
0.837895 0.129417 0.119552
0.843965 0.128079 0.121123
0.850039 0.127078 0.122007
0.028905 0.101444 0.044448
0.030030 0.101403 0.044038
0.036147 0.101447 0.042331
0.062017 0.101329 0.042032
0.098337 0.095647 0.040210
0.153266 0.099093 0.040522
0.258958 0.124987 0.049926
0.384026 0.141480 0.062051
0.493221 0.148378 0.073444
0.591879 0.144778 0.084522
0.683231 0.131276 0.095598
0.774211 0.126012 0.106779
0.834004 0.134285 0.115259
0.836807 0.132949 0.117842
0.842915 0.132687 0.119533
0.849141 0.132507 0.120449
0.030231 0.148264 0.040568
0.031912 0.148193 0.040046
0.035055 0.148043 0.037685
0.043396 0.147768 0.038069
0.086693 0.148068 0.037223
0.141805 0.134548 0.035846
0.245072 0.149487 0.044747
0.372096 0.193107 0.056796
0.479029 0.212551 0.067736
0.578165 0.217068 0.078648
0.677622 0.213087 0.090723
0.780518 0.200736 0.103673
0.843799 0.179289 0.112718
0.848961 0.161153 0.115733
0.851427 0.147449 0.117170
0.855165 0.138553 0.117964
0.038761 0.240589 0.040020
0.040535 0.240545 0.039809
0.044786 0.240521 0.038681
0.048282 0.240206 0.038798
0.055589 0.239774 0.038845
0.117532 0.240785 0.038864
0.227352 0.217772 0.038453
0.355781 0.219986 0.048345
0.463197 0.267081 0.057702
0.557949 0.299005 0.067387
0.650103 0.323011 0.077043
0.749385 0.332441 0.089493
0.818068 0.336367 0.099897
0.824398 0.327593 0.103795
0.833363 0.319771 0.106352
0.841911 0.312613 0.107989
0.048900 0.363708 0.050675
0.050638 0.363696 0.050474
0.054840 0.363777 0.049451
0.060403 0.363629 0.049520
0.062573 0.363300 0.049482
0.060923 0.362930 0.049418
0.187737 0.370178 0.049925
0.342966 0.325837 0.048617
0.448064 0.304347 0.056092
0.547818 0.333944 0.063962
0.639025 0.364251 0.070417
0.731140 0.391158 0.076744
0.800185 0.409523 0.081498
0.802801 0.408366 0.083409
0.809492 0.408399 0.085224
0.815971 0.407767 0.086431
0.057220 0.469513 0.059715
0.058964 0.469521 0.059496
0.063164 0.469614 0.058297
0.069076 0.469483 0.058370
0.074284 0.469412 0.058368
0.071197 0.468960 0.058331
0.068302 0.469346 0.058321
0.337146 0.487654 0.059965
0.437398 0.410883 0.055497
0.526651 0.389980 0.062186
0.627765 0.395814 0.070102
0.722115 0.424592 0.076994
0.799620 0.447298 0.082516
0.802352 0.446398 0.082164
0.807633 0.445672 0.081993
0.813429 0.444716 0.081906
0.064159 0.562217 0.067112
0.065904 0.562222 0.066870
0.070079 0.562234 0.065536
0.076164 0.562213 0.065626
0.081729 0.562103 0.065617
0.086181 0.561878 0.065597
0.054825 0.560881 0.065500
0.210271 0.570746 0.066514
0.460623 0.564843 0.065591
0.515836 0.482974 0.061166
0.602084 0.466321 0.067703
0.705800 0.465001 0.075699
0.789064 0.477217 0.081766
0.803652 0.481656 0.082447
0.808111 0.481143 0.082359
0.813851 0.480150 0.082358
0.070542 0.650064 0.073942
0.072294 0.650072 0.073690
0.076457 0.650179 0.072225
0.082684 0.650065 0.072335
0.088337 0.650052 0.072325
0.093843 0.649890 0.072312
0.092477 0.649339 0.072258
-0.077264 0.648614 0.072205
0.398771 0.678172 0.075278
0.549477 0.627106 0.069847
0.590763 0.556392 0.066763
0.677666 0.538111 0.073132
0.769307 0.534304 0.080108
0.801431 0.532711 0.082177
0.804984 0.532214 0.082010
0.810867 0.530239 0.082037
0.077148 0.738607 0.080681
0.078899 0.738615 0.080410
0.083061 0.738712 0.078862
0.089363 0.738616 0.078962
0.095099 0.738658 0.078957
0.100686 0.738415 0.078955
0.105899 0.738069 0.078921
0.068771 0.736857 0.078799
0.219783 0.742878 0.079470
0.562719 0.769125 0.082226
0.625575 0.699529 0.074830
0.666466 0.635461 0.072416
0.739697 0.614432 0.077436
0.795085 0.613214 0.081495
0.797944 0.613510 0.081277
0.803644 0.611354 0.081283
0.083354 0.815482 0.086441
0.085114 0.815488 0.086170
0.089260 0.815541 0.084565
0.095630 0.815491 0.084673
0.101407 0.815408 0.084669
0.107035 0.815412 0.084659
0.112617 0.814989 0.084632
0.111640 0.814343 0.084580
-0.126077 0.812834 0.084421
0.492112 0.827669 0.086010
0.672551 0.818367 0.084980
0.692255 0.757212 0.078621
0.733353 0.704954 0.077177
0.778808 0.685040 0.080077
0.793232 0.683805 0.080775
0.798603 0.682604 0.080735
0.085007 0.840626 0.088002
0.086750 0.840625 0.087720
0.090887 0.840624 0.086078
0.097308 0.840627 0.086191
0.103094 0.840632 0.086191
0.108764 0.840598 0.086192
0.114381 0.840626 0.086194
0.119529 0.840672 0.086196
-0.073786 0.839907 0.086132
0.398603 0.848743 0.087074
0.684137 0.857844 0.088022
0.708238 0.806896 0.082439
0.740119 0.758845 0.078892
0.773603 0.728357 0.079871
0.791095 0.716064 0.080554
0.796540 0.715901 0.080536
0.084869 0.844328 0.087882
0.086606 0.844328 0.087603
0.090740 0.844328 0.085945
0.097177 0.844328 0.086059
0.102961 0.844328 0.086059
0.108636 0.844328 0.086059
0.114258 0.844328 0.086059
0.119766 0.844330 0.086059
0.043578 0.843939 0.086016
0.320669 0.850080 0.086652
0.662638 0.862583 0.087976
0.707572 0.816576 0.083002
0.734563 0.767637 0.078916
0.768831 0.736524 0.079557
0.790262 0.720374 0.080518
0.796787 0.719518 0.080551
0.087350 0.877864 0.089093
0.088923 0.877864 0.088816
0.092582 0.877863 0.087290
0.097861 0.877863 0.087559
0.100428 0.877864 0.087652
0.096190 0.877862 0.087518
0.071030 0.877849 0.087066
-0.076987 0.877820 0.086285
-0.154312 0.877578 0.085297
0.218432 0.879762 0.084416
0.635140 0.894578 0.084877
0.701976 0.854530 0.078699
0.723252 0.803009 0.072101
0.758574 0.770215 0.071757
0.782910 0.751987 0.072747
0.792086 0.748929 0.072806
0.018599 -0.296196 0.067740
0.031142 -0.296199 0.067736
0.054949 -0.296197 0.065231
0.076915 -0.296161 0.058909
0.115253 -0.296196 0.057529
0.174223 -0.296235 0.058740
0.275422 -0.295850 0.068322
0.400498 -0.294267 0.082404
0.508133 -0.292442 0.094972
0.600723 -0.291898 0.106314
0.689480 -0.288657 0.117790
0.785641 -0.276085 0.129778
0.844578 -0.259386 0.138011
0.846774 -0.248078 0.140346
0.851436 -0.241882 0.141750
0.857101 -0.239803 0.142410
0.030450 0.032827 0.069132
0.036706 0.032021 0.069315
0.056453 0.032233 0.067740
0.076939 0.032766 0.062068
0.112234 0.030867 0.060308
0.167602 0.028345 0.060547
0.264941 0.036342 0.069203
0.387432 0.057269 0.082086
0.493050 0.073545 0.093748
0.588615 0.085627 0.104404
0.682625 0.096299 0.115228
0.779901 0.107058 0.126601
0.838061 0.111295 0.134406
0.840762 0.107791 0.136530
0.846657 0.106178 0.137880
0.852644 0.105380 0.138520
0.028758 0.047617 0.067827
0.033251 0.047372 0.068116
0.050265 0.046463 0.068654
0.074173 0.046613 0.064612
0.110703 0.043997 0.061582
0.169294 0.038400 0.059256
0.266641 0.047717 0.068230
0.386805 0.062459 0.080374
0.492178 0.078482 0.091666
0.587982 0.091347 0.102142
0.681942 0.102347 0.112807
0.779268 0.113334 0.124114
0.837693 0.117518 0.131975
0.840306 0.114098 0.134101
0.846263 0.112551 0.135468
0.852177 0.111740 0.136139
0.027997 0.067503 0.065867
0.029370 0.067430 0.065944
0.044175 0.067804 0.066841
0.068890 0.067942 0.067079
0.106898 0.068061 0.064458
0.166860 0.066921 0.058887
0.271815 0.073714 0.066565
0.391880 0.085894 0.078264
0.493140 0.088415 0.088365
0.586376 0.095488 0.098208
0.680698 0.108515 0.108684
0.777992 0.120384 0.119954
0.836835 0.125204 0.127787
0.839512 0.121847 0.129948
0.845524 0.120200 0.131374
0.851463 0.119339 0.132154
0.028728 0.098466 0.065683
0.029923 0.098384 0.065500
0.035302 0.098406 0.065047
0.059089 0.099109 0.064843
0.096428 0.096076 0.064044
0.155115 0.100982 0.058803
0.266578 0.115955 0.064430
0.393078 0.129506 0.076880
0.501567 0.134399 0.087814
0.595177 0.127352 0.097798
0.682163 0.117285 0.107627
0.776069 0.121179 0.118510
0.835943 0.129205 0.126518
0.838605 0.127387 0.128744
0.844846 0.126518 0.130234
0.850812 0.126012 0.131050
0.029668 0.146031 0.062295
0.031307 0.146012 0.061965
0.034442 0.146003 0.060652
0.040051 0.146270 0.058709
0.082008 0.146587 0.058906
0.139570 0.134657 0.055305
0.250662 0.152117 0.059632
0.379622 0.188544 0.071879
0.489067 0.201923 0.082988
0.589301 0.202952 0.093707
0.688795 0.196615 0.105049
0.786520 0.180311 0.116558
0.845632 0.157758 0.124591
0.847005 0.142141 0.126842
0.850119 0.131430 0.128150
0.854448 0.124792 0.128869
0.034049 0.242412 0.052604
0.035913 0.242306 0.052316
0.040589 0.241897 0.051060
0.044382 0.241180 0.048734
0.049170 0.240901 0.049272
0.109900 0.240829 0.049307
0.227512 0.218562 0.049513
0.360336 0.221916 0.060903
0.469665 0.269247 0.071996
0.564867 0.300898 0.081953
0.659460 0.318779 0.092985
0.759975 0.323313 0.105427
0.829052 0.321537 0.115050
0.835512 0.309241 0.118235
0.844295 0.299521 0.120396
0.852468 0.291813 0.121733
0.048925 0.362527 0.055237
0.050759 0.362453 0.055019
0.055018 0.362510 0.054616
0.059681 0.362605 0.053813
0.062728 0.362335 0.053866
0.056301 0.361898 0.053777
