assets/luts/LUTs/VESPER.CUBE
LUT_3D_SIZE 6
0.032475 0.030995 0.025992
0.082917 0.031561 0.025483
0.266958 0.049781 0.040553
0.584977 0.098054 0.074086
0.833664 0.123680 0.106634
0.848890 0.118233 0.112193
0.028025 0.073350 0.023802
0.071437 0.069398 0.023821
0.261093 0.098746 0.037973
0.584456 0.113177 0.071693
0.833032 0.138387 0.104717
0.848356 0.132939 0.110443
0.039115 0.242387 0.033183
0.048606 0.241838 0.033133
0.228339 0.219529 0.032448
0.555911 0.299394 0.058569
0.808697 0.344801 0.083601
0.831168 0.327936 0.092418
0.064129 0.562608 0.059707
0.076922 0.562497 0.059692
0.053661 0.561103 0.059570
0.515867 0.483159 0.055225
0.788911 0.477823 0.075807
0.813856 0.481229 0.076409
0.083310 0.815720 0.078742
0.096538 0.815660 0.078728
0.112917 0.815183 0.078701
0.499843 0.828168 0.080108
0.733407 0.705133 0.071242
0.798519 0.683279 0.074782
0.087306 0.877861 0.082451
0.098622 0.877862 0.082468
0.071644 0.877830 0.081992
0.237154 0.879929 0.080280
0.723940 0.802618 0.068907
0.792319 0.748803 0.069565
0.018599 -0.296196 0.067740
0.076915 -0.296161 0.058909
0.275422 -0.295850 0.068322
0.600723 -0.291898 0.106314
0.844578 -0.259386 0.138011
0.857101 -0.239803 0.142410
0.027997 0.067503 0.065867
0.068890 0.067942 0.067079
0.271815 0.073714 0.066565
0.586376 0.095488 0.098208
0.836835 0.125204 0.127787
0.851463 0.119339 0.132154
0.034049 0.242412 0.052604
0.044382 0.241180 0.048734
0.227512 0.218562 0.049513
0.564867 0.300898 0.081953
0.829052 0.321537 0.115050
0.852468 0.291813 0.121733
0.064123 0.561758 0.072295
0.074928 0.561888 0.070350
0.056122 0.560580 0.070321
0.515759 0.482481 0.065981
0.789241 0.476380 0.086624
0.813834 0.478916 0.087184
0.083344 0.815306 0.091783
0.094131 0.815425 0.089374
0.112223 0.814851 0.089441
0.481907 0.827069 0.090785
0.733245 0.704627 0.081994
0.798429 0.681596 0.085577
0.087365 0.877863 0.092523
0.096219 0.877862 0.090471
0.070203 0.877854 0.090698
0.192674 0.879608 0.087749
0.722337 0.803739 0.074681
0.791777 0.748940 0.075412
0.032067 -0.295636 0.256707
0.079285 -0.295696 0.256246
0.260629 -0.295201 0.197919
0.601248 -0.295131 0.233768
0.847553 -0.267890 0.271597
0.858496 -0.246496 0.275658
0.039864 0.049085 0.247383
0.062344 0.047662 0.247570
0.246135 0.054789 0.191344
0.587539 0.071526 0.220950
0.841312 0.089985 0.255158
0.854493 0.089661 0.258433
0.030806 0.213802 0.221320
0.040730 0.213322 0.221716
0.208756 0.220299 0.233341
0.643709 0.193719 0.193209
0.870876 0.139341 0.220106
0.882780 0.085503 0.220065
0.057696 0.560911 0.185415
0.068572 0.561336 0.173169
0.062251 0.560065 0.145801
0.534765 0.502374 0.126062
0.826634 0.496986 0.155992
0.851932 0.501561 0.164367
0.083173 0.811507 0.106789
0.094012 0.811840 0.106580
0.110173 0.812508 0.105444
0.430692 0.821796 0.106517
0.731421 0.701091 0.098022
0.798955 0.675788 0.101846
0.086902 0.877837 -0.082425
0.096518 0.877837 -0.083397
0.058982 0.877826 -0.058275
-0.092058 0.878192 0.050655
0.719812 0.806685 -0.057217
0.792187 0.748958 -0.058048
0.063449 -0.293646 0.603163
0.076425 -0.293738 0.603834
0.302751 -0.293763 0.599524
0.564589 -0.295570 0.445990
0.818670 -0.290427 0.448527
0.828362 -0.269140 0.451754
0.064661 0.076444 0.591032
0.075420 0.074460 0.591194
0.263779 0.074285 0.587864
0.549649 0.092165 0.438388
0.819062 0.107358 0.437860
0.830445 0.108098 0.438911
0.063644 0.079464 0.588086
0.075124 0.057432 0.589210
0.152247 -0.011136 0.589599
0.543049 0.079214 0.433495
0.822247 0.108970 0.427336
0.834351 0.112449 0.427175
0.055510 0.529371 0.518163
0.066375 0.529417 0.518228
0.073016 0.528427 0.517816
0.512644 0.576033 0.565897
0.851651 0.572924 0.546601
0.874680 0.569162 0.552664
0.074504 0.793393 0.541585
0.085402 0.793593 0.537710
0.101698 0.794356 0.527912
0.307561 0.824039 0.535176
0.762932 0.815320 0.518046
0.837312 0.779277 0.521248
0.077989 0.877184 0.524850
0.088744 0.877115 0.517210
-0.041002 0.877354 0.500729
-0.162662 0.884001 0.512509
0.825088 0.931209 0.542326
0.837822 0.876792 0.490522
0.081538 -0.290008 0.839939
0.094923 -0.290006 0.840049
0.185139 -0.290288 0.836358
0.668047 -0.290470 0.714452
0.802585 -0.305335 0.613769
0.808917 -0.300619 0.618738
0.081246 0.093650 0.830794
0.091960 0.091190 0.830841
0.122186 0.089985 0.828687
0.648298 0.108939 0.716784
0.800428 0.119534 0.625277
0.813455 0.119006 0.627357
0.081101 0.109880 0.829360
0.091980 0.109232 0.829516
0.030703 0.107384 0.830381
0.644800 0.125226 0.731761
0.797611 0.135414 0.624318
0.813511 0.135299 0.623471
0.070547 0.495146 0.750888
0.081470 0.489274 0.751495
0.096296 0.473589 0.752812
0.515945 0.494438 0.824778
0.785654 0.486636 0.720605
0.825899 0.482132 0.714627
0.071810 0.758802 0.742514
0.082675 0.758796 0.742529
0.098882 0.758628 0.742668
0.175203 0.772849 0.756303
0.746881 0.823893 0.809464
0.859246 0.826517 0.800664
0.076633 0.875376 0.763589
0.087320 0.875231 0.762325
0.066275 0.875255 0.759344
-0.239876 0.874245 0.763981
0.744352 0.936471 0.840125
0.882814 0.937068 0.836352
0.086718 -0.289208 0.885418
0.100128 -0.289276 0.885419
0.138314 -0.289406 0.884637
0.705701 -0.287556 0.833656
0.800494 -0.303509 0.674998
0.808174 -0.306415 0.673660
0.086100 0.098627 0.881804
0.096819 0.096139 0.881804
0.094449 0.095653 0.881363
0.684771 0.115072 0.841656
0.796111 0.118548 0.693529
0.812871 0.118561 0.693941
0.086100 0.115071 0.881804
0.096963 0.114336 0.881804
0.087522 0.112587 0.882002
0.678042 0.131619 0.860627
0.793760 0.134684 0.695424
0.812882 0.134793 0.693941
0.073665 0.451904 0.818954
0.084730 0.437639 0.821335
0.101337 0.402346 0.828070
0.528468 0.404190 0.885868
0.790535 0.372778 0.775778
0.822038 0.350222 0.754833
0.073012 0.748573 0.806556
0.083803 0.747327 0.805866
0.099854 0.744050 0.804196
0.150038 0.754531 0.815653
0.736637 0.812451 0.873033
0.841097 0.816725 0.878259
0.077565 0.849620 0.846763
0.088438 0.849588 0.846759
0.104653 0.849339 0.846724
-0.102990 0.844698 0.843626
0.740201 0.902132 0.901889
0.873059 0.910294 0.911157
