assets/luts/LUTs/VIKING.CUBE
#Generated with IWLTBAP LUT Generator
#Website: https://luts.iwltbap.com
TITLE "Viking village"
LUT_3D_SIZE 8
0.000000 0.003922 0.000000
0.000000 0.000000 0.000000
0.125490 0.000000 0.003922
0.290196 0.000000 0.003922
0.505882 0.043137 0.000000
0.729412 0.149020 0.000000
0.925490 0.219608 0.000000
1.000000 0.325490 0.000000
0.047059 0.007843 0.003922
0.035294 0.039216 0.007843
0.133333 0.043137 0.011765
0.278431 0.078431 0.003922
0.462745 0.133333 0.000000
0.678431 0.203922 0.000000
0.898039 0.270588 0.003922
1.000000 0.372549 0.015686
0.133333 0.109804 0.007843
0.090196 0.176471 0.000000
0.188235 0.156863 0.003922
0.266667 0.156863 0.003922
0.364706 0.196078 0.000000
0.588235 0.274510 0.000000
0.850980 0.345098 0.000000
0.941176 0.435294 0.000000
0.215686 0.250980 0.003922
0.152941 0.376471 0.003922
0.274510 0.356863 0.000000
0.372549 0.325490 0.003922
0.443137 0.298039 0.000000
0.533333 0.329412 0.000000
0.749020 0.407843 0.000000
0.847059 0.490196 0.003922
0.360784 0.486275 0.000000
0.176471 0.592157 0.000000
0.337255 0.596078 0.000000
0.486275 0.572549 0.000000
0.615686 0.537255 0.007843
0.694118 0.482353 0.003922
0.800000 0.509804 0.000000
0.901961 0.588235 0.003922
0.486275 0.741176 0.000000
0.223529 0.780392 0.000000
0.376471 0.784314 0.000000
0.556863 0.784314 0.000000
0.701961 0.764706 0.000000
0.835294 0.745098 0.000000
0.921569 0.658824 0.003922
0.984314 0.729412 0.000000
0.533333 0.921569 0.007843
0.282353 0.933333 0.000000
0.411765 0.929412 0.003922
0.556863 0.937255 0.000000
0.709804 0.921569 0.000000
0.858824 0.913725 0.000000
1.000000 0.901961 0.003922
1.000000 0.941176 0.003922
0.835294 1.000000 0.364706
0.666667 1.000000 0.482353
0.760784 1.000000 0.486275
0.850980 1.000000 0.470588
0.941176 0.980392 0.458824
0.996078 0.964706 0.466667
1.000000 0.917647 0.529412
0.996078 0.886275 0.498039
0.000000 0.000000 0.000000
0.000000 0.000000 0.000000
0.070588 0.015686 0.003922
0.180392 0.066667 0.000000
0.290196 0.105882 0.000000
0.443137 0.156863 0.000000
0.733333 0.250980 0.000000
0.541176 0.313725 0.000000
0.070588 0.015686 0.003922
0.031373 0.035294 0.043137
0.145098 0.035294 0.031373
0.282353 0.062745 0.011765
0.454902 0.105882 0.000000
0.682353 0.172549 0.000000
0.913725 0.231373 0.000000
1.000000 0.309804 0.003922
0.141176 0.094118 0.000000
0.043137 0.168627 0.023529
0.172549 0.149020 0.023529
0.262745 0.152941 0.000000
0.396078 0.192157 0.000000
0.631373 0.258824 0.000000
0.882353 0.325490 0.000000
0.996078 0.407843 0.000000
0.231373 0.235294 0.000000
0.090196 0.349020 0.000000
0.247059 0.341176 0.000000
0.356863 0.305882 0.000000
0.431373 0.282353 0.003922
0.525490 0.309804 0.000000
0.792157 0.403922 0.000000
0.886275 0.490196 0.000000
0.372549 0.486275 0.000000
0.156863 0.588235 0.000000
0.325490 0.596078 0.003922
0.486275 0.572549 0.000000
0.600000 0.529412 0.003922
0.690196 0.470588 0.000000
0.800000 0.505882 0.000000
0.917647 0.580392 0.000000
0.505882 0.745098 0.003922
0.227451 0.792157 0.000000
0.376471 0.796078 0.000000
0.549020 0.788235 0.000000
0.698039 0.764706 0.003922
0.843137 0.733333 0.000000
0.929412 0.650980 0.000000
1.000000 0.717647 0.000000
0.552941 0.933333 0.000000
0.274510 0.941176 0.003922
0.403922 0.941176 0.000000
0.552941 0.941176 0.000000
0.705882 0.929412 0.000000
0.866667 0.913725 0.003922
1.000000 0.898039 0.007843
1.000000 0.929412 0.003922
0.870588 0.996078 0.435294
0.709804 1.000000 0.549020
0.772549 0.996078 0.545098
0.850980 0.996078 0.541176
0.929412 0.980392 0.517647
1.000000 0.968627 0.533333
1.000000 0.921569 0.572549
1.000000 0.894118 0.537255
0.000000 0.003922 0.023529
0.000000 0.011765 0.039216
0.070588 0.019608 0.058824
0.219608 0.039216 0.050980
0.325490 0.078431 0.007843
0.474510 0.137255 0.007843
0.776471 0.227451 0.000000
0.658824 0.337255 0.000000
0.113725 0.000000 0.090196
0.000000 0.058824 0.188235
0.137255 0.031373 0.168627
0.301961 0.003922 0.196078
0.509804 0.000000 0.141176
0.752941 0.003922 0.101961
0.956863 0.019608 0.000000
1.000000 0.133333 0.192157
0.145098 0.098039 0.098039
0.003922 0.164706 0.180392
0.145098 0.156863 0.184314
0.309804 0.145098 0.149020
0.494118 0.168627 0.105882
0.713725 0.211765 0.019608
0.929412 0.262745 0.000000
1.000000 0.333333 0.090196
0.231373 0.243137 0.074510
0.000000 0.341176 0.125490
0.172549 0.345098 0.152941
0.352941 0.309804 0.129412
0.435294 0.278431 0.035294
0.584314 0.321569 0.003922
0.858824 0.396078 0.003922
0.964706 0.478431 0.000000
0.352941 0.490196 0.000000
0.000000 0.588235 0.000000
0.215686 0.592157 0.000000
0.447059 0.580392 0.000000
0.603922 0.533333 0.000000
0.690196 0.474510 0.007843
0.803922 0.494118 0.000000
0.913725 0.572549 0.011765
0.486275 0.745098 0.015686
0.003922 0.784314 0.003922
0.274510 0.796078 0.000000
0.501961 0.792157 0.003922
0.686275 0.764706 0.000000
0.839216 0.741176 0.003922
0.937255 0.650980 0.003922
1.000000 0.709804 0.000000
0.525490 0.929412 0.000000
0.058824 0.937255 0.000000
0.321569 0.945098 0.003922
0.505882 0.941176 0.000000
0.678431 0.929412 0.000000
0.858824 0.925490 0.000000
1.000000 0.894118 0.003922
0.992157 0.941176 0.003922
0.894118 0.988235 0.556863
0.729412 1.000000 0.647059
0.780392 1.000000 0.635294
0.858824 0.996078 0.643137
0.929412 0.988235 0.631373
0.996078 0.968627 0.623529
1.000000 0.929412 0.658824
1.000000 0.909804 0.619608
0.000000 0.078431 0.184314
0.000000 0.082353 0.196078
0.000000 0.023529 0.219608
0.200000 0.027451 0.227451
0.372549 0.000000 0.227451
0.572549 0.000000 0.129412
0.874510 0.003922 0.117647
0.843137 0.294118 0.211765
0.156863 0.003922 0.227451
0.003922 0.098039 0.380392
0.105882 0.011765 0.349020
0.286275 0.000000 0.321569
0.490196 0.000000 0.360784
0.756863 0.000000 0.380392
0.988235 0.000000 0.301961
0.996078 0.000000 0.447059
0.152941 0.101961 0.274510
0.000000 0.286275 0.403922
0.003922 0.164706 0.372549
0.298039 0.141176 0.345098
0.537255 0.000000 0.372549
0.800000 0.003922 0.321569
0.996078 0.000000 0.243137
1.000000 0.003922 0.380392
0.200000 0.235294 0.254902
0.000000 0.329412 0.329412
0.000000 0.329412 0.337255
0.321569 0.317647 0.341176
0.521569 0.294118 0.290196
0.752941 0.317647 0.239216
0.956863 0.341176 0.184314
0.992157 0.419608 0.298039
0.286275 0.498039 0.200000
0.003922 0.560784 0.254902
0.007843 0.576471 0.250980
0.337255 0.588235 0.290196
0.600000 0.549020 0.250980
0.686275 0.470588 0.117647
0.823529 0.474510 0.003922
0.917647 0.541176 0.000000
0.396078 0.745098 0.000000
0.003922 0.792157 0.141176
0.000000 0.792157 0.156863
0.368627 0.788235 0.137255
0.631373 0.780392 0.094118
0.839216 0.741176 0.003922
0.929412 0.643137 0.000000
0.988235 0.713725 0.000000
0.439216 0.925490 0.007843
0.000000 0.941176 0.000000
0.000000 0.949020 0.007843
0.396078 0.941176 0.000000
0.627451 0.937255 0.000000
0.831373 0.917647 0.003922
1.000000 0.886275 0.000000
0.996078 0.937255 0.000000
0.913725 0.976471 0.690196
0.737255 0.996078 0.737255
0.796078 0.996078 0.733333
0.858824 0.992157 0.745098
0.925490 0.980392 0.749020
0.992157 0.976471 0.737255
0.996078 0.941176 0.764706
1.000000 0.929412 0.701961
0.000000 0.180392 0.372549
0.000000 0.176471 0.392157
0.003922 0.082353 0.419608
0.196078 0.011765 0.388235
0.337255 0.000000 0.349020
0.568627 0.000000 0.384314
0.878431 0.000000 0.407843
0.905882 0.109804 0.541176
0.192157 0.000000 0.376471
0.000000 0.168627 0.545098
0.007843 0.000000 0.560784
0.321569 0.000000 0.486275
0.470588 0.000000 0.462745
0.737255 0.003922 0.533333
0.996078 0.000000 0.556863
1.000000 0.000000 0.674510
0.141176 0.062745 0.443137
0.000000 0.349020 0.568627
0.000000 0.215686 0.541176
0.298039 0.109804 0.509804
0.501961 0.066667 0.486275
0.784314 0.007843 0.560784
1.000000 0.000000 0.533333
0.996078 0.003922 0.635294
0.011765 0.231373 0.431373
0.003922 0.509804 0.564706
0.011765 0.482353 0.576471
0.172549 0.313725 0.541176
0.529412 0.298039 0.509804
0.823529 0.250980 0.545098
1.000000 0.078431 0.478431
0.996078 0.321569 0.572549
0.047059 0.462745 0.415686
0.003922 0.549020 0.474510
0.000000 0.545098 0.462745
0.094118 0.552941 0.486275
0.560784 0.568627 0.517647
0.764706 0.486275 0.423529
0.968627 0.470588 0.372549
0.992157 0.545098 0.435294
0.043137 0.741176 0.333333
0.003922 0.760784 0.380392
0.000000 0.768627 0.376471
0.007843 0.776471 0.415686
0.556863 0.784314 0.443137
0.823529 0.760784 0.388235
0.909804 0.631373 0.184314
0.980392 0.694118 0.282353
0.247059 0.929412 0.000000
0.000000 0.941176 0.207843
0.000000 0.937255 0.298039
0.149020 0.937255 0.349020
0.552941 0.937255 0.360784
0.792157 0.925490 0.341176
0.992157 0.894118 0.258824
0.996078 0.945098 0.403922
0.913725 0.972549 0.819608
0.588235 0.996078 0.749020
0.698039 1.000000 0.768627
0.843137 0.988235 0.819608
0.921569 0.976471 0.847059
0.976471 0.976471 0.843137
1.000000 0.956863 0.847059
1.000000 0.937255 0.796078
0.003922 0.270588 0.549020
0.000000 0.258824 0.556863
0.000000 0.180392 0.596078
0.000000 0.000000 0.588235
0.388235 0.000000 0.498039
0.560784 0.003922 0.498039
0.843137 0.000000 0.568627
0.854902 0.164706 0.694118
0.156863 0.003922 0.572549
0.000000 0.227451 0.690196
0.000000 0.015686 0.717647
0.262745 0.003922 0.678431
0.549020 0.000000 0.647059
0.741176 0.003922 0.658824
0.952941 0.003922 0.690196
1.000000 0.000000 0.823529
0.000000 0.043137 0.635294
0.003922 0.376471 0.729412
0.000000 0.254902 0.705882
0.121569 0.086275 0.694118
0.549020 0.003922 0.674510
0.756863 0.000000 0.670588
0.980392 0.000000 0.698039
0.996078 0.003922 0.807843
0.000000 0.270588 0.576471
0.000000 0.584314 0.741176
0.000000 0.529412 0.745098
0.003922 0.356863 0.701961
0.494118 0.278431 0.678431
0.768627 0.278431 0.686275
0.980392 0.176471 0.690196
0.992157 0.360784 0.768627
0.000000 0.607843 0.662745
0.003922 0.713725 0.709804
0.000000 0.701961 0.717647
0.000000 0.678431 0.721569
0.450980 0.556863 0.717647
0.780392 0.545098 0.694118
0.988235 0.525490 0.690196
0.996078 0.615686 0.745098
0.000000 0.690196 0.556863
0.007843 0.752941 0.596078
0.000000 0.752941 0.600000
0.007843 0.752941 0.611765
0.427451 0.764706 0.650980
0.792157 0.772549 0.690196
0.933333 0.674510 0.572549
1.000000 0.737255 0.647059
0.000000 0.917647 0.419608
0.000000 0.917647 0.505882
0.007843 0.921569 0.501961
0.003922 0.929412 0.529412
0.439216 0.925490 0.580392
0.776471 0.933333 0.654902
0.964706 0.898039 0.592157
1.000000 0.941176 0.686275
0.905882 0.956863 0.917647
0.576471 1.000000 0.870588
0.662745 0.996078 0.866667
0.776471 0.980392 0.882353
0.874510 0.972549 0.890196
0.952941 0.976471 0.921569
0.996078 0.956863 0.909804
1.000000 0.949020 0.874510
0.000000 0.325490 0.701961
0.000000 0.309804 0.709804
0.000000 0.239216 0.725490
0.000000 0.011765 0.831373
0.317647 0.003922 0.698039
0.615686 0.003922 0.686275
0.831373 0.003922 0.721569
0.800000 0.239216 0.803922
0.000000 0.000000 0.776471
0.003922 0.270588 0.831373
0.007843 0.113725 0.862745
0.000000 0.000000 0.850980
0.486275 0.000000 0.850980
0.752941 0.003922 0.823529
0.925490 0.003922 0.823529
0.976471 0.000000 0.917647
0.000000 0.090196 0.827451
0.000000 0.392157 0.866667
0.003922 0.305882 0.854902
0.000000 0.109804 0.850980
0.450980 0.000000 0.862745
0.752941 0.007843 0.839216
0.945098 0.000000 0.843137
0.980392 0.219608 0.909804
0.007843 0.325490 0.745098
0.003922 0.580392 0.894118
0.003922 0.521569 0.882353
0.000000 0.380392 0.858824
0.321569 0.270588 0.858824
0.733333 0.298039 0.843137
0.937255 0.250980 0.835294
0.992157 0.427451 0.909804
0.000000 0.635294 0.843137
0.007843 0.760784 0.890196
0.003922 0.745098 0.894118
0.000000 0.690196 0.890196
0.266667 0.549020 0.870588
0.694118 0.525490 0.847059
0.933333 0.521569 0.850980
0.980392 0.639216 0.905882
0.003922 0.807843 0.811765
0.003922 0.862745 0.866667
0.000000 0.854902 0.862745
0.003922 0.850980 0.870588
0.274510 0.843137 0.894118
0.694118 0.760784 0.862745
0.925490 0.745098 0.847059
0.968627 0.811765 0.905882
0.000000 0.890196 0.701961
0.000000 0.933333 0.760784
0.000000 0.933333 0.768627
0.000000 0.929412 0.780392
0.352941 0.921569 0.792157
0.705882 0.909804 0.823529
0.921569 0.905882 0.862745
0.960784 0.933333 0.894118
0.878431 0.980392 0.984314
0.650980 1.000000 0.984314
0.721569 0.996078 0.984314
0.796078 0.996078 0.976471
0.870588 0.984314 0.976471
0.921569 0.980392 0.968627
0.984314 0.976471 0.980392
1.000000 0.988235 0.984314
0.003922 0.380392 0.858824
0.000000 0.364706 0.850980
0.000000 0.301961 0.843137
0.011765 0.164706 0.945098
0.000000 0.003922 0.862745
0.478431 0.003922 0.854902
0.819608 0.176471 0.898039
0.737255 0.388235 0.960784
0.000000 0.000000 0.980392
0.003922 0.305882 0.949020
0.003922 0.203922 0.945098
0.003922 0.000000 0.972549
0.270588 0.000000 0.976471
0.662745 0.000000 0.984314
0.917647 0.219608 0.972549
0.964706 0.443137 1.000000
0.003922 0.149020 0.949020
0.000000 0.415686 0.988235
0.000000 0.329412 0.988235
0.000000 0.121569 0.964706
0.137255 0.035294 0.996078
0.647059 0.141176 0.992157
0.921569 0.341176 0.984314
0.956863 0.501961 0.992157
0.003922 0.329412 0.862745
0.003922 0.556863 1.000000
0.003922 0.509804 1.000000
0.007843 0.384314 0.996078
0.000000 0.235294 0.964706
0.627451 0.313725 0.992157
0.909804 0.470588 0.972549
0.949020 0.592157 1.000000
0.000000 0.627451 0.952941
0.000000 0.721569 0.996078
0.000000 0.701961 1.000000
0.000000 0.654902 1.000000
0.011765 0.529412 0.996078
0.568627 0.494118 0.984314
0.898039 0.611765 0.972549
0.929412 0.701961 1.000000
0.000000 0.839216 0.980392
0.003922 0.866667 1.000000
0.000000 0.858824 1.000000
0.000000 0.850980 0.996078
0.247059 0.823529 0.996078
0.576471 0.756863 0.992157
0.854902 0.756863 0.984314
0.925490 0.819608 0.988235
0.003922 0.941176 0.988235
0.000000 0.976471 0.984314
0.003922 0.968627 0.988235
0.003922 0.960784 1.000000
0.180392 0.956863 0.992157
0.674510 0.945098 0.996078
0.854902 0.894118 0.992157
0.945098 0.933333 1.000000
0.349020 1.000000 0.984314
0.000000 0.996078 0.984314
0.000000 0.996078 0.988235
0.290196 1.000000 0.996078
0.607843 1.000000 0.992157
0.815686 0.996078 0.996078
0.949020 1.000000 1.000000
0.996078 1.000000 1.000000
