assets/luts/LUTs/VIKING.CUBE
#Generated with IWLTBAP LUT Generator
#Website: https://luts.iwltbap.com
TITLE "Viking village"
LUT_3D_SIZE 4
0.000000 0.003922 0.000000
0.172549 0.000000 0.003922
0.662745 0.117647 0.000000
1.000000 0.325490 0.000000
0.156863 0.149020 0.000000
0.235294 0.207843 0.003922
0.462745 0.247059 0.000000
0.925490 0.462745 0.007843
0.443137 0.662745 0.000000
0.435294 0.733333 0.000000
0.780392 0.698039 0.000000
0.984314 0.682353 0.000000
0.835294 1.000000 0.364706
0.792157 1.000000 0.482353
1.000000 0.972549 0.462745
0.996078 0.886275 0.498039
0.003922 0.019608 0.066667
0.113725 0.027451 0.117647
0.443137 0.078431 0.019608
0.717647 0.333333 0.000000
0.164706 0.141176 0.156863
0.188235 0.200000 0.235294
0.647059 0.227451 0.133333
0.996078 0.364706 0.152941
0.431373 0.682353 0.000000
0.298039 0.749020 0.007843
0.776471 0.674510 0.000000
0.976471 0.670588 0.000000
0.901961 0.980392 0.600000
0.811765 1.000000 0.686275
0.984314 0.972549 0.670588
0.996078 0.913725 0.650980
0.003922 0.243137 0.490196
0.011765 0.050980 0.572549
0.470588 0.000000 0.443137
0.878431 0.152941 0.658824
0.003922 0.109804 0.568627
0.000000 0.250980 0.631373
0.686275 0.066667 0.619608
1.000000 0.121569 0.764706
0.000000 0.631373 0.505882
0.003922 0.698039 0.564706
0.721569 0.717647 0.639216
1.000000 0.682353 0.576471
0.917647 0.964706 0.886275
0.698039 0.992157 0.831373
0.949020 0.980392 0.898039
1.000000 0.952941 0.850980
0.003922 0.380392 0.858824
0.000000 0.278431 0.858824
0.341176 0.000000 0.811765
0.737255 0.388235 0.960784
0.000000 0.207843 0.882353
0.000000 0.345098 0.980392
0.513725 0.160784 0.992157
0.952941 0.525490 0.996078
0.003922 0.776471 0.980392
0.000000 0.815686 1.000000
0.450980 0.690196 0.996078
0.929412 0.796078 0.992157
0.349020 1.000000 0.984314
0.000000 0.996078 0.988235
0.749020 1.000000 0.996078
0.996078 1.000000 1.000000
