assets/luts/LUTs/VIKING.CUBE
#Generated with IWLTBAP LUT Generator
#Website: https://luts.iwltbap.com
TITLE "Viking village"
LUT_3D_SIZE 64
0.000000 0.003922 0.000000
0.000000 0.000000 0.000000
0.000000 0.000000 0.000000
0.003922 0.000000 0.000000
0.000000 0.000000 0.000000
0.000000 0.000000 0.007843
0.003922 0.003922 0.003922
0.000000 0.000000 0.000000
0.000000 0.003922 0.000000
0.000000 0.000000 0.000000
0.011765 0.000000 0.000000
0.027451 0.000000 0.000000
0.039216 0.000000 0.003922
0.058824 0.003922 0.003922
0.070588 0.000000 0.000000
0.078431 0.000000 0.003922
0.094118 0.000000 0.000000
0.109804 0.000000 0.003922
0.125490 0.000000 0.003922
0.141176 0.000000 0.000000
0.156863 0.000000 0.003922
0.172549 0.000000 0.003922
0.192157 0.000000 0.000000
0.200000 0.000000 0.000000
0.227451 0.000000 0.000000
0.243137 0.000000 0.003922
0.266667 0.000000 0.000000
0.290196 0.000000 0.003922
0.313725 0.000000 0.003922
0.333333 0.000000 0.000000
0.368627 0.000000 0.000000
0.384314 0.000000 0.003922
0.407843 0.000000 0.000000
0.431373 0.007843 0.000000
0.454902 0.023529 0.000000
0.482353 0.035294 0.000000
0.505882 0.043137 0.000000
0.533333 0.058824 0.000000
0.560784 0.070588 0.000000
0.584314 0.086275 0.011765
0.615686 0.098039 0.007843
0.643137 0.113725 0.007843
0.662745 0.117647 0.000000
0.686275 0.129412 0.000000
0.705882 0.141176 0.003922
0.729412 0.149020 0.000000
0.745098 0.156863 0.000000
0.768627 0.164706 0.000000
0.796078 0.176471 0.000000
0.815686 0.180392 0.000000
0.839216 0.188235 0.000000
0.862745 0.200000 0.007843
0.882353 0.203922 0.000000
0.905882 0.215686 0.000000
0.925490 0.219608 0.000000
0.949020 0.223529 0.003922
0.964706 0.231373 0.000000
0.976471 0.243137 0.003922
0.992157 0.250980 0.000000
0.996078 0.254902 0.007843
1.000000 0.250980 0.003922
0.992157 0.262745 0.000000
1.000000 0.278431 0.003922
1.000000 0.325490 0.000000
0.000000 0.003922 0.000000
0.000000 0.000000 0.007843
0.000000 0.000000 0.007843
0.000000 0.000000 0.000000
0.000000 0.003922 0.000000
0.011765 0.000000 0.007843
0.000000 0.000000 0.000000
0.000000 0.000000 0.000000
0.000000 0.003922 0.000000
0.000000 0.000000 0.000000
0.015686 0.000000 0.000000
0.031373 0.000000 0.000000
0.039216 0.000000 0.000000
0.054902 0.000000 0.000000
0.070588 0.000000 0.000000
0.078431 0.000000 0.000000
0.094118 0.000000 0.000000
0.105882 0.003922 0.007843
0.125490 0.000000 0.003922
0.137255 0.000000 0.000000
0.156863 0.000000 0.000000
0.172549 0.000000 0.003922
0.192157 0.000000 0.000000
0.203922 0.003922 0.000000
0.219608 0.003922 0.000000
0.235294 0.000000 0.000000
0.254902 0.000000 0.000000
0.278431 0.000000 0.000000
0.305882 0.000000 0.000000
0.333333 0.003922 0.003922
0.349020 0.000000 0.000000
0.376471 0.007843 0.007843
0.403922 0.015686 0.000000
0.427451 0.023529 0.003922
0.454902 0.035294 0.003922
0.474510 0.043137 0.000000
0.501961 0.058824 0.003922
0.529412 0.070588 0.003922
0.552941 0.078431 0.003922
0.576471 0.090196 0.000000
0.607843 0.098039 0.000000
0.631373 0.109804 0.003922
0.654902 0.121569 0.000000
0.682353 0.133333 0.000000
0.709804 0.145098 0.007843
0.733333 0.152941 0.003922
0.752941 0.164706 0.000000
0.772549 0.168627 0.003922
0.796078 0.176471 0.000000
0.819608 0.184314 0.003922
0.839216 0.188235 0.000000
0.862745 0.200000 0.000000
0.886275 0.207843 0.003922
0.901961 0.215686 0.000000
0.929412 0.223529 0.000000
0.949020 0.239216 0.000000
0.976471 0.235294 0.000000
0.988235 0.243137 0.007843
0.996078 0.250980 0.000000
1.000000 0.258824 0.000000
1.000000 0.262745 0.015686
0.996078 0.266667 0.003922
0.996078 0.274510 0.000000
1.000000 0.333333 0.000000
0.000000 0.000000 0.007843
0.000000 0.000000 0.007843
0.000000 0.007843 0.000000
0.003922 0.000000 0.000000
0.003922 0.003922 0.003922
0.000000 0.000000 0.000000
0.000000 0.000000 0.000000
0.003922 0.000000 0.007843
0.000000 0.003922 0.000000
0.000000 0.000000 0.000000
0.003922 0.000000 0.000000
0.023529 0.000000 0.000000
0.035294 0.000000 0.000000
0.047059 0.000000 0.000000
0.062745 0.000000 0.000000
0.074510 0.003922 0.003922
0.086275 0.003922 0.000000
0.101961 0.000000 0.000000
0.117647 0.000000 0.000000
0.133333 0.000000 0.000000
0.152941 0.003922 0.003922
0.160784 0.000000 0.000000
0.188235 0.000000 0.000000
0.200000 0.000000 0.000000
0.211765 0.000000 0.000000
0.227451 0.000000 0.000000
0.250980 0.000000 0.000000
0.274510 0.000000 0.000000
0.294118 0.003922 0.000000
0.313725 0.007843 0.000000
0.341176 0.011765 0.003922
0.364706 0.019608 0.011765
0.388235 0.023529 0.000000
0.415686 0.035294 0.000000
0.435294 0.047059 0.000000
0.462745 0.058824 0.003922
0.486275 0.066667 0.003922
0.513725 0.074510 0.000000
0.545098 0.082353 0.000000
0.572549 0.094118 0.003922
0.596078 0.105882 0.000000
0.619608 0.113725 0.000000
0.647059 0.117647 0.000000
0.674510 0.133333 0.000000
0.698039 0.145098 0.000000
0.725490 0.156863 0.003922
0.749020 0.160784 0.000000
0.772549 0.168627 0.003922
0.796078 0.184314 0.000000
0.811765 0.188235 0.000000
0.835294 0.196078 0.000000
0.858824 0.203922 0.000000
0.882353 0.211765 0.000000
0.905882 0.223529 0.000000
0.929412 0.223529 0.000000
0.945098 0.231373 0.003922
0.968627 0.243137 0.000000
0.984314 0.243137 0.000000
0.996078 0.247059 0.000000
0.996078 0.254902 0.000000
0.992157 0.262745 0.000000
0.992157 0.270588 0.003922
0.996078 0.282353 0.000000
0.996078 0.341176 0.003922
0.000000 0.000000 0.007843
0.003922 0.000000 0.000000
0.000000 0.000000 0.000000
0.000000 0.000000 0.000000
0.000000 0.003922 0.000000
0.000000 0.003922 0.000000
0.007843 0.000000 0.003922
0.000000 0.000000 0.000000
0.000000 0.003922 0.000000
0.000000 0.000000 0.000000
0.015686 0.000000 0.000000
0.031373 0.000000 0.000000
0.039216 0.000000 0.000000
0.054902 0.000000 0.000000
0.070588 0.000000 0.000000
0.078431 0.000000 0.003922
0.094118 0.000000 0.000000
0.101961 0.000000 0.000000
0.117647 0.000000 0.000000
0.133333 0.000000 0.000000
0.149020 0.000000 0.000000
0.156863 0.000000 0.000000
0.176471 0.000000 0.003922
0.192157 0.000000 0.000000
0.203922 0.003922 0.000000
0.219608 0.000000 0.003922
0.243137 0.003922 0.000000
0.262745 0.007843 0.000000
0.282353 0.011765 0.000000
0.305882 0.019608 0.000000
0.333333 0.023529 0.003922
0.349020 0.023529 0.000000
0.376471 0.039216 0.000000
0.400000 0.050980 0.000000
0.423529 0.058824 0.000000
0.447059 0.066667 0.000000
0.474510 0.082353 0.000000
0.501961 0.086275 0.000000
0.529412 0.090196 0.000000
0.552941 0.098039 0.000000
0.584314 0.109804 0.000000
0.611765 0.125490 0.000000
0.635294 0.133333 0.000000
0.662745 0.137255 0.000000
0.690196 0.149020 0.003922
0.717647 0.156863 0.000000
0.741176 0.156863 0.000000
0.764706 0.176471 0.000000
0.788235 0.188235 0.000000
0.811765 0.196078 0.003922
0.835294 0.196078 0.000000
0.862745 0.207843 0.000000
0.882353 0.215686 0.000000
0.909804 0.227451 0.000000
0.925490 0.227451 0.000000
0.949020 0.235294 0.007843
0.972549 0.247059 0.003922
0.980392 0.247059 0.000000
1.000000 0.247059 0.003922
1.000000 0.254902 0.000000
0.996078 0.270588 0.000000
1.000000 0.274510 0.003922
0.988235 0.286275 0.000000
1.000000 0.345098 0.007843
0.000000 0.000000 0.000000
0.000000 0.000000 0.007843
0.003922 0.000000 0.000000
0.000000 0.000000 0.000000
0.000000 0.000000 0.007843
0.000000 0.003922 0.000000
0.011765 0.000000 0.000000
0.000000 0.000000 0.000000
0.000000 0.000000 0.007843
0.003922 0.000000 0.000000
0.019608 0.000000 0.000000
0.031373 0.000000 0.000000
0.039216 0.000000 0.000000
0.058824 0.003922 0.003922
0.074510 0.003922 0.003922
0.078431 0.000000 0.003922
0.094118 0.000000 0.000000
0.101961 0.000000 0.003922
0.117647 0.000000 0.000000
0.125490 0.000000 0.003922
0.141176 0.000000 0.000000
0.152941 0.003922 0.000000
0.164706 0.003922 0.000000
0.184314 0.003922 0.003922
0.200000 0.007843 0.000000
0.211765 0.011765 0.000000
0.235294 0.007843 0.000000
0.254902 0.015686 0.003922
0.270588 0.023529 0.003922
0.294118 0.031373 0.000000
0.321569 0.035294 0.007843
0.345098 0.043137 0.011765
0.356863 0.047059 0.000000
0.384314 0.058824 0.003922
0.407843 0.066667 0.000000
0.431373 0.074510 0.000000
0.458824 0.082353 0.000000
0.486275 0.094118 0.000000
0.513725 0.109804 0.000000
0.537255 0.109804 0.000000
0.576471 0.121569 0.000000
0.596078 0.125490 0.000000
0.623529 0.137255 0.000000
0.650980 0.141176 0.000000
0.678431 0.156863 0.003922
0.705882 0.160784 0.000000
0.729412 0.164706 0.000000
0.756863 0.176471 0.003922
0.788235 0.188235 0.000000
0.807843 0.196078 0.003922
0.827451 0.207843 0.000000
0.850980 0.211765 0.003922
0.874510 0.223529 0.003922
0.898039 0.223529 0.003922
0.921569 0.235294 0.000000
0.949020 0.243137 0.003922
0.964706 0.243137 0.000000
0.980392 0.254902 0.003922
1.000000 0.258824 0.000000
0.996078 0.266667 0.003922
0.996078 0.274510 0.000000
1.000000 0.270588 0.000000
0.996078 0.294118 0.000000
1.000000 0.349020 0.003922
0.015686 0.000000 0.003922
0.003922 0.000000 0.000000
0.000000 0.000000 0.000000
0.000000 0.000000 0.007843
0.000000 0.000000 0.007843
0.000000 0.000000 0.000000
0.003922 0.000000 0.000000
0.000000 0.003922 0.000000
0.000000 0.003922 0.000000
0.011765 0.003922 0.007843
0.019608 0.003922 0.000000
0.031373 0.000000 0.000000
0.039216 0.000000 0.000000
0.054902 0.000000 0.000000
0.070588 0.000000 0.000000
0.078431 0.000000 0.003922
0.082353 0.007843 0.000000
0.094118 0.011765 0.000000
0.117647 0.007843 0.000000
0.125490 0.007843 0.000000
0.133333 0.011765 0.000000
0.149020 0.011765 0.003922
0.164706 0.011765 0.000000
0.180392 0.007843 0.003922
0.192157 0.015686 0.000000
0.211765 0.019608 0.000000
0.231373 0.023529 0.000000
0.247059 0.023529 0.000000
0.262745 0.031373 0.000000
0.290196 0.039216 0.000000
0.313725 0.047059 0.003922
0.333333 0.050980 0.003922
0.349020 0.062745 0.000000
0.372549 0.070588 0.000000
0.403922 0.078431 0.007843
0.423529 0.086275 0.003922
0.450980 0.090196 0.000000
0.478431 0.101961 0.003922
0.501961 0.105882 0.000000
0.525490 0.113725 0.000000
0.556863 0.125490 0.000000
0.584314 0.137255 0.003922
0.607843 0.145098 0.000000
0.635294 0.152941 0.000000
0.662745 0.164706 0.003922
0.694118 0.172549 0.003922
0.717647 0.176471 0.000000
0.745098 0.188235 0.000000
0.772549 0.196078 0.000000
0.796078 0.203922 0.000000
0.827451 0.207843 0.000000
0.850980 0.215686 0.000000
0.878431 0.227451 0.000000
0.898039 0.231373 0.000000
0.921569 0.239216 0.003922
0.941176 0.247059 0.011765
0.960784 0.254902 0.000000
0.980392 0.254902 0.000000
0.996078 0.254902 0.000000
0.992157 0.270588 0.000000
0.996078 0.282353 0.000000
1.000000 0.286275 0.007843
1.000000 0.286275 0.000000
1.000000 0.352941 0.000000
0.019608 0.000000 0.000000
0.003922 0.003922 0.000000
0.000000 0.000000 0.007843
0.000000 0.000000 0.000000
0.003922 0.003922 0.000000
0.000000 0.015686 0.000000
0.003922 0.011765 0.007843
0.000000 0.007843 0.003922
0.000000 0.007843 0.003922
0.007843 0.007843 0.000000
0.019608 0.003922 0.000000
0.027451 0.007843 0.000000
0.039216 0.007843 0.000000
0.054902 0.011765 0.003922
0.066667 0.011765 0.000000
0.070588 0.011765 0.000000
0.082353 0.011765 0.000000
0.090196 0.015686 0.000000
0.105882 0.015686 0.000000
0.121569 0.011765 0.000000
0.129412 0.015686 0.000000
0.141176 0.019608 0.000000
0.156863 0.019608 0.000000
0.176471 0.023529 0.003922
0.180392 0.023529 0.000000
0.207843 0.031373 0.003922
0.223529 0.031373 0.003922
0.247059 0.039216 0.007843
0.266667 0.047059 0.000000
0.286275 0.054902 0.000000
0.305882 0.058824 0.000000
0.321569 0.062745 0.000000
0.337255 0.070588 0.000000
0.372549 0.078431 0.003922
0.388235 0.090196 0.000000
0.415686 0.094118 0.000000
0.443137 0.101961 0.000000
0.462745 0.105882 0.000000
0.490196 0.117647 0.000000
0.513725 0.125490 0.000000
0.545098 0.137255 0.000000
0.560784 0.149020 0.000000
0.592157 0.152941 0.000000
0.623529 0.164706 0.000000
0.654902 0.172549 0.007843
0.686275 0.176471 0.003922
0.713725 0.180392 0.000000
0.737255 0.192157 0.007843
0.764706 0.203922 0.000000
0.784314 0.207843 0.000000
0.823529 0.215686 0.000000
0.843137 0.227451 0.000000
0.866667 0.231373 0.000000
0.894118 0.243137 0.007843
0.917647 0.247059 0.003922
0.937255 0.250980 0.003922
0.960784 0.258824 0.000000
0.968627 0.258824 0.003922
1.000000 0.274510 0.003922
1.000000 0.278431 0.000000
1.000000 0.278431 0.000000
1.000000 0.286275 0.000000
0.996078 0.301961 0.000000
1.000000 0.356863 0.003922
0.035294 0.003922 0.000000
0.011765 0.011765 0.003922
0.000000 0.011765 0.007843
0.000000 0.015686 0.000000
0.003922 0.011765 0.000000
0.000000 0.023529 0.000000
0.007843 0.015686 0.000000
0.000000 0.019608 0.003922
0.000000 0.019608 0.000000
0.011765 0.019608 0.000000
0.019608 0.015686 0.000000
0.031373 0.019608 0.000000
0.043137 0.011765 0.000000
0.050980 0.015686 0.000000
0.058824 0.015686 0.000000
0.074510 0.015686 0.000000
0.086275 0.019608 0.000000
0.094118 0.019608 0.000000
0.113725 0.023529 0.000000
0.121569 0.023529 0.003922
0.133333 0.027451 0.000000
0.141176 0.027451 0.000000
0.156863 0.027451 0.000000
0.168627 0.035294 0.000000
0.184314 0.035294 0.000000
0.203922 0.035294 0.000000
0.219608 0.047059 0.003922
0.239216 0.050980 0.003922
0.250980 0.058824 0.000000
0.274510 0.066667 0.000000
0.294118 0.070588 0.000000
0.305882 0.078431 0.000000
0.333333 0.078431 0.000000
0.356863 0.090196 0.007843
0.376471 0.094118 0.000000
0.396078 0.101961 0.000000
0.423529 0.113725 0.000000
0.447059 0.121569 0.003922
0.466667 0.129412 0.000000
0.490196 0.137255 0.003922
0.521569 0.137255 0.000000
0.541176 0.152941 0.000000
0.564706 0.152941 0.000000
0.588235 0.160784 0.000000
0.615686 0.172549 0.000000
0.647059 0.184314 0.003922
0.674510 0.192157 0.000000
0.698039 0.196078 0.003922
0.725490 0.203922 0.003922
0.752941 0.215686 0.003922
0.776471 0.219608 0.000000
0.803922 0.231373 0.000000
0.823529 0.235294 0.000000
0.847059 0.243137 0.000000
0.878431 0.254902 0.000000
0.898039 0.258824 0.003922
0.913725 0.270588 0.000000
0.933333 0.274510 0.000000
0.956863 0.274510 0.000000
0.980392 0.282353 0.000000
0.992157 0.290196 0.000000
1.000000 0.290196 0.003922
0.996078 0.294118 0.000000
0.996078 0.301961 0.000000
0.003922 0.023529 0.000000
0.000000 0.023529 0.000000
0.000000 0.027451 0.000000
0.000000 0.031373 0.000000
0.000000 0.027451 0.000000
0.000000 0.027451 0.000000
0.003922 0.023529 0.000000
0.007843 0.027451 0.000000
0.023529 0.027451 0.003922
0.031373 0.031373 0.000000
0.047059 0.027451 0.003922
0.054902 0.027451 0.000000
0.062745 0.027451 0.000000
0.078431 0.027451 0.003922
0.086275 0.027451 0.000000
0.101961 0.027451 0.003922
0.117647 0.027451 0.003922
0.121569 0.023529 0.003922
0.141176 0.027451 0.003922
0.149020 0.031373 0.000000
0.164706 0.035294 0.000000
0.180392 0.035294 0.000000
0.192157 0.043137 0.000000
0.207843 0.043137 0.000000
0.235294 0.054902 0.000000
0.243137 0.054902 0.000000
0.266667 0.062745 0.007843
0.286275 0.066667 0.007843
0.298039 0.074510 0.007843
0.317647 0.078431 0.003922
0.341176 0.086275 0.000000
0.352941 0.086275 0.000000
0.376471 0.101961 0.000000
0.396078 0.105882 0.000000
0.423529 0.109804 0.003922
0.443137 0.117647 0.000000
0.466667 0.129412 0.007843
0.486275 0.133333 0.000000
0.513725 0.145098 0.000000
0.537255 0.152941 0.000000
0.556863 0.152941 0.000000
0.584314 0.164706 0.000000
0.607843 0.172549 0.000000
0.631373 0.184314 0.000000
0.654902 0.196078 0.000000
0.682353 0.200000 0.000000
0.705882 0.207843 0.000000
0.729412 0.215686 0.000000
0.749020 0.219608 0.000000
0.768627 0.231373 0.000000
0.800000 0.235294 0.000000
0.827451 0.239216 0.000000
0.850980 0.247059 0.003922
0.870588 0.258824 0.000000
0.890196 0.258824 0.003922
0.913725 0.266667 0.015686
0.933333 0.274510 0.000000
0.960784 0.282353 0.000000
0.984314 0.286275 0.000000
0.992157 0.290196 0.000000
1.000000 0.294118 0.000000
0.992157 0.309804 0.000000
0.996078 0.313725 0.007843
1.000000 0.364706 0.000000
0.047059 0.007843 0.003922
0.007843 0.039216 0.000000
0.007843 0.027451 0.000000
0.000000 0.039216 0.000000
0.000000 0.043137 0.000000
0.000000 0.039216 0.007843
0.000000 0.043137 0.003922
0.011765 0.043137 0.000000
0.023529 0.035294 0.000000
0.035294 0.039216 0.007843
0.047059 0.035294 0.007843
0.050980 0.035294 0.000000
0.058824 0.031373 0.000000
0.070588 0.031373 0.000000
0.082353 0.031373 0.000000
0.094118 0.039216 0.003922
0.101961 0.035294 0.003922
0.113725 0.043137 0.003922
0.133333 0.043137 0.011765
0.137255 0.043137 0.000000
0.152941 0.047059 0.003922
0.168627 0.054902 0.000000
0.184314 0.054902 0.000000
0.200000 0.058824 0.000000
0.215686 0.062745 0.000000
0.239216 0.070588 0.007843
0.258824 0.074510 0.003922
0.278431 0.078431 0.003922
0.290196 0.086275 0.000000
0.309804 0.090196 0.000000
0.329412 0.094118 0.000000
0.345098 0.101961 0.003922
0.372549 0.109804 0.003922
0.396078 0.117647 0.007843
0.419608 0.117647 0.000000
0.439216 0.125490 0.000000
0.462745 0.133333 0.000000
0.486275 0.141176 0.000000
0.513725 0.145098 0.000000
0.529412 0.156863 0.000000
0.560784 0.160784 0.003922
0.576471 0.172549 0.003922
0.603922 0.180392 0.000000
0.631373 0.192157 0.003922
0.654902 0.200000 0.007843
0.678431 0.203922 0.000000
0.705882 0.215686 0.000000
0.721569 0.219608 0.000000
0.749020 0.231373 0.000000
0.772549 0.239216 0.003922
0.796078 0.243137 0.000000
0.819608 0.250980 0.000000
0.847059 0.254902 0.000000
0.870588 0.266667 0.000000
0.898039 0.270588 0.003922
0.921569 0.278431 0.000000
0.933333 0.286275 0.003922
0.952941 0.290196 0.000000
0.984314 0.298039 0.011765
1.000000 0.298039 0.000000
0.996078 0.298039 0.000000
0.988235 0.313725 0.000000
0.996078 0.321569 0.007843
1.000000 0.372549 0.015686
0.058824 0.015686 0.000000
0.003922 0.047059 0.000000
0.000000 0.047059 0.000000
0.000000 0.054902 0.000000
0.000000 0.050980 0.011765
0.007843 0.054902 0.015686
0.000000 0.050980 0.000000
0.007843 0.047059 0.003922
0.023529 0.047059 0.000000
0.035294 0.050980 0.000000
0.047059 0.047059 0.000000
0.058824 0.050980 0.003922
0.066667 0.043137 0.000000
0.078431 0.039216 0.000000
0.090196 0.043137 0.000000
0.098039 0.043137 0.000000
0.101961 0.047059 0.000000
0.113725 0.050980 0.000000
0.129412 0.054902 0.000000
0.141176 0.054902 0.000000
0.152941 0.062745 0.000000
0.168627 0.062745 0.000000
0.188235 0.066667 0.000000
0.200000 0.070588 0.003922
0.219608 0.074510 0.000000
0.231373 0.082353 0.000000
0.254902 0.078431 0.000000
0.270588 0.090196 0.000000
0.278431 0.090196 0.000000
0.301961 0.101961 0.000000
0.321569 0.105882 0.000000
0.337255 0.113725 0.000000
0.368627 0.121569 0.000000
0.388235 0.129412 0.003922
0.407843 0.133333 0.003922
0.431373 0.141176 0.003922
0.454902 0.149020 0.007843
0.478431 0.149020 0.000000
0.501961 0.160784 0.000000
0.525490 0.168627 0.003922
0.541176 0.172549 0.000000
0.568627 0.184314 0.000000
0.592157 0.184314 0.000000
0.619608 0.200000 0.003922
0.643137 0.207843 0.000000
0.670588 0.211765 0.000000
0.694118 0.223529 0.000000
0.717647 0.231373 0.000000
0.749020 0.231373 0.000000
0.776471 0.243137 0.007843
0.796078 0.250980 0.000000
0.823529 0.254902 0.000000
0.847059 0.262745 0.000000
0.874510 0.274510 0.007843
0.890196 0.278431 0.007843
0.909804 0.282353 0.007843
0.937255 0.290196 0.007843
0.952941 0.298039 0.000000
0.980392 0.309804 0.000000
1.000000 0.305882 0.000000
1.000000 0.313725 0.000000
0.988235 0.321569 0.000000
1.000000 0.325490 0.000000
1.000000 0.380392 0.000000
0.062745 0.019608 0.000000
0.003922 0.058824 0.000000
0.000000 0.050980 0.011765
0.000000 0.066667 0.003922
0.003922 0.058824 0.007843
0.003922 0.070588 0.000000
0.000000 0.066667 0.003922
0.007843 0.062745 0.000000
0.031373 0.062745 0.003922
0.035294 0.062745 0.000000
0.050980 0.058824 0.003922
0.058824 0.062745 0.007843
0.070588 0.058824 0.000000
0.074510 0.050980 0.000000
0.086275 0.050980 0.000000
0.098039 0.050980 0.000000
0.101961 0.054902 0.000000
0.113725 0.058824 0.007843
0.133333 0.062745 0.007843
0.141176 0.066667 0.000000
0.152941 0.070588 0.000000
0.160784 0.074510 0.000000
0.180392 0.074510 0.000000
0.200000 0.078431 0.000000
0.211765 0.086275 0.000000
0.227451 0.094118 0.000000
0.239216 0.094118 0.000000
0.258824 0.098039 0.000000
0.278431 0.105882 0.000000
0.294118 0.109804 0.000000
0.313725 0.113725 0.000000
0.329412 0.121569 0.000000
0.356863 0.125490 0.000000
0.372549 0.137255 0.003922
0.400000 0.141176 0.007843
0.419608 0.145098 0.003922
0.439216 0.152941 0.000000
0.462745 0.160784 0.000000
0.490196 0.164706 0.000000
0.513725 0.172549 0.000000
0.541176 0.180392 0.000000
0.568627 0.192157 0.003922
0.592157 0.200000 0.007843
0.615686 0.200000 0.003922
0.643137 0.211765 0.011765
0.658824 0.215686 0.003922
0.694118 0.227451 0.000000
0.717647 0.243137 0.003922
0.752941 0.247059 0.000000
0.768627 0.254902 0.000000
0.788235 0.258824 0.000000
0.819608 0.270588 0.007843
0.839216 0.274510 0.000000
0.866667 0.278431 0.000000
0.894118 0.286275 0.000000
0.917647 0.294118 0.000000
0.937255 0.305882 0.000000
0.956863 0.301961 0.000000
0.980392 0.309804 0.000000
0.988235 0.317647 0.003922
1.000000 0.321569 0.003922
0.996078 0.321569 0.000000
1.000000 0.329412 0.000000
1.000000 0.392157 0.000000
0.070588 0.031373 0.000000
0.003922 0.070588 0.000000
0.007843 0.074510 0.011765
0.000000 0.066667 0.000000
0.000000 0.070588 0.000000
0.003922 0.070588 0.000000
0.003922 0.070588 0.000000
0.015686 0.070588 0.003922
0.027451 0.070588 0.003922
0.039216 0.074510 0.000000
0.054902 0.070588 0.003922
0.062745 0.074510 0.000000
0.074510 0.070588 0.000000
0.082353 0.070588 0.003922
0.090196 0.062745 0.000000
0.098039 0.062745 0.000000
0.109804 0.062745 0.000000
0.117647 0.066667 0.000000
0.129412 0.066667 0.000000
0.141176 0.074510 0.003922
0.149020 0.078431 0.000000
0.164706 0.082353 0.000000
0.180392 0.082353 0.000000
0.192157 0.090196 0.000000
0.211765 0.094118 0.000000
0.219608 0.094118 0.000000
0.239216 0.098039 0.000000
0.258824 0.101961 0.000000
0.270588 0.109804 0.000000
0.286275 0.117647 0.000000
0.305882 0.125490 0.000000
0.325490 0.129412 0.000000
0.345098 0.133333 0.000000
0.368627 0.141176 0.003922
0.388235 0.145098 0.000000
0.407843 0.152941 0.003922
0.439216 0.156863 0.000000
0.454902 0.160784 0.000000
0.478431 0.168627 0.000000
0.509804 0.180392 0.007843
0.525490 0.188235 0.000000
0.552941 0.200000 0.003922
0.580392 0.203922 0.003922
0.603922 0.211765 0.007843
0.631373 0.219608 0.003922
0.658824 0.231373 0.007843
0.686275 0.239216 0.000000
0.709804 0.247059 0.000000
0.741176 0.250980 0.000000
0.764706 0.258824 0.000000
0.796078 0.270588 0.000000
0.819608 0.270588 0.000000
0.847059 0.286275 0.000000
0.866667 0.286275 0.000000
0.894118 0.294118 0.000000
0.905882 0.298039 0.003922
0.941176 0.301961 0.007843
0.960784 0.305882 0.007843
0.984314 0.313725 0.000000
0.996078 0.321569 0.007843
1.000000 0.321569 0.011765
0.996078 0.329412 0.000000
1.000000 0.341176 0.000000
0.996078 0.396078 0.000000
0.074510 0.043137 0.000000
0.000000 0.086275 0.003922
0.000000 0.078431 0.003922
0.000000 0.082353 0.000000
0.003922 0.078431 0.003922
0.000000 0.086275 0.000000
0.011765 0.086275 0.007843
0.015686 0.086275 0.000000
0.031373 0.082353 0.003922
0.039216 0.086275 0.000000
0.054902 0.086275 0.000000
0.066667 0.078431 0.000000
0.074510 0.082353 0.000000
0.090196 0.082353 0.000000
0.101961 0.082353 0.000000
0.105882 0.078431 0.000000
0.117647 0.074510 0.000000
0.133333 0.070588 0.003922
0.141176 0.074510 0.003922
0.149020 0.078431 0.000000
0.152941 0.082353 0.000000
0.164706 0.082353 0.000000
0.176471 0.090196 0.000000
0.188235 0.090196 0.003922
0.200000 0.098039 0.000000
0.211765 0.105882 0.000000
0.231373 0.109804 0.000000
0.247059 0.113725 0.003922
0.258824 0.121569 0.003922
0.278431 0.125490 0.000000
0.298039 0.129412 0.000000
0.309804 0.137255 0.000000
0.333333 0.137255 0.000000
0.356863 0.145098 0.000000
0.380392 0.152941 0.003922
0.400000 0.156863 0.000000
0.419608 0.164706 0.000000
0.443137 0.176471 0.000000
0.466667 0.184314 0.000000
0.482353 0.196078 0.000000
0.517647 0.196078 0.000000
0.541176 0.203922 0.003922
0.568627 0.211765 0.003922
0.596078 0.215686 0.000000
0.619608 0.223529 0.003922
0.650980 0.235294 0.007843
0.678431 0.243137 0.000000
0.701961 0.250980 0.003922
0.741176 0.258824 0.000000
0.760784 0.266667 0.000000
0.792157 0.270588 0.000000
0.811765 0.282353 0.000000
