assets/luts/Film_Emulation/imnz730_LUTs/ACES/LMT ACES v0.1.1.cube
# DaVinci Resolve Cube with 1D input shaper.
#
# Converted from lmt_aces_v0.1.1.ctl
# LMT to the look of ACES v0.1.1
# Generated on July 17,2013 11:00:16 AM

LUT_1D_SIZE 4095
LUT_1D_INPUT_RANGE 0.0000019180 15.7761012587

LUT_3D_SIZE 65

0.0927061729 0.0927061729 0.0927061729
0.1312538777 0.1312538777 0.1312538777
0.1608049213 0.1608049213 0.1608049213
0.1847741365 0.1847741365 0.1847741365
0.2049388772 0.2049388772 0.2049388772
0.2223430470 0.2223430470 0.2223430470
0.2376522787 0.2376522787 0.2376522787
0.2513171543 0.2513171543 0.2513171543
0.2636569008 0.2636569008 0.2636569008
0.2749059556 0.2749059556 0.2749059556
0.2852415669 0.2852415669 0.2852415669
0.2948010043 0.2948010043 0.2948010043
0.3036927457 0.3036927457 0.3036927457
0.3120040052 0.3120040052 0.3120040052
0.3198059519 0.3198059519 0.3198059519
0.3271574191 0.3271574191 0.3271574191
0.3341076001 0.3341076001 0.3341076001
0.3406980458 0.3406980458 0.3406980458
0.3469641698 0.3469641698 0.3469641698
0.3529364008 0.3529364008 0.3529364008
0.3586410765 0.3586410765 0.3586410765
0.3641011453 0.3641011453 0.3641011453
0.3693367243 0.3693367243 0.3693367243
0.3743655464 0.3743655464 0.3743655464
0.3792033233 0.3792033233 0.3792033233
0.3838640407 0.3838640407 0.3838640407
0.3883602030 0.3883602030 0.3883602030
0.3927030347 0.3927030347 0.3927030347
0.3969026499 0.3969026499 0.3969026499
0.4009681936 0.4009681936 0.4009681936
0.4049079621 0.4049079621 0.4049079621
0.4087295045 0.4087295045 0.4087295045
0.4124397103 0.4124397103 0.4124397103
0.4160448835 0.4160448835 0.4160448835
0.4195508075 0.4195508075 0.4195508075
0.4229628008 0.4229628008 0.4229628008
0.4262857656 0.4262857656 0.4262857656
0.4295242299 0.4295242299 0.4295242299
0.4326823851 0.4326823851 0.4326823851
0.4357641179 0.4357641179 0.4357641179
0.4387730397 0.4387730397 0.4387730397
0.4417125119 0.4417125119 0.4417125119
0.4445856682 0.4445856682 0.4445856682
0.4473954350 0.4473954350 0.4473954350
0.4501445491 0.4501445491 0.4501445491
0.4528355737 0.4528355737 0.4528355737
0.4554709131 0.4554709131 0.4554709131
0.4580528252 0.4580528252 0.4580528252
0.4605834334 0.4605834334 0.4605834334
0.4630647367 0.4630647367 0.4630647367
0.4654986199 0.4654986199 0.4654986199
0.4678868615 0.4678868615 0.4678868615
0.4702311418 0.4702311418 0.4702311418
0.4725330500 0.4725330500 0.4725330500
0.4747940907 0.4747940907 0.4747940907
0.4770156898 0.4770156898 0.4770156898
0.4791991996 0.4791991996 0.4791991996
0.4813459044 0.4813459044 0.4813459044
0.4834570243 0.4834570243 0.4834570243
0.4855337198 0.4855337198 0.4855337198
0.4875770957 0.4875770957 0.4875770957
0.4895882043 0.4895882043 0.4895882043
0.4915680488 0.4915680488 0.4915680488
0.4935175864 0.4935175864 0.4935175864
0.4954377310 0.4954377310 0.4954377310
0.4973293557 0.4973293557 0.4973293557
0.4991932955 0.4991932955 0.4991932955
0.5010303489 0.5010303489 0.5010303489
0.5028412806 0.5028412806 0.5028412806
0.5046268231 0.5046268231 0.5046268231
0.5063876784 0.5063876784 0.5063876784
0.5081245200 0.5081245200 0.5081245200
0.5098379939 0.5098379939 0.5098379939
0.5115287207 0.5115287207 0.5115287207
0.5131972963 0.5131972963 0.5131972963
0.5148442937 0.5148442937 0.5148442937
0.5164702640 0.5164702640 0.5164702640
0.5180757372 0.5180757372 0.5180757372
0.5196612236 0.5196612236 0.5196612236
0.5212272149 0.5212272149 0.5212272149
0.5227741846 0.5227741846 0.5227741846
0.5243025893 0.5243025893 0.5243025893
0.5258128693 0.5258128693 0.5258128693
0.5273054494 0.5273054494 0.5273054494
0.5287807396 0.5287807396 0.5287807396
0.5302391361 0.5302391361 0.5302391361
0.5316810213 0.5316810213 0.5316810213
0.5331067648 0.5331067648 0.5331067648
0.5345167242 0.5345167242 0.5345167242
0.5359112450 0.5359112450 0.5359112450
0.5372906618 0.5372906618 0.5372906618
0.5386552981 0.5386552981 0.5386552981
0.5400054674 0.5400054674 0.5400054674
0.5413414731 0.5413414731 0.5413414731
0.5426636095 0.5426636095 0.5426636095
0.5439721614 0.5439721614 0.5439721614
0.5452674053 0.5452674053 0.5452674053
0.5465496089 0.5465496089 0.5465496089
0.5478190324 0.5478190324 0.5478190324
0.5490759280 0.5490759280 0.5490759280
0.5503205405 0.5503205405 0.5503205405
0.5515531077 0.5515531077 0.5515531077
0.5527738604 0.5527738604 0.5527738604
0.5539830232 0.5539830232 0.5539830232
0.5551808138 0.5551808138 0.5551808138
0.5563674443 0.5563674443 0.5563674443
0.5575431207 0.5575431207 0.5575431207
0.5587080435 0.5587080435 0.5587080435
0.5598624074 0.5598624074 0.5598624074
0.5610064023 0.5610064023 0.5610064023
0.5621402127 0.5621402127 0.5621402127
0.5632640185 0.5632640185 0.5632640185
0.5643779945 0.5643779945 0.5643779945
0.5654823113 0.5654823113 0.5654823113
0.5665771349 0.5665771349 0.5665771349
0.5676626273 0.5676626273 0.5676626273
0.5687389460 0.5687389460 0.5687389460
0.5698062448 0.5698062448 0.5698062448
0.5708646737 0.5708646737 0.5708646737
0.5719143789 0.5719143789 0.5719143789
0.5729555031 0.5729555031 0.5729555031
0.5739881852 0.5739881852 0.5739881852
0.5750125613 0.5750125613 0.5750125613
0.5760287638 0.5760287638 0.5760287638
0.5770369221 0.5770369221 0.5770369221
0.5780371626 0.5780371626 0.5780371626
0.5790296087 0.5790296087 0.5790296087
0.5800143809 0.5800143809 0.5800143809
0.5809915969 0.5809915969 0.5809915969
0.5819613720 0.5819613720 0.5819613720
0.5829238184 0.5829238184 0.5829238184
0.5838790463 0.5838790463 0.5838790463
0.5848271629 0.5848271629 0.5848271629
0.5857682735 0.5857682735 0.5857682735
0.5867024808 0.5867024808 0.5867024808
0.5876298853 0.5876298853 0.5876298853
0.5885505855 0.5885505855 0.5885505855
0.5894646775 0.5894646775 0.5894646775
0.5903722555 0.5903722555 0.5903722555
0.5912734117 0.5912734117 0.5912734117
0.5921682364 0.5921682364 0.5921682364
0.5930568179 0.5930568179 0.5930568179
0.5939392427 0.5939392427 0.5939392427
0.5948155956 0.5948155956 0.5948155956
0.5956859595 0.5956859595 0.5956859595
0.5965504157 0.5965504157 0.5965504157
0.5974090440 0.5974090440 0.5974090440
0.5982619222 0.5982619222 0.5982619222
0.5991091271 0.5991091271 0.5991091271
0.5999507334 0.5999507334 0.5999507334
0.6007868148 0.6007868148 0.6007868148
0.6016174433 0.6016174433 0.6016174433
0.6024426896 0.6024426896 0.6024426896
0.6032626230 0.6032626230 0.6032626230
0.6040773114 0.6040773114 0.6040773114
0.6048868215 0.6048868215 0.6048868215
0.6056912188 0.6056912188 0.6056912188
0.6064905673 0.6064905673 0.6064905673
0.6072849302 0.6072849302 0.6072849302
0.6080743692 0.6080743692 0.6080743692
0.6088589449 0.6088589449 0.6088589449
0.6096387170 0.6096387170 0.6096387170
0.6104137438 0.6104137438 0.6104137438
0.6111840829 0.6111840829 0.6111840829
0.6119497905 0.6119497905 0.6119497905
0.6127109220 0.6127109220 0.6127109220
0.6134675318 0.6134675318 0.6134675318
0.6142196733 0.6142196733 0.6142196733
0.6149673989 0.6149673989 0.6149673989
0.6157107603 0.6157107603 0.6157107603
0.6164498080 0.6164498080 0.6164498080
0.6171845919 0.6171845919 0.6171845919
0.6179151608 0.6179151608 0.6179151608
0.6186415628 0.6186415628 0.6186415628
0.6193638453 0.6193638453 0.6193638453
0.6200820546 0.6200820546 0.6200820546
0.6207962364 0.6207962364 0.6207962364
0.6215064357 0.6215064357 0.6215064357
0.6222126967 0.6222126967 0.6222126967
0.6229150627 0.6229150627 0.6229150627
0.6236135765 0.6236135765 0.6236135765
0.6243082801 0.6243082801 0.6243082801
0.6249992149 0.6249992149 0.6249992149
0.6256864215 0.6256864215 0.6256864215
0.6263699399 0.6263699399 0.6263699399
0.6270498096 0.6270498096 0.6270498096
0.6277260693 0.6277260693 0.6277260693
0.6283987570 0.6283987570 0.6283987570
0.6290679105 0.6290679105 0.6290679105
0.6297335665 0.6297335665 0.6297335665
0.6303957614 0.6303957614 0.6303957614
0.6310545311 0.6310545311 0.6310545311
0.6317099109 0.6317099109 0.6317099109
0.6323619353 0.6323619353 0.6323619353
0.6330106387 0.6330106387 0.6330106387
0.6336560546 0.6336560546 0.6336560546
0.6342982163 0.6342982163 0.6342982163
0.6349371563 0.6349371563 0.6349371563
0.6355729069 0.6355729069 0.6355729069
0.6362054997 0.6362054997 0.6362054997
0.6368349659 0.6368349659 0.6368349659
0.6374613363 0.6374613363 0.6374613363
0.6380846412 0.6380846412 0.6380846412
0.6387049104 0.6387049104 0.6387049104
0.6393221735 0.6393221735 0.6393221735
0.6399364593 0.6399364593 0.6399364593
0.6405477964 0.6405477964 0.6405477964
0.6411562131 0.6411562131 0.6411562131
0.6417617371 0.6417617371 0.6417617371
0.6423643957 0.6423643957 0.6423643957
0.6429642161 0.6429642161 0.6429642161
0.6435612247 0.6435612247 0.6435612247
0.6441554478 0.6441554478 0.6441554478
0.6447469113 0.6447469113 0.6447469113
0.6453356407 0.6453356407 0.6453356407
0.6459216612 0.6459216612 0.6459216612
0.6465049975 0.6465049975 0.6465049975
0.6470856742 0.6470856742 0.6470856742
0.6476637154 0.6476637154 0.6476637154
0.6482391449 0.6482391449 0.6482391449
0.6488119861 0.6488119861 0.6488119861
0.6493822624 0.6493822624 0.6493822624
0.6499499966 0.6499499966 0.6499499966
0.6505152111 0.6505152111 0.6505152111
0.6510779283 0.6510779283 0.6510779283
0.6516381702 0.6516381702 0.6516381702
0.6521959584 0.6521959584 0.6521959584
0.6527513143 0.6527513143 0.6527513143
0.6533042591 0.6533042591 0.6533042591
0.6538548136 0.6538548136 0.6538548136
0.6544029984 0.6544029984 0.6544029984
0.6549488337 0.6549488337 0.6549488337
0.6554923397 0.6554923397 0.6554923397
0.6560335361 0.6560335361 0.6560335361
0.6565724425 0.6565724425 0.6565724425
0.6571090782 0.6571090782 0.6571090782
0.6576434622 0.6576434622 0.6576434622
0.6581756134 0.6581756134 0.6581756134
0.6587055503 0.6587055503 0.6587055503
0.6592332913 0.6592332913 0.6592332913
0.6597588545 0.6597588545 0.6597588545
0.6602822578 0.6602822578 0.6602822578
0.6608035189 0.6608035189 0.6608035189
0.6613226553 0.6613226553 0.6613226553
0.6618396841 0.6618396841 0.6618396841
0.6623546225 0.6623546225 0.6623546225
0.6628674873 0.6628674873 0.6628674873
0.6633782951 0.6633782951 0.6633782951
0.6638870623 0.6638870623 0.6638870623
0.6643938052 0.6643938052 0.6643938052
0.6648985399 0.6648985399 0.6648985399
0.6654012821 0.6654012821 0.6654012821
0.6659020477 0.6659020477 0.6659020477
0.6664008519 0.6664008519 0.6664008519
0.6668977102 0.6668977102 0.6668977102
0.6673926376 0.6673926376 0.6673926376
0.6678856492 0.6678856492 0.6678856492
0.6683767597 0.6683767597 0.6683767597
0.6688659836 0.6688659836 0.6688659836
0.6693533355 0.6693533355 0.6693533355
0.6698388296 0.6698388296 0.6698388296
0.6703224801 0.6703224801 0.6703224801
0.6708043007 0.6708043007 0.6708043007
0.6712843055 0.6712843055 0.6712843055
0.6717625079 0.6717625079 0.6717625079
0.6722389216 0.6722389216 0.6722389216
0.6727135597 0.6727135597 0.6727135597
0.6731864355 0.6731864355 0.6731864355
0.6736575621 0.6736575621 0.6736575621
0.6741269523 0.6741269523 0.6741269523
0.6745946189 0.6745946189 0.6745946189
0.6750605745 0.6750605745 0.6750605745
0.6755248315 0.6755248315 0.6755248315
0.6759874024 0.6759874024 0.6759874024
0.6764482992 0.6764482992 0.6764482992
0.6769075342 0.6769075342 0.6769075342
0.6773651192 0.6773651192 0.6773651192
0.6778210660 0.6778210660 0.6778210660
0.6782753863 0.6782753863 0.6782753863
0.6787280917 0.6787280917 0.6787280917
0.6791791937 0.6791791937 0.6791791937
0.6796287035 0.6796287035 0.6796287035
0.6800766324 0.6800766324 0.6800766324
0.6805229914 0.6805229914 0.6805229914
0.6809677914 0.6809677914 0.6809677914
0.6814110435 0.6814110435 0.6814110435
0.6818527582 0.6818527582 0.6818527582
0.6822929462 0.6822929462 0.6822929462
0.6827316180 0.6827316180 0.6827316180
0.6831687841 0.6831687841 0.6831687841
0.6836044548 0.6836044548 0.6836044548
0.6840386401 0.6840386401 0.6840386401
0.6844713503 0.6844713503 0.6844713503
0.6849025953 0.6849025953 0.6849025953
0.6853323850 0.6853323850 0.6853323850
0.6857607292 0.6857607292 0.6857607292
0.6861876376 0.6861876376 0.6861876376
0.6866131198 0.6866131198 0.6866131198
0.6870371853 0.6870371853 0.6870371853
0.6874598434 0.6874598434 0.6874598434
0.6878811035 0.6878811035 0.6878811035
0.6883009748 0.6883009748 0.6883009748
0.6887194665 0.6887194665 0.6887194665
0.6891365876 0.6891365876 0.6891365876
0.6895523469 0.6895523469 0.6895523469
0.6899667535 0.6899667535 0.6899667535
0.6903798160 0.6903798160 0.6903798160
0.6907915431 0.6907915431 0.6907915431
0.6912019435 0.6912019435 0.6912019435
0.6916110257 0.6916110257 0.6916110257
0.6920187981 0.6920187981 0.6920187981
0.6924252691 0.6924252691 0.6924252691
0.6928304469 0.6928304469 0.6928304469
0.6932343398 0.6932343398 0.6932343398
0.6936369559 0.6936369559 0.6936369559
0.6940383032 0.6940383032 0.6940383032
0.6944383897 0.6944383897 0.6944383897
0.6948372234 0.6948372234 0.6948372234
0.6952348119 0.6952348119 0.6952348119
0.6956311631 0.6956311631 0.6956311631
0.6960262847 0.6960262847 0.6960262847
0.6964201842 0.6964201842 0.6964201842
0.6968128693 0.6968128693 0.6968128693
0.6972043472 0.6972043472 0.6972043472
0.6975946256 0.6975946256 0.6975946256
0.6979837116 0.6979837116 0.6979837116
0.6983716126 0.6983716126 0.6983716126
0.6987583357 0.6987583357 0.6987583357
0.6991438881 0.6991438881 0.6991438881
0.6995282768 0.6995282768 0.6995282768
0.6999115089 0.6999115089 0.6999115089
0.7002935913 0.7002935913 0.7002935913
0.7006745308 0.7006745308 0.7006745308
0.7010543343 0.7010543343 0.7010543343
0.7014330086 0.7014330086 0.7014330086
0.7018105603 0.7018105603 0.7018105603
0.7021869961 0.7021869961 0.7021869961
0.7025623225 0.7025623225 0.7025623225
0.7029365460 0.7029365460 0.7029365460
0.7033096732 0.7033096732 0.7033096732
0.7036817104 0.7036817104 0.7036817104
0.7040526641 0.7040526641 0.7040526641
0.7044225403 0.7044225403 0.7044225403
0.7047913455 0.7047913455 0.7047913455
0.7051590858 0.7051590858 0.7051590858
0.7055257674 0.7055257674 0.7055257674
0.7058913962 0.7058913962 0.7058913962
0.7062559784 0.7062559784 0.7062559784
0.7066195199 0.7066195199 0.7066195199
0.7069820266 0.7069820266 0.7069820266
0.7073435045 0.7073435045 0.7073435045
0.7077039593 0.7077039593 0.7077039593
0.7080633968 0.7080633968 0.7080633968
0.7084218227 0.7084218227 0.7084218227
0.7087792427 0.7087792427 0.7087792427
0.7091356625 0.7091356625 0.7091356625
0.7094910876 0.7094910876 0.7094910876
0.7098455236 0.7098455236 0.7098455236
0.7101989759 0.7101989759 0.7101989759
0.7105514501 0.7105514501 0.7105514501
0.7109029514 0.7109029514 0.7109029514
0.7112534853 0.7112534853 0.7112534853
0.7116030570 0.7116030570 0.7116030570
0.7119516719 0.7119516719 0.7119516719
0.7122993351 0.7122993351 0.7122993351
0.7126460519 0.7126460519 0.7126460519
0.7129918273 0.7129918273 0.7129918273
0.7133366666 0.7133366666 0.7133366666
0.7136805746 0.7136805746 0.7136805746
0.7140235565 0.7140235565 0.7140235565
0.7143656172 0.7143656172 0.7143656172
0.7147067617 0.7147067617 0.7147067617
0.7150469948 0.7150469948 0.7150469948
0.7153863214 0.7153863214 0.7153863214
0.7157247463 0.7157247463 0.7157247463
0.7160622744 0.7160622744 0.7160622744
0.7163989103 0.7163989103 0.7163989103
0.7167346587 0.7167346587 0.7167346587
0.7170695244 0.7170695244 0.7170695244
0.7174035119 0.7174035119 0.7174035119
0.7177366258 0.7177366258 0.7177366258
0.7180688707 0.7180688707 0.7180688707
0.7184002512 0.7184002512 0.7184002512
0.7187307717 0.7187307717 0.7187307717
0.7190604366 0.7190604366 0.7190604366
0.7193892504 0.7193892504 0.7193892504
0.7197172174 0.7197172174 0.7197172174
0.7200443421 0.7200443421 0.7200443421
0.7203706287 0.7203706287 0.7203706287
0.7206960815 0.7206960815 0.7206960815
0.7210207047 0.7210207047 0.7210207047
0.7213445026 0.7213445026 0.7213445026
0.7216674794 0.7216674794 0.7216674794
0.7219896392 0.7219896392 0.7219896392
0.7223109862 0.7223109862 0.7223109862
0.7226315244 0.7226315244 0.7226315244
0.7229512578 0.7229512578 0.7229512578
0.7232701906 0.7232701906 0.7232701906
0.7235883268 0.7235883268 0.7235883268
0.7239056702 0.7239056702 0.7239056702
0.7242222248 0.7242222248 0.7242222248
0.7245379946 0.7245379946 0.7245379946
0.7248529834 0.7248529834 0.7248529834
0.7251671951 0.7251671951 0.7251671951
0.7254806335 0.7254806335 0.7254806335
0.7257933024 0.7257933024 0.7257933024
0.7261052056 0.7261052056 0.7261052056
0.7264163468 0.7264163468 0.7264163468
0.7267267297 0.7267267297 0.7267267297
0.7270363580 0.7270363580 0.7270363580
0.7273452355 0.7273452355 0.7273452355
0.7276533656 0.7276533656 0.7276533656
0.7279607520 0.7279607520 0.7279607520
0.7282673983 0.7282673983 0.7282673983
0.7285733081 0.7285733081 0.7285733081
0.7288784848 0.7288784848 0.7288784848
0.7291829321 0.7291829321 0.7291829321
0.7294866533 0.7294866533 0.7294866533
0.7297896519 0.7297896519 0.7297896519
0.7300919314 0.7300919314 0.7300919314
0.7303934951 0.7303934951 0.7303934951
0.7306943465 0.7306943465 0.7306943465
0.7309944889 0.7309944889 0.7309944889
0.7312939256 0.7312939256 0.7312939256
0.7315926599 0.7315926599 0.7315926599
0.7318906951 0.7318906951 0.7318906951
0.7321880346 0.7321880346 0.7321880346
0.7324846815 0.7324846815 0.7324846815
0.7327806390 0.7327806390 0.7327806390
0.7330759104 0.7330759104 0.7330759104
0.7333704988 0.7333704988 0.7333704988
0.7336644073 0.7336644073 0.7336644073
0.7339576392 0.7339576392 0.7339576392
0.7342501975 0.7342501975 0.7342501975
0.7345420853 0.7345420853 0.7345420853
0.7348333057 0.7348333057 0.7348333057
0.7351238616 0.7351238616 0.7351238616
0.7354137562 0.7354137562 0.7354137562
0.7357029925 0.7357029925 0.7357029925
0.7359915733 0.7359915733 0.7359915733
0.7362795018 0.7362795018 0.7362795018
0.7365667808 0.7365667808 0.7365667808
0.7368534132 0.7368534132 0.7368534132
0.7371394020 0.7371394020 0.7371394020
0.7374247501 0.7374247501 0.7374247501
0.7377094602 0.7377094602 0.7377094602
0.7379935353 0.7379935353 0.7379935353
0.7382769782 0.7382769782 0.7382769782
0.7385597916 0.7385597916 0.7385597916
0.7388419785 0.7388419785 0.7388419785
0.7391235415 0.7391235415 0.7391235415
0.7394044834 0.7394044834 0.7394044834
0.7396848069 0.7396848069 0.7396848069
0.7399645147 0.7399645147 0.7399645147
0.7402436097 0.7402436097 0.7402436097
0.7405220943 0.7405220943 0.7405220943
0.7407999713 0.7407999713 0.7407999713
0.7410772434 0.7410772434 0.7410772434
0.7413539131 0.7413539131 0.7413539131
0.7416299831 0.7416299831 0.7416299831
0.7419054560 0.7419054560 0.7419054560
0.7421803344 0.7421803344 0.7421803344
0.7424546207 0.7424546207 0.7424546207
0.7427283176 0.7427283176 0.7427283176
0.7430014276 0.7430014276 0.7430014276
0.7432739531 0.7432739531 0.7432739531
0.7435458968 0.7435458968 0.7435458968
0.7438172610 0.7438172610 0.7438172610
0.7440880483 0.7440880483 0.7440880483
0.7443582610 0.7443582610 0.7443582610
0.7446279017 0.7446279017 0.7446279017
0.7448969727 0.7448969727 0.7448969727
0.7451654764 0.7451654764 0.7451654764
0.7454334152 0.7454334152 0.7454334152
0.7457007916 0.7457007916 0.7457007916
0.7459676077 0.7459676077 0.7459676077
0.7462338661 0.7462338661 0.7462338661
0.7464995690 0.7464995690 0.7464995690
0.7467647187 0.7467647187 0.7467647187
0.7470293176 0.7470293176 0.7470293176
0.7472933678 0.7472933678 0.7472933678
0.7475568718 0.7475568718 0.7475568718
0.7478198317 0.7478198317 0.7478198317
0.7480822498 0.7480822498 0.7480822498
0.7483441282 0.7483441282 0.7483441282
0.7486054693 0.7486054693 0.7486054693
0.7488662753 0.7488662753 0.7488662753
0.7491265482 0.7491265482 0.7491265482
0.7493862903 0.7493862903 0.7493862903
0.7496455038 0.7496455038 0.7496455038
0.7499041908 0.7499041908 0.7499041908
0.7501623534 0.7501623534 0.7501623534
0.7504199937 0.7504199937 0.7504199937
0.7506771140 0.7506771140 0.7506771140
0.7509337161 0.7509337161 0.7509337161
0.7511898023 0.7511898023 0.7511898023
0.7514453747 0.7514453747 0.7514453747
0.7517004351 0.7517004351 0.7517004351
0.7519549858 0.7519549858 0.7519549858
0.7522090288 0.7522090288 0.7522090288
0.7524625660 0.7524625660 0.7524625660
0.7527155995 0.7527155995 0.7527155995
0.7529681313 0.7529681313 0.7529681313
0.7532201633 0.7532201633 0.7532201633
0.7534716976 0.7534716976 0.7534716976
0.7537227361 0.7537227361 0.7537227361
0.7539732807 0.7539732807 0.7539732807
0.7542233334 0.7542233334 0.7542233334
0.7544728961 0.7544728961 0.7544728961
0.7547219708 0.7547219708 0.7547219708
0.7549705593 0.7549705593 0.7549705593
0.7552186635 0.7552186635 0.7552186635
0.7554662854 0.7554662854 0.7554662854
0.7557134267 0.7557134267 0.7557134267
0.7559600894 0.7559600894 0.7559600894
0.7562062753 0.7562062753 0.7562062753
0.7564519862 0.7564519862 0.7564519862
0.7566972240 0.7566972240 0.7566972240
0.7569419905 0.7569419905 0.7569419905
0.7571862874 0.7571862874 0.7571862874
0.7574301167 0.7574301167 0.7574301167
0.7576734800 0.7576734800 0.7576734800
0.7579163792 0.7579163792 0.7579163792
0.7581588161 0.7581588161 0.7581588161
0.7584007923 0.7584007923 0.7584007923
0.7586423096 0.7586423096 0.7586423096
0.7588833698 0.7588833698 0.7588833698
0.7591239746 0.7591239746 0.7591239746
0.7593641257 0.7593641257 0.7593641257
0.7596038248 0.7596038248 0.7596038248
0.7598430737 0.7598430737 0.7598430737
0.7600818739 0.7600818739 0.7600818739
0.7603202272 0.7603202272 0.7603202272
0.7605581353 0.7605581353 0.7605581353
0.7607955998 0.7607955998 0.7607955998
0.7610326224 0.7610326224 0.7610326224
0.7612692046 0.7612692046 0.7612692046
0.7615053482 0.7615053482 0.7615053482
0.7617410548 0.7617410548 0.7617410548
0.7619763259 0.7619763259 0.7619763259
0.7622111633 0.7622111633 0.7622111633
0.7624455684 0.7624455684 0.7624455684
0.7626795429 0.7626795429 0.7626795429
0.7629130883 0.7629130883 0.7629130883
0.7631462062 0.7631462062 0.7631462062
0.7633788983 0.7633788983 0.7633788983
0.7636111659 0.7636111659 0.7636111659
0.7638430108 0.7638430108 0.7638430108
0.7640744343 0.7640744343 0.7640744343
0.7643054381 0.7643054381 0.7643054381
0.7645360237 0.7645360237 0.7645360237
0.7647661925 0.7647661925 0.7647661925
0.7649959461 0.7649959461 0.7649959461
0.7652252860 0.7652252860 0.7652252860
0.7654542137 0.7654542137 0.7654542137
0.7656827306 0.7656827306 0.7656827306
0.7659108382 0.7659108382 0.7659108382
0.7661385380 0.7661385380 0.7661385380
0.7663658314 0.7663658314 0.7663658314
0.7665927199 0.7665927199 0.7665927199
0.7668192049 0.7668192049 0.7668192049
0.7670452879 0.7670452879 0.7670452879
0.7672709702 0.7672709702 0.7672709702
0.7674962533 0.7674962533 0.7674962533
0.7677211387 0.7677211387 0.7677211387
0.7679456276 0.7679456276 0.7679456276
0.7681697216 0.7681697216 0.7681697216
0.7683934219 0.7683934219 0.7683934219
0.7686167300 0.7686167300 0.7686167300
0.7688396473 0.7688396473 0.7688396473
0.7690621751 0.7690621751 0.7690621751
0.7692843147 0.7692843147 0.7692843147
0.7695060675 0.7695060675 0.7695060675
0.7697274349 0.7697274349 0.7697274349
0.7699484183 0.7699484183 0.7699484183
0.7701690188 0.7701690188 0.7701690188
0.7703892379 0.7703892379 0.7703892379
0.7706090769 0.7706090769 0.7706090769
0.7708285370 0.7708285370 0.7708285370
0.7710476197 0.7710476197 0.7710476197
0.7712663261 0.7712663261 0.7712663261
0.7714846576 0.7714846576 0.7714846576
0.7717026154 0.7717026154 0.7717026154
0.7719202009 0.7719202009 0.7719202009
0.7721374153 0.7721374153 0.7721374153
0.7723542598 0.7723542598 0.7723542598
0.7725707358 0.7725707358 0.7725707358
0.7727868444 0.7727868444 0.7727868444
0.7730025870 0.7730025870 0.7730025870
0.7732179647 0.7732179647 0.7732179647
0.7734329788 0.7734329788 0.7734329788
0.7736476305 0.7736476305 0.7736476305
0.7738619211 0.7738619211 0.7738619211
0.7740758517 0.7740758517 0.7740758517
0.7742894236 0.7742894236 0.7742894236
0.7745026379 0.7745026379 0.7745026379
0.7747154958 0.7747154958 0.7747154958
0.7749279986 0.7749279986 0.7749279986
0.7751401474 0.7751401474 0.7751401474
0.7753519435 0.7753519435 0.7753519435
0.7755633879 0.7755633879 0.7755633879
0.7757744818 0.7757744818 0.7757744818
0.7759852264 0.7759852264 0.7759852264
0.7761956229 0.7761956229 0.7761956229
0.7764056724 0.7764056724 0.7764056724
0.7766153760 0.7766153760 0.7766153760
0.7768247349 0.7768247349 0.7768247349
0.7770337502 0.7770337502 0.7770337502
0.7772424230 0.7772424230 0.7772424230
