assets/luts/Filmic_Resolve/Filmic Resolve - Filmic Shaper to Chromatic Attenuated.cube
# Filmic Shaper to Chromatic Attenuated Version		
LUT_3D_SIZE 5		
1.7578100000000E-04	1.7578100000000E-04	1.7578100000000E-04
1.7578100000000E-04	1.7578100000000E-04	2.5000000000000E-01
1.7578100000000E-04	1.7578100000000E-04	5.0000000000000E-01
4.6492700000000E-01	4.6492700000000E-01	7.5000000000000E-01
1.0000000000000E+00	1.0000000000000E+00	1.0000000000000E+00
1.7578100000000E-04	2.5000000000000E-01	1.7578100000000E-04
1.7578100000000E-04	2.5000000000000E-01	2.5000000000000E-01
1.7578100000000E-04	2.5000000000000E-01	5.0000000000000E-01
4.6492700000000E-01	4.6627500000000E-01	7.5000000000000E-01
1.0000000000000E+00	1.0000000000000E+00	1.0000000000000E+00
1.7578100000000E-04	5.0000000000000E-01	1.7578100000000E-04
1.7578100000000E-04	5.0000000000000E-01	2.5000000000000E-01
1.7578100000000E-04	5.0000000000000E-01	5.0000000000000E-01
4.6492700000000E-01	5.2481400000000E-01	7.5000000000000E-01
1.0000000000000E+00	1.0000000000000E+00	1.0000000000000E+00
4.6492700000000E-01	7.5000000000000E-01	4.6492700000000E-01
4.6492700000000E-01	7.5000000000000E-01	4.6627500000000E-01
4.6492700000000E-01	7.5000000000000E-01	5.2481400000000E-01
4.6492700000000E-01	7.5000000000000E-01	7.5000000000000E-01
1.0000000000000E+00	1.0000000000000E+00	1.0000000000000E+00
1.0000000000000E+00	1.0000000000000E+00	1.0000000000000E+00
1.0000000000000E+00	1.0000000000000E+00	1.0000000000000E+00
1.0000000000000E+00	1.0000000000000E+00	1.0000000000000E+00
1.0000000000000E+00	1.0000000000000E+00	1.0000000000000E+00
1.0000000000000E+00	1.0000000000000E+00	1.0000000000000E+00
2.5000000000000E-01	1.7578100000000E-04	1.7578100000000E-04
2.5000000000000E-01	1.7578100000000E-04	2.5000000000000E-01
2.5000000000000E-01	1.7578100000000E-04	5.0000000000000E-01
4.6627500000000E-01	4.6492700000000E-01	7.5000000000000E-01
1.0000000000000E+00	1.0000000000000E+00	1.0000000000000E+00
2.5000000000000E-01	2.5000000000000E-01	1.7578100000000E-04
2.5000000000000E-01	2.5000000000000E-01	2.5000000000000E-01
2.5000000000000E-01	2.5000000000000E-01	5.0000000000000E-01
4.6627500000000E-01	4.6627500000000E-01	7.5000000000000E-01
1.0000000000000E+00	1.0000000000000E+00	1.0000000000000E+00
2.5000000000000E-01	5.0000000000000E-01	1.7578100000000E-04
2.5000000000000E-01	5.0000000000000E-01	2.5000000000000E-01
2.5000000000000E-01	5.0000000000000E-01	5.0000000000000E-01
4.6627500000000E-01	5.2481400000000E-01	7.5000000000000E-01
1.0000000000000E+00	1.0000000000000E+00	1.0000000000000E+00
4.6627500000000E-01	7.5000000000000E-01	4.6492700000000E-01
4.6627500000000E-01	7.5000000000000E-01	4.6627500000000E-01
4.6627500000000E-01	7.5000000000000E-01	5.2481400000000E-01
4.6627500000000E-01	7.5000000000000E-01	7.5000000000000E-01
1.0000000000000E+00	1.0000000000000E+00	1.0000000000000E+00
1.0000000000000E+00	1.0000000000000E+00	1.0000000000000E+00
1.0000000000000E+00	1.0000000000000E+00	1.0000000000000E+00
1.0000000000000E+00	1.0000000000000E+00	1.0000000000000E+00
1.0000000000000E+00	1.0000000000000E+00	1.0000000000000E+00
1.0000000000000E+00	1.0000000000000E+00	1.0000000000000E+00
5.0000000000000E-01	1.7578100000000E-04	1.7578100000000E-04
5.0000000000000E-01	1.7578100000000E-04	2.5000000000000E-01
5.0000000000000E-01	1.7578100000000E-04	5.0000000000000E-01
5.2481400000000E-01	4.6492700000000E-01	7.5000000000000E-01
1.0000000000000E+00	1.0000000000000E+00	1.0000000000000E+00
5.0000000000000E-01	2.5000000000000E-01	1.7578100000000E-04
5.0000000000000E-01	2.5000000000000E-01	2.5000000000000E-01
5.0000000000000E-01	2.5000000000000E-01	5.0000000000000E-01
5.2481400000000E-01	4.6627500000000E-01	7.5000000000000E-01
1.0000000000000E+00	1.0000000000000E+00	1.0000000000000E+00
5.0000000000000E-01	5.0000000000000E-01	1.7578100000000E-04
5.0000000000000E-01	5.0000000000000E-01	2.5000000000000E-01
5.0000000000000E-01	5.0000000000000E-01	5.0000000000000E-01
5.2481400000000E-01	5.2481400000000E-01	7.5000000000000E-01
1.0000000000000E+00	1.0000000000000E+00	1.0000000000000E+00
5.2481400000000E-01	7.5000000000000E-01	4.6492700000000E-01
5.2481400000000E-01	7.5000000000000E-01	4.6627500000000E-01
5.2481400000000E-01	7.5000000000000E-01	5.2481400000000E-01
5.2481400000000E-01	7.5000000000000E-01	7.5000000000000E-01
1.0000000000000E+00	1.0000000000000E+00	1.0000000000000E+00
1.0000000000000E+00	1.0000000000000E+00	1.0000000000000E+00
1.0000000000000E+00	1.0000000000000E+00	1.0000000000000E+00
1.0000000000000E+00	1.0000000000000E+00	1.0000000000000E+00
1.0000000000000E+00	1.0000000000000E+00	1.0000000000000E+00
1.0000000000000E+00	1.0000000000000E+00	1.0000000000000E+00
7.5000000000000E-01	4.6492700000000E-01	4.6492700000000E-01
7.5000000000000E-01	4.6492700000000E-01	4.6627500000000E-01
7.5000000000000E-01	4.6492700000000E-01	5.2481400000000E-01
7.5000000000000E-01	4.6492700000000E-01	7.5000000000000E-01
1.0000000000000E+00	1.0000000000000E+00	1.0000000000000E+00
7.5000000000000E-01	4.6627500000000E-01	4.6492700000000E-01
7.5000000000000E-01	4.6627500000000E-01	4.6627500000000E-01
7.5000000000000E-01	4.6627500000000E-01	5.2481400000000E-01
7.5000000000000E-01	4.6627500000000E-01	7.5000000000000E-01
1.0000000000000E+00	1.0000000000000E+00	1.0000000000000E+00
7.5000000000000E-01	5.2481400000000E-01	4.6492700000000E-01
7.5000000000000E-01	5.2481400000000E-01	4.6627500000000E-01
7.5000000000000E-01	5.2481400000000E-01	5.2481400000000E-01
7.5000000000000E-01	5.2481400000000E-01	7.5000000000000E-01
1.0000000000000E+00	1.0000000000000E+00	1.0000000000000E+00
7.5000000000000E-01	7.5000000000000E-01	4.6492700000000E-01
7.5000000000000E-01	7.5000000000000E-01	4.6627500000000E-01
7.5000000000000E-01	7.5000000000000E-01	5.2481400000000E-01
7.5000000000000E-01	7.5000000000000E-01	7.5000000000000E-01
1.0000000000000E+00	1.0000000000000E+00	1.0000000000000E+00
1.0000000000000E+00	1.0000000000000E+00	1.0000000000000E+00
1.0000000000000E+00	1.0000000000000E+00	1.0000000000000E+00
1.0000000000000E+00	1.0000000000000E+00	1.0000000000000E+00
1.0000000000000E+00	1.0000000000000E+00	1.0000000000000E+00
1.0000000000000E+00	1.0000000000000E+00	1.0000000000000E+00
1.0000000000000E+00	1.0000000000000E+00	1.0000000000000E+00
1.0000000000000E+00	1.0000000000000E+00	1.0000000000000E+00
1.0000000000000E+00	1.0000000000000E+00	1.0000000000000E+00
1.0000000000000E+00	1.0000000000000E+00	1.0000000000000E+00
1.0000000000000E+00	1.0000000000000E+00	1.0000000000000E+00
1.0000000000000E+00	1.0000000000000E+00	1.0000000000000E+00
1.0000000000000E+00	1.0000000000000E+00	1.0000000000000E+00
1.0000000000000E+00	1.0000000000000E+00	1.0000000000000E+00
1.0000000000000E+00	1.0000000000000E+00	1.0000000000000E+00
1.0000000000000E+00	1.0000000000000E+00	1.0000000000000E+00
1.0000000000000E+00	1.0000000000000E+00	1.0000000000000E+00
1.0000000000000E+00	1.0000000000000E+00	1.0000000000000E+00
1.0000000000000E+00	1.0000000000000E+00	1.0000000000000E+00
1.0000000000000E+00	1.0000000000000E+00	1.0000000000000E+00
1.0000000000000E+00	1.0000000000000E+00	1.0000000000000E+00
1.0000000000000E+00	1.0000000000000E+00	1.0000000000000E+00
1.0000000000000E+00	1.0000000000000E+00	1.0000000000000E+00
1.0000000000000E+00	1.0000000000000E+00	1.0000000000000E+00
1.0000000000000E+00	1.0000000000000E+00	1.0000000000000E+00
1.0000000000000E+00	1.0000000000000E+00	1.0000000000000E+00
1.0000000000000E+00	1.0000000000000E+00	1.0000000000000E+00
1.0000000000000E+00	1.0000000000000E+00	1.0000000000000E+00
1.0000000000000E+00	1.0000000000000E+00	1.0000000000000E+00
1.0000000000000E+00	1.0000000000000E+00	1.0000000000000E+00
1.0000000000000E+00	1.0000000000000E+00	1.0000000000000E+00
