assets/luts/Filmic_Resolve/Filmic Resolve - Filmic Shaper to Chromatic Attenuated.cube
# Filmic Shaper to Chromatic Attenuated Version		
LUT_3D_SIZE 65		
1.7578100000000E-04	1.7578100000000E-04	1.7578100000000E-04
1.7578100000000E-04	1.7578100000000E-04	1.5625000000000E-02
1.7578100000000E-04	1.7578100000000E-04	3.1250000000000E-02
1.7578100000000E-04	1.7578100000000E-04	4.6875000000000E-02
1.7578100000000E-04	1.7578100000000E-04	6.2500000000000E-02
1.7578100000000E-04	1.7578100000000E-04	7.8125000000000E-02
1.7578100000000E-04	1.7578100000000E-04	9.3750000000000E-02
1.7578100000000E-04	1.7578100000000E-04	1.0937500000000E-01
1.7578100000000E-04	1.7578100000000E-04	1.2500000000000E-01
1.7578100000000E-04	1.7578100000000E-04	1.4062500000000E-01
1.7578100000000E-04	1.7578100000000E-04	1.5625000000000E-01
1.7578100000000E-04	1.7578100000000E-04	1.7187500000000E-01
1.7578100000000E-04	1.7578100000000E-04	1.8750000000000E-01
1.7578100000000E-04	1.7578100000000E-04	2.0312500000000E-01
1.7578100000000E-04	1.7578100000000E-04	2.1875000000000E-01
1.7578100000000E-04	1.7578100000000E-04	2.3437500000000E-01
1.7578100000000E-04	1.7578100000000E-04	2.5000000000000E-01
1.7578100000000E-04	1.7578100000000E-04	2.6562500000000E-01
1.7578100000000E-04	1.7578100000000E-04	2.8125000000000E-01
1.7578100000000E-04	1.7578100000000E-04	2.9687500000000E-01
1.7578100000000E-04	1.7578100000000E-04	3.1250000000000E-01
1.7578100000000E-04	1.7578100000000E-04	3.2812500000000E-01
1.7578100000000E-04	1.7578100000000E-04	3.4375000000000E-01
1.7578100000000E-04	1.7578100000000E-04	3.5937500000000E-01
1.7578100000000E-04	1.7578100000000E-04	3.7500000000000E-01
1.7578100000000E-04	1.7578100000000E-04	3.9062500000000E-01
1.7578100000000E-04	1.7578100000000E-04	4.0625000000000E-01
1.7578100000000E-04	1.7578100000000E-04	4.2187500000000E-01
1.7578100000000E-04	1.7578100000000E-04	4.3750000000000E-01
1.7578100000000E-04	1.7578100000000E-04	4.5312500000000E-01
1.7578100000000E-04	1.7578100000000E-04	4.6875000000000E-01
1.7578100000000E-04	1.7578100000000E-04	4.8437500000000E-01
1.7578100000000E-04	1.7578100000000E-04	5.0000000000000E-01
1.7578100000000E-04	1.7578100000000E-04	5.1562500000000E-01
1.7578100000000E-04	1.7578100000000E-04	5.3125000000000E-01
1.7578100000000E-04	1.7578100000000E-04	5.4687500000000E-01
1.7578100000000E-04	1.7578100000000E-04	5.6250000000000E-01
1.7578100000000E-04	1.7578100000000E-04	5.7812500000000E-01
1.7578100000000E-04	1.7578100000000E-04	5.9375000000000E-01
1.7578100000000E-04	1.7578100000000E-04	6.0937500000000E-01
1.7578100000000E-04	1.7578100000000E-04	6.2500000000000E-01
2.2801800000000E-02	2.2801800000000E-02	6.4062500000000E-01
1.9122000000000E-01	1.9122000000000E-01	6.5625000000000E-01
2.5732900000000E-01	2.5732900000000E-01	6.7187500000000E-01
3.0745500000000E-01	3.0745500000000E-01	6.8750000000000E-01
3.5092900000000E-01	3.5092900000000E-01	7.0312500000000E-01
3.9083800000000E-01	3.9083800000000E-01	7.1875000000000E-01
4.2858600000000E-01	4.2858600000000E-01	7.3437500000000E-01
4.6492700000000E-01	4.6492700000000E-01	7.5000000000000E-01
5.0030700000000E-01	5.0030700000000E-01	7.6562500000000E-01
5.3501200000000E-01	5.3501200000000E-01	7.8125000000000E-01
5.6923200000000E-01	5.6923200000000E-01	7.9687500000000E-01
6.0309800000000E-01	6.0309800000000E-01	8.1250000000000E-01
6.3670300000000E-01	6.3670300000000E-01	8.2812500000000E-01
6.7011300000000E-01	6.7011300000000E-01	8.4375000000000E-01
7.0337800000000E-01	7.0337800000000E-01	8.5937500000000E-01
7.3653300000000E-01	7.3653300000000E-01	8.7500000000000E-01
7.6960600000000E-01	7.6960600000000E-01	8.9062500000000E-01
8.0261700000000E-01	8.0261700000000E-01	9.0625000000000E-01
8.3558000000000E-01	8.3558000000000E-01	9.2187500000000E-01
8.6850700000000E-01	8.6850700000000E-01	9.3750000000000E-01
9.0140700000000E-01	9.0140700000000E-01	9.5312500000000E-01
9.3428600000000E-01	9.3428600000000E-01	9.6875000000000E-01
9.6714900000000E-01	9.6714900000000E-01	9.8437500000000E-01
1.0000000000000E+00	1.0000000000000E+00	1.0000000000000E+00
1.7578100000000E-04	1.5625000000000E-02	1.7578100000000E-04
1.7578100000000E-04	1.5625000000000E-02	1.5625000000000E-02
1.7578100000000E-04	1.5625000000000E-02	3.1250000000000E-02
1.7578100000000E-04	1.5625000000000E-02	4.6875000000000E-02
1.7578100000000E-04	1.5625000000000E-02	6.2500000000000E-02
1.7578100000000E-04	1.5625000000000E-02	7.8125000000000E-02
1.7578100000000E-04	1.5625000000000E-02	9.3750000000000E-02
1.7578100000000E-04	1.5625000000000E-02	1.0937500000000E-01
1.7578100000000E-04	1.5625000000000E-02	1.2500000000000E-01
1.7578100000000E-04	1.5625000000000E-02	1.4062500000000E-01
1.7578100000000E-04	1.5625000000000E-02	1.5625000000000E-01
1.7578100000000E-04	1.5625000000000E-02	1.7187500000000E-01
1.7578100000000E-04	1.5625000000000E-02	1.8750000000000E-01
1.7578100000000E-04	1.5625000000000E-02	2.0312500000000E-01
1.7578100000000E-04	1.5625000000000E-02	2.1875000000000E-01
1.7578100000000E-04	1.5625000000000E-02	2.3437500000000E-01
1.7578100000000E-04	1.5625000000000E-02	2.5000000000000E-01
1.7578100000000E-04	1.5625000000000E-02	2.6562500000000E-01
1.7578100000000E-04	1.5625000000000E-02	2.8125000000000E-01
1.7578100000000E-04	1.5625000000000E-02	2.9687500000000E-01
1.7578100000000E-04	1.5625000000000E-02	3.1250000000000E-01
1.7578100000000E-04	1.5625000000000E-02	3.2812500000000E-01
1.7578100000000E-04	1.5625000000000E-02	3.4375000000000E-01
1.7578100000000E-04	1.5625000000000E-02	3.5937500000000E-01
1.7578100000000E-04	1.5625000000000E-02	3.7500000000000E-01
1.7578100000000E-04	1.5625000000000E-02	3.9062500000000E-01
1.7578100000000E-04	1.5625000000000E-02	4.0625000000000E-01
1.7578100000000E-04	1.5625000000000E-02	4.2187500000000E-01
1.7578100000000E-04	1.5625000000000E-02	4.3750000000000E-01
1.7578100000000E-04	1.5625000000000E-02	4.5312500000000E-01
1.7578100000000E-04	1.5625000000000E-02	4.6875000000000E-01
1.7578100000000E-04	1.5625000000000E-02	4.8437500000000E-01
1.7578100000000E-04	1.5625000000000E-02	5.0000000000000E-01
1.7578100000000E-04	1.5625000000000E-02	5.1562500000000E-01
1.7578100000000E-04	1.5625000000000E-02	5.3125000000000E-01
1.7578100000000E-04	1.5625000000000E-02	5.4687500000000E-01
1.7578100000000E-04	1.5625000000000E-02	5.6250000000000E-01
1.7578100000000E-04	1.5625000000000E-02	5.7812500000000E-01
1.7578100000000E-04	1.5625000000000E-02	5.9375000000000E-01
1.7578100000000E-04	1.5625000000000E-02	6.0937500000000E-01
1.7578100000000E-04	1.5625000000000E-02	6.2500000000000E-01
2.2801800000000E-02	3.3678200000000E-02	6.4062500000000E-01
1.9122000000000E-01	1.9186200000000E-01	6.5625000000000E-01
2.5732900000000E-01	2.5753500000000E-01	6.7187500000000E-01
3.0745500000000E-01	3.0754200000000E-01	6.8750000000000E-01
3.5092900000000E-01	3.5097000000000E-01	7.0312500000000E-01
3.9083800000000E-01	3.9085900000000E-01	7.1875000000000E-01
4.2858600000000E-01	4.2859700000000E-01	7.3437500000000E-01
4.6492700000000E-01	4.6493200000000E-01	7.5000000000000E-01
5.0030700000000E-01	5.0031000000000E-01	7.6562500000000E-01
5.3501200000000E-01	5.3501300000000E-01	7.8125000000000E-01
5.6923200000000E-01	5.6923300000000E-01	7.9687500000000E-01
6.0309800000000E-01	6.0309800000000E-01	8.1250000000000E-01
6.3670300000000E-01	6.3670300000000E-01	8.2812500000000E-01
6.7011300000000E-01	6.7011300000000E-01	8.4375000000000E-01
7.0337800000000E-01	7.0337800000000E-01	8.5937500000000E-01
7.3653300000000E-01	7.3653300000000E-01	8.7500000000000E-01
7.6960600000000E-01	7.6960600000000E-01	8.9062500000000E-01
8.0261700000000E-01	8.0261700000000E-01	9.0625000000000E-01
8.3558000000000E-01	8.3558000000000E-01	9.2187500000000E-01
8.6850700000000E-01	8.6850700000000E-01	9.3750000000000E-01
9.0140700000000E-01	9.0140700000000E-01	9.5312500000000E-01
9.3428600000000E-01	9.3428600000000E-01	9.6875000000000E-01
9.6714900000000E-01	9.6714900000000E-01	9.8437500000000E-01
1.0000000000000E+00	1.0000000000000E+00	1.0000000000000E+00
1.7578100000000E-04	3.1250000000000E-02	1.7578100000000E-04
1.7578100000000E-04	3.1250000000000E-02	1.5625000000000E-02
1.7578100000000E-04	3.1250000000000E-02	3.1250000000000E-02
1.7578100000000E-04	3.1250000000000E-02	4.6875000000000E-02
1.7578100000000E-04	3.1250000000000E-02	6.2500000000000E-02
1.7578100000000E-04	3.1250000000000E-02	7.8125000000000E-02
1.7578100000000E-04	3.1250000000000E-02	9.3750000000000E-02
1.7578100000000E-04	3.1250000000000E-02	1.0937500000000E-01
1.7578100000000E-04	3.1250000000000E-02	1.2500000000000E-01
1.7578100000000E-04	3.1250000000000E-02	1.4062500000000E-01
1.7578100000000E-04	3.1250000000000E-02	1.5625000000000E-01
1.7578100000000E-04	3.1250000000000E-02	1.7187500000000E-01
1.7578100000000E-04	3.1250000000000E-02	1.8750000000000E-01
1.7578100000000E-04	3.1250000000000E-02	2.0312500000000E-01
1.7578100000000E-04	3.1250000000000E-02	2.1875000000000E-01
1.7578100000000E-04	3.1250000000000E-02	2.3437500000000E-01
1.7578100000000E-04	3.1250000000000E-02	2.5000000000000E-01
1.7578100000000E-04	3.1250000000000E-02	2.6562500000000E-01
1.7578100000000E-04	3.1250000000000E-02	2.8125000000000E-01
1.7578100000000E-04	3.1250000000000E-02	2.9687500000000E-01
1.7578100000000E-04	3.1250000000000E-02	3.1250000000000E-01
1.7578100000000E-04	3.1250000000000E-02	3.2812500000000E-01
1.7578100000000E-04	3.1250000000000E-02	3.4375000000000E-01
1.7578100000000E-04	3.1250000000000E-02	3.5937500000000E-01
1.7578100000000E-04	3.1250000000000E-02	3.7500000000000E-01
1.7578100000000E-04	3.1250000000000E-02	3.9062500000000E-01
1.7578100000000E-04	3.1250000000000E-02	4.0625000000000E-01
1.7578100000000E-04	3.1250000000000E-02	4.2187500000000E-01
1.7578100000000E-04	3.1250000000000E-02	4.3750000000000E-01
1.7578100000000E-04	3.1250000000000E-02	4.5312500000000E-01
1.7578100000000E-04	3.1250000000000E-02	4.6875000000000E-01
1.7578100000000E-04	3.1250000000000E-02	4.8437500000000E-01
1.7578100000000E-04	3.1250000000000E-02	5.0000000000000E-01
1.7578100000000E-04	3.1250000000000E-02	5.1562500000000E-01
1.7578100000000E-04	3.1250000000000E-02	5.3125000000000E-01
1.7578100000000E-04	3.1250000000000E-02	5.4687500000000E-01
1.7578100000000E-04	3.1250000000000E-02	5.6250000000000E-01
1.7578100000000E-04	3.1250000000000E-02	5.7812500000000E-01
1.7578100000000E-04	3.1250000000000E-02	5.9375000000000E-01
1.7578100000000E-04	3.1250000000000E-02	6.0937500000000E-01
1.7578100000000E-04	3.1250000000000E-02	6.2500000000000E-01
2.2801800000000E-02	4.5503600000000E-02	6.4062500000000E-01
1.9122000000000E-01	1.9270300000000E-01	6.5625000000000E-01
2.5732900000000E-01	2.5780500000000E-01	6.7187500000000E-01
3.0745500000000E-01	3.0765500000000E-01	6.8750000000000E-01
3.5092900000000E-01	3.5102400000000E-01	7.0312500000000E-01
3.9083800000000E-01	3.9088600000000E-01	7.1875000000000E-01
4.2858600000000E-01	4.2861100000000E-01	7.3437500000000E-01
4.6492700000000E-01	4.6494000000000E-01	7.5000000000000E-01
5.0030700000000E-01	5.0031400000000E-01	7.6562500000000E-01
5.3501200000000E-01	5.3501600000000E-01	7.8125000000000E-01
5.6923200000000E-01	5.6923400000000E-01	7.9687500000000E-01
6.0309800000000E-01	6.0309900000000E-01	8.1250000000000E-01
6.3670300000000E-01	6.3670300000000E-01	8.2812500000000E-01
6.7011300000000E-01	6.7011300000000E-01	8.4375000000000E-01
7.0337800000000E-01	7.0337800000000E-01	8.5937500000000E-01
7.3653300000000E-01	7.3653300000000E-01	8.7500000000000E-01
7.6960600000000E-01	7.6960600000000E-01	8.9062500000000E-01
8.0261700000000E-01	8.0261700000000E-01	9.0625000000000E-01
8.3558000000000E-01	8.3558000000000E-01	9.2187500000000E-01
8.6850700000000E-01	8.6850700000000E-01	9.3750000000000E-01
9.0140700000000E-01	9.0140700000000E-01	9.5312500000000E-01
9.3428600000000E-01	9.3428600000000E-01	9.6875000000000E-01
9.6714900000000E-01	9.6714900000000E-01	9.8437500000000E-01
1.0000000000000E+00	1.0000000000000E+00	1.0000000000000E+00
1.7578100000000E-04	4.6875000000000E-02	1.7578100000000E-04
1.7578100000000E-04	4.6875000000000E-02	1.5625000000000E-02
1.7578100000000E-04	4.6875000000000E-02	3.1250000000000E-02
1.7578100000000E-04	4.6875000000000E-02	4.6875000000000E-02
1.7578100000000E-04	4.6875000000000E-02	6.2500000000000E-02
1.7578100000000E-04	4.6875000000000E-02	7.8125000000000E-02
1.7578100000000E-04	4.6875000000000E-02	9.3750000000000E-02
1.7578100000000E-04	4.6875000000000E-02	1.0937500000000E-01
1.7578100000000E-04	4.6875000000000E-02	1.2500000000000E-01
1.7578100000000E-04	4.6875000000000E-02	1.4062500000000E-01
1.7578100000000E-04	4.6875000000000E-02	1.5625000000000E-01
1.7578100000000E-04	4.6875000000000E-02	1.7187500000000E-01
1.7578100000000E-04	4.6875000000000E-02	1.8750000000000E-01
1.7578100000000E-04	4.6875000000000E-02	2.0312500000000E-01
1.7578100000000E-04	4.6875000000000E-02	2.1875000000000E-01
1.7578100000000E-04	4.6875000000000E-02	2.3437500000000E-01
1.7578100000000E-04	4.6875000000000E-02	2.5000000000000E-01
1.7578100000000E-04	4.6875000000000E-02	2.6562500000000E-01
1.7578100000000E-04	4.6875000000000E-02	2.8125000000000E-01
1.7578100000000E-04	4.6875000000000E-02	2.9687500000000E-01
1.7578100000000E-04	4.6875000000000E-02	3.1250000000000E-01
1.7578100000000E-04	4.6875000000000E-02	3.2812500000000E-01
1.7578100000000E-04	4.6875000000000E-02	3.4375000000000E-01
1.7578100000000E-04	4.6875000000000E-02	3.5937500000000E-01
1.7578100000000E-04	4.6875000000000E-02	3.7500000000000E-01
1.7578100000000E-04	4.6875000000000E-02	3.9062500000000E-01
1.7578100000000E-04	4.6875000000000E-02	4.0625000000000E-01
1.7578100000000E-04	4.6875000000000E-02	4.2187500000000E-01
1.7578100000000E-04	4.6875000000000E-02	4.3750000000000E-01
1.7578100000000E-04	4.6875000000000E-02	4.5312500000000E-01
1.7578100000000E-04	4.6875000000000E-02	4.6875000000000E-01
1.7578100000000E-04	4.6875000000000E-02	4.8437500000000E-01
1.7578100000000E-04	4.6875000000000E-02	5.0000000000000E-01
1.7578100000000E-04	4.6875000000000E-02	5.1562500000000E-01
1.7578100000000E-04	4.6875000000000E-02	5.3125000000000E-01
1.7578100000000E-04	4.6875000000000E-02	5.4687500000000E-01
1.7578100000000E-04	4.6875000000000E-02	5.6250000000000E-01
1.7578100000000E-04	4.6875000000000E-02	5.7812500000000E-01
1.7578100000000E-04	4.6875000000000E-02	5.9375000000000E-01
1.7578100000000E-04	4.6875000000000E-02	6.0937500000000E-01
1.7578100000000E-04	4.6875000000000E-02	6.2500000000000E-01
2.2801800000000E-02	5.8052200000000E-02	6.4062500000000E-01
1.9122000000000E-01	1.9378600000000E-01	6.5625000000000E-01
2.5732900000000E-01	2.5815800000000E-01	6.7187500000000E-01
3.0745500000000E-01	3.0780400000000E-01	6.8750000000000E-01
3.5092900000000E-01	3.5109400000000E-01	7.0312500000000E-01
3.9083800000000E-01	3.9092100000000E-01	7.1875000000000E-01
4.2858600000000E-01	4.2862900000000E-01	7.3437500000000E-01
4.6492700000000E-01	4.6494900000000E-01	7.5000000000000E-01
5.0030700000000E-01	5.0031900000000E-01	7.6562500000000E-01
5.3501200000000E-01	5.3501900000000E-01	7.8125000000000E-01
5.6923200000000E-01	5.6923500000000E-01	7.9687500000000E-01
6.0309800000000E-01	6.0310000000000E-01	8.1250000000000E-01
6.3670300000000E-01	6.3670400000000E-01	8.2812500000000E-01
6.7011300000000E-01	6.7011400000000E-01	8.4375000000000E-01
7.0337800000000E-01	7.0337800000000E-01	8.5937500000000E-01
7.3653300000000E-01	7.3653400000000E-01	8.7500000000000E-01
7.6960600000000E-01	7.6960600000000E-01	8.9062500000000E-01
8.0261700000000E-01	8.0261700000000E-01	9.0625000000000E-01
8.3558000000000E-01	8.3558000000000E-01	9.2187500000000E-01
8.6850700000000E-01	8.6850700000000E-01	9.3750000000000E-01
9.0140700000000E-01	9.0140700000000E-01	9.5312500000000E-01
9.3428600000000E-01	9.3428600000000E-01	9.6875000000000E-01
9.6714900000000E-01	9.6714900000000E-01	9.8437500000000E-01
1.0000000000000E+00	1.0000000000000E+00	1.0000000000000E+00
1.7578100000000E-04	6.2500000000000E-02	1.7578100000000E-04
1.7578100000000E-04	6.2500000000000E-02	1.5625000000000E-02
1.7578100000000E-04	6.2500000000000E-02	3.1250000000000E-02
1.7578100000000E-04	6.2500000000000E-02	4.6875000000000E-02
1.7578100000000E-04	6.2500000000000E-02	6.2500000000000E-02
1.7578100000000E-04	6.2500000000000E-02	7.8125000000000E-02
1.7578100000000E-04	6.2500000000000E-02	9.3750000000000E-02
1.7578100000000E-04	6.2500000000000E-02	1.0937500000000E-01
1.7578100000000E-04	6.2500000000000E-02	1.2500000000000E-01
1.7578100000000E-04	6.2500000000000E-02	1.4062500000000E-01
1.7578100000000E-04	6.2500000000000E-02	1.5625000000000E-01
1.7578100000000E-04	6.2500000000000E-02	1.7187500000000E-01
1.7578100000000E-04	6.2500000000000E-02	1.8750000000000E-01
1.7578100000000E-04	6.2500000000000E-02	2.0312500000000E-01
1.7578100000000E-04	6.2500000000000E-02	2.1875000000000E-01
1.7578100000000E-04	6.2500000000000E-02	2.3437500000000E-01
1.7578100000000E-04	6.2500000000000E-02	2.5000000000000E-01
1.7578100000000E-04	6.2500000000000E-02	2.6562500000000E-01
1.7578100000000E-04	6.2500000000000E-02	2.8125000000000E-01
1.7578100000000E-04	6.2500000000000E-02	2.9687500000000E-01
1.7578100000000E-04	6.2500000000000E-02	3.1250000000000E-01
1.7578100000000E-04	6.2500000000000E-02	3.2812500000000E-01
1.7578100000000E-04	6.2500000000000E-02	3.4375000000000E-01
1.7578100000000E-04	6.2500000000000E-02	3.5937500000000E-01
1.7578100000000E-04	6.2500000000000E-02	3.7500000000000E-01
1.7578100000000E-04	6.2500000000000E-02	3.9062500000000E-01
1.7578100000000E-04	6.2500000000000E-02	4.0625000000000E-01
1.7578100000000E-04	6.2500000000000E-02	4.2187500000000E-01
1.7578100000000E-04	6.2500000000000E-02	4.3750000000000E-01
1.7578100000000E-04	6.2500000000000E-02	4.5312500000000E-01
1.7578100000000E-04	6.2500000000000E-02	4.6875000000000E-01
1.7578100000000E-04	6.2500000000000E-02	4.8437500000000E-01
1.7578100000000E-04	6.2500000000000E-02	5.0000000000000E-01
1.7578100000000E-04	6.2500000000000E-02	5.1562500000000E-01
1.7578100000000E-04	6.2500000000000E-02	5.3125000000000E-01
1.7578100000000E-04	6.2500000000000E-02	5.4687500000000E-01
1.7578100000000E-04	6.2500000000000E-02	5.6250000000000E-01
1.7578100000000E-04	6.2500000000000E-02	5.7812500000000E-01
1.7578100000000E-04	6.2500000000000E-02	5.9375000000000E-01
1.7578100000000E-04	6.2500000000000E-02	6.0937500000000E-01
1.7578100000000E-04	6.2500000000000E-02	6.2500000000000E-01
2.2801800000000E-02	7.1215100000000E-02	6.4062500000000E-01
1.9122000000000E-01	1.9517500000000E-01	6.5625000000000E-01
2.5732900000000E-01	2.5861700000000E-01	6.7187500000000E-01
3.0745500000000E-01	3.0799900000000E-01	6.8750000000000E-01
3.5092900000000E-01	3.5118600000000E-01	7.0312500000000E-01
3.9083800000000E-01	3.9096700000000E-01	7.1875000000000E-01
4.2858600000000E-01	4.2865300000000E-01	7.3437500000000E-01
4.6492700000000E-01	4.6496200000000E-01	7.5000000000000E-01
5.0030700000000E-01	5.0032600000000E-01	7.6562500000000E-01
5.3501200000000E-01	5.3502200000000E-01	7.8125000000000E-01
5.6923200000000E-01	5.6923800000000E-01	7.9687500000000E-01
6.0309800000000E-01	6.0310100000000E-01	8.1250000000000E-01
6.3670300000000E-01	6.3670400000000E-01	8.2812500000000E-01
6.7011300000000E-01	6.7011400000000E-01	8.4375000000000E-01
7.0337800000000E-01	7.0337800000000E-01	8.5937500000000E-01
7.3653300000000E-01	7.3653400000000E-01	8.7500000000000E-01
7.6960600000000E-01	7.6960600000000E-01	8.9062500000000E-01
8.0261700000000E-01	8.0261700000000E-01	9.0625000000000E-01
8.3558000000000E-01	8.3558000000000E-01	9.2187500000000E-01
8.6850700000000E-01	8.6850700000000E-01	9.3750000000000E-01
9.0140700000000E-01	9.0140700000000E-01	9.5312500000000E-01
9.3428600000000E-01	9.3428600000000E-01	9.6875000000000E-01
9.6714900000000E-01	9.6714900000000E-01	9.8437500000000E-01
1.0000000000000E+00	1.0000000000000E+00	1.0000000000000E+00
1.7578100000000E-04	7.8125000000000E-02	1.7578100000000E-04
1.7578100000000E-04	7.8125000000000E-02	1.5625000000000E-02
1.7578100000000E-04	7.8125000000000E-02	3.1250000000000E-02
1.7578100000000E-04	7.8125000000000E-02	4.6875000000000E-02
1.7578100000000E-04	7.8125000000000E-02	6.2500000000000E-02
1.7578100000000E-04	7.8125000000000E-02	7.8125000000000E-02
1.7578100000000E-04	7.8125000000000E-02	9.3750000000000E-02
1.7578100000000E-04	7.8125000000000E-02	1.0937500000000E-01
1.7578100000000E-04	7.8125000000000E-02	1.2500000000000E-01
1.7578100000000E-04	7.8125000000000E-02	1.4062500000000E-01
1.7578100000000E-04	7.8125000000000E-02	1.5625000000000E-01
1.7578100000000E-04	7.8125000000000E-02	1.7187500000000E-01
1.7578100000000E-04	7.8125000000000E-02	1.8750000000000E-01
1.7578100000000E-04	7.8125000000000E-02	2.0312500000000E-01
1.7578100000000E-04	7.8125000000000E-02	2.1875000000000E-01
1.7578100000000E-04	7.8125000000000E-02	2.3437500000000E-01
1.7578100000000E-04	7.8125000000000E-02	2.5000000000000E-01
1.7578100000000E-04	7.8125000000000E-02	2.6562500000000E-01
1.7578100000000E-04	7.8125000000000E-02	2.8125000000000E-01
1.7578100000000E-04	7.8125000000000E-02	2.9687500000000E-01
1.7578100000000E-04	7.8125000000000E-02	3.1250000000000E-01
1.7578100000000E-04	7.8125000000000E-02	3.2812500000000E-01
1.7578100000000E-04	7.8125000000000E-02	3.4375000000000E-01
1.7578100000000E-04	7.8125000000000E-02	3.5937500000000E-01
1.7578100000000E-04	7.8125000000000E-02	3.7500000000000E-01
1.7578100000000E-04	7.8125000000000E-02	3.9062500000000E-01
1.7578100000000E-04	7.8125000000000E-02	4.0625000000000E-01
1.7578100000000E-04	7.8125000000000E-02	4.2187500000000E-01
1.7578100000000E-04	7.8125000000000E-02	4.3750000000000E-01
1.7578100000000E-04	7.8125000000000E-02	4.5312500000000E-01
1.7578100000000E-04	7.8125000000000E-02	4.6875000000000E-01
1.7578100000000E-04	7.8125000000000E-02	4.8437500000000E-01
1.7578100000000E-04	7.8125000000000E-02	5.0000000000000E-01
1.7578100000000E-04	7.8125000000000E-02	5.1562500000000E-01
1.7578100000000E-04	7.8125000000000E-02	5.3125000000000E-01
1.7578100000000E-04	7.8125000000000E-02	5.4687500000000E-01
1.7578100000000E-04	7.8125000000000E-02	5.6250000000000E-01
1.7578100000000E-04	7.8125000000000E-02	5.7812500000000E-01
1.7578100000000E-04	7.8125000000000E-02	5.9375000000000E-01
1.7578100000000E-04	7.8125000000000E-02	6.0937500000000E-01
1.7578100000000E-04	7.8125000000000E-02	6.2500000000000E-01
2.2801800000000E-02	8.4888600000000E-02	6.4062500000000E-01
1.9122000000000E-01	1.9694800000000E-01	6.5625000000000E-01
2.5732900000000E-01	2.5921300000000E-01	6.7187500000000E-01
3.0745500000000E-01	3.0825300000000E-01	6.8750000000000E-01
3.5092900000000E-01	3.5130600000000E-01	7.0312500000000E-01
3.9083800000000E-01	3.9102700000000E-01	7.1875000000000E-01
4.2858600000000E-01	4.2868400000000E-01	7.3437500000000E-01
4.6492700000000E-01	4.6497900000000E-01	7.5000000000000E-01
5.0030700000000E-01	5.0033500000000E-01	7.6562500000000E-01
5.3501200000000E-01	5.3502700000000E-01	7.8125000000000E-01
5.6923200000000E-01	5.6924000000000E-01	7.9687500000000E-01
6.0309800000000E-01	6.0310200000000E-01	8.1250000000000E-01
6.3670300000000E-01	6.3670500000000E-01	8.2812500000000E-01
6.7011300000000E-01	6.7011400000000E-01	8.4375000000000E-01
7.0337800000000E-01	7.0337900000000E-01	8.5937500000000E-01
7.3653300000000E-01	7.3653400000000E-01	8.7500000000000E-01
7.6960600000000E-01	7.6960600000000E-01	8.9062500000000E-01
8.0261700000000E-01	8.0261700000000E-01	9.0625000000000E-01
8.3558000000000E-01	8.3558000000000E-01	9.2187500000000E-01
8.6850700000000E-01	8.6850700000000E-01	9.3750000000000E-01
9.0140700000000E-01	9.0140700000000E-01	9.5312500000000E-01
9.3428600000000E-01	9.3428600000000E-01	9.6875000000000E-01
9.6714900000000E-01	9.6714900000000E-01	9.8437500000000E-01
1.0000000000000E+00	1.0000000000000E+00	1.0000000000000E+00
1.7578100000000E-04	9.3750000000000E-02	1.7578100000000E-04
1.7578100000000E-04	9.3750000000000E-02	1.5625000000000E-02
1.7578100000000E-04	9.3750000000000E-02	3.1250000000000E-02
1.7578100000000E-04	9.3750000000000E-02	4.6875000000000E-02
1.7578100000000E-04	9.3750000000000E-02	6.2500000000000E-02
1.7578100000000E-04	9.3750000000000E-02	7.8125000000000E-02
1.7578100000000E-04	9.3750000000000E-02	9.3750000000000E-02
1.7578100000000E-04	9.3750000000000E-02	1.0937500000000E-01
